jiaqis7/OS_Teleop_Extension/demo_4/teleop_log.csv
Epoch Time (Seconds),Time (Seconds),Frame Number,PSM1_joint_1,PSM1_joint_2,PSM1_joint_3,PSM1_joint_4,PSM1_joint_5,PSM1_joint_6,PSM1_jaw_angle,PSM1_ee_x,PSM1_ee_y,PSM1_ee_z,"PSM1_Orientation_Matrix_[1,1]","PSM1_Orientation_Matrix_[1,2]","PSM1_Orientation_Matrix_[1,3]","PSM1_Orientation_Matrix_[2,1]","PSM1_Orientation_Matrix_[2,2]","PSM1_Orientation_Matrix_[2,3]","PSM1_Orientation_Matrix_[3,1]","PSM1_Orientation_Matrix_[3,2]","PSM1_Orientation_Matrix_[3,3]",PSM2_joint_1,PSM2_joint_2,PSM2_joint_3,PSM2_joint_4,PSM2_joint_5,PSM2_joint_6,PSM2_jaw_angle,PSM2_ee_x,PSM2_ee_y,PSM2_ee_z,"PSM2_Orientation_Matrix_[1,1]","PSM2_Orientation_Matrix_[1,2]","PSM2_Orientation_Matrix_[1,3]","PSM2_Orientation_Matrix_[2,1]","PSM2_Orientation_Matrix_[2,2]","PSM2_Orientation_Matrix_[2,3]","PSM2_Orientation_Matrix_[3,1]","PSM2_Orientation_Matrix_[3,2]","PSM2_Orientation_Matrix_[3,3]",PSM3_joint_1,PSM3_joint_2,PSM3_joint_3,PSM3_joint_4,PSM3_joint_5,PSM3_joint_6,PSM3_jaw_angle,PSM3_ee_x,PSM3_ee_y,PSM3_ee_z,"PSM3_Orientation_Matrix_[1,1]","PSM3_Orientation_Matrix_[1,2]","PSM3_Orientation_Matrix_[1,3]","PSM3_Orientation_Matrix_[2,1]","PSM3_Orientation_Matrix_[2,2]","PSM3_Orientation_Matrix_[2,3]","PSM3_Orientation_Matrix_[3,1]","PSM3_Orientation_Matrix_[3,2]","PSM3_Orientation_Matrix_[3,3]",Camera Left,Camera Right
2025-06-27 14:56:18,0.002005338668823242,1,-0.034323033,-0.00027722013,0.11403818,-0.0006770377,0.00029391842,-0.027665228,1.0471791,0.057907,2.6674985e-05,0.0020310185,0.8332775559910459,-0.0005828499023996174,0.552854569455278,0.0006760356510181948,0.9999997708642746,3.5315677726716445e-05,-0.5528544633602845,0.0003443216371557969,0.8332777590847018,0.07067476,0.0005316721,0.11086674,0.0007745121,1.3827993e-05,-0.015311871,1.047179,-0.056456983,-6.065812e-05,0.006754796,0.8369215009917657,0.0009470121104326741,-0.5473221211916733,-0.0007828446897893154,0.9999995514258969,0.0005331999594137706,0.5473223806239625,-1.7778294182195834e-05,0.8369218669338558,0.0026657255,0.019344743,0.09063903,-0.00016294567,-0.012031062,-0.006226944,0.5235896,0.00019111253,-0.011352362,0.0023486614,0.9999936400418761,-0.00014323904631166856,0.0035636159128948305,0.0010357560162236078,0.9677929595718953,-0.2517453368238365,-0.0034127826291579333,0.25174742677065765,0.9677869528099037,left_images/camera_left_1.png,right_images/camera_right_1.png
2025-06-27 14:56:18,0.05760383605957031,2,-0.034323033,-0.00027722013,0.11403818,-0.0006770383,0.00029392366,-0.027665228,1.0471791,0.057907,2.6674985e-05,0.0020310185,0.8332775559910459,-0.0005828499023996174,0.552854569455278,0.0006760356510181948,0.9999997708642746,3.5315677726716445e-05,-0.5528544633602845,0.0003443216371557969,0.8332777590847018,0.07067476,0.0005316683,0.11086674,0.00077449245,1.3851126e-05,-0.015311871,1.047179,-0.056456983,-6.065812e-05,0.006754796,0.8369215009917657,0.0009470121104326741,-0.5473221211916733,-0.0007828446897893154,0.9999995514258969,0.0005331999594137706,0.5473223806239625,-1.7778294182195834e-05,0.8369218669338558,0.0026657255,0.019344743,0.09063903,-0.00016294567,-0.012031062,-0.006226944,0.5235896,0.00019111253,-0.011352362,0.0023486614,0.9999936400418761,-0.00014323904631166856,0.0035636159128948305,0.0010357560162236078,0.9677929595718953,-0.2517453368238365,-0.0034127826291579333,0.25174742677065765,0.9677869528099037,left_images/camera_left_2.png,right_images/camera_right_2.png
2025-06-27 14:56:18,0.11052799224853516,3,-0.034323033,-0.00027722013,0.11403818,-0.00067703886,0.0002939289,-0.027665228,1.0471791,0.057907,2.6674985e-05,0.0020310185,0.8332775559910459,-0.0005828499023996174,0.552854569455278,0.0006760356510181948,0.9999997708642746,3.5315677726716445e-05,-0.5528544633602845,0.0003443216371557969,0.8332777590847018,0.07067476,0.0005316632,0.11086674,0.00077449135,1.3828201e-05,-0.015311871,1.047179,-0.056456983,-6.065812e-05,0.006754796,0.8369215009917657,0.0009470121104326741,-0.5473221211916733,-0.0007828446897893154,0.9999995514258969,0.0005331999594137706,0.5473223806239625,-1.7778294182195834e-05,0.8369218669338558,0.0026657255,0.019344743,0.09063903,-0.00016294567,-0.012031062,-0.006226944,0.5235896,0.00019111253,-0.011352362,0.0023486614,0.9999936400418761,-0.00014323904631166856,0.0035636159128948305,0.0010357560162236078,0.9677929595718953,-0.2517453368238365,-0.0034127826291579333,0.25174742677065765,0.9677869528099037,left_images/camera_left_3.png,right_images/camera_right_3.png
2025-06-27 14:56:18,0.17559146881103516,4,-0.034323033,-0.00027722013,0.11403818,-0.00067703944,0.00029393414,-0.027665228,1.0471791,0.057907,2.6674985e-05,0.0020310185,0.8332775559910459,-0.0005828499023996174,0.552854569455278,0.0006760356510181948,0.9999997708642746,3.5315677726716445e-05,-0.5528544633602845,0.0003443216371557969,0.8332777590847018,0.07067476,0.0005316594,0.11086674,0.0007744717,1.3851334e-05,-0.015311871,1.047179,-0.056456983,-6.0627863e-05,0.006754796,0.8369214701565261,0.0009465780927495502,-0.5473221690932626,-0.0007822963203302736,0.9999995518307534,0.0005332454968835264,0.5473224285588036,-1.8116486289265082e-05,0.83692183557862,0.0026657255,0.019344743,0.09063903,-0.00016294567,-0.012031062,-0.006226944,0.5235896,0.00019111253,-0.011352362,0.0023486614,0.9999936400418761,-0.00014323904631166856,0.0035636159128948305,0.0010357560162236078,0.9677929595718953,-0.2517453368238365,-0.0034127826291579333,0.25174742677065765,0.9677869528099037,left_images/camera_left_4.png,right_images/camera_right_4.png
2025-06-27 14:56:18,0.2395005226135254,5,-0.034323033,-0.00027722013,0.11403818,-0.00067704,0.00029393937,-0.027665228,1.0471791,0.057907,2.6674985e-05,0.0020310185,0.8332775559910459,-0.0005828499023996174,0.552854569455278,0.0006760356510181948,0.9999997708642746,3.5315677726716445e-05,-0.5528544633602845,0.0003443216371557969,0.8332777590847018,0.07067476,0.00053161895,0.11086674,0.0007743974,1.3913218e-05,-0.015311899,1.047179,-0.056456987,-6.0634622e-05,0.006754796,0.8369215326079303,0.0009467747764774632,-0.5473220732573423,-0.0007822983982689158,0.9999995516391312,0.0005336016795497182,0.5473223330601529,-1.8413554204474848e-05,0.8369218980254561,0.0026657255,0.019344743,0.09063903,-0.00016294567,-0.012031062,-0.006226944,0.5235896,0.00019111253,-0.011352362,0.0023486614,0.9999936400418761,-0.00014323904631166856,0.0035636159128948305,0.0010357560162236078,0.9677929595718953,-0.2517453368238365,-0.0034127826291579333,0.25174742677065765,0.9677869528099037,left_images/camera_left_5.png,right_images/camera_right_5.png
2025-06-27 14:56:18,0.30287766456604004,6,-0.034323033,-0.00027722013,0.11403818,-0.0006770406,0.0002939446,-0.027665228,1.0471791,0.057907,2.6674985e-05,0.0020310185,0.8332775559910459,-0.0005828499023996174,0.552854569455278,0.0006760356510181948,0.9999997708642746,3.5315677726716445e-05,-0.5528544633602845,0.0003443216371557969,0.8332777590847018,0.07067476,0.00053161493,0.11086674,0.00077440863,1.3899961e-05,-0.015311955,1.047179,-0.056456987,-6.0634622e-05,0.006754796,0.8369215326079303,0.0009467747764774632,-0.5473220732573423,-0.0007822983982689158,0.9999995516391312,0.0005336016795497182,0.5473223330601529,-1.8413554204474848e-05,0.8369218980254561,0.0026657255,0.019344743,0.09063903,-0.00016294567,-0.012031062,-0.006226944,0.5235896,0.00019111253,-0.011352362,0.0023486614,0.9999936400418761,-0.00014323904631166856,0.0035636159128948305,0.0010357560162236078,0.9677929595718953,-0.2517453368238365,-0.0034127826291579333,0.25174742677065765,0.9677869528099037,left_images/camera_left_6.png,right_images/camera_right_6.png
2025-06-27 14:56:18,0.3707551956176758,7,-0.034323033,-0.00027722013,0.11403818,-0.0006770412,0.00029394985,-0.027665228,1.0471791,0.057907,2.6674985e-05,0.0020310185,0.8332775559910459,-0.0005828499023996174,0.552854569455278,0.0006760356510181948,0.9999997708642746,3.5315677726716445e-05,-0.5528544633602845,0.0003443216371557969,0.8332777590847018,0.07067476,0.0005316184,0.11086674,0.0007744199,1.3886708e-05,-0.01531201,1.047179,-0.056456987,-6.0634622e-05,0.006754796,0.8369215326079303,0.0009467747764774632,-0.5473220732573423,-0.0007822983982689158,0.9999995516391312,0.0005336016795497182,0.5473223330601529,-1.8413554204474848e-05,0.8369218980254561,0.0026657255,0.019344743,0.09063903,-0.00016294567,-0.012031062,-0.006226944,0.5235896,0.00019111253,-0.011352362,0.0023486614,0.9999936400418761,-0.00014323904631166856,0.0035636159128948305,0.0010357560162236078,0.9677929595718953,-0.2517453368238365,-0.0034127826291579333,0.25174742677065765,0.9677869528099037,left_images/camera_left_7.png,right_images/camera_right_7.png
2025-06-27 14:56:18,0.42275571823120117,8,-0.034323033,-0.00027722013,0.11403818,-0.00067704177,0.0002939551,-0.027665228,1.0471791,0.057907,2.6674985e-05,0.0020310185,0.8332775559910459,-0.0005828499023996174,0.552854569455278,0.0006760356510181948,0.9999997708642746,3.5315677726716445e-05,-0.5528544633602845,0.0003443216371557969,0.8332777590847018,0.07067476,0.0005316219,0.11086674,0.0007744312,1.3873455e-05,-0.015312066,1.047179,-0.056456987,-6.0634622e-05,0.006754796,0.8369215326079303,0.0009467747764774632,-0.5473220732573423,-0.0007822983982689158,0.9999995516391312,0.0005336016795497182,0.5473223330601529,-1.8413554204474848e-05,0.8369218980254561,0.0026657255,0.019344743,0.09063903,-0.00016294567,-0.012031062,-0.006226944,0.5235896,0.00019111253,-0.011352362,0.0023486614,0.9999936400418761,-0.00014323904631166856,0.0035636159128948305,0.0010357560162236078,0.9677929595718953,-0.2517453368238365,-0.0034127826291579333,0.25174742677065765,0.9677869528099037,left_images/camera_left_8.png,right_images/camera_right_8.png
2025-06-27 14:56:18,0.48267292976379395,9,-0.034323033,-0.00027722013,0.11403818,-0.00067704235,0.00029396033,-0.027665228,1.0471791,0.057907,2.6674985e-05,0.0020310185,0.8332775559910459,-0.0005828499023996174,0.552854569455278,0.0006760356510181948,0.9999997708642746,3.5315677726716445e-05,-0.5528544633602845,0.0003443216371557969,0.8332777590847018,0.07067476,0.0005316254,0.11086674,0.0007744425,1.3860202e-05,-0.015312122,1.047179,-0.05645699,-6.063506e-05,0.0067547923,0.8369217887254047,0.0009467712701015177,-0.5473216816286662,-0.0007822950134196032,0.9999995516424275,0.000533600464718104,0.5473219414304354,-1.841483312204549e-05,0.8369221541396266,0.0026657255,0.019344743,0.09063903,-0.00016294567,-0.012031062,-0.006226944,0.5235896,0.00019111253,-0.011352362,0.0023486614,0.9999936400418761,-0.00014323904631166856,0.0035636159128948305,0.0010357560162236078,0.9677929595718953,-0.2517453368238365,-0.0034127826291579333,0.25174742677065765,0.9677869528099037,left_images/camera_left_9.png,right_images/camera_right_9.png
2025-06-27 14:56:18,0.5310461521148682,10,-0.034323033,-0.00027722013,0.11403818,-0.00067704293,0.00029396557,-0.027665228,1.0471791,0.057907,2.6674985e-05,0.0020310185,0.8332775559910459,-0.0005828499023996174,0.552854569455278,0.0006760356510181948,0.9999997708642746,3.5315677726716445e-05,-0.5528544633602845,0.0003443216371557969,0.8332777590847018,0.07067476,0.00053162617,0.11086674,0.00077446725,1.3914937e-05,-0.015312206,1.047179,-0.05645699,-6.063506e-05,0.0067547923,0.8369217887254047,0.0009467712701015177,-0.5473216816286662,-0.0007822950134196032,0.9999995516424275,0.000533600464718104,0.5473219414304354,-1.841483312204549e-05,0.8369221541396266,0.0026657255,0.019344743,0.09063903,-0.00016294567,-0.012031062,-0.006226944,0.5235896,0.00019111253,-0.011352362,0.0023486614,0.9999936400418761,-0.00014323904631166856,0.0035636159128948305,0.0010357560162236078,0.9677929595718953,-0.2517453368238365,-0.0034127826291579333,0.25174742677065765,0.9677869528099037,left_images/camera_left_10.png,right_images/camera_right_10.png
2025-06-27 14:56:18,0.584686279296875,11,-0.034323033,-0.00027722013,0.11403818,-0.0006770435,0.0002939708,-0.027665228,1.0471791,0.057907,2.6674985e-05,0.0020310185,0.8332775559910459,-0.0005828499023996174,0.552854569455278,0.0006760356510181948,0.9999997708642746,3.5315677726716445e-05,-0.5528544633602845,0.0003443216371557969,0.8332777590847018,0.07067476,0.00053158565,0.11086674,0.00077441207,1.3978385e-05,-0.015312262,1.047179,-0.05645699,-6.063506e-05,0.0067547923,0.8369217887254047,0.0009467712701015177,-0.5473216816286662,-0.0007822950134196032,0.9999995516424275,0.000533600464718104,0.5473219414304354,-1.841483312204549e-05,0.8369221541396266,0.0026657255,0.019344743,0.09063903,-0.00016294567,-0.012031062,-0.006226944,0.5235896,0.00019111253,-0.011352362,0.0023486614,0.9999936400418761,-0.00014323904631166856,0.0035636159128948305,0.0010357560162236078,0.9677929595718953,-0.2517453368238365,-0.0034127826291579333,0.25174742677065765,0.9677869528099037,left_images/camera_left_11.png,right_images/camera_right_11.png
2025-06-27 14:56:18,0.6377944946289062,12,-0.034323033,-0.00027722013,0.11403818,-0.0006770441,0.00029397605,-0.027665228,1.0471791,0.057907,2.6674985e-05,0.0020310185,0.8332775559910459,-0.0005828499023996174,0.552854569455278,0.0006760356510181948,0.9999997708642746,3.5315677726716445e-05,-0.5528544633602845,0.0003443216371557969,0.8332777590847018,0.07067476,0.0005315807,0.11086674,0.0007744555,1.3967626e-05,-0.015312318,1.047179,-0.05645699,-6.063506e-05,0.0067547923,0.8369217887254047,0.0009467712701015177,-0.5473216816286662,-0.0007822950134196032,0.9999995516424275,0.000533600464718104,0.5473219414304354,-1.841483312204549e-05,0.8369221541396266,0.0026657255,0.019344743,0.09063903,-0.00016294567,-0.012031062,-0.006226944,0.5235896,0.00019111253,-0.011352362,0.0023486614,0.9999936400418761,-0.00014323904631166856,0.0035636159128948305,0.0010357560162236078,0.9677929595718953,-0.2517453368238365,-0.0034127826291579333,0.25174742677065765,0.9677869528099037,left_images/camera_left_12.png,right_images/camera_right_12.png
2025-06-27 14:56:18,0.6891961097717285,13,-0.034323033,-0.00027722013,0.11403818,-0.0006770447,0.00029398128,-0.027665228,1.0471791,0.057907,2.6674985e-05,0.0020310185,0.8332775559910459,-0.0005828499023996174,0.552854569455278,0.0006760356510181948,0.9999997708642746,3.5315677726716445e-05,-0.5528544633602845,0.0003443216371557969,0.8332777590847018,0.07067476,0.0005315807,0.11086674,0.0007744989,1.3956872e-05,-0.015312374,1.047179,-0.05645699,-6.066527e-05,0.006754794,0.8369218010550287,0.0009470855993235806,-0.5473216622313374,-0.0007826774353310547,0.9999995513487714,0.0005335899997077522,0.547321922030206,-1.819678868401122e-05,0.8369221668315625,0.0026657255,0.019344743,0.09063897,-0.00016293119,-0.012031062,-0.0062269443,0.4969216,0.00019111393,-0.011352377,0.002348721,0.9999936400418761,-0.00014323904631166856,0.0035636159128948305,0.0010357560162236078,0.9677929595718953,-0.2517453368238365,-0.0034127826291579333,0.25174742677065765,0.9677869528099037,left_images/camera_left_13.png,right_images/camera_right_13.png
2025-06-27 14:56:18,0.7550365924835205,14,-0.034323033,-0.00027722013,0.11403818,-0.00067704526,0.00029398652,-0.027665228,1.0471791,0.057907,2.6674985e-05,0.0020310185,0.8332775559910459,-0.0005828499023996174,0.552854569455278,0.0006760356510181948,0.9999997708642746,3.5315677726716445e-05,-0.5528544633602845,0.0003443216371557969,0.8332777590847018,0.07067476,0.00053157116,0.11086674,0.00077447726,1.4019104e-05,-0.0153124295,1.047179,-0.05645699,-6.063506e-05,0.0067547923,0.8369217887254047,0.0009467712701015177,-0.5473216816286662,-0.0007822950134196032,0.9999995516424275,0.000533600464718104,0.5473219414304354,-1.841483312204549e-05,0.8369221541396266,0.0026657255,0.019344743,0.09063897,-0.00016293116,-0.012031062,-0.0062269443,0.47025508,0.00019111393,-0.011352377,0.002348721,0.9999936400418761,-0.00014323904631166856,0.0035636159128948305,0.0010357560162236078,0.9677929595718953,-0.2517453368238365,-0.0034127826291579333,0.25174742677065765,0.9677869528099037,left_images/camera_left_14.png,right_images/camera_right_14.png
2025-06-27 14:56:18,0.8103423118591309,15,-0.034323033,-0.00027721934,0.11403818,-0.0006770473,0.0002939077,-0.027665228,1.0471791,0.057907,2.6674985e-05,0.0020310185,0.8332775559910459,-0.0005828499023996174,0.552854569455278,0.0006760356510181948,0.9999997708642746,3.5315677726716445e-05,-0.5528544633602845,0.0003443216371557969,0.8332777590847018,0.07067476,0.00053153065,0.11086674,0.0007744221,1.4082545e-05,-0.015312485,1.047179,-0.05645699,-6.0633494e-05,0.006754795,0.8369219577377619,0.0009466697108542738,-0.5473214233636852,-0.0007822616186331654,0.9999995517403019,0.0005334659830715271,0.5473216830376371,-1.832085238563793e-05,0.8369223231227582,0.0026657255,0.019344743,0.09063897,-0.00016293113,-0.012031062,-0.0062269443,0.44358855,0.00019111393,-0.011352377,0.002348721,0.9999936400418761,-0.00014323904631166856,0.0035636159128948305,0.0010357560162236078,0.9677929595718953,-0.2517453368238365,-0.0034127826291579333,0.25174742677065765,0.9677869528099037,left_images/camera_left_15.png,right_images/camera_right_15.png
2025-06-27 14:56:18,0.8606507778167725,16,-0.034323033,-0.00027721934,0.11403818,-0.0006770478,0.00029391292,-0.027665228,1.0471791,0.057907,2.6674985e-05,0.0020310185,0.8332775559910459,-0.0005828499023996174,0.552854569455278,0.0006760356510181948,0.9999997708642746,3.5315677726716445e-05,-0.5528544633602845,0.0003443216371557969,0.8332777590847018,0.07067476,0.0005315206,0.11086674,0.00077440403,1.4105879e-05,-0.015312485,1.047179,-0.05645699,-6.0633494e-05,0.006754795,0.8369219577377619,0.0009466697108542738,-0.5473214233636852,-0.0007822616186331654,0.9999995517403019,0.0005334659830715271,0.5473216830376371,-1.832085238563793e-05,0.8369223231227582,0.0014392715,0.030431874,0.09065513,-0.03186585,-0.07670912,0.011863253,0.41692218,0.00019981596,-0.01120764,0.0024125185,0.999434276769424,-0.0318329545475561,-0.010853083578029752,0.027039962711051465,0.9524378586162595,-0.3035308318623645,0.019999170856898493,0.3030656504443341,0.9527598042979086,left_images/camera_left_16.png,right_images/camera_right_16.png
2025-06-27 14:56:18,0.9188523292541504,17,-0.034323033,-0.00027721934,0.11403818,-0.0006770484,0.00029391816,-0.027665228,1.0471791,0.057907,2.6674985e-05,0.0020310185,0.8332775559910459,-0.0005828499023996174,0.552854569455278,0.0006760356510181948,0.9999997708642746,3.5315677726716445e-05,-0.5528544633602845,0.0003443216371557969,0.8332777590847018,0.07067476,0.0005315171,0.11086674,0.000774386,1.412922e-05,-0.015312485,1.047179,-0.05645699,-6.0633494e-05,0.006754795,0.8369219577377619,0.0009466697108542738,-0.5473214233636852,-0.0007822616186331654,0.9999995517403019,0.0005334659830715271,0.5473216830376371,-1.832085238563793e-05,0.8369223231227582,0.00088742835,0.038627367,0.090661176,-0.054027345,-0.121307686,0.025286706,0.39025486,0.0001975586,-0.011165362,0.0024863053,0.9983659914216674,-0.05367740182829123,-0.019598053617528186,0.04388156309232277,0.9398512431399012,-0.3387536703697201,0.03660267194080028,0.33734015074009,0.9406709664412141,left_images/camera_left_17.png,right_images/camera_right_17.png
2025-06-27 14:56:19,0.9716231822967529,18,-0.034323033,-0.00027721934,0.11403818,-0.000677049,0.0002939234,-0.027665228,1.0471791,0.057907,2.6674985e-05,0.0020310185,0.8332775559910459,-0.0005828499023996174,0.552854569455278,0.0006760356510181948,0.9999997708642746,3.5315677726716445e-05,-0.5528544633602845,0.0003443216371557969,0.8332777590847018,0.07067476,0.0005315136,0.11086674,0.00077436795,1.4152562e-05,-0.015312485,1.047179,-0.05645699,-6.0633494e-05,0.006754795,0.8369219577377619,0.0009466697108542738,-0.5473214233636852,-0.0007822616186331654,0.9999995517403019,0.0005334659830715271,0.5473216830376371,-1.832085238563793e-05,0.8369223231227582,0.0007036746,0.043357316,0.090579264,-0.070469186,-0.15334621,0.036053184,0.3635882,0.00020211132,-0.011053193,0.0026689908,0.997234217622341,-0.06966189495180093,-0.025906284852938194,0.05543027829310081,0.9292974558768494,-0.3651489048993088,0.049511609259917225,0.36270298991397815,0.930588599573385,left_images/camera_left_18.png,right_images/camera_right_18.png
2025-06-27 14:56:19,1.0247883796691895,19,-0.034323033,-0.00027721934,0.11403818,-0.00067704957,0.00029392864,-0.027665228,1.0471791,0.057907,2.6674985e-05,0.0020310185,0.8332775559910459,-0.0005828499023996174,0.552854569455278,0.0006760356510181948,0.9999997708642746,3.5315677726716445e-05,-0.5528544633602845,0.0003443216371557969,0.8332777590847018,0.07067476,0.0005315101,0.11086674,0.0007743499,1.4175903e-05,-0.015312485,1.047179,-0.05645699,-6.0633494e-05,0.006754795,0.8369219577377619,0.0009466697108542738,-0.5473214233636852,-0.0007822616186331654,0.9999995517403019,0.0005334659830715271,0.5473216830376371,-1.832085238563793e-05,0.8369223231227582,0.00072488684,0.043359045,0.09024893,-0.08333664,-0.17723554,0.045093715,0.3369217,0.00021518474,-0.01071196,0.0031607132,0.996148067046728,-0.08203262916259704,-0.03097864218682534,0.06364451175409336,0.9194168740471633,-0.38810048678264464,0.060319189671700614,0.3846339291716404,0.9210962685231847,left_images/camera_left_19.png,right_images/camera_right_19.png
2025-06-27 14:56:19,1.0810167789459229,20,-0.034323033,-0.00027721934,0.11403818,-0.00067705015,0.00029393387,-0.027665228,1.0471791,0.057907,2.6674985e-05,0.0020310185,0.8332775559910459,-0.0005828499023996174,0.552854569455278,0.0006760356510181948,0.9999997708642746,3.5315677726716445e-05,-0.5528544633602845,0.0003443216371557969,0.8332777590847018,0.07067476,0.0005315066,0.11086674,0.00077433186,1.4199244e-05,-0.015312485,1.047179,-0.05645699,-6.0633494e-05,0.006754795,0.8369219577377619,0.0009466697108542738,-0.5473214233636852,-0.0007822616186331654,0.9999995517403019,0.0005334659830715271,0.5473216830376371,-1.832085238563793e-05,0.8369223231227582,0.0008191511,0.038781673,0.089537434,-0.09116828,-0.19784681,0.054645382,0.31025535,0.00025234884,-0.010105101,0.0041189324,0.9952963872153119,-0.0893954892504044,-0.03733025713584889,0.06617293510434609,0.9087842954636329,-0.4119857363772976,0.07075481789831535,0.40757766231768516,0.9104252879417547,left_images/camera_left_20.png,right_images/camera_right_20.png
2025-06-27 14:56:19,1.1392507553100586,21,-0.034323033,-0.00027721934,0.11403818,-0.00067705073,0.0002939391,-0.027665228,1.0471791,0.057907,2.6674985e-05,0.0020310185,0.8332775559910459,-0.0005828499023996174,0.552854569455278,0.0006760356510181948,0.9999997708642746,3.5315677726716445e-05,-0.5528544633602845,0.0003443216371557969,0.8332777590847018,0.07067476,0.0005315031,0.11086674,0.0007743138,1.4222585e-05,-0.015312485,1.047179,-0.05645699,-6.0633494e-05,0.006754795,0.8369219577377619,0.0009466697108542738,-0.5473214233636852,-0.0007822616186331654,0.9999995517403019,0.0005334659830715271,0.5473216830376371,-1.832085238563793e-05,0.8369223231227582,0.0008094327,0.03220728,0.08857899,-0.09172694,-0.21329892,0.06343817,0.2835886,0.00030453515,-0.009477717,0.005336903,0.9949738088509834,-0.08966813772523191,-0.04457291529007275,0.06169318708103391,0.8995347153116938,-0.4324710933887892,0.0788737622302354,0.4275475658052553,0.9005453950832515,left_images/camera_left_21.png,right_images/camera_right_21.png
2025-06-27 14:56:19,1.1881837844848633,22,-0.034323033,-0.00027721934,0.11403818,-0.0006770513,0.00029394435,-0.027665228,1.0471791,0.057907,2.6674985e-05,0.0020310185,0.8332775559910459,-0.0005828499023996174,0.552854569455278,0.0006760356510181948,0.9999997708642746,3.5315677726716445e-05,-0.5528544633602845,0.0003443216371557969,0.8332777590847018,0.07067476,0.0005315013,0.11086674,0.00077431527,1.4162243e-05,-0.015312513,1.047179,-0.05645699,-6.0633494e-05,0.006754795,0.8369219577377619,0.0009466697108542738,-0.5473214233636852,-0.0007822616186331654,0.9999995517403019,0.0005334659830715271,0.5473216830376371,-1.832085238563793e-05,0.8369223231227582,-0.00025636115,0.021564757,0.087213546,-0.08106824,-0.22284935,0.07210952,0.25692213,0.00031608556,-0.008712862,0.007012115,0.9954325956319736,-0.07892555296387198,-0.05370944649443844,0.04638204554453697,0.8915631609851363,-0.45051507835509397,0.08344251556908149,0.44596623982487615,0.8911517601014795,left_images/camera_left_22.png,right_images/camera_right_22.png
2025-06-27 14:56:19,1.2409377098083496,23,-0.034323033,-0.00027721934,0.11403818,-0.0006770519,0.0002939496,-0.027665228,1.0471791,0.057907,2.6674985e-05,0.0020310185,0.8332775559910459,-0.0005828499023996174,0.552854569455278,0.0006760356510181948,0.9999997708642746,3.5315677726716445e-05,-0.5528544633602845,0.0003443216371557969,0.8332777590847018,0.07067476,0.000531498,0.11086674,0.0007742972,1.4185569e-05,-0.015312513,1.047179,-0.05645699,-6.0633494e-05,0.006754795,0.8369219577377619,0.0009466697108542738,-0.5473214233636852,-0.0007822616186331654,0.9999995517403019,0.0005334659830715271,0.5473216830376371,-1.832085238563793e-05,0.8369223231227582,-0.0031085738,0.00849659,0.08545942,-0.06148696,-0.22475597,0.08250483,0.23025587,0.00024061231,-0.00800452,0.009069265,0.9960875134530737,-0.05923516096536233,-0.06558095187080151,0.022206048460861588,0.8860587032724718,-0.4630408899512651,0.08553687482382458,0.45977295490330156,0.8839073893711151,left_images/camera_left_23.png,right_images/camera_right_23.png
2025-06-27 14:56:19,1.290311336517334,24,-0.034323033,-0.00027721934,0.11403818,-0.0006770525,0.00029395483,-0.027665228,1.0471791,0.057907,2.6674985e-05,0.0020310185,0.8332775559910459,-0.0005828499023996174,0.552854569455278,0.0006760356510181948,0.9999997708642746,3.5315677726716445e-05,-0.5528544633602845,0.0003443216371557969,0.8332777590847018,0.07067476,0.0005314945,0.11086674,0.0007742792,1.420891e-05,-0.015312513,1.047179,-0.05645699,-6.0633494e-05,0.006754795,0.8369219577377619,0.0009466697108542738,-0.5473214233636852,-0.0007822616186331654,0.9999995517403019,0.0005334659830715271,0.5473216830376371,-1.832085238563793e-05,0.8369223231227582,-0.008894186,-0.0055901194,0.08368762,-0.04254931,-0.2176266,0.0957784,0.20358868,-4.4694345e-05,-0.00741805,0.011097853,0.9961863419521757,-0.03956240934497848,-0.07776623865639182,-0.0014386501020386376,0.8837222253294198,-0.4680095712105703,0.08723933971452577,0.4663366211500426,0.8802950944885102,left_images/camera_left_24.png,right_images/camera_right_24.png
2025-06-27 14:56:19,1.3415007591247559,25,-0.034323033,-0.00027721934,0.11403818,-0.00067705306,0.00029396007,-0.027665228,1.0471791,0.057907,2.6674985e-05,0.0020310185,0.8332775559910459,-0.0005828499023996174,0.552854569455278,0.0006760356510181948,0.9999997708642746,3.5315677726716445e-05,-0.5528544633602845,0.0003443216371557969,0.8332777590847018,0.07067476,0.000531491,0.11086674,0.00077426113,1.42322515e-05,-0.015312513,1.047179,-0.05645699,-6.0642233e-05,0.006754794,0.8369218824660206,0.000946939455579344,-0.5473215379968158,-0.0007822686077211589,0.9999995514775061,0.0005339481361490522,0.547321798127352,-1.8720421740515405e-05,0.8369222478487401,-0.020720158,-0.021448437,0.08193643,-0.016291933,-0.20011309,0.111165926,0.17692041,-0.00077273324,-0.0069199284,0.01306814,0.99609089877589,-0.011409468403489713,-0.08759420875029057,-0.030674192911957873,0.8852399869301124,-0.4641220307517996,0.0828372818544869,0.46499461241042805,0.8814295179787413,left_images/camera_left_25.png,right_images/camera_right_25.png
2025-06-27 14:56:19,1.3937890529632568,26,-0.034323033,-0.00027721934,0.11403818,-0.00067705364,0.0002939653,-0.027665228,1.0471791,0.057907,2.6674985e-05,0.0020310185,0.8332775559910459,-0.0005828499023996174,0.552854569455278,0.0006760356510181948,0.9999997708642746,3.5315677726716445e-05,-0.5528544633602845,0.0003443216371557969,0.8332777590847018,0.07067476,0.0005314906,0.11086674,0.00077426335,1.43035095e-05,-0.015312541,1.047179,-0.05645699,-6.0642233e-05,0.006754794,0.8369218824660206,0.000946939455579344,-0.5473215379968158,-0.0007822686077211589,0.9999995514775061,0.0005339481361490522,0.547321798127352,-1.8720421740515405e-05,0.8369222478487401,-0.035501223,-0.037669707,0.08035592,0.013688539,-0.17863198,0.12683688,0.15025283,-0.0017119336,-0.0064831735,0.01485923,0.9953087169207037,0.0210791141623055,-0.0944257855026656,-0.0620428986486897,0.8879414634028654,-0.45575282368543424,0.07423770436194359,0.4594732076151019,0.8850836879837739,left_images/camera_left_26.png,right_images/camera_right_26.png
2025-06-27 14:56:19,1.4658162593841553,27,-0.034323033,-0.00027721934,0.11403818,-0.0006770542,0.00029397054,-0.027665228,1.0471791,0.057907,2.6674985e-05,0.0020310185,0.8332775559910459,-0.0005828499023996174,0.552854569455278,0.0006760356510181948,0.9999997708642746,3.5315677726716445e-05,-0.5528544633602845,0.0003443216371557969,0.8332777590847018,0.07067476,0.00053149334,0.11086674,0.00077428523,1.42911e-05,-0.015312597,1.047179,-0.05645699,-6.0642233e-05,0.006754794,0.8369218824660206,0.000946939455579344,-0.5473215379968158,-0.0007822686077211589,0.9999995514775061,0.0005339481361490522,0.547321798127352,-1.8720421740515405e-05,0.8369222478487401,-0.055840682,-0.05589826,0.078944035,0.047711708,-0.1520954,0.14545412,0.12358476,-0.0030530049,-0.0060030115,0.016528308,0.9934960372039892,0.05859122889621305,-0.0976355056134874,-0.09610291251831621,0.8913580155342706,-0.4429956188816137,0.06107253282341106,0.4494974483122664,0.8911914439082631,left_images/camera_left_27.png,right_images/camera_right_27.png
2025-06-27 14:56:19,1.5197391510009766,28,-0.034323033,-0.00027721934,0.11403818,-0.0006770548,0.00029397578,-0.027665228,1.0471791,0.057907,2.6674985e-05,0.0020310185,0.8332775559910459,-0.0005828499023996174,0.552854569455278,0.0006760356510181948,0.9999997708642746,3.5315677726716445e-05,-0.5528544633602845,0.0003443216371557969,0.8332777590847018,0.07067476,0.00053149683,0.11086674,0.0007743071,1.4278673e-05,-0.015312653,1.047179,-0.05645699,-6.0642233e-05,0.006754794,0.8369218824660206,0.000946939455579344,-0.5473215379968158,-0.0007822686077211589,0.9999995514775061,0.0005339481361490522,0.547321798127352,-1.8720421740515405e-05,0.8369222478487401,-0.081733964,-0.07572611,0.0777851,0.0859507,-0.12531692,0.16643614,0.0969167,-0.004799693,-0.0054144403,0.018048972,0.9902201630979284,0.10116771975971023,-0.0960683146148261,-0.13292030260363094,0.8933035368336677,-0.42934948961914404,0.04238185637830949,0.4379199510859046,0.8980144178635706,left_images/camera_left_28.png,right_images/camera_right_28.png
2025-06-27 14:56:19,1.5719733238220215,29,-0.034323033,-0.00027721934,0.11403818,-0.0006770554,0.00029398102,-0.027665228,1.0471791,0.057907,2.6674985e-05,0.0020310185,0.8332775559910459,-0.0005828499023996174,0.552854569455278,0.0006760356510181948,0.9999997708642746,3.5315677726716445e-05,-0.5528544633602845,0.0003443216371557969,0.8332777590847018,0.07067476,0.0005315003,0.11086674,0.000774329,1.4266246e-05,-0.015312709,1.047179,-0.05645699,-6.0642233e-05,0.006754794,0.8369218824660206,0.000946939455579344,-0.5473215379968158,-0.0007822686077211589,0.9999995514775061,0.0005339481361490522,0.547321798127352,-1.8720421740515405e-05,0.8369222478487401,-0.112506635,-0.09614713,0.077049285,0.1258561,-0.10107037,0.19012673,0.070248924,-0.0069146557,-0.004685562,0.019286506,0.9851548288657888,0.1460071032334646,-0.09028781184518392,-0.17051766726226597,0.8930668241600823,-0.41635966751843334,0.01984158042732656,0.425574404058794,0.9047058849682303,left_images/camera_left_29.png,right_images/camera_right_29.png
2025-06-27 14:56:19,1.6212961673736572,30,-0.034323033,-0.00027721934,0.11403818,-0.00067705597,0.00029398626,-0.027665228,1.0471791,0.057907,2.6674985e-05,0.0020310185,0.8332775559910459,-0.0005828499023996174,0.552854569455278,0.0006760356510181948,0.9999997708642746,3.5315677726716445e-05,-0.5528544633602845,0.0003443216371557969,0.8332777590847018,0.07067476,0.0005315038,0.11086674,0.0007743509,1.4253818e-05,-0.015312765,1.047179,-0.05645699,-6.0642233e-05,0.006754794,0.8369218824660206,0.000946939455579344,-0.5473215379968158,-0.0007822686077211589,0.9999995514775061,0.0005339481361490522,0.547321798127352,-1.8720421740515405e-05,0.8369222478487401,-0.14338773,-0.11549588,0.07671138,0.16367625,-0.0828778,0.2138672,0.043582104,-0.009057715,-0.003854249,0.020241115,0.9785441374988303,0.18866258920953882,-0.08281182523905359,-0.20601575564124847,0.8901188524428357,-0.4065045349727541,-0.002979831242896254,0.4148431703169313,0.9098880506123607,left_images/camera_left_30.png,right_images/camera_right_30.png
2025-06-27 14:56:19,1.679241418838501,31,-0.034323033,-0.00027721855,0.11403818,-0.000677058,0.00029390745,-0.027665228,1.0471791,0.057907,2.6674985e-05,0.0020310185,0.8332775559910459,-0.0005828499023996174,0.552854569455278,0.0006760356510181948,0.9999997708642746,3.5315677726716445e-05,-0.5528544633602845,0.0003443216371557969,0.8332777590847018,0.07067476,0.0005315073,0.11086674,0.0007743728,1.4241391e-05,-0.015312821,1.047179,-0.05645699,-6.0642233e-05,0.006754794,0.8369218824660206,0.000946939455579344,-0.5473215379968158,-0.0007822686077211589,0.9999995514775061,0.0005339481361490522,0.547321798127352,-1.8720421740515405e-05,0.8369222478487401,-0.17745319,-0.13461286,0.07676312,0.20269722,-0.070801586,0.23940521,0.01691476,-0.011463621,-0.0028585258,0.020984331,0.9696761029613119,0.23317601078636843,-0.07319291864325825,-0.24272974015534696,0.883981473920435,-0.39957355644433357,-0.028469783804605617,0.40522302718282266,0.9137744632297996,left_images/camera_left_31.png,right_images/camera_right_31.png
2025-06-27 14:56:19,1.733290672302246,32,-0.034323033,-0.00027721855,0.11403818,-0.00067705853,0.00029391266,-0.027665228,1.0471791,0.057907,2.6674985e-05,0.0020310185,0.8332775559910459,-0.0005828499023996174,0.552854569455278,0.0006760356510181948,0.9999997708642746,3.5315677726716445e-05,-0.5528544633602845,0.0003443216371557969,0.8332777590847018,0.07067476,0.0005315077,0.11086674,0.000774394,1.4247736e-05,-0.015312849,1.047179,-0.056456994,-6.0641734e-05,0.006754794,0.8369220700032446,0.0009469858625516806,-0.5473212511489578,-0.0007823369578698458,0.9999995514345621,0.0005339284212564721,0.5473215112622276,-1.8666836950137532e-05,0.8369224354509686,-0.21150005,-0.15181178,0.07713295,0.23760554,-0.06364819,0.26395124,0.0013386398,-0.0139249675,-0.0018277951,0.021513667,0.9598224613169037,0.2736564165397377,-0.06207260618171699,-0.2754410740581765,0.8765544775145467,-0.39469540492749366,-0.05360090925757749,0.3959348603442613,0.9167128933809818,left_images/camera_left_32.png,right_images/camera_right_32.png
2025-06-27 14:56:19,1.7844970226287842,33,-0.034323033,-0.00027721855,0.11403818,-0.0006770591,0.0002939179,-0.027665228,1.0471791,0.057907,2.6674985e-05,0.0020310185,0.8332775559910459,-0.0005828499023996174,0.552854569455278,0.0006760356510181948,0.9999997708642746,3.5315677726716445e-05,-0.5528544633602845,0.0003443216371557969,0.8332777590847018,0.07067476,0.0005315042,0.11086674,0.0007744372,1.4276193e-05,-0.0153129045,1.047179,-0.056456994,-6.0641734e-05,0.006754794,0.8369220700032446,0.0009469858625516806,-0.5473212511489578,-0.0007823369578698458,0.9999995514345621,0.0005339284212564721,0.5473215112622276,-1.8666836950137532e-05,0.8369224354509686,-0.24524376,-0.17019065,0.077806324,0.2791055,-0.056911323,0.28494442,8.896422e-05,-0.016468208,-0.00061632064,0.021904413,0.9463135042681574,0.3198974381388608,-0.04643684648976352,-0.3120894153275601,0.8667406665094048,-0.3890511712607151,-0.08420776971409341,0.3826568254860043,0.9200450018497747,left_images/camera_left_33.png,right_images/camera_right_33.png
2025-06-27 14:56:19,1.8392853736877441,34,-0.034323033,-0.00027721855,0.11403818,-0.0006770597,0.00029392313,-0.027665228,1.0471791,0.057907,2.6674985e-05,0.0020310185,0.8332775559910459,-0.0005828499023996174,0.552854569455278,0.0006760356510181948,0.9999997708642746,3.5315677726716445e-05,-0.5528544633602845,0.0003443216371557969,0.8332777590847018,0.07067476,0.00053150073,0.11086674,0.0007744804,1.4304651e-05,-0.01531296,1.047179,-0.056456994,-6.0641734e-05,0.006754794,0.8369220700032446,0.0009469858625516806,-0.5473212511489578,-0.0007823369578698458,0.9999995514345621,0.0005339284212564721,0.5473215112622276,-1.8666836950137532e-05,0.8369224354509686,-0.2726141,-0.19003521,0.07874569,0.32552218,-0.05063932,0.30453393,6.3048365e-06,-0.018618347,0.0008233588,0.02210816,0.9287636540133635,0.3691080842165745,-0.03401907038288109,-0.3532751742886917,0.8536502770762193,-0.3827242554098035,-0.11222622783930564,0.36747847095260444,0.9232360733698051,left_images/camera_left_34.png,right_images/camera_right_34.png
2025-06-27 14:56:19,1.898977279663086,35,-0.034323033,-0.00027721855,0.11403818,-0.0006770603,0.00029392837,-0.027665228,1.0471791,0.057907,2.6674985e-05,0.0020310185,0.8332775559910459,-0.0005828499023996174,0.552854569455278,0.0006760356510181948,0.9999997708642746,3.5315677726716445e-05,-0.5528544633602845,0.0003443216371557969,0.8332777590847018,0.07067476,0.0005314569,0.11086674,0.00077442435,1.4389081e-05,-0.015313016,1.047179,-0.056456994,-6.0641734e-05,0.006754794,0.8369220700032446,0.0009469858625516806,-0.5473212511489578,-0.0007823369578698458,0.9999995514345621,0.0005339284212564721,0.5473215112622276,-1.8666836950137532e-05,0.8369224354509686,-0.29474092,-0.20788072,0.07983634,0.3731927,-0.051898733,0.3236912,7.7213014e-07,-0.020397011,0.0023166374,0.022148997,0.9076262253847361,0.4188945061425535,-0.027240185708659326,-0.3971313995422303,0.835821725445632,-0.37906291663880237,-0.13601943424189597,0.3548653772864752,0.92496987924572,left_images/camera_left_35.png,right_images/camera_right_35.png
2025-06-27 14:56:19,1.950589656829834,36,-0.034323033,-0.00027721855,0.11403818,-0.00067706086,0.0002939336,-0.027665228,1.0471791,0.057907,2.6674985e-05,0.0020310185,0.8332775559910459,-0.0005828499023996174,0.552854569455278,0.0006760356510181948,0.9999997708642746,3.5315677726716445e-05,-0.5528544633602845,0.0003443216371557969,0.8332777590847018,0.07067476,0.0005314464,0.11086674,0.00077446754,1.4417531e-05,-0.015313072,1.047179,-0.056456994,-6.0641734e-05,0.006754794,0.8369220700032446,0.0009469858625516806,-0.5473212511489578,-0.0007823369578698458,0.9999995514345621,0.0005339284212564721,0.5473215112622276,-1.8666836950137532e-05,0.8369224354509686,-0.31141052,-0.22194594,0.08085514,0.4143783,-0.056857213,0.33927897,4.732239e-07,-0.021771442,0.003614598,0.022100609,0.8869560648708742,0.46126043814892864,-0.023403999389679672,-0.43517290156603644,0.8176696765188629,-0.37688306653939113,-0.15470450779266431,0.3444635079369028,0.9259651218963018,left_images/camera_left_36.png,right_images/camera_right_36.png
2025-06-27 14:56:20,2.002854347229004,37,-0.034323033,-0.00027721855,0.11403818,-0.00067706144,0.00029393885,-0.027665228,1.0471791,0.057907,2.6674985e-05,0.0020310185,0.8332775559910459,-0.0005828499023996174,0.552854569455278,0.0006760356510181948,0.9999997708642746,3.5315677726716445e-05,-0.5528544633602845,0.0003443216371557969,0.8332777590847018,0.07067476,0.0005314026,0.11086674,0.0007744115,1.4501961e-05,-0.015313128,1.047179,-0.05645696,-6.0696813e-05,0.006754762,0.8369220259775264,0.0009470266698327845,-0.5473213183991277,-0.0007825723561577009,0.9999995514027148,0.0005336430235605957,0.5473215782464456,-1.8299066712162103e-05,0.8369223916534699,-0.32409328,-0.23400639,0.08181985,0.45356455,-0.06523201,0.35368845,3.3447776e-07,-0.022822304,0.0048204586,0.022000879,0.8651862812855167,0.5009040585034706,-0.023405615781050715,-0.47196384114371076,0.7976534880178767,-0.37549839640907784,-0.16941909965589083,0.3359226655462035,0.9265274585483804,left_images/camera_left_37.png,right_images/camera_right_37.png
2025-06-27 14:56:20,2.0574300289154053,38,-0.034323033,-0.00027721855,0.11403818,-0.000677062,0.0002939441,-0.027665228,1.0471791,0.057907,2.6674985e-05,0.0020310185,0.8332775559910459,-0.0005828499023996174,0.552854569455278,0.0006760356510181948,0.9999997708642746,3.5315677726716445e-05,-0.5528544633602845,0.0003443216371557969,0.8332777590847018,0.07067476,0.00053139846,0.11086674,0.00077441515,1.4488137e-05,-0.015313184,1.047179,-0.05645696,-6.0696813e-05,0.006754762,0.8369220259775264,0.0009470266698327845,-0.5473213183991277,-0.0007825723561577009,0.9999995514027148,0.0005336430235605957,0.5473215782464456,-1.8299066712162103e-05,0.8369223916534699,-0.33172393,-0.24231769,0.08264282,0.49043277,-0.07553847,0.3650711,2.6349977e-07,-0.023466228,0.005756041,0.021802364,0.8433870470515115,0.5366578281471315,-0.0263944000525837,-0.5063142971101104,0.7773380080506823,-0.3733516489607249,-0.1798447147058446,0.3282438068390653,0.9273143382177221,left_images/camera_left_38.png,right_images/camera_right_38.png
2025-06-27 14:56:20,2.115442991256714,39,-0.034323033,-0.00027721855,0.11403818,-0.0006770626,0.00029394933,-0.027665228,1.0471791,0.057907,2.6674985e-05,0.0020310185,0.8332775559910459,-0.0005828499023996174,0.552854569455278,0.0006760356510181948,0.9999997708642746,3.5315677726716445e-05,-0.5528544633602845,0.0003443216371557969,0.8332777590847018,0.07067476,0.00053140195,0.11086674,0.00077441876,1.4474314e-05,-0.01531324,1.047179,-0.056456964,-6.0698087e-05,0.00675476,0.8369222322658979,0.000946971245016977,-0.5473210030544479,-0.0007824707795569216,0.9999995514533447,0.0005336970938743925,0.5473212629512442,-1.8400271231288907e-05,0.8369225978445585,-0.3315356,-0.247952,0.083414175,0.5305911,-0.08407442,0.37360644,2.1538241e-07,-0.023534438,0.0064890124,0.02135877,0.8196269111142322,0.5719488803639675,-0.03295762169433536,-0.542185066596962,0.7558198383569922,-0.3671126877475886,-0.18505966642299665,0.3187645686026203,0.9295924212615952,left_images/camera_left_39.png,right_images/camera_right_39.png
2025-06-27 14:56:20,2.166520357131958,40,-0.034323033,-0.00027721855,0.11403818,-0.0006770632,0.00029395457,-0.027665228,1.0471791,0.057907,2.6674985e-05,0.0020310185,0.8332775559910459,-0.0005828499023996174,0.552854569455278,0.0006760356510181948,0.9999997708642746,3.5315677726716445e-05,-0.5528544633602845,0.0003443216371557969,0.8332777590847018,0.07067476,0.00053140405,0.11086674,0.00077445566,1.4463098e-05,-0.015313296,1.047179,-0.056456964,-6.0698087e-05,0.00675476,0.8369222322658979,0.000946971245016977,-0.5473210030544479,-0.0007824707795569216,0.9999995514533447,0.0005336970938743925,0.5473212629512442,-1.8400271231288907e-05,0.8369225978445585,-0.3262491,-0.25123727,0.08413004,0.5721507,-0.09459055,0.37611175,1.8348572e-07,-0.023213953,0.0070978533,0.020770643,0.7939958898656189,0.6065942930353555,-0.040173256445563285,-0.5773164945156782,0.7316691927459866,-0.36244428198905954,-0.1904630988843578,0.31097195378904063,0.9311392226299964,left_images/camera_left_40.png,right_images/camera_right_40.png
2025-06-27 14:56:20,2.219593048095703,41,-0.034323033,-0.00027721855,0.11403818,-0.00067706377,0.0002939598,-0.027665228,1.0471791,0.057907,2.6674985e-05,0.0020310185,0.8332775559910459,-0.0005828499023996174,0.552854569455278,0.0006760356510181948,0.9999997708642746,3.5315677726716445e-05,-0.5528544633602845,0.0003443216371557969,0.8332777590847018,0.07067476,0.000531406,0.11086674,0.00077449257,1.4451882e-05,-0.0153133515,1.047179,-0.056456964,-6.0684244e-05,0.006754788,0.8369222319782776,0.0009472598321896386,-0.5473210029948674,-0.0007828396636960248,0.9999995511842736,0.0005336602959226596,0.5473212628635564,-1.8167576063507474e-05,0.836922597906987,-0.3202832,-0.2525147,0.08475425,0.60632104,-0.10577467,0.37467188,1.65088e-07,-0.022826973,0.0075645875,0.020182855,0.7716860175975112,0.634307964674556,-0.04641224186479176,-0.6050687701205066,0.7097120987190896,-0.36083309210298703,-0.1959399746589529,0.3065324499660151,0.9314748431645813,left_images/camera_left_41.png,right_images/camera_right_41.png
2025-06-27 14:56:20,2.2714929580688477,42,-0.034323033,-0.00027721855,0.11403818,-0.00067706435,0.00029396504,-0.027665228,1.0471791,0.057907,2.6674985e-05,0.0020310185,0.8332775559910459,-0.0005828499023996174,0.552854569455278,0.0006760356510181948,0.9999997708642746,3.5315677726716445e-05,-0.5528544633602845,0.0003443216371557969,0.8332777590847018,0.07067476,0.0005314128,0.11086674,0.0007745362,1.4402077e-05,-0.01531346,1.047179,-0.056456964,-6.0684244e-05,0.006754788,0.8369222319782776,0.0009472598321896386,-0.5473210029948674,-0.0007828396636960248,0.9999995511842736,0.0005336602959226596,0.5473212628635564,-1.8167576063507474e-05,0.836922597906987,-0.31389433,-0.2514968,0.0853351,0.63490564,-0.11707611,0.36727637,1.06796996e-07,-0.022429815,0.007887463,0.019546745,0.7525746243564357,0.6566319434458867,-0.04965808716862659,-0.6261643871154037,0.6902314888486031,-0.3626274287891515,-0.20383717787283068,0.3039983267196023,0.9306102418674111,left_images/camera_left_42.png,right_images/camera_right_42.png
2025-06-27 14:56:20,2.3362877368927,43,-0.034323033,-0.00027721855,0.11403818,-0.00067706493,0.00029397028,-0.027665228,1.0471791,0.057907,2.6674985e-05,0.0020310185,0.8332775559910459,-0.0005828499023996174,0.552854569455278,0.0006760356510181948,0.9999997708642746,3.5315677726716445e-05,-0.5528544633602845,0.0003443216371557969,0.8332777590847018,0.07067476,0.00053141976,0.11086674,0.0007745799,1.43522675e-05,-0.015313568,1.047179,-0.056456964,-6.0684244e-05,0.006754788,0.8369222319782776,0.0009472598321896386,-0.5473210029948674,-0.0007828396636960248,0.9999995511842736,0.0005336602959226596,0.5473212628635564,-1.8167576063507474e-05,0.836922597906987,-0.3067634,-0.2482599,0.08595091,0.684004,-0.13356972,0.3522785,5.2318704e-08,-0.021977965,0.008090706,0.018777754,0.7192602275454518,0.6930141580634946,-0.04894999279684217,-0.6589157700984763,0.6581421274807877,-0.36425121544147904,-0.22021519699329825,0.29424533430219163,0.9300134140186337,left_images/camera_left_43.png,right_images/camera_right_43.png
2025-06-27 14:56:20,2.3846943378448486,44,-0.034323033,-0.00027721855,0.11403818,-0.0006770655,0.00029397552,-0.027665228,1.0471791,0.057907,2.6674985e-05,0.0020310185,0.8332775559910459,-0.0005828499023996174,0.552854569455278,0.0006760356510181948,0.9999997708642746,3.5315677726716445e-05,-0.5528544633602845,0.0003443216371557969,0.8332777590847018,0.07067476,0.00053142384,0.11086674,0.0007746382,1.4323553e-05,-0.015313594,1.047179,-0.05645697,-6.0684495e-05,0.00675479,0.8369224322410919,0.0009471930958196942,-0.5473206968833666,-0.0007828070658600205,0.999999551248253,0.0005335882214815839,0.5473209566833273,-1.8125443325835698e-05,0.8369227981401365,-0.29923388,-0.24396609,0.08657728,0.7328483,-0.1490065,0.33081698,2.531803e-07,-0.021525593,0.00823725,0.017953109,0.6851873438935838,0.7269839723300325,-0.04486209695614221,-0.6875765734175417,0.6252644727977188,-0.36916499664023217,-0.24032636030083668,0.2837933104078343,0.9282804519714476,left_images/camera_left_44.png,right_images/camera_right_44.png
2025-06-27 14:56:20,2.43587064743042,45,-0.034323033,-0.00027721855,0.11403818,-0.0006770661,0.00029398076,-0.027665228,1.0471791,0.057907,2.6674985e-05,0.0020310185,0.8332775559910459,-0.0005828499023996174,0.552854569455278,0.0006760356510181948,0.9999997708642746,3.5315677726716445e-05,-0.5528544633602845,0.0003443216371557969,0.8332777590847018,0.07067476,0.0005314205,0.11086674,0.0007746636,1.4350527e-05,-0.01531365,1.047179,-0.05645697,-6.0684495e-05,0.00675479,0.8369224322410919,0.0009471930958196942,-0.5473206968833666,-0.0007828070658600205,0.999999551248253,0.0005335882214815839,0.5473209566833273,-1.8125443325835698e-05,0.8369227981401365,-0.29223558,-0.23996305,0.08713859,0.7735004,-0.1592938,0.30980587,3.2942353e-07,-0.02112862,0.008333646,0.0171948,0.6564720025395981,0.7533090381351619,-0.03962326268150522,-0.7088072860256525,0.5980120141193443,-0.3741308090038491,-0.25814093274527267,0.27369165868327583,0.926529079310843,left_images/camera_left_45.png,right_images/camera_right_45.png
2025-06-27 14:56:20,2.485166549682617,46,-0.034323033,-0.00027721855,0.11403818,-0.0006770667,0.000293986,-0.027665228,1.0471791,0.057907,2.6674985e-05,0.0020310185,0.8332775559910459,-0.0005828499023996174,0.552854569455278,0.0006760356510181948,0.9999997708642746,3.5315677726716445e-05,-0.5528544633602845,0.0003443216371557969,0.8332777590847018,0.07067476,0.000531417,0.11086674,0.00077468896,1.4377504e-05,-0.015313705,1.047179,-0.05645697,-6.0684495e-05,0.00675479,0.8369224322410919,0.0009471930958196942,-0.5473206968833666,-0.0007828070658600205,0.999999551248253,0.0005335882214815839,0.5473209566833273,-1.8125443325835698e-05,0.8369227981401365,-0.28558734,-0.23666677,0.087606765,0.8077146,-0.16533828,0.29016775,3.7780376e-07,-0.02075712,0.008404188,0.016541319,0.6321783112194321,0.7740854373923706,-0.03379820173928094,-0.7248364549658598,0.5754175621810284,-0.3788228381264353,-0.2737931634944013,0.2639817507910435,0.924851846985788,left_images/camera_left_46.png,right_images/camera_right_46.png
2025-06-27 14:56:20,2.5550553798675537,47,-0.034323033,-0.00027721777,0.11403818,-0.0006770687,0.0002939072,-0.027665228,1.0471791,0.057907,2.6674985e-05,0.0020310185,0.8332775559910459,-0.0005828499023996174,0.552854569455278,0.0006760356510181948,0.9999997708642746,3.5315677726716445e-05,-0.5528544633602845,0.0003443216371557969,0.8332777590847018,0.07067476,0.00053141353,0.11086674,0.00077471434,1.4404482e-05,-0.015313761,1.047179,-0.05645697,-6.0684495e-05,0.00675479,0.8369224322410919,0.0009471930958196942,-0.5473206968833666,-0.0007828070658600205,0.999999551248253,0.0005335882214815839,0.5473209566833273,-1.8125443325835698e-05,0.8369227981401365,-0.27904463,-0.23361108,0.088012055,0.8356763,-0.16871293,0.27202818,4.0131178e-07,-0.020388396,0.0084467735,0.015951265,0.612343631630903,0.7900839163812955,-0.028331640910321476,-0.7365927782782434,0.5571360800519681,-0.38344552063189596,-0.2871695593014967,0.2556693047276527,0.9231288376118814,left_images/camera_left_47.png,right_images/camera_right_47.png
2025-06-27 14:56:20,2.620342969894409,48,-0.034323033,-0.00027721777,0.11403818,-0.00067706924,0.0002939124,-0.027665228,1.0471791,0.057907,2.6674985e-05,0.0020310185,0.8332775559910459,-0.0005828499023996174,0.552854569455278,0.0006760356510181948,0.9999997708642746,3.5315677726716445e-05,-0.5528544633602845,0.0003443216371557969,0.8332777590847018,0.07067476,0.00053141004,0.11086674,0.0007747397,1.4431459e-05,-0.015313817,1.047179,-0.05645697,-6.0684495e-05,0.00675479,0.8369224322410919,0.0009471930958196942,-0.5473206968833666,-0.0007828070658600205,0.999999551248253,0.0005335882214815839,0.5473209566833273,-1.8125443325835698e-05,0.8369227981401365,-0.27385196,-0.23085016,0.088353395,0.85941625,-0.17190906,0.2580451,2.8489214e-07,-0.020083956,0.008459167,0.015452666,0.5950170958920153,0.8033260528062011,-0.024938092931107575,-0.7467655036356692,0.5411188228145489,-0.386693292126411,-0.29714632452042433,0.24871202720939153,0.921871134891096,left_images/camera_left_48.png,right_images/camera_right_48.png
2025-06-27 14:56:20,2.6875929832458496,49,-0.034323033,-0.00027721777,0.11403818,-0.0006770698,0.00029391763,-0.027665228,1.0471791,0.057907,2.6674985e-05,0.0020310185,0.8332775559910459,-0.0005828499023996174,0.552854569455278,0.0006760356510181948,0.9999997708642746,3.5315677726716445e-05,-0.5528544633602845,0.0003443216371557969,0.8332777590847018,0.07067476,0.00053140655,0.11086674,0.0007747651,1.4458436e-05,-0.015313873,1.047179,-0.05645697,-6.0684495e-05,0.00675479,0.8369224322410919,0.0009471930958196942,-0.5473206968833666,-0.0007828070658600205,0.999999551248253,0.0005335882214815839,0.5473209566833273,-1.8125443325835698e-05,0.8369227981401365,-0.269417,-0.22763002,0.08868505,0.8837465,-0.17598848,0.24810101,1.5553073e-07,-0.019801315,0.008402764,0.014950632,0.5766563701760935,0.8166284548436308,-0.02419498863475733,-0.7585645375744535,0.5241874829224846,-0.3870495124423294,-0.3033929351019686,0.2415480272887643,0.9217414374124224,left_images/camera_left_49.png,right_images/camera_right_49.png
2025-06-27 14:56:20,2.7494003772735596,50,-0.034323033,-0.00027721777,0.11403818,-0.0006770704,0.00029392287,-0.027665228,1.0471791,0.057907,2.6674985e-05,0.0020310185,0.8332775559910459,-0.0005828499023996174,0.552854569455278,0.0006760356510181948,0.9999997708642746,3.5315677726716445e-05,-0.5528544633602845,0.0003443216371557969,0.8332777590847018,0.07067476,0.00053140306,0.11086674,0.0007747905,1.4485414e-05,-0.015313929,1.047179,-0.05645697,-6.0684495e-05,0.00675479,0.8369224322410919,0.0009471930958196942,-0.5473206968833666,-0.0007828070658600205,0.999999551248253,0.0005335882214815839,0.5473209566833273,-1.8125443325835698e-05,0.8369227981401365,-0.2638628,-0.22129135,0.08917937,0.90366286,-0.17713872,0.24468912,4.5391766e-07,-0.019481897,0.008112856,0.014135556,0.5626872761385162,0.8262444357664585,-0.026517195115319248,-0.7703437184035735,0.5124402370749055,-0.37944111393307195,-0.29992263133677177,0.23393404154073277,0.9248358121420502,left_images/camera_left_50.png,right_images/camera_right_50.png
2025-06-27 14:56:20,2.8050200939178467,51,-0.034323033,-0.00027721777,0.11403818,-0.000677071,0.0002939281,-0.027665228,1.0471791,0.057907,2.6674985e-05,0.0020310185,0.8332775559910459,-0.0005828499023996174,0.552854569455278,0.0006760356510181948,0.9999997708642746,3.5315677726716445e-05,-0.5528544633602845,0.0003443216371557969,0.8332777590847018,0.07067476,0.00053139956,0.11086674,0.00077481585,1.4512391e-05,-0.015313985,1.047179,-0.056456972,-6.0682563e-05,0.006754786,0.836922657107685,0.0009471610340699908,-0.5473203530892927,-0.0007827969514100937,0.9999995512791673,0.0005335451219032781,0.5473206128483974,-1.809529726714079e-05,0.8369230229978233,-0.2578418,-0.21433744,0.08974755,0.9203644,-0.17613298,0.24542108,6.962266e-07,-0.019146575,0.0077615175,0.0132099,0.5515398995746124,0.8336017567064586,-0.03019686065027946,-0.7815844934140666,0.5037982967283126,-0.36784909387998777,-0.29142652389908386,0.22648485033122445,0.9293950687078878,left_images/camera_left_51.png,right_images/camera_right_51.png
2025-06-27 14:56:20,2.860365390777588,52,-0.034323033,-0.00027721777,0.11403818,-0.00067707157,0.00029393335,-0.027665228,1.0471791,0.057907,2.6674985e-05,0.0020310185,0.8332775559910459,-0.0005828499023996174,0.552854569455278,0.0006760356510181948,0.9999997708642746,3.5315677726716445e-05,-0.5528544633602845,0.0003443216371557969,0.8332777590847018,0.07067476,0.0005313961,0.11086674,0.0007747927,1.4535367e-05,-0.015314041,1.047179,-0.056456972,-6.0682563e-05,0.006754786,0.836922657107685,0.0009471610340699908,-0.5473203530892927,-0.0007827969514100937,0.9999995512791673,0.0005335451219032781,0.5473206128483974,-1.809529726714079e-05,0.8369230229978233,-0.24930319,-0.20874405,0.09025205,0.9408017,-0.17091052,0.24849685,8.452043e-07,-0.018610774,0.0074290335,0.012323537,0.5378290562499396,0.8423775629668836,-0.03376311098334217,-0.7950745516327701,0.4934957195174713,-0.35258819061886193,-0.28035042999654725,0.21647636413222457,0.935169300272867,left_images/camera_left_52.png,right_images/camera_right_52.png
2025-06-27 14:56:20,2.919389247894287,53,-0.034323033,-0.00027721777,0.11403818,-0.00067707215,0.0002939386,-0.027665228,1.0471791,0.057907,2.6674985e-05,0.0020310185,0.8332775559910459,-0.0005828499023996174,0.552854569455278,0.0006760356510181948,0.9999997708642746,3.5315677726716445e-05,-0.5528544633602845,0.0003443216371557969,0.8332777590847018,0.07067476,0.0005313926,0.11086674,0.0007747695,1.4558343e-05,-0.015314097,1.047179,-0.056456972,-6.0682563e-05,0.006754786,0.836922657107685,0.0009471610340699908,-0.5473203530892927,-0.0007827969514100937,0.9999995512791673,0.0005335451219032781,0.5473206128483974,-1.809529726714079e-05,0.8369230229978233,-0.2319006,-0.20743307,0.090538695,0.97041434,-0.16131715,0.2544063,1.0494437e-06,-0.01726376,0.0073002093,0.011619333,0.5166631239432719,0.8551233270214279,-0.04270025691940707,-0.8138950095833822,0.4750489799693171,-0.3345196257402211,-0.26577082182294864,0.2075874808699105,0.9414208984580908,left_images/camera_left_53.png,right_images/camera_right_53.png
2025-06-27 14:56:21,2.9775357246398926,54,-0.034323033,-0.00027721777,0.11403818,-0.00067707273,0.00029394383,-0.027665228,1.0471791,0.057907,2.6674985e-05,0.0020310185,0.8332775559910459,-0.0005828499023996174,0.552854569455278,0.0006760356510181948,0.9999997708642746,3.5315677726716445e-05,-0.5528544633602845,0.0003443216371557969,0.8332777590847018,0.07067476,0.0005313891,0.11086674,0.00077474635,1.4581318e-05,-0.015314152,1.047179,-0.056456972,-6.0682563e-05,0.006754786,0.836922657107685,0.0009471610340699908,-0.5473203530892927,-0.0007827969514100937,0.9999995512791673,0.0005335451219032781,0.5473206128483974,-1.809529726714079e-05,0.8369230229978233,-0.21047014,-0.20960112,0.09073825,0.99077517,-0.1589201,0.26886258,1.2537992e-06,-0.015358405,0.007461092,0.01112225,0.4998494263008639,0.86354655226941,-0.06661758844563877,-0.8309406611841365,0.4564343450104252,-0.3181278143856243,-0.2443116219453495,0.2143712685005138,0.9457043886034966,left_images/camera_left_54.png,right_images/camera_right_54.png
2025-06-27 14:56:21,3.0446176528930664,55,-0.034323033,-0.00027721777,0.11403818,-0.0006770733,0.00029394907,-0.027665228,1.0471791,0.057907,2.6674985e-05,0.0020310185,0.8332775559910459,-0.0005828499023996174,0.552854569455278,0.0006760356510181948,0.9999997708642746,3.5315677726716445e-05,-0.5528544633602845,0.0003443216371557969,0.8332777590847018,0.07067476,0.0005313856,0.11086674,0.0007747232,1.4604294e-05,-0.015314208,1.047179,-0.056456972,-6.0682563e-05,0.006754786,0.836922657107685,0.0009471610340699908,-0.5473203530892927,-0.0007827969514100937,0.9999995512791673,0.0005335451219032781,0.5473206128483974,-1.809529726714079e-05,0.8369230229978233,-0.18713595,-0.21350488,0.09097949,1.0011375,-0.16137995,0.28590444,1.2510513e-06,-0.013179349,0.007832392,0.010708801,0.4887237540069324,0.8668327942644146,-0.09874208351619115,-0.8439501923098943,0.44104107694586964,-0.3053372583660891,-0.2211270340086526,0.23255897151942886,0.9471109542162216,left_images/camera_left_55.png,right_images/camera_right_55.png
2025-06-27 14:56:21,3.110394239425659,56,-0.034323033,-0.00027721777,0.11403818,-0.0006770739,0.0002939543,-0.027665228,1.0471791,0.057907,2.6674985e-05,0.0020310185,0.8332775559910459,-0.0005828499023996174,0.552854569455278,0.0006760356510181948,0.9999997708642746,3.5315677726716445e-05,-0.5528544633602845,0.0003443216371557969,0.8332777590847018,0.07067476,0.0005313794,0.11086674,0.00077468547,1.45958065e-05,-0.015314236,1.047179,-0.056456972,-6.0682563e-05,0.006754786,0.836922657107685,0.0009471610340699908,-0.5473203530892927,-0.0007827969514100937,0.9999995512791673,0.0005335451219032781,0.5473206128483974,-1.809529726714079e-05,0.8369230229978233,-0.16433284,-0.21826023,0.09123672,1.0034428,-0.16732045,0.30248666,1.162314e-06,-0.010977459,0.008324402,0.010407509,0.4822690782382645,0.8657150135699241,-0.1339927291118463,-0.853024537033165,0.4292639784779771,-0.2967854039547988,-0.1994133280264111,0.2574295089162948,0.9454968918746091,left_images/camera_left_56.png,right_images/camera_right_56.png
2025-06-27 14:56:21,3.162959575653076,57,-0.034323033,-0.00027721777,0.11403818,-0.0006770745,0.00029395954,-0.027665228,1.0471791,0.057907,2.6674985e-05,0.0020310185,0.8332775559910459,-0.0005828499023996174,0.552854569455278,0.0006760356510181948,0.9999997708642746,3.5315677726716445e-05,-0.5528544633602845,0.0003443216371557969,0.8332777590847018,0.07067476,0.0005313729,0.11086674,0.00077464775,1.4587312e-05,-0.015314264,1.047179,-0.056456972,-6.0682563e-05,0.006754786,0.836922657107685,0.0009471610340699908,-0.5473203530892927,-0.0007827969514100937,0.9999995512791673,0.0005335451219032781,0.5473206128483974,-1.809529726714079e-05,0.8369230229978233,-0.14647111,-0.22191904,0.09148835,0.9924209,-0.17407025,0.3201038,1.0848952e-06,-0.009187305,0.008743722,0.010190493,0.48582627986670635,0.8578197134643376,-0.16768471899024856,-0.8559219803185062,0.42803466840642224,-0.29014459541726945,-0.17711688061425307,0.2844849061622884,0.9421772385105207,left_images/camera_left_57.png,right_images/camera_right_57.png
2025-06-27 14:56:21,3.2199840545654297,58,-0.034323033,-0.00027721777,0.11403818,-0.00067707506,0.00029396478,-0.027665228,1.0471791,0.057907,2.6674985e-05,0.0020310185,0.8332775559910459,-0.0005828499023996174,0.552854569455278,0.0006760356510181948,0.9999997708642746,3.5315677726716445e-05,-0.5528544633602845,0.0003443216371557969,0.8332777590847018,0.07067476,0.00053136906,0.11086674,0.0007746246,1.461028e-05,-0.01531432,1.047179,-0.056456972,-6.0688762e-05,0.00675479,0.8369226070875811,0.0009473863802970727,-0.5473204291863888,-0.0007828739039791689,0.9999995510619922,0.0005338391747492003,0.5473206892254091,-1.829919277188092e-05,0.8369229730452873,-0.13310292,-0.22441843,0.091716394,0.97418135,-0.17878594,0.33808282,1.0176426e-06,-0.007822441,0.009049988,0.010019581,0.495192789155883,0.8461928410427579,-0.19682931015477037,-0.8549426700117633,0.4343542105791269,-0.2835656021899352,-0.15445754290799238,0.3086974174173944,0.9385354398842147,left_images/camera_left_58.png,right_images/camera_right_58.png
2025-06-27 14:56:21,3.2712206840515137,59,-0.034323033,-0.00027721777,0.11403818,-0.00067707564,0.00029397002,-0.027665228,1.0471791,0.057907,2.6674985e-05,0.0020310185,0.8332775559910459,-0.0005828499023996174,0.552854569455278,0.0006760356510181948,0.9999997708642746,3.5315677726716445e-05,-0.5528544633602845,0.0003443216371557969,0.8332777590847018,0.07067476,0.00053135556,0.11086674,0.00077454635,1.470696e-05,-0.01531432,1.047179,-0.056456972,-6.0688762e-05,0.00675479,0.8369226070875811,0.0009473863802970727,-0.5473204291863888,-0.0007828739039791689,0.9999995510619922,0.0005338391747492003,0.5473206892254091,-1.829919277188092e-05,0.8369229730452873,-0.12307554,-0.22634295,0.09192202,0.9525536,-0.18152645,0.3570205,1.0007989e-06,-0.006777821,0.009281432,0.009884839,0.5070033117908896,0.8327494986533277,-0.2224318194991473,-0.8519208564103091,0.444894501470189,-0.27622407023052364,-0.13106676255326993,0.3295408245638517,0.9349996517109412,left_images/camera_left_59.png,right_images/camera_right_59.png
2025-06-27 14:56:21,3.321349859237671,60,-0.034323033,-0.00027721777,0.11403818,-0.0006770762,0.00029397526,-0.027665228,1.0471791,0.057907,2.6674985e-05,0.0020310185,0.8332775559910459,-0.0005828499023996174,0.552854569455278,0.0006760356510181948,0.9999997708642746,3.5315677726716445e-05,-0.5528544633602845,0.0003443216371557969,0.8332777590847018,0.07067476,0.0005313416,0.11086674,0.0007744681,1.4803645e-05,-0.01531432,1.047179,-0.056456972,-6.0699786e-05,0.006754758,0.8369226885999976,0.0009470042535996708,-0.5473203052048178,-0.0007824455680911645,0.9999995514202902,0.0005337959828722902,0.5473205651951004,-1.8497622015542124e-05,0.8369230541527422,-0.115619384,-0.22817247,0.092094466,0.93292785,-0.18255883,0.37319496,0.02666636,-0.0060007367,0.009486618,0.009794851,0.5177137917306773,0.8204235145756235,-0.2426472472195525,-0.8482957968747521,0.45537960432210267,-0.27022889736679656,-0.11120553428887543,0.34573786703053955,0.9317181207021246,left_images/camera_left_60.png,right_images/camera_right_60.png
2025-06-27 14:56:21,3.3736624717712402,61,-0.034323033,-0.00027721777,0.11403818,-0.0006770768,0.0002939805,-0.027665228,1.0471791,0.057907,2.6674985e-05,0.0020310185,0.8332775559910459,-0.0005828499023996174,0.552854569455278,0.0006760356510181948,0.9999997708642746,3.5315677726716445e-05,-0.5528544633602845,0.0003443216371557969,0.8332777590847018,0.07067476,0.00053133734,0.11086674,0.00077446114,1.4828003e-05,-0.015314268,1.047179,-0.056456972,-6.0699786e-05,0.006754758,0.8369226885999976,0.0009470042535996708,-0.5473203052048178,-0.0007824455680911645,0.9999995514202902,0.0005337959828722902,0.5473205651951004,-1.8497622015542124e-05,0.8369230541527422,-0.10959197,-0.22962447,0.09222882,0.91152036,-0.18150897,0.388184,0.053332847,-0.0053816624,0.00964146,0.009731285,0.5302802480305548,0.8070101362528562,-0.2598797770774009,-0.842812913510704,0.4684988279895063,-0.26490609844255686,-0.09202853561940387,0.3595045036680421,0.9285942388762397,left_images/camera_left_61.png,right_images/camera_right_61.png
2025-06-27 14:56:21,3.421661376953125,62,-0.034323033,-0.00027721777,0.11403818,-0.0006770774,0.00029398574,-0.027665228,1.0471791,0.057907,2.6674985e-05,0.0020310185,0.8332775559910459,-0.0005828499023996174,0.552854569455278,0.0006760356510181948,0.9999997708642746,3.5315677726716445e-05,-0.5528544633602845,0.0003443216371557969,0.8332777590847018,0.07067476,0.00053133385,0.11086674,0.00077445415,1.4852356e-05,-0.015314216,1.047179,-0.056456972,-6.0699786e-05,0.006754758,0.8369226885999976,0.0009470042535996708,-0.5473203052048178,-0.0007824455680911645,0.9999995514202902,0.0005337959828722902,0.5473205651951004,-1.8497622015542124e-05,0.8369230541527422,-0.103729405,-0.2307596,0.09232857,0.89181733,-0.17950279,0.40079314,0.07999948,-0.004798537,0.009757617,0.009683822,0.5418956702578216,0.7942246428592139,-0.2748750611295614,-0.837117113298639,0.48098574072329436,-0.2605525970767072,-0.07472630847552554,0.37129494192086376,0.9255031306946523,left_images/camera_left_62.png,right_images/camera_right_62.png
2025-06-27 14:56:21,3.471524477005005,63,-0.034323033,-0.00027721698,0.11403818,-0.0006770794,0.00029390692,-0.027665228,1.0471791,0.057907,2.6674985e-05,0.0020310185,0.8332775559910459,-0.0005828499023996174,0.552854569455278,0.0006760356510181948,0.9999997708642746,3.5315677726716445e-05,-0.5528544633602845,0.0003443216371557969,0.8332777590847018,0.07067476,0.00053133036,0.11086674,0.00077444717,1.48767085e-05,-0.015314164,1.047179,-0.056456972,-6.0699786e-05,0.006754758,0.8369226885999976,0.0009470042535996708,-0.5473203052048178,-0.0007824455680911645,0.9999995514202902,0.0005337959828722902,0.5473205651951004,-1.8497622015542124e-05,0.8369230541527422,-0.096523196,-0.23256588,0.09243778,0.8718454,-0.17703457,0.41477755,0.106666684,-0.004087386,0.009922669,0.009654455,0.5526652667849438,0.7806283615753431,-0.29185692384064277,-0.8315457395628985,0.4931454049633103,-0.2556155170923027,-0.05561282140225851,0.3839621995298086,0.9216725250477591,left_images/camera_left_63.png,right_images/camera_right_63.png
2025-06-27 14:56:21,3.5198090076446533,64,-0.034323033,-0.00027721698,0.11403818,-0.00067707995,0.00029391213,-0.027665228,1.0471791,0.057907,2.6674985e-05,0.0020310185,0.8332775559910459,-0.0005828499023996174,0.552854569455278,0.0006760356510181948,0.9999997708642746,3.5315677726716445e-05,-0.5528544633602845,0.0003443216371557969,0.8332777590847018,0.07067476,0.00053132686,0.11086674,0.0007744402,1.4901061e-05,-0.0153141115,1.047179,-0.056456972,-6.0699786e-05,0.006754758,0.8369226885999976,0.0009470042535996708,-0.5473203052048178,-0.0007824455680911645,0.9999995514202902,0.0005337959828722902,0.5473205651951004,-1.8497622015542124e-05,0.8369230541527422,-0.08957912,-0.23455903,0.09256943,0.85481274,-0.17535633,0.42780605,0.1333333,-0.0033958193,0.010115174,0.009622007,0.5607100208022322,0.7685168347362664,-0.30819822728060986,-0.8271360519745791,0.5027516231945607,-0.2511707723823393,-0.03808180793852592,0.3957558339458618,0.9175658536595336,left_images/camera_left_64.png,right_images/camera_right_64.png
2025-06-27 14:56:21,3.570997476577759,65,-0.034323033,-0.00027721698,0.11403818,-0.00067708053,0.00029391737,-0.027665228,1.0471791,0.057907,2.6674985e-05,0.0020310185,0.8332775559910459,-0.0005828499023996174,0.552854569455278,0.0006760356510181948,0.9999997708642746,3.5315677726716445e-05,-0.5528544633602845,0.0003443216371557969,0.8332777590847018,0.07067476,0.00053132337,0.11086674,0.0007744332,1.4925414e-05,-0.015314059,1.047179,-0.056456972,-6.0699786e-05,0.006754758,0.8369226885999976,0.0009470042535996708,-0.5473203052048178,-0.0007824455680911645,0.9999995514202902,0.0005337959828722902,0.5473205651951004,-1.8497622015542124e-05,0.8369230541527422,-0.08298123,-0.23631835,0.09270774,0.84199065,-0.17374223,0.43989596,0.1600001,-0.002742594,0.010280866,0.00957299,0.5655256204218064,0.7588706011039209,-0.3229491963555633,-0.8244354137908875,0.5097002542272464,-0.24599166515987547,-0.022068555321513667,0.40536534338896535,0.9138883505358667,left_images/camera_left_65.png,right_images/camera_right_65.png
2025-06-27 14:56:21,3.626699686050415,66,-0.034323033,-0.00027721698,0.11403818,-0.0006770811,0.0002939226,-0.027665228,1.0471791,0.057907,2.6674985e-05,0.0020310185,0.8332775559910459,-0.0005828499023996174,0.552854569455278,0.0006760356510181948,0.9999997708642746,3.5315677726716445e-05,-0.5528544633602845,0.0003443216371557969,0.8332777590847018,0.07067476,0.0005313199,0.11086674,0.0007744262,1.4949766e-05,-0.015314007,1.047179,-0.056456972,-6.0699786e-05,0.006754758,0.8369226885999976,0.0009470042535996708,-0.5473203052048178,-0.0007824455680911645,0.9999995514202902,0.0005337959828722902,0.5473205651951004,-1.8497622015542124e-05,0.8369230541527422,-0.07574208,-0.23814069,0.09284,0.8340967,-0.17107213,0.45125815,0.1866671,-0.002049874,0.010423642,0.009518435,0.5668409541616493,0.7521211328827819,-0.3361623627895182,-0.8237961744004945,0.5139394682604219,-0.23921974418367886,-0.007155119022145773,0.4125288164908184,0.9109164505246701,left_images/camera_left_66.png,right_images/camera_right_66.png
2025-06-27 14:56:21,3.6785547733306885,67,-0.034323033,-0.00027721698,0.11403818,-0.0006770817,0.00029392785,-0.027665228,1.0471791,0.057907,2.6674985e-05,0.0020310185,0.8332775559910459,-0.0005828499023996174,0.552854569455278,0.0006760356510181948,0.9999997708642746,3.5315677726716445e-05,-0.5528544633602845,0.0003443216371557969,0.8332777590847018,0.07067476,0.0005313164,0.11086674,0.0007744192,1.4974119e-05,-0.015313955,1.047179,-0.05645697,-6.0700415e-05,0.006754758,0.8369224697291862,0.0009470193546557229,-0.547320639859983,-0.0007824727684718007,0.9999995514064882,0.0005337819674011751,0.5473208998373496,-1.8470626141297046e-05,0.8369228353080527,-0.06799899,-0.23974487,0.09297022,0.830732,-0.1672412,0.46249047,0.21333411,-0.0013300809,0.010517452,0.009443178,0.5649483504537035,0.7481548246423906,-0.34799097644041466,-0.8250932539758171,0.5159997273684356,-0.23014213781769258,0.007381298208108983,0.41714342823543804,0.9088106935532554,left_images/camera_left_67.png,right_images/camera_right_67.png
2025-06-27 14:56:21,3.7296981811523438,68,-0.034323033,-0.00027721698,0.11403818,-0.0006770823,0.0002939331,-0.027665228,1.0471791,0.057907,2.6674985e-05,0.0020310185,0.8332775559910459,-0.0005828499023996174,0.552854569455278,0.0006760356510181948,0.9999997708642746,3.5315677726716445e-05,-0.5528544633602845,0.0003443216371557969,0.8332777590847018,0.07067476,0.00053131126,0.11086674,0.00077440083,1.4933772e-05,-0.015313955,1.047179,-0.05645697,-6.0700415e-05,0.006754758,0.8369224697291862,0.0009470193546557229,-0.547320639859983,-0.0007824727684718007,0.9999995514064882,0.0005337819674011751,0.5473208998373496,-1.8470626141297046e-05,0.8369228353080527,-0.059726007,-0.2412126,0.093199626,0.83012784,-0.16152097,0.4737154,0.24000108,-0.00059327227,0.010617321,0.009261422,0.5613828956951674,0.7459304657777123,-0.3583810606680466,-0.8272620006402621,0.5173773557607974,-0.21899373060121258,0.022064150053422493,0.4194143678638234,0.9075267276018981,left_images/camera_left_68.png,right_images/camera_right_68.png
2025-06-27 14:56:21,3.7934892177581787,69,-0.034323033,-0.00027721698,0.11403818,-0.00067708286,0.00029393833,-0.027665228,1.0471791,0.057907,2.6674985e-05,0.0020310185,0.8332775559910459,-0.0005828499023996174,0.552854569455278,0.0006760356510181948,0.9999997708642746,3.5315677726716445e-05,-0.5528544633602845,0.0003443216371557969,0.8332777590847018,0.07067476,0.00053130736,0.11086674,0.0007744113,1.495952e-05,-0.015313955,1.047179,-0.05645697,-6.0700415e-05,0.006754758,0.8369224697291862,0.0009470193546557229,-0.547320639859983,-0.0007824727684718007,0.9999995514064882,0.0005337819674011751,0.5473208998373496,-1.8470626141297046e-05,0.8369228353080527,-0.050297227,-0.24270467,0.093662284,0.83140564,-0.15362374,0.48376173,0.26666772,0.00020577805,0.010812155,0.008864052,0.5571893368075631,0.744767834702549,-0.3672341423947731,-0.8295932227639793,0.518576825609609,-0.20701004971917542,0.036264689327531296,0.41999874801377396,0.9067998257470278,left_images/camera_left_69.png,right_images/camera_right_69.png
2025-06-27 14:56:21,3.855257987976074,70,-0.034323033,-0.00027721698,0.11403818,-0.00067708344,0.00029394357,-0.027665228,1.0471791,0.057907,2.6674985e-05,0.0020310185,0.8332775559910459,-0.0005828499023996174,0.552854569455278,0.0006760356510181948,0.9999997708642746,3.5315677726716445e-05,-0.5528544633602845,0.0003443216371557969,0.8332777590847018,0.07067476,0.0005313039,0.11086674,0.0007744218,1.4985284e-05,-0.015313955,1.047179,-0.05645697,-6.0710543e-05,0.00675476,0.8369224196507395,0.0009473747875445899,-0.5473207158211386,-0.0007825654539062972,0.999999551062844,0.0005342896414505045,0.5473209762810685,-1.8844695108193455e-05,0.8369227853079493,-0.042191632,-0.24294429,0.09415995,0.830981,-0.14739218,0.4906915,0.29333407,0.00089457305,0.010963978,0.008402223,0.5550081749876193,0.7427135481154219,-0.37462315884460873,-0.8304574893109453,0.5207126934468054,-0.1979864877478616,0.048023787275401825,0.42099272716897856,0.9057918301279565,left_images/camera_left_70.png,right_images/camera_right_70.png
2025-06-27 14:56:21,3.907930612564087,71,-0.034323033,-0.00027721698,0.11403818,-0.000677084,0.0002939488,-0.027665228,1.0471791,0.057907,2.6674985e-05,0.0020310185,0.8332775559910459,-0.0005828499023996174,0.552854569455278,0.0006760356510181948,0.9999997708642746,3.5315677726716445e-05,-0.5528544633602845,0.0003443216371557969,0.8332777590847018,0.07067476,0.000531294,0.11086674,0.00077438535,1.50464175e-05,-0.015313957,1.047179,-0.05645697,-6.0710543e-05,0.00675476,0.8369224196507395,0.0009473747875445899,-0.5473207158211386,-0.0007825654539062972,0.999999551062844,0.0005342896414505045,0.5473209762810685,-1.8844695108193455e-05,0.8369227853079493,-0.035708006,-0.24280034,0.094566554,0.8312821,-0.14248672,0.49526078,0.32000035,0.0014458091,0.011065668,0.008013183,0.5530787793148819,0.7414894666088232,-0.37986475853877677,-0.8312001729271676,0.5221110969427077,-0.1910661534001492,0.05665806559888134,0.4214182878773125,0.9050947410327538,left_images/camera_left_71.png,right_images/camera_right_71.png
2025-06-27 14:56:21,3.9548635482788086,72,-0.034323033,-0.00027721698,0.11403818,-0.0006770846,0.00029395404,-0.027665228,1.0471791,0.057907,2.6674985e-05,0.0020310185,0.8332775559910459,-0.0005828499023996174,0.552854569455278,0.0006760356510181948,0.9999997708642746,3.5315677726716445e-05,-0.5528544633602845,0.0003443216371557969,0.8332777590847018,0.07067476,0.0005312835,0.11086674,0.0007743489,1.5107552e-05,-0.015313959,1.047179,-0.05645697,-6.0710543e-05,0.00675476,0.8369224196507395,0.0009473747875445899,-0.5473207158211386,-0.0007825654539062972,0.999999551062844,0.0005342896414505045,0.5473209762810685,-1.8844695108193455e-05,0.8369227853079493,-0.030384911,-0.24271357,0.09486919,0.8330648,-0.13869649,0.4989467,0.346667,0.0019031946,0.011131991,0.007723701,0.5503134692639904,0.7414928211448484,-0.3838534638860054,-0.8325600487574101,0.52212567239265,-0.18500958743152196,0.06323646700828461,0.42139432651517383,0.9046700894918175,left_images/camera_left_72.png,right_images/camera_right_72.png
2025-06-27 14:56:22,4.004613637924194,73,-0.034323033,-0.00027721698,0.11403818,-0.0006770852,0.00029395928,-0.027665228,1.0471791,0.057907,2.6674985e-05,0.0020310185,0.8332775559910459,-0.0005828499023996174,0.552854569455278,0.0006760356510181948,0.9999997708642746,3.5315677726716445e-05,-0.5528544633602845,0.0003443216371557969,0.8332777590847018,0.07067476,0.000531273,0.11086674,0.0007743125,1.5168686e-05,-0.015313961,1.047179,-0.05645697,-6.0710543e-05,0.00675476,0.8369224196507395,0.0009473747875445899,-0.5473207158211386,-0.0007825654539062972,0.999999551062844,0.0005342896414505045,0.5473209762810685,-1.8844695108193455e-05,0.8369227853079493,-0.026082855,-0.2427749,0.095086925,0.83553076,-0.13502547,0.5014768,0.3733335,0.0022639723,0.01117704,0.007513838,0.5477244907033978,0.742226927950045,-0.3861308971185061,-0.8338990249377519,0.5217556258903402,-0.17995411376138654,0.06789917887257788,0.42055945391539834,0.9047206459625047,left_images/camera_left_73.png,right_images/camera_right_73.png
2025-06-27 14:56:22,4.06575083732605,74,-0.034323033,-0.00027721698,0.11403818,-0.0006770858,0.00029396452,-0.027665228,1.0471791,0.057907,2.6674985e-05,0.0020310185,0.8332775559910459,-0.0005828499023996174,0.552854569455278,0.0006760356510181948,0.9999997708642746,3.5315677726716445e-05,-0.5528544633602845,0.0003443216371557969,0.8332777590847018,0.07067476,0.00053126254,0.11086674,0.00077427604,1.5229821e-05,-0.0153139625,1.047179,-0.05645697,-6.0710543e-05,0.00675476,0.8369224196507395,0.0009473747875445899,-0.5473207158211386,-0.0007825654539062972,0.999999551062844,0.0005342896414505045,0.5473209762810685,-1.8844695108193455e-05,0.8369227853079493,-0.022590498,-0.24291146,0.095263265,0.8388673,-0.13244812,0.50432986,0.40000013,0.002564812,0.011212687,0.0073494622,0.5442247231134072,0.7436778575665351,-0.38828172107038883,-0.835851508459781,0.5203259466223527,-0.1749661826669966,0.07191457819971936,0.41976678458020056,0.9047785032843981,left_images/camera_left_74.png,right_images/camera_right_74.png
2025-06-27 14:56:22,4.134937763214111,75,-0.034323033,-0.00027721698,0.11403818,-0.00067708635,0.00029396976,-0.027665228,1.0471791,0.057907,2.6674985e-05,0.0020310185,0.8332775559910459,-0.0005828499023996174,0.552854569455278,0.0006760356510181948,0.9999997708642746,3.5315677726716445e-05,-0.5528544633602845,0.0003443216371557969,0.8332777590847018,0.07067476,0.00053125207,0.11086674,0.0007742396,1.529096e-05,-0.015313964,1.047179,-0.05645697,-6.0710543e-05,0.00675476,0.8369224196507395,0.0009473747875445899,-0.5473207158211386,-0.0007825654539062972,0.999999551062844,0.0005342896414505045,0.5473209762810685,-1.8844695108193455e-05,0.8369227853079493,-0.019767884,-0.24292542,0.09545798,0.84653926,-0.1311626,0.5072146,0.4266668,0.0028111907,0.01124073,0.007162774,0.5374008204065915,0.7480460956043183,-0.3893936274227623,-0.8400408751991925,0.5155483821329556,-0.16894139124165639,0.07437530652640534,0.41789580583110264,0.9054454203583319,left_images/camera_left_75.png,right_images/camera_right_75.png
2025-06-27 14:56:22,4.20104718208313,76,-0.034323033,-0.00027721698,0.11403818,-0.00067708694,0.000293975,-0.027665228,1.0471791,0.057907,2.6674985e-05,0.0020310185,0.8332775559910459,-0.0005828499023996174,0.552854569455278,0.0006760356510181948,0.9999997708642746,3.5315677726716445e-05,-0.5528544633602845,0.0003443216371557969,0.8332777590847018,0.07067476,0.0005312416,0.11086674,0.00077420316,1.53521e-05,-0.015313966,1.047179,-0.05645697,-6.0710543e-05,0.00675476,0.8369224196507395,0.0009473747875445899,-0.5473207158211386,-0.0007825654539062972,0.999999551062844,0.0005342896414505045,0.5473209762810685,-1.8844695108193455e-05,0.8369227853079493,-0.017574979,-0.24216889,0.09566184,0.85447335,-0.13095517,0.5101519,0.45333362,0.0030114478,0.011215147,0.0069390377,0.530145548866104,0.7526230931859831,-0.39051783137344787,-0.8444102469783562,0.510412698880162,-0.16263521027078004,0.07692224525720229,0.41597759125346206,0.9061156723948431,left_images/camera_left_76.png,right_images/camera_right_76.png
2025-06-27 14:56:22,4.262414932250977,77,-0.034323033,-0.00027721698,0.11403818,-0.0006770875,0.00029398024,-0.027665228,1.0471791,0.057907,2.6674985e-05,0.0020310185,0.8332775559910459,-0.0005828499023996174,0.552854569455278,0.0006760356510181948,0.9999997708642746,3.5315677726716445e-05,-0.5528544633602845,0.0003443216371557969,0.8332777590847018,0.07067476,0.00053123845,0.11086674,0.00077421934,1.5326386e-05,-0.015313967,1.047179,-0.05645697,-6.0710543e-05,0.00675476,0.8369224196507395,0.0009473747875445899,-0.5473207158211386,-0.0007825654539062972,0.999999551062844,0.0005342896414505045,0.5473209762810685,-1.8844695108193455e-05,0.8369227853079493,-0.01588537,-0.24050003,0.095833935,0.8616603,-0.1307389,0.51274705,0.48000038,0.0031639435,0.011101182,0.006702561,0.5236788172596964,0.7568071386663462,-0.39115655589181025,-0.8481636594671251,0.5062116348034607,-0.156103131131128,0.07986803561387806,0.4135126789510393,0.906988622439066,left_images/camera_left_77.png,right_images/camera_right_77.png
2025-06-27 14:56:22,4.311460733413696,78,-0.034323033,-0.00027721698,0.11403818,-0.0006770881,0.00029398547,-0.027665228,1.0471791,0.057907,2.6674985e-05,0.0020310185,0.8332775559910459,-0.0005828499023996174,0.552854569455278,0.0006760356510181948,0.9999997708642746,3.5315677726716445e-05,-0.5528544633602845,0.0003443216371557969,0.8332777590847018,0.07067476,0.0005312311,0.11086674,0.00077420106,1.5354379e-05,-0.015313912,1.047179,-0.05645697,-6.0710543e-05,0.00675476,0.8369224196507395,0.0009473747875445899,-0.5473207158211386,-0.0007825654539062972,0.999999551062844,0.0005342896414505045,0.5473209762810685,-1.8844695108193455e-05,0.8369227853079493,-0.014681276,-0.23743239,0.095975175,0.86891747,-0.13082433,0.5144963,0.5066672,0.0032701644,0.010860124,0.006430406,0.517514618902025,0.761095210108195,-0.39104053546027007,-0.8516457131485321,0.5024393270654873,-0.14917875818530216,0.08293490518726374,0.41023018388258947,0.908203169854211,left_images/camera_left_78.png,right_images/camera_right_78.png
2025-06-27 14:56:22,4.362197399139404,79,-0.034323033,-0.0002772162,0.11403818,-0.00067709014,0.00029390666,-0.027665228,1.0471791,0.057907,2.6674985e-05,0.0020310185,0.8332775559910459,-0.0005828499023996174,0.552854569455278,0.0006760356510181948,0.9999997708642746,3.5315677726716445e-05,-0.5528544633602845,0.0003443216371557969,0.8332777590847018,0.07067476,0.00053122826,0.11086674,0.00077421725,1.532866e-05,-0.015313912,1.047179,-0.05645697,-6.0710543e-05,0.00675476,0.8369224196507395,0.0009473747875445899,-0.5473207158211386,-0.0007825654539062972,0.999999551062844,0.0005342896414505045,0.5473209762810685,-1.8844695108193455e-05,0.8369227853079493,-0.013885657,-0.23246893,0.09609053,0.87712914,-0.13152067,0.5159257,0.53333414,0.00334191,0.010445023,0.0060978504,0.5106814719670028,0.7659918933216314,-0.39046235869179224,-0.855375213815551,0.49851394177596353,-0.14077319860325613,0.08681980061953529,0.40588208782913027,0.9097923131131911,left_images/camera_left_79.png,right_images/camera_right_79.png
2025-06-27 14:56:22,4.413517236709595,80,-0.034323033,-0.0002772162,0.11403818,-0.00067709066,0.00029391187,-0.027665228,1.0471791,0.057907,2.6674985e-05,0.0020310185,0.8332775559910459,-0.0005828499023996174,0.552854569455278,0.0006760356510181948,0.9999997708642746,3.5315677726716445e-05,-0.5528544633602845,0.0003443216371557969,0.8332777590847018,0.07067476,0.0005312265,0.11086674,0.0007742334,1.530293e-05,-0.015313913,1.047179,-0.05645697,-6.0710543e-05,0.00675476,0.8369224196507395,0.0009473747875445899,-0.5473207158211386,-0.0007825654539062972,0.999999551062844,0.0005342896414505045,0.5473209762810685,-1.8844695108193455e-05,0.8369227853079493,-0.013335114,-0.2264596,0.096192524,0.8852457,-0.13203137,0.51750475,0.560001,0.0033884416,0.009928105,0.0057314,0.5039760630687654,0.7708548853818262,-0.3896034824493739,-0.8588320250696295,0.4951565158420693,-0.13125386673901024,0.0917370185285476,0.4007527548278544,0.9115818937042238,left_images/camera_left_80.png,right_images/camera_right_80.png
2025-06-27 14:56:22,4.461310863494873,81,-0.034323033,-0.0002772162,0.11403818,-0.00067709124,0.0002939171,-0.027665228,1.0471791,0.057907,2.6674985e-05,0.0020310185,0.8332775559910459,-0.0005828499023996174,0.552854569455278,0.0006760356510181948,0.9999997708642746,3.5315677726716445e-05,-0.5528544633602845,0.0003443216371557969,0.8332777590847018,0.07067476,0.00053121743,0.11086674,0.000774197,1.5364054e-05,-0.015313915,1.047179,-0.05645697,-6.0715178e-05,0.006754762,0.8369224323208172,0.0009474393013052293,-0.547320696335318,-0.0007824353458821521,0.9999995509953272,0.0005346064657343456,0.5473209570929444,-1.9181085291239245e-05,0.8369227978487318,-0.012869716,-0.2187647,0.096303575,0.89463955,-0.1305876,0.5179401,0.586668,0.00339205,0.009251925,0.0052698934,0.49755637662532903,0.7766473013872748,-0.38633744489414645,-0.861969835584502,0.49257909064973937,-0.11989095877964523,0.09718875769295798,0.3926637348960809,0.9145324142290201,left_images/camera_left_81.png,right_images/camera_right_81.png
2025-06-27 14:56:22,4.511546611785889,82,-0.034323033,-0.0002772162,0.11403818,-0.0006770918,0.00029392235,-0.027665228,1.0471791,0.057907,2.6674985e-05,0.0020310185,0.8332775559910459,-0.0005828499023996174,0.552854569455278,0.0006760356510181948,0.9999997708642746,3.5315677726716445e-05,-0.5528544633602845,0.0003443216371557969,0.8332777590847018,0.07067476,0.0005312174,0.11086674,0.0007741682,1.5399657e-05,-0.015313943,1.047179,-0.05645697,-6.0715178e-05,0.006754762,0.8369224323208172,0.0009474393013052293,-0.547320696335318,-0.0007824353458821521,0.9999995509953272,0.0005346064657343456,0.5473209570929444,-1.9181085291239245e-05,0.8369227978487318,-0.012513002,-0.21103969,0.09636265,0.905174,-0.12854,0.5169532,0.6133348,0.0033683195,0.008547369,0.0048508393,0.4910876939240061,0.78315630478771,-0.3814434153942903,-0.8652053950981754,0.48940887560531765,-0.10908059759530381,0.10125463529839843,0.3835950400487446,0.9179337362144341,left_images/camera_left_82.png,right_images/camera_right_82.png
2025-06-27 14:56:22,4.563186168670654,83,-0.034323033,-0.0002772162,0.11403818,-0.0006770924,0.0002939276,-0.027665228,1.0471791,0.057907,2.6674985e-05,0.0020310185,0.8332775559910459,-0.0005828499023996174,0.552854569455278,0.0006760356510181948,0.9999997708642746,3.5315677726716445e-05,-0.5528544633602845,0.0003443216371557969,0.8332777590847018,0.07067476,0.00053122354,0.11086674,0.00077419204,1.5348418e-05,-0.015313943,1.047179,-0.05645697,-6.0710543e-05,0.00675476,0.8369224196507395,0.0009473747875445899,-0.5473207158211386,-0.0007825654539062972,0.999999551062844,0.0005342896414505045,0.5473209762810685,-1.8844695108193455e-05,0.8369227853079493,-0.012204094,-0.20307855,0.09629295,0.91623944,-0.12643702,0.51417786,0.64000154,0.0033307103,0.0077728485,0.0045396583,0.4848903161076805,0.7899201920211625,-0.3753764398337265,-0.8683898529718159,0.48581343493162743,-0.09942016744866905,0.10382891986619927,0.3741809678179571,0.9215249094420809,left_images/camera_left_83.png,right_images/camera_right_83.png
2025-06-27 14:56:22,4.6182379722595215,84,-0.034323033,-0.0002772162,0.11403818,-0.000677093,0.00029393283,-0.027665228,1.0471791,0.057907,2.6674985e-05,0.0020310185,0.8332775559910459,-0.0005828499023996174,0.552854569455278,0.0006760356510181948,0.9999997708642746,3.5315677726716445e-05,-0.5528544633602845,0.0003443216371557969,0.8332777590847018,0.07067476,0.0005312218,0.11086674,0.0007742082,1.5322694e-05,-0.015313944,1.047179,-0.05645697,-6.0710543e-05,0.00675476,0.8369224196507395,0.0009473747875445899,-0.5473207158211386,-0.0007825654539062972,0.999999551062844,0.0005342896414505045,0.5473209762810685,-1.8844695108193455e-05,0.8369227853079493,-0.011755868,-0.1957291,0.096135445,0.92684937,-0.124297194,0.5115432,0.6666682,0.0033082569,0.00701266,0.0043410007,0.4788605076816994,0.7962991728430743,-0.36959469897748876,-0.8714399472458253,0.4821074084744996,-0.09035964275158948,0.10623103372846351,0.36534924938124264,0.9247891075534704,left_images/camera_left_84.png,right_images/camera_right_84.png
2025-06-27 14:56:22,4.67428731918335,85,-0.034323033,-0.0002772162,0.11403818,-0.0006770936,0.00029393806,-0.027665228,1.0471791,0.057907,2.6674985e-05,0.0020310185,0.8332775559910459,-0.0005828499023996174,0.552854569455278,0.0006760356510181948,0.9999997708642746,3.5315677726716445e-05,-0.5528544633602845,0.0003443216371557969,0.8332777590847018,0.07067476,0.0005312127,0.11086674,0.0007741718,1.5383817e-05,-0.015313946,1.047179,-0.05645697,-6.0715178e-05,0.006754762,0.8369224323208172,0.0009474393013052293,-0.547320696335318,-0.0007824353458821521,0.9999995509953272,0.0005346064657343456,0.5473209570929444,-1.9181085291239245e-05,0.8369227978487318,-0.011330486,-0.1883347,0.09592994,0.9367608,-0.12111493,0.50903165,0.69333494,0.0032713716,0.006221264,0.004185671,0.47364681215033877,0.802282477461397,-0.3633201394063159,-0.8739247822426282,0.4792665673848103,-0.08098785322106208,0.10915206054856211,0.35587411221608145,0.9281376212245784,left_images/camera_left_85.png,right_images/camera_right_85.png
2025-06-27 14:56:22,4.7328269481658936,86,-0.034323033,-0.0002772162,0.11403818,-0.00067709415,0.0002939433,-0.027665228,1.0471791,0.057907,2.6674985e-05,0.0020310185,0.8332775559910459,-0.0005828499023996174,0.552854569455278,0.0006760356510181948,0.9999997708642746,3.5315677726716445e-05,-0.5528544633602845,0.0003443216371557969,0.8332777590847018,0.07067476,0.0005312188,0.11086674,0.00077419565,1.533257e-05,-0.015313946,1.047179,-0.05645697,-6.0710543e-05,0.00675476,0.8369224196507395,0.0009473747875445899,-0.5473207158211386,-0.0007825654539062972,0.999999551062844,0.0005342896414505045,0.5473209762810685,-1.8844695108193455e-05,0.8369227853079493,-0.010982488,-0.18175653,0.09574462,0.9450046,-0.11842263,0.50657,0.7200016,0.0032374589,0.005522153,0.004057726,0.4694212588420106,0.8072053187310312,-0.3578592672539252,-0.8758874894953524,0.4769412029046607,-0.07313135249251132,0.11164581269671854,0.34777386673554045,0.9309073799917474,left_images/camera_left_86.png,right_images/camera_right_86.png
2025-06-27 14:56:22,4.7967493534088135,87,-0.034323033,-0.0002772162,0.11403818,-0.00067709474,0.00029394854,-0.027665228,1.0471791,0.057907,2.6674985e-05,0.0020310185,0.8332775559910459,-0.0005828499023996174,0.552854569455278,0.0006760356510181948,0.9999997708642746,3.5315677726716445e-05,-0.5528544633602845,0.0003443216371557969,0.8332777590847018,0.07067476,0.000531217,0.11086674,0.00077421183,1.5306845e-05,-0.015313947,1.047179,-0.05645697,-6.0710543e-05,0.00675476,0.8369224196507395,0.0009473747875445899,-0.5473207158211386,-0.0007825654539062972,0.999999551062844,0.0005342896414505045,0.5473209762810685,-1.8844695108193455e-05,0.8369227853079493,-0.010682221,-0.1752867,0.09559759,0.95233774,-0.115723774,0.5045423,0.7466682,0.0032020626,0.004849448,0.003906889,0.46569414592545755,0.8115646503918497,-0.35283392791101265,-0.8774903174682513,0.4751252306227953,-0.06532042540510072,0.11462855316292915,0.3400276951367205,0.9334031612008732,left_images/camera_left_87.png,right_images/camera_right_87.png
2025-06-27 14:56:22,4.844606161117554,88,-0.034323033,-0.0002772162,0.11403818,-0.0006770953,0.00029395378,-0.027665228,1.0471791,0.057907,2.6674985e-05,0.0020310185,0.8332775559910459,-0.0005828499023996174,0.552854569455278,0.0006760356510181948,0.9999997708642746,3.5315677726716445e-05,-0.5528544633602845,0.0003443216371557969,0.8332777590847018,0.07067476,0.00053120794,0.11086674,0.0007741754,1.5367968e-05,-0.0153139485,1.047179,-0.05645697,-6.0715178e-05,0.006754762,0.8369224323208172,0.0009474393013052293,-0.547320696335318,-0.0007824353458821521,0.9999995509953272,0.0005346064657343456,0.5473209570929444,-1.9181085291239245e-05,0.8369227978487318,-0.01089324,-0.16827416,0.09550773,0.95770454,-0.113395356,0.5026899,0.77333486,0.0031274438,0.0041622166,0.0036929203,0.4633787781472591,0.8148300344570272,-0.34832760859500256,-0.8782220038775468,0.47475856640251735,-0.05770975249238822,0.1183478764831014,0.33265044502328056,0.9355947100950037,left_images/camera_left_88.png,right_images/camera_right_88.png
2025-06-27 14:56:22,4.8970372676849365,89,-0.034323033,-0.0002772162,0.11403818,-0.0006770959,0.00029395902,-0.027665228,1.0471791,0.057907,2.6674985e-05,0.0020310185,0.8332775559910459,-0.0005828499023996174,0.552854569455278,0.0006760356510181948,0.9999997708642746,3.5315677726716445e-05,-0.5528544633602845,0.0003443216371557969,0.8332777590847018,0.07067476,0.0005312079,0.11086674,0.0007741466,1.540357e-05,-0.015313976,1.047179,-0.056456972,-6.0713766e-05,0.00675476,0.8369226385395538,0.000947426873986706,-0.5473203810222214,-0.0007824448474814335,0.999999551007791,0.0005345692440452026,0.5473206417449024,-1.9145090155993545e-05,0.8369230040770856,-0.011695793,-0.16063099,0.09547771,0.9627861,-0.111071534,0.5014959,0.80000156,0.002998662,0.0034386842,0.003406112,0.46124080068155343,0.8180142963823693,-0.3436706776853339,-0.878702362927763,0.4748403522570181,-0.04907949932096614,0.123040973548673,0.32462170411494073,0.9378068394108173,left_images/camera_left_89.png,right_images/camera_right_89.png
2025-06-27 14:56:22,4.944350957870483,90,-0.034323033,-0.0002772162,0.11403818,-0.0006770965,0.00029396426,-0.027665228,1.0471791,0.057907,2.6674985e-05,0.0020310185,0.8332775559910459,-0.0005828499023996174,0.552854569455278,0.0006760356510181948,0.9999997708642746,3.5315677726716445e-05,-0.5528544633602845,0.0003443216371557969,0.8332777590847018,0.07067476,0.00053119776,0.11086674,0.0007740971,1.5463678e-05,-0.015313976,1.047179,-0.056456972,-6.071805e-05,0.0067547867,0.836922688727147,0.0009471143582628428,-0.5473203048198699,-0.0007820861082970853,0.9999995513004113,0.0005345468131630166,0.5473205655144361,-1.9322748934373288e-05,0.8369230539252633,-0.012883891,-0.1530882,0.095483914,0.9676523,-0.10801378,0.50003344,0.8266682,0.0028207258,0.0027340334,0.0030908305,0.4597732872693068,0.8211691824194803,-0.33806759406677445,-0.8788517808301107,0.4753666448053606,-0.04057216210946757,0.1273894487205211,0.3157653034312288,0.940246883272508,left_images/camera_left_90.png,right_images/camera_right_90.png
2025-06-27 14:56:23,4.995582580566406,91,-0.034323033,-0.0002772162,0.11403818,-0.00067709706,0.0002939695,-0.027665228,1.0471791,0.057907,2.6674985e-05,0.0020310185,0.8332775559910459,-0.0005828499023996174,0.552854569455278,0.0006760356510181948,0.9999997708642746,3.5315677726716445e-05,-0.5528544633602845,0.0003443216371557969,0.8332777590847018,0.07067476,0.00053119985,0.11086674,0.0007740393,1.5477863e-05,-0.015314032,1.047179,-0.056456972,-6.071805e-05,0.0067547867,0.836922688727147,0.0009471143582628428,-0.5473203048198699,-0.0007820861082970853,0.9999995513004113,0.0005345468131630166,0.5473205655144361,-1.9322748934373288e-05,0.8369230539252633,-0.01467167,-0.14533956,0.09550588,0.97399217,-0.104420535,0.49683195,0.8533349,0.002565194,0.0020195325,0.0027513122,0.45818958432545476,0.8252428441636854,-0.3302068336244694,-0.8793183289695514,0.4751066696361397,-0.03275559197223801,0.12985215113298165,0.305365192227089,0.9433400861949259,left_images/camera_left_91.png,right_images/camera_right_91.png
2025-06-27 14:56:23,5.047053575515747,92,-0.034323033,-0.0002772162,0.11403818,-0.00067709765,0.00029397474,-0.027665228,1.0471791,0.057907,2.6674985e-05,0.0020310185,0.8332775559910459,-0.0005828499023996174,0.552854569455278,0.0006760356510181948,0.9999997708642746,3.5315677726716445e-05,-0.5528544633602845,0.0003443216371557969,0.8332777590847018,0.07067476,0.00053120323,0.11086674,0.00077406404,1.5465803e-05,-0.015314088,1.047179,-0.056456972,-6.071805e-05,0.0067547867,0.836922688727147,0.0009471143582628428,-0.5473203048198699,-0.0007820861082970853,0.9999995513004113,0.0005345468131630166,0.5473205655144361,-1.9322748934373288e-05,0.8369230539252633,-0.016994655,-0.13832895,0.09553145,0.9789801,-0.10117404,0.4928192,0.8800015,0.0022626063,0.0013855838,0.0024427855,0.4579076216596032,0.8285661126185601,-0.32217822248906436,-0.8793180187226365,0.4754711037741972,-0.026963891140622587,0.1308450685954287,0.29564408753755583,0.9462949548255783,left_images/camera_left_92.png,right_images/camera_right_92.png
2025-06-27 14:56:23,5.098881959915161,93,-0.034323033,-0.0002772162,0.11403818,-0.0006770982,0.00029397997,-0.027665228,1.0471791,0.057907,2.6674985e-05,0.0020310185,0.8332775559910459,-0.0005828499023996174,0.552854569455278,0.0006760356510181948,0.9999997708642746,3.5315677726716445e-05,-0.5528544633602845,0.0003443216371557969,0.8332777590847018,0.07067476,0.0005312067,0.11086674,0.00077408884,1.5453736e-05,-0.015314144,1.047179,-0.056456972,-6.071805e-05,0.0067547867,0.836922688727147,0.0009471143582628428,-0.5473203048198699,-0.0007820861082970853,0.9999995513004113,0.0005345468131630166,0.5473205655144361,-1.9322748934373288e-05,0.8369230539252633,-0.020245407,-0.13179897,0.09546813,0.9833716,-0.10004646,0.48904902,0.9067278,0.0019043101,0.0007769923,0.0022490611,0.45746148699229444,0.831510289201246,-0.3151501655897692,-0.8795210295344693,0.4753250110821819,-0.022558644603587863,0.13104101085319103,0.28750090920236027,0.9487736720010679,left_images/camera_left_93.png,right_images/camera_right_93.png
2025-06-27 14:56:23,5.151132106781006,94,-0.034323033,-0.0002772162,0.11403818,-0.0006770988,0.0002939852,-0.027665228,1.0471791,0.057907,2.6674985e-05,0.0020310185,0.8332775559910459,-0.0005828499023996174,0.552854569455278,0.0006760356510181948,0.9999997708642746,3.5315677726716445e-05,-0.5528544633602845,0.0003443216371557969,0.8332777590847018,0.07067476,0.0005312102,0.11086674,0.00077411364,1.5441668e-05,-0.0153142,1.047179,-0.056456972,-6.0713766e-05,0.00675476,0.8369226385395538,0.000947426873986706,-0.5473203810222214,-0.0007824448474814335,0.999999551007791,0.0005345692440452026,0.5473206417449024,-1.9145090155993545e-05,0.8369230040770856,-0.026303517,-0.124258064,0.094901815,0.98665154,-0.10236871,0.4857161,0.9333358,0.0013419233,-8.393511e-05,0.002507179,0.45738034144299633,0.833985147964688,-0.3086616209310857,-0.8795637388784208,0.47540836715686563,-0.01882853386368627,0.13103759961057432,0.2800993706018634,0.9509855362079587,left_images/camera_left_94.png,right_images/camera_right_94.png
2025-06-27 14:56:23,5.204161882400513,95,-0.034323033,-0.0002772162,0.11403818,-0.0006770994,0.00029399045,-0.027665228,1.0471791,0.057907004,2.666552e-05,0.0020310166,0.833277650563513,-0.0005830986101088809,0.5528544266507804,0.000676006356666753,0.9999997708665137,3.580958548550568e-05,-0.5528543208538377,0.00034389377946626525,0.8332778538100667,0.07067476,0.00053120253,0.11086674,0.0007741643,1.545739e-05,-0.015314184,1.047179,-0.056456972,-6.0713766e-05,0.00675476,0.8369226385395538,0.000947426873986706,-0.5473203810222214,-0.0007824448474814335,0.999999551007791,0.0005345692440452026,0.5473206417449024,-1.9145090155993545e-05,0.8369230040770856,-0.035139255,-0.116123654,0.094946064,0.9922781,-0.10798808,0.48130327,0.95996153,0.00053587416,-0.0007401275,0.0021989262,0.455544505356975,0.8378565098530568,-0.30079174279877385,-0.8808755739250338,0.47306553993550127,-0.016346809712457444,0.12859792728233072,0.27240679841440707,0.9535497413749852,left_images/camera_left_95.png,right_images/camera_right_95.png
2025-06-27 14:56:23,5.263507843017578,96,-0.034323033,-0.00027721634,0.11403818,-0.00067711127,0.0002939957,-0.027665228,1.0471791,0.05790699,2.6659463e-05,0.0020310166,0.8332776503343804,-0.000583440805224707,0.5528544266351143,0.0006763953225944806,0.9999997706023228,3.584228563864936e-05,-0.5528543207234449,0.00034408157269205723,0.8332778538190546,0.07067476,0.0005311925,0.11086674,0.0007741148,1.5517482e-05,-0.015314184,1.047179,-0.056456972,-6.0713766e-05,0.00675476,0.8369226385395538,0.000947426873986706,-0.5473203810222214,-0.0007824448474814335,0.999999551007791,0.0005345692440452026,0.5473206417449024,-1.9145090155993545e-05,0.8369230040770856,-0.043786757,-0.10942108,0.09510785,0.99904644,-0.11457388,0.47711772,0.9865141,-0.0002456538,-0.0012268329,0.0018429058,0.45225042607717314,0.8421847728617198,-0.2935887608081566,-0.8830821827434594,0.46897806010876975,-0.015014581501421237,0.12504163560215864,0.2660533546048025,0.9558138949970691,left_images/camera_left_96.png,right_images/camera_right_96.png
