jiaqis7/OS_Teleop_Extension/demo_4/teleop_log.csv
Epoch Time (Seconds),Time (Seconds),Frame Number,PSM1_joint_1,PSM1_joint_2,PSM1_joint_3,PSM1_joint_4,PSM1_joint_5,PSM1_joint_6,PSM1_jaw_angle,PSM1_ee_x,PSM1_ee_y,PSM1_ee_z,"PSM1_Orientation_Matrix_[1,1]","PSM1_Orientation_Matrix_[1,2]","PSM1_Orientation_Matrix_[1,3]","PSM1_Orientation_Matrix_[2,1]","PSM1_Orientation_Matrix_[2,2]","PSM1_Orientation_Matrix_[2,3]","PSM1_Orientation_Matrix_[3,1]","PSM1_Orientation_Matrix_[3,2]","PSM1_Orientation_Matrix_[3,3]",PSM2_joint_1,PSM2_joint_2,PSM2_joint_3,PSM2_joint_4,PSM2_joint_5,PSM2_joint_6,PSM2_jaw_angle,PSM2_ee_x,PSM2_ee_y,PSM2_ee_z,"PSM2_Orientation_Matrix_[1,1]","PSM2_Orientation_Matrix_[1,2]","PSM2_Orientation_Matrix_[1,3]","PSM2_Orientation_Matrix_[2,1]","PSM2_Orientation_Matrix_[2,2]","PSM2_Orientation_Matrix_[2,3]","PSM2_Orientation_Matrix_[3,1]","PSM2_Orientation_Matrix_[3,2]","PSM2_Orientation_Matrix_[3,3]",Camera Left,Camera Right
2025-05-02 13:29:06,0.0017080307006835938,1,-0.06551905,-0.0006016835,0.11403263,2.2190812e-05,-0.00022433412,0.012609248,0.7999763,0.035163112,7.417321e-05,0.0028101136,0.8382620685249904,0.00047731433871610557,0.5452673441929439,-3.2670203094976516e-05,0.9999996590290487,-0.0008251511643452593,-0.5452675521291013,0.0006738789269940195,0.838261798295932,-0.0009010954,1.3052984e-05,0.1070866,0.0007104105,0.00013220248,-0.01405711,0.80597985,-0.045237172,-3.9802267e-06,0.0047323313,0.87330977041253,0.0006875147305689095,-0.4871648306533521,-0.0007119619290761279,0.9999997374470075,0.00013496713452763697,0.48716479553866116,0.000228974695342438,0.8733100306067504,left_images/camera_left_1.png,right_images/camera_right_1.png
2025-05-02 13:29:06,0.05036044120788574,2,-0.06551905,-0.00060169084,0.11403263,2.2181524e-05,-0.00022433286,0.012609248,0.7999763,0.035163112,7.417321e-05,0.0028101136,0.8382620685249904,0.00047731433871610557,0.5452673441929439,-3.2670203094976516e-05,0.9999996590290487,-0.0008251511643452593,-0.5452675521291013,0.0006738789269940195,0.838261798295932,-0.0009010882,1.305798e-05,0.1070866,0.00071040675,0.00013219977,-0.01405711,0.80597985,-0.04523718,-3.976571e-06,0.004732332,0.8733098130703887,0.0006875326017479147,-0.4871647541580608,-0.0007121213427399772,0.9999997373670912,0.0001347180063979964,0.487164718835586,0.00022926986188197954,0.8733100733171321,left_images/camera_left_2.png,right_images/camera_right_2.png
2025-05-02 13:29:06,0.0933830738067627,3,-0.06551905,-0.0006016982,0.11403263,2.2172237e-05,-0.00022433161,0.012609248,0.7999763,0.035163112,7.417321e-05,0.0028101136,0.8382620685249904,0.00047731433871610557,0.5452673441929439,-3.2670203094976516e-05,0.9999996590290487,-0.0008251511643452593,-0.5452675521291013,0.0006738789269940195,0.838261798295932,-0.0009010918,1.3057708e-05,0.1070866,0.0007104563,0.00013216857,-0.01405711,0.80597985,-0.045237176,-3.966794e-06,0.0047323303,0.8733097982759784,0.000687772098504685,-0.48716478034101585,-0.0007123908417735077,0.999999737173992,0.00013472651978550175,0.48716474496258266,0.0002293937381332411,0.8733100587099948,left_images/camera_left_3.png,right_images/camera_right_3.png
2025-05-02 13:29:06,0.13374686241149902,4,-0.06551905,-0.0006017055,0.11403263,2.2162949e-05,-0.00022433036,0.012609248,0.7999763,0.035163112,7.417321e-05,0.0028101136,0.8382620685249904,0.00047731433871610557,0.5452673441929439,-3.2670203094976516e-05,0.9999996590290487,-0.0008251511643452593,-0.5452675521291013,0.0006738789269940195,0.838261798295932,-0.00090108963,1.3047117e-05,0.1070866,0.0007104563,0.00013221576,-0.014057082,0.80597985,-0.045237184,-3.972513e-06,0.0047323313,0.8733098409302378,0.0006879288349504329,-0.48716470365608466,-0.000712416798219867,0.9999997371183914,0.00013500167989100042,0.48716466846099216,0.0002291660227934737,0.8733101014452,left_images/camera_left_4.png,right_images/camera_right_4.png
2025-05-02 13:29:06,0.17882275581359863,5,-0.06551905,-0.00060171285,0.11403263,2.2153661e-05,-0.00022432911,0.012609248,0.7999763,0.035163112,7.416695e-05,0.0028101117,0.838262099664182,0.0004772409306413941,0.5452672963856273,-3.2756733915653046e-05,0.9999996592469801,-0.0008248835799455904,-0.5452675042523567,0.000673607465963086,0.838261829656694,-0.00090108917,1.3045945e-05,0.1070866,0.0007104388,0.00013221838,-0.014057082,0.80597985,-0.045237172,-3.9802267e-06,0.0047323313,0.87330977041253,0.0006875147305689095,-0.4871648306533521,-0.0007119619290761279,0.9999997374470075,0.00013496713452763697,0.48716479553866116,0.000228974695342438,0.8733100306067504,left_images/camera_left_5.png,right_images/camera_right_5.png
2025-05-02 13:29:06,0.23592638969421387,6,-0.06551905,-0.0006017102,0.11403263,2.2151675e-05,-0.00022430683,0.012609248,0.7999763,0.035163112,7.416695e-05,0.0028101117,0.838262099664182,0.0004772409306413941,0.5452672963856273,-3.2756733915653046e-05,0.9999996592469801,-0.0008248835799455904,-0.5452675042523567,0.000673607465963086,0.838261829656694,-0.000901086,1.3060821e-05,0.1070866,0.000710385,0.00013222091,-0.014057082,0.80597985,-0.045237172,-3.9802267e-06,0.0047323313,0.87330977041253,0.0006875147305689095,-0.4871648306533521,-0.0007119619290761279,0.9999997374470075,0.00013496713452763697,0.48716479553866116,0.000228974695342438,0.8733100306067504,left_images/camera_left_6.png,right_images/camera_right_6.png
2025-05-02 13:29:06,0.27881884574890137,7,-0.06551905,-0.00060170953,0.11403263,2.2131871e-05,-0.00022431347,0.012609248,0.7999763,0.035163112,7.416695e-05,0.0028101117,0.838262099664182,0.0004772409306413941,0.5452672963856273,-3.2756733915653046e-05,0.9999996592469801,-0.0008248835799455904,-0.5452675042523567,0.000673607465963086,0.838261829656694,-0.00090107933,1.3067422e-05,0.1070866,0.00071038125,0.0001322182,-0.014057082,0.80597985,-0.045237172,-3.9802267e-06,0.0047323313,0.87330977041253,0.0006875147305689095,-0.4871648306533521,-0.0007119619290761279,0.9999997374470075,0.00013496713452763697,0.48716479553866116,0.000228974695342438,0.8733100306067504,left_images/camera_left_7.png,right_images/camera_right_7.png
2025-05-02 13:29:06,0.32164502143859863,8,-0.06551905,-0.00060170953,0.11403263,2.2112063e-05,-0.0002243201,0.012609248,0.7999763,0.035163112,7.416695e-05,0.0028101117,0.838262099664182,0.0004772409306413941,0.5452672963856273,-3.2756733915653046e-05,0.9999996592469801,-0.0008248835799455904,-0.5452675042523567,0.000673607465963086,0.838261829656694,-0.0009010721,1.3072418e-05,0.1070866,0.0007103775,0.0001322155,-0.014057082,0.80597985,-0.045237172,-3.9802267e-06,0.0047323313,0.87330977041253,0.0006875147305689095,-0.4871648306533521,-0.0007119619290761279,0.9999997374470075,0.00013496713452763697,0.48716479553866116,0.000228974695342438,0.8733100306067504,left_images/camera_left_8.png,right_images/camera_right_8.png
2025-05-02 13:29:06,0.3670618534088135,9,-0.06551905,-0.00060170953,0.11403263,2.2092254e-05,-0.00022432674,0.012609248,0.7999763,0.035163097,7.4177005e-05,0.002810116,0.8382620189420833,0.0004770027058049027,0.5452674206914999,-3.243843022780071e-05,0.9999996592142437,-0.0008249358427918979,-0.5452676283687586,0.0006738247658948312,0.8382617487475461,-0.0009010649,1.3077414e-05,0.1070866,0.0007103738,0.0001322128,-0.014057082,0.80597985,-0.045237172,-3.9802267e-06,0.0047323313,0.87330977041253,0.0006875147305689095,-0.4871648306533521,-0.0007119619290761279,0.9999997374470075,0.00013496713452763697,0.48716479553866116,0.000228974695342438,0.8733100306067504,left_images/camera_left_9.png,right_images/camera_right_9.png
2025-05-02 13:29:06,0.4196920394897461,10,-0.06551905,-0.00060171285,0.11403263,2.2077287e-05,-0.00022429478,0.012609304,0.7999763,0.035163105,7.417812e-05,0.0028101136,0.8382622555577823,0.0004769849532092672,0.5452670569478167,-3.23532016722581e-05,0.9999996591353278,-0.0008250348468359745,-0.545267264614748,0.000673954436563822,0.8382619852557838,-0.0009011481,1.3042893e-05,0.1070866,0.00071035343,0.00013225603,-0.014057034,0.80597985,-0.045237172,-3.9802267e-06,0.0047323313,0.87330977041253,0.0006875147305689095,-0.4871648306533521,-0.0007119619290761279,0.9999997374470075,0.00013496713452763697,0.48716479553866116,0.000228974695342438,0.8733100306067504,left_images/camera_left_10.png,right_images/camera_right_10.png
2025-05-02 13:29:06,0.4744856357574463,11,-0.06551905,-0.00060170656,0.11403263,2.2091803e-05,-0.00022434295,0.012609304,0.7999763,0.03516311,7.4182564e-05,0.0028101113,0.8382622428922429,0.0004770697429567905,0.5452670763449106,-3.231190417401101e-05,0.9999996589559885,-0.0008252538077420012,-0.5452672840884616,0.0006741604903130739,0.8382619724229569,-0.00090116245,1.304741e-05,0.1070866,0.0007103831,0.00013218018,-0.014057034,0.80597985,-0.04523718,-3.976571e-06,0.004732332,0.8733098130703887,0.0006875326017479147,-0.4871647541580608,-0.0007121213427399772,0.9999997373670912,0.0001347180063979964,0.487164718835586,0.00022926986188197954,0.8733100733171321,left_images/camera_left_11.png,right_images/camera_right_11.png
2025-05-02 13:29:06,0.5152919292449951,12,-0.06551905,-0.0006016996,0.11403263,2.2086662e-05,-0.00022438954,0.01260936,0.7999763,0.03516311,7.4182564e-05,0.0028101113,0.8382622428922429,0.0004770697429567905,0.5452670763449106,-3.231190417401101e-05,0.9999996589559885,-0.0008252538077420012,-0.5452672840884616,0.0006741604903130739,0.8382619724229569,-0.0009011672,1.3048067e-05,0.1070866,0.00071043265,0.00013214897,-0.014057034,0.80597985,-0.04523718,-3.976571e-06,0.004732332,0.8733098130703887,0.0006875326017479147,-0.4871647541580608,-0.0007121213427399772,0.9999997373670912,0.0001347180063979964,0.487164718835586,0.00022926986188197954,0.8733100733171321,left_images/camera_left_12.png,right_images/camera_right_12.png
2025-05-02 13:29:06,0.5611493587493896,13,-0.06551905,-0.0006016926,0.11403263,2.2081518e-05,-0.00022443614,0.012609416,0.7999763,0.03516311,7.4182564e-05,0.0028101113,0.8382622428922429,0.0004770697429567905,0.5452670763449106,-3.231190417401101e-05,0.9999996589559885,-0.0008252538077420012,-0.5452672840884616,0.0006741604903130739,0.8382619724229569,-0.00090116874,1.3052251e-05,0.1070866,0.0007103988,0.00013219615,-0.014057062,0.80597985,-0.04523718,-3.976571e-06,0.004732332,0.8733098130703887,0.0006875326017479147,-0.4871647541580608,-0.0007121213427399772,0.9999997373670912,0.0001347180063979964,0.487164718835586,0.00022926986188197954,0.8733100733171321,left_images/camera_left_13.png,right_images/camera_right_13.png
2025-05-02 13:29:06,0.6092841625213623,14,-0.06551905,-0.0006016856,0.11403263,2.2076374e-05,-0.00022448273,0.012609472,0.7999763,0.03516311,7.4182564e-05,0.0028101113,0.8382622428922429,0.0004770697429567905,0.5452670763449106,-3.231190417401101e-05,0.9999996589559885,-0.0008252538077420012,-0.5452672840884616,0.0006741604903130739,0.8382619724229569,-0.000901174,1.3053268e-05,0.1070866,0.0007104483,0.00013216495,-0.014057062,0.80597985,-0.045237176,-3.966794e-06,0.0047323303,0.8733097982759784,0.000687772098504685,-0.48716478034101585,-0.0007123908417735077,0.999999737173992,0.00013472651978550175,0.48716474496258266,0.0002293937381332411,0.8733100587099948,left_images/camera_left_14.png,right_images/camera_right_14.png
2025-05-02 13:29:06,0.6524977684020996,15,-0.06551905,-0.0006016786,0.11403263,2.207123e-05,-0.00022452933,0.012609527,0.7999763,0.03516311,7.4182564e-05,0.0028101113,0.8382622428922429,0.0004770697429567905,0.5452670763449106,-3.231190417401101e-05,0.9999996589559885,-0.0008252538077420012,-0.5452672840884616,0.0006741604903130739,0.8382619724229569,-0.00090116856,1.3045202e-05,0.1070866,0.0007104483,0.00013217612,-0.01405709,0.80597985,-0.045237176,-3.966794e-06,0.0047323303,0.8733097982759784,0.000687772098504685,-0.48716478034101585,-0.0007123908417735077,0.999999737173992,0.00013472651978550175,0.48716474496258266,0.0002293937381332411,0.8733100587099948,left_images/camera_left_15.png,right_images/camera_right_15.png
2025-05-02 13:29:06,0.7025578022003174,16,-0.06551905,-0.00060167164,0.11403263,2.2066086e-05,-0.00022457592,0.012609583,0.7999763,0.03516311,7.4182564e-05,0.0028101113,0.8382622428922429,0.0004770697429567905,0.5452670763449106,-3.231190417401101e-05,0.9999996589559885,-0.0008252538077420012,-0.5452672840884616,0.0006741604903130739,0.8382619724229569,-0.000901161,1.3036284e-05,0.1070866,0.0007104483,0.00013218731,-0.0140571175,0.80597985,-0.045237176,-3.966794e-06,0.0047323303,0.8733097982759784,0.000687772098504685,-0.48716478034101585,-0.0007123908417735077,0.999999737173992,0.00013472651978550175,0.48716474496258266,0.0002293937381332411,0.8733100587099948,left_images/camera_left_16.png,right_images/camera_right_16.png
2025-05-02 13:29:06,0.7471082210540771,17,-0.06551905,-0.00060166465,0.11403263,2.2060942e-05,-0.00022462252,0.012609639,0.7999763,0.03516311,7.4182564e-05,0.0028101113,0.8382622428922429,0.0004770697429567905,0.5452670763449106,-3.231190417401101e-05,0.9999996589559885,-0.0008252538077420012,-0.5452672840884616,0.0006741604903130739,0.8382619724229569,-0.00090115675,1.30248445e-05,0.1070866,0.0007104483,0.00013223452,-0.01405709,0.80597985,-0.045237184,-3.972513e-06,0.0047323313,0.8733098409302378,0.0006879288349504329,-0.48716470365608466,-0.000712416798219867,0.9999997371183914,0.00013500167989100042,0.48716466846099216,0.0002291660227934737,0.8733101014452,left_images/camera_left_17.png,right_images/camera_right_17.png
2025-05-02 13:29:06,0.797473669052124,18,-0.06551905,-0.00060165767,0.11403263,2.2073973e-05,-0.00022465321,0.012609639,0.7999763,0.03516311,7.4182564e-05,0.0028101113,0.8382622428922429,0.0004770697429567905,0.5452670763449106,-3.231190417401101e-05,0.9999996589559885,-0.0008252538077420012,-0.5452672840884616,0.0006741604903130739,0.8382619724229569,-0.0009011654,1.3016569e-05,0.1070866,0.00071051397,0.00013222884,-0.0140571175,0.80597985,-0.045237184,-3.972513e-06,0.0047323313,0.8733098409302378,0.0006879288349504329,-0.48716470365608466,-0.000712416798219867,0.9999997371183914,0.00013500167989100042,0.48716466846099216,0.0002291660227934737,0.8733101014452,left_images/camera_left_18.png,right_images/camera_right_18.png
2025-05-02 13:29:06,0.8425922393798828,19,-0.06551905,-0.0006016507,0.11403263,2.2087008e-05,-0.0002246839,0.012609639,0.7999763,0.03516311,7.4182564e-05,0.0028101113,0.8382622428922429,0.0004770697429567905,0.5452670763449106,-3.231190417401101e-05,0.9999996589559885,-0.0008252538077420012,-0.5452672840884616,0.0006741604903130739,0.8382619724229569,-0.0009011668,1.3014954e-05,0.1070866,0.0007104965,0.00013223146,-0.0140571175,0.80597985,-0.045237184,-3.972513e-06,0.0047323313,0.8733098409302378,0.0006879288349504329,-0.48716470365608466,-0.000712416798219867,0.9999997371183914,0.00013500167989100042,0.48716466846099216,0.0002291660227934737,0.8733101014452,left_images/camera_left_19.png,right_images/camera_right_19.png
2025-05-02 13:29:06,0.8875734806060791,20,-0.06551905,-0.00060164597,0.11403263,2.206761e-05,-0.00022466062,0.012609639,0.7999763,0.03516311,7.4182564e-05,0.0028101113,0.8382622428922429,0.0004770697429567905,0.5452670763449106,-3.231190417401101e-05,0.9999996589559885,-0.0008252538077420012,-0.5452672840884616,0.0006741604903130739,0.8382619724229569,-0.0009011668,1.3014502e-05,0.1070866,0.00071047904,0.00013223408,-0.0140571175,0.80597985,-0.045237184,-3.972513e-06,0.0047323313,0.8733098409302378,0.0006879288349504329,-0.48716470365608466,-0.000712416798219867,0.9999997371183914,0.00013500167989100042,0.48716466846099216,0.0002291660227934737,0.8733101014452,left_images/camera_left_20.png,right_images/camera_right_20.png
2025-05-02 13:29:07,0.9304864406585693,21,-0.06551905,-0.0006016392,0.11403263,2.208064e-05,-0.00022469129,0.012609639,0.7999763,0.03516311,7.4182564e-05,0.0028101113,0.8382622428922429,0.0004770697429567905,0.5452670763449106,-3.231190417401101e-05,0.9999996589559885,-0.0008252538077420012,-0.5452672840884616,0.0006741604903130739,0.8382619724229569,-0.0009011668,1.3014051e-05,0.1070866,0.0007104616,0.0001322367,-0.0140571175,0.80597985,-0.045237184,-3.972513e-06,0.0047323313,0.8733098409302378,0.0006879288349504329,-0.48716470365608466,-0.000712416798219867,0.9999997371183914,0.00013500167989100042,0.48716466846099216,0.0002291660227934737,0.8733101014452,left_images/camera_left_21.png,right_images/camera_right_21.png
2025-05-02 13:29:07,0.9798984527587891,22,-0.06551905,-0.0006016345,0.11403263,2.2061242e-05,-0.00022466801,0.012609639,0.7999763,0.03516311,7.4182564e-05,0.0028101113,0.8382622428922429,0.0004770697429567905,0.5452670763449106,-3.231190417401101e-05,0.9999996589559885,-0.0008252538077420012,-0.5452672840884616,0.0006741604903130739,0.8382619724229569,-0.0009011668,1.30135995e-05,0.1070866,0.0007104441,0.00013223932,-0.0140571175,0.80597985,-0.045237184,-3.972513e-06,0.0047323313,0.8733098409302378,0.0006879288349504329,-0.48716470365608466,-0.000712416798219867,0.9999997371183914,0.00013500167989100042,0.48716466846099216,0.0002291660227934737,0.8733101014452,left_images/camera_left_22.png,right_images/camera_right_22.png
2025-05-02 13:29:07,1.023972749710083,23,-0.06551905,-0.00060162775,0.11403263,2.2074271e-05,-0.00022469868,0.012609639,0.7999763,0.03516311,7.4182564e-05,0.0028101113,0.8382622428922429,0.0004770697429567905,0.5452670763449106,-3.231190417401101e-05,0.9999996589559885,-0.0008252538077420012,-0.5452672840884616,0.0006741604903130739,0.8382619724229569,-0.00090117595,1.3006049e-05,0.1070866,0.0007105098,0.00013223365,-0.014057145,0.80597985,-0.045237184,-3.9703564e-06,0.0047323303,0.8733100095580196,0.0006878868237451427,-0.4871644014267561,-0.0007124240084420273,0.9999997371266589,0.00013490235555737006,0.48716436616177505,0.0002292560382135042,0.8733102700551878,left_images/camera_left_23.png,right_images/camera_right_23.png
2025-05-02 13:29:07,1.068006992340088,24,-0.06551905,-0.00060162303,0.11403263,2.2054874e-05,-0.0002246754,0.012609639,0.7999763,0.03516311,7.4182564e-05,0.0028101113,0.8382622428922429,0.0004770697429567905,0.5452670763449106,-3.231190417401101e-05,0.9999996589559885,-0.0008252538077420012,-0.5452672840884616,0.0006741604903130739,0.8382619724229569,-0.0009011775,1.3006972e-05,0.1070866,0.0007104972,0.00013220032,-0.014057154,0.80597985,-0.04523718,-3.9648803e-06,0.0047323275,0.8733099680094234,0.0006877400603704032,-0.4871644761156024,-0.0007124595640152212,0.9999997371504947,0.000134537397026,0.48716444059141834,0.0002295921403641785,0.8733102284473139,left_images/camera_left_24.png,right_images/camera_right_24.png
2025-05-02 13:29:07,1.1118338108062744,25,-0.06551905,-0.0006016163,0.11403263,2.2067903e-05,-0.00022470608,0.012609639,0.7999763,0.03516311,7.418878e-05,0.0028101117,0.8382622867112572,0.0004773046947490541,0.5452670087744554,-3.235311657373669e-05,0.9999996586511963,-0.0008256214425152314,-0.545267216721205,0.000674446231261972,0.8382620160137231,-0.00090117054,1.3012681e-05,0.1070866,0.0007105182,0.00013216374,-0.01405721,0.80597985,-0.04523718,-3.9648803e-06,0.0047323275,0.8733099680094234,0.0006877400603704032,-0.4871644761156024,-0.0007124595640152212,0.9999997371504947,0.000134537397026,0.48716444059141834,0.0002295921403641785,0.8733102284473139,left_images/camera_left_25.png,right_images/camera_right_25.png
2025-05-02 13:29:07,1.1630504131317139,26,-0.06551905,-0.00060161774,0.11403263,2.209999e-05,-0.00022472952,0.012609639,0.7999763,0.035163123,7.4181364e-05,0.0028101113,0.838262305107518,0.00047765115107966543,0.5452669801897122,-3.2699557567076134e-05,0.9999996585550225,-0.0008257242742431528,-0.5452671884191905,0.0006743435445021584,0.8382620345060455,-0.00090116356,1.3018413e-05,0.1070866,0.0007105393,0.00013212716,-0.014057266,0.80597985,-0.04523718,-3.9648803e-06,0.0047323275,0.8733099680094234,0.0006877400603704032,-0.4871644761156024,-0.0007124595640152212,0.9999997371504947,0.000134537397026,0.48716444059141834,0.0002295921403641785,0.8733102284473139,left_images/camera_left_26.png,right_images/camera_right_26.png
2025-05-02 13:29:07,1.2187819480895996,27,-0.06551905,-0.0006016232,0.11403263,2.2119866e-05,-0.00022474857,0.012609611,0.7999763,0.035163123,7.4181364e-05,0.0028101113,0.838262305107518,0.00047765115107966543,0.5452669801897122,-3.2699557567076134e-05,0.9999996585550225,-0.0008257242742431528,-0.5452671884191905,0.0006743435445021584,0.8382620345060455,-0.00090115657,1.3024144e-05,0.1070866,0.00071056036,0.00013209057,-0.0140573215,0.80597985,-0.04523718,-3.9648803e-06,0.0047323275,0.8733099680094234,0.0006877400603704032,-0.4871644761156024,-0.0007124595640152212,0.9999997371504947,0.000134537397026,0.48716444059141834,0.0002295921403641785,0.8733102284473139,left_images/camera_left_27.png,right_images/camera_right_27.png
2025-05-02 13:29:07,1.2603421211242676,28,-0.06551905,-0.00060163316,0.11403263,2.212635e-05,-0.00022467916,0.012609611,0.7999763,0.03516312,7.4174204e-05,0.0028101145,0.8382623177978238,0.00047736270996713483,0.5452669609329573,-3.265108670489345e-05,0.9999996589317499,-0.0008252698288634019,-0.5452671689127512,0.0006739890407329129,0.8382620474795732,-0.0009011496,1.3029876e-05,0.1070866,0.00071058143,0.00013205399,-0.014057377,0.80597985,-0.04523718,-3.9648803e-06,0.0047323275,0.8733099680094234,0.0006877400603704032,-0.4871644761156024,-0.0007124595640152212,0.9999997371504947,0.000134537397026,0.48716444059141834,0.0002295921403641785,0.8733102284473139,left_images/camera_left_28.png,right_images/camera_right_28.png
2025-05-02 13:29:07,1.3038904666900635,29,-0.06551905,-0.0006016336,0.11403263,2.2122716e-05,-0.00022468685,0.012609611,0.7999763,0.03516312,7.4174204e-05,0.0028101145,0.8382623177978238,0.00047736270996713483,0.5452669609329573,-3.265108670489345e-05,0.9999996589317499,-0.0008252698288634019,-0.5452671689127512,0.0006739890407329129,0.8382620474795732,-0.0009011426,1.30356075e-05,0.1070866,0.0007106025,0.0001320174,-0.014057433,0.80597985,-0.04523718,-3.9648803e-06,0.0047323275,0.8733099680094234,0.0006877400603704032,-0.4871644761156024,-0.0007124595640152212,0.9999997371504947,0.000134537397026,0.48716444059141834,0.0002295921403641785,0.8733102284473139,left_images/camera_left_29.png,right_images/camera_right_29.png
2025-05-02 13:29:07,1.3490581512451172,30,-0.06551905,-0.0006016336,0.11403263,2.2119082e-05,-0.00022469454,0.012609611,0.7999763,0.03516312,7.4174204e-05,0.0028101145,0.8382623177978238,0.00047736270996713483,0.5452669609329573,-3.265108670489345e-05,0.9999996589317499,-0.0008252698288634019,-0.5452671689127512,0.0006739890407329129,0.8382620474795732,-0.0009011356,1.3041339e-05,0.1070866,0.0007106236,0.00013198082,-0.014057489,0.80597985,-0.04523718,-3.9648803e-06,0.0047323275,0.8733099680094234,0.0006877400603704032,-0.4871644761156024,-0.0007124595640152212,0.9999997371504947,0.000134537397026,0.48716444059141834,0.0002295921403641785,0.8733102284473139,left_images/camera_left_30.png,right_images/camera_right_30.png
2025-05-02 13:29:07,1.3912994861602783,31,-0.06551905,-0.0006016336,0.11403263,2.2115448e-05,-0.00022470222,0.012609611,0.7999763,0.03516312,7.4174204e-05,0.0028101145,0.8382623177978238,0.00047736270996713483,0.5452669609329573,-3.265108670489345e-05,0.9999996589317499,-0.0008252698288634019,-0.5452671689127512,0.0006739890407329129,0.8382620474795732,-0.00090112863,1.3045736e-05,0.1070866,0.00071064476,0.00013194577,-0.014057489,0.80597985,-0.04523718,-3.9648803e-06,0.0047323275,0.8733099680094234,0.0006877400603704032,-0.4871644761156024,-0.0007124595640152212,0.9999997371504947,0.000134537397026,0.48716444059141834,0.0002295921403641785,0.8733102284473139,left_images/camera_left_31.png,right_images/camera_right_31.png
2025-05-02 13:29:07,1.4326019287109375,32,-0.06551905,-0.00060163677,0.11403263,2.2098424e-05,-0.0002246215,0.012609639,0.7999763,0.03516312,7.4174204e-05,0.0028101145,0.8382623177978238,0.00047736270996713483,0.5452669609329573,-3.265108670489345e-05,0.9999996589317499,-0.0008252698288634019,-0.5452671689127512,0.0006739890407329129,0.8382620474795732,-0.00090112165,1.3049917e-05,0.1070866,0.00071066595,0.00013191071,-0.014057489,0.80597985,-0.04523718,-3.9648803e-06,0.0047323275,0.8733099680094234,0.0006877400603704032,-0.4871644761156024,-0.0007124595640152212,0.9999997371504947,0.000134537397026,0.48716444059141834,0.0002295921403641785,0.8733102284473139,left_images/camera_left_32.png,right_images/camera_right_32.png
2025-05-02 13:29:07,1.475508213043213,33,-0.06551905,-0.0006016371,0.11403263,2.209479e-05,-0.00022462917,0.012609639,0.7999763,0.03516311,7.4182564e-05,0.0028101113,0.8382622428922429,0.0004770697429567905,0.5452670763449106,-3.231190417401101e-05,0.9999996589559885,-0.0008252538077420012,-0.5452672840884616,0.0006741604903130739,0.8382619724229569,-0.00090111466,1.30540975e-05,0.1070866,0.00071068713,0.00013187565,-0.014057489,0.80597985,-0.04523718,-3.9648803e-06,0.0047323275,0.8733099680094234,0.0006877400603704032,-0.4871644761156024,-0.0007124595640152212,0.9999997371504947,0.000134537397026,0.48716444059141834,0.0002295921403641785,0.8733102284473139,left_images/camera_left_33.png,right_images/camera_right_33.png
2025-05-02 13:29:07,1.5230944156646729,34,-0.06551905,-0.0006016304,0.11403263,2.2107823e-05,-0.00022465986,0.012609639,0.7999763,0.03516312,7.4174204e-05,0.0028101145,0.8382623177978238,0.00047736270996713483,0.5452669609329573,-3.265108670489345e-05,0.9999996589317499,-0.0008252698288634019,-0.5452671689127512,0.0006739890407329129,0.8382620474795732,-0.0009011077,1.30582785e-05,0.1070866,0.0007107083,0.0001318406,-0.014057489,0.80597985,-0.04523718,-3.9648803e-06,0.0047323275,0.8733099680094234,0.0006877400603704032,-0.4871644761156024,-0.0007124595640152212,0.9999997371504947,0.000134537397026,0.48716444059141834,0.0002295921403641785,0.8733102284473139,left_images/camera_left_34.png,right_images/camera_right_34.png
2025-05-02 13:29:07,1.5663061141967773,35,-0.06551905,-0.00060162984,0.11403263,2.210419e-05,-0.00022466754,0.012609639,0.7999763,0.03516312,7.4174204e-05,0.0028101145,0.8382623177978238,0.00047736270996713483,0.5452669609329573,-3.265108670489345e-05,0.9999996589317499,-0.0008252698288634019,-0.5452671689127512,0.0006739890407329129,0.8382620474795732,-0.00090110133,1.30582885e-05,0.1070866,0.0007107125,0.00013189316,-0.014057476,0.80597985,-0.04523718,-3.9648803e-06,0.0047323275,0.8733099680094234,0.0006877400603704032,-0.4871644761156024,-0.0007124595640152212,0.9999997371504947,0.000134537397026,0.48716444059141834,0.0002295921403641785,0.8733102284473139,left_images/camera_left_35.png,right_images/camera_right_35.png
2025-05-02 13:29:07,1.6090304851531982,36,-0.06551905,-0.00060162984,0.11403263,2.2100556e-05,-0.00022467523,0.012609639,0.7999763,0.03516312,7.4174204e-05,0.0028101145,0.8382623177978238,0.00047736270996713483,0.5452669609329573,-3.265108670489345e-05,0.9999996589317499,-0.0008252698288634019,-0.5452671689127512,0.0006739890407329129,0.8382620474795732,-0.00090109435,1.30618355e-05,0.1070866,0.00071073364,0.00013185812,-0.014057476,0.80597985,-0.04523718,-3.9648803e-06,0.0047323275,0.8733099680094234,0.0006877400603704032,-0.4871644761156024,-0.0007124595640152212,0.9999997371504947,0.000134537397026,0.48716444059141834,0.0002295921403641785,0.8733102284473139,left_images/camera_left_36.png,right_images/camera_right_36.png
2025-05-02 13:29:07,1.6524035930633545,37,-0.06551905,-0.00060162984,0.11403263,2.2096921e-05,-0.00022468291,0.012609639,0.7999763,0.03516312,7.4174204e-05,0.0028101145,0.8382623177978238,0.00047736270996713483,0.5452669609329573,-3.265108670489345e-05,0.9999996589317499,-0.0008252698288634019,-0.5452671689127512,0.0006739890407329129,0.8382620474795732,-0.00090108736,1.3066016e-05,0.1070866,0.00071075483,0.00013182306,-0.014057476,0.80597985,-0.045237184,-3.95753e-06,0.0047323294,0.8733099681009028,0.0006875103932653441,-0.487164476275784,-0.000712431447158195,0.9999997372270822,0.0001341163639719938,0.4871644404685474,0.00022994613529503009,0.873310228422719,left_images/camera_left_37.png,right_images/camera_right_37.png
2025-05-02 13:29:07,1.6981914043426514,38,-0.06551905,-0.0006016189,0.11403263,2.2143726e-05,-0.000224706,0.012609646,0.7999763,0.035163123,7.4181364e-05,0.0028101113,0.838262305107518,0.00047765115107966543,0.5452669801897122,-3.2699557567076134e-05,0.9999996585550225,-0.0008257242742431528,-0.5452671884191905,0.0006743435445021584,0.8382620345060455,-0.00090108154,1.30638955e-05,0.1070866,0.0007107518,0.00013177782,-0.0140575105,0.80597985,-0.045237187,-3.958836e-06,0.0047323313,0.873310150123699,0.0006876426084508545,-0.48716414978789824,-0.0007125228745817402,0.999999737147543,0.000134223688592901,0.48716411403353177,0.00022989669076481974,0.8733104105330681,left_images/camera_left_38.png,right_images/camera_right_38.png
2025-05-02 13:29:07,1.7405059337615967,39,-0.06551905,-0.0006016224,0.11403263,2.2163607e-05,-0.00022472504,0.012609618,0.7999763,0.035163123,7.4181364e-05,0.0028101113,0.838262305107518,0.00047765115107966543,0.5452669801897122,-3.2699557567076134e-05,0.9999996585550225,-0.0008257242742431528,-0.5452671884191905,0.0006743435445021584,0.8382620345060455,-0.00090108154,1.3052265e-05,0.1070866,0.00071078556,0.0001318589,-0.0140575105,0.80597985,-0.045237184,-3.965929e-06,0.0047323285,0.8733101647230808,0.0006877659353567706,-0.4871641234423607,-0.000712444652178509,0.9999997371503989,0.00013461705177359256,0.4871640879764877,0.0002295150348208093,0.8733104251690149,left_images/camera_left_39.png,right_images/camera_right_39.png
2025-05-02 13:29:07,1.7828960418701172,40,-0.06551905,-0.000601628,0.11403263,2.2183482e-05,-0.00022474409,0.01260959,0.7999763,0.035163123,7.4181364e-05,0.0028101113,0.838262305107518,0.00047765115107966543,0.5452669801897122,-3.2699557567076134e-05,0.9999996585550225,-0.0008257242742431528,-0.5452671884191905,0.0006743435445021584,0.8382620345060455,-0.00090107485,1.3051067e-05,0.1070866,0.0007108226,0.00013186154,-0.0140575105,0.80597985,-0.04523723,-3.978458e-06,0.0047323583,0.8733101498806999,0.0006880738778811831,-0.48716414961457083,-0.0007127825969487295,0.9999997369060322,0.0001346433647289983,0.48716411408920385,0.00022965671067067,0.873310410565153,left_images/camera_left_40.png,right_images/camera_right_40.png
2025-05-02 13:29:07,1.8285751342773438,41,-0.06551905,-0.00060163793,0.11403263,2.2189966e-05,-0.00022467467,0.01260959,0.7999763,0.03516312,7.4174204e-05,0.0028101145,0.8382623177978238,0.00047736270996713483,0.5452669609329573,-3.265108670489345e-05,0.9999996589317499,-0.0008252698288634019,-0.5452671689127512,0.0006739890407329129,0.8382620474795732,-0.00090106274,1.3050647e-05,0.1070866,0.00071082957,0.00013186416,-0.014057566,0.80597985,-0.045237206,-4.012719e-06,0.0047324514,0.873310023847921,0.0006882982486017002,-0.48716437522900313,-0.0007129469751027278,0.9999997367664863,0.00013480938042400065,0.48716433978007323,0.0002295919844643206,0.873310284683609,left_images/camera_left_41.png,right_images/camera_right_41.png
2025-05-02 13:29:07,1.880833387374878,42,-0.06551905,-0.0006016384,0.11403263,2.2186332e-05,-0.00022468237,0.01260959,0.7999763,0.03516312,7.4174204e-05,0.0028101145,0.8382623177978238,0.00047736270996713483,0.5452669609329573,-3.265108670489345e-05,0.9999996589317499,-0.0008252698288634019,-0.5452671689127512,0.0006739890407329129,0.8382620474795732,-0.00090106524,1.3050265e-05,0.1070866,0.0007108533,0.00013186678,-0.01405755,0.80597985,-0.04523723,-3.978458e-06,0.0047323583,0.8733101498806999,0.0006880738778811831,-0.48716414961457083,-0.0007127825969487295,0.9999997369060322,0.0001346433647289983,0.48716411408920385,0.00022965671067067,0.873310410565153,left_images/camera_left_42.png,right_images/camera_right_42.png
2025-05-02 13:29:08,1.9256856441497803,43,-0.06551905,-0.0006016384,0.11403263,2.2182698e-05,-0.00022469005,0.01260959,0.7999763,0.03516312,7.4174204e-05,0.0028101145,0.8382623177978238,0.00047736270996713483,0.5452669609329573,-3.265108670489345e-05,0.9999996589317499,-0.0008252698288634019,-0.5452671689127512,0.0006739890407329129,0.8382620474795732,-0.00090113544,1.301135e-05,0.1070866,0.00071084325,0.00013188101,-0.014057516,0.80597985,-0.04523723,-3.978458e-06,0.0047323583,0.8733101498806999,0.0006880738778811831,-0.48716414961457083,-0.0007127825969487295,0.9999997369060322,0.0001346433647289983,0.48716411408920385,0.00022965671067067,0.873310410565153,left_images/camera_left_43.png,right_images/camera_right_43.png
2025-05-02 13:29:08,1.9680802822113037,44,-0.06551905,-0.0006016384,0.11403263,2.2179063e-05,-0.00022469774,0.01260959,0.7999763,0.03516312,7.4174204e-05,0.0028101145,0.8382623177978238,0.00047736270996713483,0.5452669609329573,-3.265108670489345e-05,0.9999996589317499,-0.0008252698288634019,-0.5452671689127512,0.0006739890407329129,0.8382620474795732,-0.00090113666,1.3004648e-05,0.1070866,0.00071085023,0.00013188363,-0.014057572,0.80597985,-0.04523723,-3.978458e-06,0.0047323583,0.8733101498806999,0.0006880738778811831,-0.48716414961457083,-0.0007127825969487295,0.9999997369060322,0.0001346433647289983,0.48716411408920385,0.00022965671067067,0.873310410565153,left_images/camera_left_44.png,right_images/camera_right_44.png
2025-05-02 13:29:08,2.02170991897583,45,-0.06551905,-0.0006016384,0.11403263,2.2175429e-05,-0.00022470542,0.01260959,0.7999763,0.035163123,7.4181364e-05,0.0028101113,0.838262305107518,0.00047765115107966543,0.5452669801897122,-3.2699557567076134e-05,0.9999996585550225,-0.0008257242742431528,-0.5452671884191905,0.0006743435445021584,0.8382620345060455,-0.000901124,1.3004224e-05,0.1070866,0.0007108572,0.00013188625,-0.014057628,0.80597985,-0.04523723,-3.978458e-06,0.0047323583,0.8733101498806999,0.0006880738778811831,-0.48716414961457083,-0.0007127825969487295,0.9999997369060322,0.0001346433647289983,0.48716411408920385,0.00022965671067067,0.873310410565153,left_images/camera_left_45.png,right_images/camera_right_45.png
2025-05-02 13:29:08,2.072120428085327,46,-0.06551905,-0.00060164375,0.11403263,2.21953e-05,-0.00022472446,0.012609562,0.7999763,0.035163123,7.4181364e-05,0.0028101113,0.838262305107518,0.00047765115107966543,0.5452669801897122,-3.2699557567076134e-05,0.9999996585550225,-0.0008257242742431528,-0.5452671884191905,0.0006743435445021584,0.8382620345060455,-0.0009011113,1.30038e-05,0.1070866,0.0007108642,0.00013188887,-0.014057684,0.80597985,-0.04523723,-3.978458e-06,0.0047323583,0.8733101498806999,0.0006880738778811831,-0.48716414961457083,-0.0007127825969487295,0.9999997369060322,0.0001346433647289983,0.48716411408920385,0.00022965671067067,0.873310410565153,left_images/camera_left_46.png,right_images/camera_right_46.png
2025-05-02 13:29:08,2.1185381412506104,47,-0.06551905,-0.00060164934,0.11403263,2.2215174e-05,-0.0002247435,0.012609534,0.7999763,0.035163123,7.4181364e-05,0.0028101113,0.838262305107518,0.00047765115107966543,0.5452669801897122,-3.2699557567076134e-05,0.9999996585550225,-0.0008257242742431528,-0.5452671884191905,0.0006743435445021584,0.8382620345060455,-0.0009010986,1.3003376e-05,0.1070866,0.0007108712,0.00013189149,-0.01405774,0.80597985,-0.04523723,-3.978458e-06,0.0047323583,0.8733101498806999,0.0006880738778811831,-0.48716414961457083,-0.0007127825969487295,0.9999997369060322,0.0001346433647289983,0.48716411408920385,0.00022965671067067,0.873310410565153,left_images/camera_left_47.png,right_images/camera_right_47.png
2025-05-02 13:29:08,2.1684932708740234,48,-0.06551905,-0.0006016593,0.11403263,2.2221659e-05,-0.00022467409,0.012609534,0.7999763,0.03516312,7.4174204e-05,0.0028101145,0.8382623177978238,0.00047736270996713483,0.5452669609329573,-3.265108670489345e-05,0.9999996589317499,-0.0008252698288634019,-0.5452671689127512,0.0006739890407329129,0.8382620474795732,-0.0009010859,1.3002952e-05,0.1070866,0.0007108782,0.0001318941,-0.0140577955,0.80597985,-0.04523723,-3.978458e-06,0.0047323583,0.8733101498806999,0.0006880738778811831,-0.48716414961457083,-0.0007127825969487295,0.9999997369060322,0.0001346433647289983,0.48716411408920385,0.00022965671067067,0.873310410565153,left_images/camera_left_48.png,right_images/camera_right_48.png
2025-05-02 13:29:08,2.2100226879119873,49,-0.06551905,-0.00060165976,0.11403263,2.2218024e-05,-0.00022468179,0.012609534,0.7999763,0.03516312,7.4174204e-05,0.0028101145,0.8382623177978238,0.00047736270996713483,0.5452669609329573,-3.265108670489345e-05,0.9999996589317499,-0.0008252698288634019,-0.5452671689127512,0.0006739890407329129,0.8382620474795732,-0.0009010732,1.3002528e-05,0.1070866,0.00071088516,0.00013189673,-0.014057851,0.80597985,-0.04523723,-3.978458e-06,0.0047323583,0.8733101498806999,0.0006880738778811831,-0.48716414961457083,-0.0007127825969487295,0.9999997369060322,0.0001346433647289983,0.48716411408920385,0.00022965671067067,0.873310410565153,left_images/camera_left_49.png,right_images/camera_right_49.png
2025-05-02 13:29:08,2.2589282989501953,50,-0.06551905,-0.00060165976,0.11403263,2.221439e-05,-0.00022468947,0.012609534,0.7999763,0.03516312,7.4174204e-05,0.0028101145,0.8382623177978238,0.00047736270996713483,0.5452669609329573,-3.265108670489345e-05,0.9999996589317499,-0.0008252698288634019,-0.5452671689127512,0.0006739890407329129,0.8382620474795732,-0.00090106163,1.2998968e-05,0.1070866,0.0007108749,0.00013191956,-0.014057825,0.80597985,-0.045237206,-4.012719e-06,0.0047324514,0.873310023847921,0.0006882982486017002,-0.48716437522900313,-0.0007129469751027278,0.9999997367664863,0.00013480938042400065,0.48716433978007323,0.0002295919844643206,0.873310284683609,left_images/camera_left_50.png,right_images/camera_right_50.png
2025-05-02 13:29:08,2.3045496940612793,51,-0.06551905,-0.00060165976,0.11403263,2.2210756e-05,-0.00022469716,0.012609534,0.7999763,0.03516312,7.4174204e-05,0.0028101145,0.8382623177978238,0.00047736270996713483,0.5452669609329573,-3.265108670489345e-05,0.9999996589317499,-0.0008252698288634019,-0.5452671689127512,0.0006739890407329129,0.8382620474795732,-0.00090106437,1.2998076e-05,0.1070866,0.00071089866,0.00013192219,-0.014057809,0.80597985,-0.04523723,-3.978458e-06,0.0047323583,0.8733101498806999,0.0006880738778811831,-0.48716414961457083,-0.0007127825969487295,0.9999997369060322,0.0001346433647289983,0.48716411408920385,0.00022965671067067,0.873310410565153,left_images/camera_left_51.png,right_images/camera_right_51.png
2025-05-02 13:29:08,2.344663619995117,52,-0.06551905,-0.00060165976,0.11403263,2.2207121e-05,-0.00022470484,0.012609534,0.7999763,0.035163123,7.4181364e-05,0.0028101113,0.838262305107518,0.00047765115107966543,0.5452669801897122,-3.2699557567076134e-05,0.9999996585550225,-0.0008257242742431528,-0.5452671884191905,0.0006743435445021584,0.8382620345060455,-0.00090113457,1.2959161e-05,0.1070866,0.0007108886,0.00013193642,-0.014057775,0.80597985,-0.04523723,-3.978458e-06,0.0047323583,0.8733101498806999,0.0006880738778811831,-0.48716414961457083,-0.0007127825969487295,0.9999997369060322,0.0001346433647289983,0.48716411408920385,0.00022965671067067,0.873310410565153,left_images/camera_left_52.png,right_images/camera_right_52.png
2025-05-02 13:29:08,2.3876092433929443,53,-0.06551905,-0.0006016651,0.11403263,2.2226992e-05,-0.00022472387,0.012609506,0.7999763,0.035163123,7.4181364e-05,0.0028101113,0.838262305107518,0.00047765115107966543,0.5452669801897122,-3.2699557567076134e-05,0.9999996585550225,-0.0008257242742431528,-0.5452671884191905,0.0006743435445021584,0.8382620345060455,-0.0009011358,1.2952459e-05,0.1070866,0.0007108956,0.00013193904,-0.014057831,0.80597985,-0.04523723,-3.978458e-06,0.0047323583,0.8733101498806999,0.0006880738778811831,-0.48716414961457083,-0.0007127825969487295,0.9999997369060322,0.0001346433647289983,0.48716411408920385,0.00022965671067067,0.873310410565153,left_images/camera_left_53.png,right_images/camera_right_53.png
2025-05-02 13:29:08,2.4336705207824707,54,-0.06551905,-0.0006016707,0.11403263,2.2246866e-05,-0.00022474292,0.012609478,0.7999763,0.035163123,7.4181364e-05,0.0028101113,0.838262305107518,0.00047765115107966543,0.5452669801897122,-3.2699557567076134e-05,0.9999996585550225,-0.0008257242742431528,-0.5452671884191905,0.0006743435445021584,0.8382620345060455,-0.0009011231,1.2952034e-05,0.1070866,0.00071090256,0.00013194166,-0.014057887,0.80597985,-0.045237232,-3.9788365e-06,0.0047323536,0.8733103476753432,0.000688155253476928,-0.4871637949247855,-0.0007128531856507917,0.9999997368502875,0.00013468367245359896,0.48716375941104967,0.00022965561832921774,0.8733106084176409,left_images/camera_left_54.png,right_images/camera_right_54.png
2025-05-02 13:29:08,2.4744110107421875,55,-0.06551905,-0.00060168066,0.11403263,2.225335e-05,-0.00022467351,0.012609478,0.7999763,0.03516312,7.4174204e-05,0.0028101145,0.8382623177978238,0.00047736270996713483,0.5452669609329573,-3.265108670489345e-05,0.9999996589317499,-0.0008252698288634019,-0.5452671689127512,0.0006739890407329129,0.8382620474795732,-0.00090111914,1.2945864e-05,0.1070866,0.0007108809,0.00013198364,-0.014057887,0.80597985,-0.045237232,-3.9788365e-06,0.0047323536,0.8733103476753432,0.000688155253476928,-0.4871637949247855,-0.0007128531856507917,0.9999997368502875,0.00013468367245359896,0.48716375941104967,0.00022965561832921774,0.8733106084176409,left_images/camera_left_55.png,right_images/camera_right_55.png
2025-05-02 13:29:08,2.5187454223632812,56,-0.06551905,-0.0006016811,0.11403263,2.2249716e-05,-0.00022468121,0.012609478,0.7999763,0.03516312,7.4174204e-05,0.0028101145,0.8382623177978238,0.00047736270996713483,0.5452669609329573,-3.265108670489345e-05,0.9999996589317499,-0.0008252698288634019,-0.5452671689127512,0.0006739890407329129,0.8382620474795732,-0.00090111565,1.2939283e-05,0.1070866,0.00071085925,0.00013202564,-0.014057887,0.80597985,-0.045237232,-3.9788365e-06,0.0047323536,0.8733103476753432,0.000688155253476928,-0.4871637949247855,-0.0007128531856507917,0.9999997368502875,0.00013468367245359896,0.48716375941104967,0.00022965561832921774,0.8733106084176409,left_images/camera_left_56.png,right_images/camera_right_56.png
2025-05-02 13:29:08,2.5633926391601562,57,-0.06551905,-0.0006016811,0.11403263,2.2246082e-05,-0.00022468889,0.012609478,0.7999763,0.03516312,7.4174204e-05,0.0028101145,0.8382623177978238,0.00047736270996713483,0.5452669609329573,-3.265108670489345e-05,0.9999996589317499,-0.0008252698288634019,-0.5452671689127512,0.0006739890407329129,0.8382620474795732,-0.00090111216,1.2932702e-05,0.1070866,0.0007108376,0.00013206764,-0.014057887,0.80597985,-0.045237232,-3.9788365e-06,0.0047323536,0.8733103476753432,0.000688155253476928,-0.4871637949247855,-0.0007128531856507917,0.9999997368502875,0.00013468367245359896,0.48716375941104967,0.00022965561832921774,0.8733106084176409,left_images/camera_left_57.png,right_images/camera_right_57.png
2025-05-02 13:29:08,2.6158854961395264,58,-0.06551905,-0.0006016811,0.11403263,2.2242448e-05,-0.00022469657,0.012609478,0.7999763,0.03516312,7.4174204e-05,0.0028101145,0.8382623177978238,0.00047736270996713483,0.5452669609329573,-3.265108670489345e-05,0.9999996589317499,-0.0008252698288634019,-0.5452671689127512,0.0006739890407329129,0.8382620474795732,-0.00090110867,1.2926121e-05,0.1070866,0.00071081595,0.00013210964,-0.014057887,0.80597985,-0.045237232,-3.9788365e-06,0.0047323536,0.8733103476753432,0.000688155253476928,-0.4871637949247855,-0.0007128531856507917,0.9999997368502875,0.00013468367245359896,0.48716375941104967,0.00022965561832921774,0.8733106084176409,left_images/camera_left_58.png,right_images/camera_right_58.png
2025-05-02 13:29:08,2.6646628379821777,59,-0.06551905,-0.0006016811,0.11403263,2.2238813e-05,-0.00022470426,0.012609478,0.7999763,0.035163123,7.4181364e-05,0.0028101113,0.838262305107518,0.00047765115107966543,0.5452669801897122,-3.2699557567076134e-05,0.9999996585550225,-0.0008257242742431528,-0.5452671884191905,0.0006743435445021584,0.8382620345060455,-0.00090113404,1.2938256e-05,0.1070866,0.00071086094,0.00013212976,-0.014057859,0.80597985,-0.04523723,-3.978458e-06,0.0047323583,0.8733101498806999,0.0006880738778811831,-0.48716414961457083,-0.0007127825969487295,0.9999997369060322,0.0001346433647289983,0.48716411408920385,0.00022965671067067,0.873310410565153,left_images/camera_left_59.png,right_images/camera_right_59.png
2025-05-02 13:29:08,2.7189443111419678,60,-0.06551905,-0.0006016865,0.11403263,2.2258684e-05,-0.00022472329,0.01260945,0.7999763,0.035163123,7.4181364e-05,0.0028101113,0.838262305107518,0.00047765115107966543,0.5452669801897122,-3.2699557567076134e-05,0.9999996585550225,-0.0008257242742431528,-0.5452671884191905,0.0006743435445021584,0.8382620345060455,-0.0009011278,1.2937323e-05,0.1070866,0.0007108507,0.00013215259,-0.014057833,0.80597985,-0.04523723,-3.978458e-06,0.0047323583,0.8733101498806999,0.0006880738778811831,-0.48716414961457083,-0.0007127825969487295,0.9999997369060322,0.0001346433647289983,0.48716411408920385,0.00022965671067067,0.873310410565153,left_images/camera_left_60.png,right_images/camera_right_60.png
2025-05-02 13:29:08,2.7727138996124268,61,-0.06551905,-0.00060169207,0.11403263,2.2278558e-05,-0.00022474234,0.012609422,0.7999763,0.035163123,7.4181364e-05,0.0028101113,0.838262305107518,0.00047765115107966543,0.5452669801897122,-3.2699557567076134e-05,0.9999996585550225,-0.0008257242742431528,-0.5452671884191905,0.0006743435445021584,0.8382620345060455,-0.00090111553,1.29364e-05,0.1070866,0.0007108577,0.00013215523,-0.014057889,0.80597985,-0.045237232,-3.9788365e-06,0.0047323536,0.8733103476753432,0.000688155253476928,-0.4871637949247855,-0.0007128531856507917,0.9999997368502875,0.00013468367245359896,0.48716375941104967,0.00022965561832921774,0.8733106084176409,left_images/camera_left_61.png,right_images/camera_right_61.png
2025-05-02 13:29:08,2.81842041015625,62,-0.06551905,-0.000601702,0.11403263,2.2285043e-05,-0.00022467293,0.012609422,0.7999763,0.03516312,7.4174204e-05,0.0028101145,0.8382623177978238,0.00047736270996713483,0.5452669609329573,-3.265108670489345e-05,0.9999996589317499,-0.0008252698288634019,-0.5452671689127512,0.0006739890407329129,0.8382620474795732,-0.0009011116,1.293023e-05,0.1070866,0.00071083603,0.00013219721,-0.014057889,0.80597985,-0.045237232,-3.9788365e-06,0.0047323536,0.8733103476753432,0.000688155253476928,-0.4871637949247855,-0.0007128531856507917,0.9999997368502875,0.00013468367245359896,0.48716375941104967,0.00022965561832921774,0.8733106084176409,left_images/camera_left_62.png,right_images/camera_right_62.png
2025-05-02 13:29:08,2.8676581382751465,63,-0.06551905,-0.0006017025,0.11403263,2.2281409e-05,-0.00022468063,0.012609422,0.7999763,0.03516312,7.4174204e-05,0.0028101145,0.8382623177978238,0.00047736270996713483,0.5452669609329573,-3.265108670489345e-05,0.9999996589317499,-0.0008252698288634019,-0.5452671689127512,0.0006739890407329129,0.8382620474795732,-0.0009011081,1.2921917e-05,0.1070866,0.0007108147,0.00013222468,-0.014057917,0.80597985,-0.045237232,-3.982259e-06,0.0047323536,0.8733103757245642,0.0006882660823408072,-0.4871637444859999,-0.0007128932400294733,0.9999997368007557,0.00013483934022504203,0.48716370907021495,0.00022953914535713113,0.8733106365301706,left_images/camera_left_63.png,right_images/camera_right_63.png
2025-05-02 13:29:09,2.9191060066223145,64,-0.06551905,-0.0006017025,0.11403263,2.2277774e-05,-0.00022468831,0.012609422,0.7999763,0.03516312,7.4174204e-05,0.0028101145,0.8382623177978238,0.00047736270996713483,0.5452669609329573,-3.265108670489345e-05,0.9999996589317499,-0.0008252698288634019,-0.5452671689127512,0.0006739890407329129,0.8382620474795732,-0.0009011011,1.2909361e-05,0.1070866,0.0007108217,0.0001323059,-0.0140579725,0.80597985,-0.045237232,-3.982259e-06,0.0047323536,0.8733103757245642,0.0006882660823408072,-0.4871637444859999,-0.0007128932400294733,0.9999997368007557,0.00013483934022504203,0.48716370907021495,0.00022953914535713113,0.8733106365301706,left_images/camera_left_64.png,right_images/camera_right_64.png
2025-05-02 13:29:09,2.962672710418701,65,-0.06551905,-0.0006017025,0.11403263,2.227414e-05,-0.00022469599,0.012609422,0.7999763,0.03516312,7.4174204e-05,0.0028101145,0.8382623177978238,0.00047736270996713483,0.5452669609329573,-3.265108670489345e-05,0.9999996589317499,-0.0008252698288634019,-0.5452671689127512,0.0006739890407329129,0.8382620474795732,-0.0009010941,1.2896685e-05,0.1070866,0.0007108287,0.00013238713,-0.014058028,0.80597985,-0.045237232,-3.982259e-06,0.0047323536,0.8733103757245642,0.0006882660823408072,-0.4871637444859999,-0.0007128932400294733,0.9999997368007557,0.00013483934022504203,0.48716370907021495,0.00022953914535713113,0.8733106365301706,left_images/camera_left_65.png,right_images/camera_right_65.png
2025-05-02 13:29:09,3.0066516399383545,66,-0.06551905,-0.0006017025,0.11403263,2.2270506e-05,-0.00022470368,0.012609422,0.7999763,0.03516312,7.4174204e-05,0.0028101145,0.8382623177978238,0.00047736270996713483,0.5452669609329573,-3.265108670489345e-05,0.9999996589317499,-0.0008252698288634019,-0.5452671689127512,0.0006739890407329129,0.8382620474795732,-0.0009010871,1.2884008e-05,0.1070866,0.0007108357,0.00013246835,-0.014058084,0.80597985,-0.045237232,-3.982259e-06,0.0047323536,0.8733103757245642,0.0006882660823408072,-0.4871637444859999,-0.0007128932400294733,0.9999997368007557,0.00013483934022504203,0.48716370907021495,0.00022953914535713113,0.8733106365301706,left_images/camera_left_66.png,right_images/camera_right_66.png
2025-05-02 13:29:09,3.0490176677703857,67,-0.06551905,-0.00060170563,0.11403263,2.2253482e-05,-0.00022462296,0.01260945,0.7999763,0.03516312,7.4174204e-05,0.0028101145,0.8382623177978238,0.00047736270996713483,0.5452669609329573,-3.265108670489345e-05,0.9999996589317499,-0.0008252698288634019,-0.5452671689127512,0.0006739890407329129,0.8382620474795732,-0.00090108014,1.2871332e-05,0.1070866,0.00071084267,0.00013254958,-0.01405814,0.80597985,-0.045237232,-3.982259e-06,0.0047323536,0.8733103757245642,0.0006882660823408072,-0.4871637444859999,-0.0007128932400294733,0.9999997368007557,0.00013483934022504203,0.48716370907021495,0.00022953914535713113,0.8733106365301706,left_images/camera_left_67.png,right_images/camera_right_67.png
2025-05-02 13:29:09,3.097151279449463,68,-0.06551905,-0.000601706,0.11403263,2.2249847e-05,-0.00022463062,0.01260945,0.7999763,0.03516312,7.4174204e-05,0.0028101145,0.8382623177978238,0.00047736270996713483,0.5452669609329573,-3.265108670489345e-05,0.9999996589317499,-0.0008252698288634019,-0.5452671689127512,0.0006739890407329129,0.8382620474795732,-0.00090106524,1.2863539e-05,0.1070866,0.00071084965,0.00013250933,-0.014058224,0.80597985,-0.045237232,-3.982259e-06,0.0047323536,0.8733103757245642,0.0006882660823408072,-0.4871637444859999,-0.0007128932400294733,0.9999997368007557,0.00013483934022504203,0.48716370907021495,0.00022953914535713113,0.8733106365301706,left_images/camera_left_68.png,right_images/camera_right_68.png
2025-05-02 13:29:09,3.1512391567230225,69,-0.06551905,-0.000601706,0.11403263,2.2246213e-05,-0.00022463831,0.01260945,0.7999763,0.03516312,7.4174204e-05,0.0028101145,0.8382623177978238,0.00047736270996713483,0.5452669609329573,-3.265108670489345e-05,0.9999996589317499,-0.0008252698288634019,-0.5452671689127512,0.0006739890407329129,0.8382620474795732,-0.0009011321,1.28124675e-05,0.1070866,0.00071085664,0.00013260286,-0.014058168,0.80597985,-0.04523724,-3.992918e-06,0.0047323555,0.8733102912987782,0.0006885633462526341,-0.48716389541114524,-0.0007129289591586698,0.9999997367014869,0.00013538558291778375,0.48716386036316595,0.00022907962603956622,0.8733105522542268,left_images/camera_left_69.png,right_images/camera_right_69.png
2025-05-02 13:29:09,3.1984472274780273,70,-0.06551905,-0.000601706,0.11403263,2.2242579e-05,-0.00022464599,0.01260945,0.7999763,0.03516312,7.4174204e-05,0.0028101145,0.8382623177978238,0.00047736270996713483,0.5452669609329573,-3.265108670489345e-05,0.9999996589317499,-0.0008252698288634019,-0.5452671689127512,0.0006739890407329129,0.8382620474795732,-0.0009011363,1.28105385e-05,0.1070866,0.00071085664,0.00013256639,-0.014058224,0.80597985,-0.045237232,-3.982259e-06,0.0047323536,0.8733103757245642,0.0006882660823408072,-0.4871637444859999,-0.0007128932400294733,0.9999997368007557,0.00013483934022504203,0.48716370907021495,0.00022953914535713113,0.8733106365301706,left_images/camera_left_70.png,right_images/camera_right_70.png
2025-05-02 13:29:09,3.241217851638794,71,-0.06551905,-0.000601706,0.11403263,2.2238944e-05,-0.00022465368,0.01260945,0.7999763,0.03516312,7.4174204e-05,0.0028101145,0.8382623177978238,0.00047736270996713483,0.5452669609329573,-3.265108670489345e-05,0.9999996589317499,-0.0008252698288634019,-0.5452671689127512,0.0006739890407329129,0.8382620474795732,-0.00090112165,1.2801155e-05,0.1070866,0.0007108808,0.00013254592,-0.014058252,0.80597985,-0.045237236,-3.9821393e-06,0.00473235,0.8733105309011568,0.0006882032675522348,-0.48716346639850006,-0.0007128196438138607,0.9999997368528362,0.00013484218215966545,0.48716343100164583,0.00022950059090757658,0.8733107916567754,left_images/camera_left_71.png,right_images/camera_right_71.png
2025-05-02 13:29:09,3.2847511768341064,72,-0.06551905,-0.000601706,0.11403263,2.223531e-05,-0.00022466136,0.01260945,0.7999763,0.03516312,7.4174204e-05,0.0028101145,0.8382623177978238,0.00047736270996713483,0.5452669609329573,-3.265108670489345e-05,0.9999996589317499,-0.0008252698288634019,-0.5452671689127512,0.0006739890407329129,0.8382620474795732,-0.00090110843,1.2800174e-05,0.1070866,0.0007108773,0.00013254852,-0.014058308,0.80597985,-0.045237236,-3.9821393e-06,0.00473235,0.8733105309011568,0.0006882032675522348,-0.48716346639850006,-0.0007128196438138607,0.9999997368528362,0.00013484218215966545,0.48716343100164583,0.00022950059090757658,0.8733107916567754,left_images/camera_left_72.png,right_images/camera_right_72.png
2025-05-02 13:29:09,3.326164484024048,73,-0.06551905,-0.000601706,0.11403263,2.2231676e-05,-0.00022466904,0.01260945,0.7999763,0.03516312,7.4174204e-05,0.0028101145,0.8382623177978238,0.00047736270996713483,0.5452669609329573,-3.265108670489345e-05,0.9999996589317499,-0.0008252698288634019,-0.5452671689127512,0.0006739890407329129,0.8382620474795732,-0.00090109586,1.2799737e-05,0.1070866,0.0007108738,0.00013255114,-0.014058364,0.80597985,-0.045237236,-3.9821393e-06,0.00473235,0.8733105309011568,0.0006882032675522348,-0.48716346639850006,-0.0007128196438138607,0.9999997368528362,0.00013484218215966545,0.48716343100164583,0.00022950059090757658,0.8733107916567754,left_images/camera_left_73.png,right_images/camera_right_73.png
2025-05-02 13:29:09,3.3717305660247803,74,-0.06551905,-0.000601706,0.11403263,2.2228041e-05,-0.00022467673,0.01260945,0.7999763,0.03516312,7.4174204e-05,0.0028101145,0.8382623177978238,0.00047736270996713483,0.5452669609329573,-3.265108670489345e-05,0.9999996589317499,-0.0008252698288634019,-0.5452671689127512,0.0006739890407329129,0.8382620474795732,-0.0009010833,1.2799301e-05,0.1070866,0.0007108703,0.00013255376,-0.0140584195,0.80597985,-0.045237236,-3.9821393e-06,0.00473235,0.8733105309011568,0.0006882032675522348,-0.48716346639850006,-0.0007128196438138607,0.9999997368528362,0.00013484218215966545,0.48716343100164583,0.00022950059090757658,0.8733107916567754,left_images/camera_left_74.png,right_images/camera_right_74.png
2025-05-02 13:29:09,3.423975706100464,75,-0.06551905,-0.000601706,0.11403263,2.2224407e-05,-0.00022468441,0.01260945,0.7999763,0.03516312,7.4174204e-05,0.0028101145,0.8382623177978238,0.00047736270996713483,0.5452669609329573,-3.265108670489345e-05,0.9999996589317499,-0.0008252698288634019,-0.5452671689127512,0.0006739890407329129,0.8382620474795732,-0.0009010707,1.2798864e-05,0.1070866,0.0007108668,0.00013255638,-0.014058475,0.80597985,-0.045237236,-3.9821393e-06,0.00473235,0.8733105309011568,0.0006882032675522348,-0.48716346639850006,-0.0007128196438138607,0.9999997368528362,0.00013484218215966545,0.48716343100164583,0.00022950059090757658,0.8733107916567754,left_images/camera_left_75.png,right_images/camera_right_75.png
2025-05-02 13:29:09,3.466320514678955,76,-0.06551905,-0.000601706,0.11403263,2.2220773e-05,-0.00022469209,0.01260945,0.7999763,0.03516312,7.4174204e-05,0.0028101145,0.8382623177978238,0.00047736270996713483,0.5452669609329573,-3.265108670489345e-05,0.9999996589317499,-0.0008252698288634019,-0.5452671689127512,0.0006739890407329129,0.8382620474795732,-0.00090105814,1.2798428e-05,0.1070866,0.0007108633,0.000132559,-0.014058531,0.80597985,-0.045237213,-4.01704e-06,0.0047324467,0.8733104038076954,0.0006883432402145266,-0.48716369403396975,-0.0007128696204007877,0.9999997367905116,0.00013504003641333907,0.4871636587617594,0.0002293523289087025,0.8733106646430954,left_images/camera_left_76.png,right_images/camera_right_76.png
2025-05-02 13:29:09,3.519284248352051,77,-0.06551905,-0.000601706,0.11403263,2.2217138e-05,-0.00022469978,0.01260945,0.7999763,0.03516312,7.4174204e-05,0.0028101145,0.8382623177978238,0.00047736270996713483,0.5452669609329573,-3.265108670489345e-05,0.9999996589317499,-0.0008252698288634019,-0.5452671689127512,0.0006739890407329129,0.8382620474795732,-0.000901057,1.27980275e-05,0.1070866,0.0007108808,0.00013256162,-0.014058531,0.80597985,-0.045237213,-4.01704e-06,0.0047324467,0.8733104038076954,0.0006883432402145266,-0.48716369403396975,-0.0007128696204007877,0.9999997367905116,0.00013504003641333907,0.4871636587617594,0.0002293523289087025,0.8733106646430954,left_images/camera_left_77.png,right_images/camera_right_77.png
2025-05-02 13:29:09,3.5612633228302,78,-0.06551905,-0.000601706,0.11403263,2.2213504e-05,-0.00022470746,0.01260945,0.7999763,0.035163123,7.4181364e-05,0.0028101113,0.838262305107518,0.00047765115107966543,0.5452669801897122,-3.2699557567076134e-05,0.9999996585550225,-0.0008257242742431528,-0.5452671884191905,0.0006743435445021584,0.8382620345060455,-0.000901057,1.2797635e-05,0.1070866,0.00071089825,0.00013256424,-0.014058531,0.80597985,-0.045237213,-4.01704e-06,0.0047324467,0.8733104038076954,0.0006883432402145266,-0.48716369403396975,-0.0007128696204007877,0.9999997367905116,0.00013504003641333907,0.4871636587617594,0.0002293523289087025,0.8733106646430954,left_images/camera_left_78.png,right_images/camera_right_78.png
2025-05-02 13:29:09,3.6043262481689453,79,-0.06551905,-0.00060171133,0.11403263,2.2233375e-05,-0.0002247265,0.012609422,0.7999763,0.035163123,7.4181364e-05,0.0028101113,0.838262305107518,0.00047765115107966543,0.5452669801897122,-3.2699557567076134e-05,0.9999996585550225,-0.0008257242742431528,-0.5452671884191905,0.0006743435445021584,0.8382620345060455,-0.000901057,1.2797242e-05,0.1070866,0.0007109157,0.00013256686,-0.014058531,0.80597985,-0.045237213,-4.01704e-06,0.0047324467,0.8733104038076954,0.0006883432402145266,-0.48716369403396975,-0.0007128696204007877,0.9999997367905116,0.00013504003641333907,0.4871636587617594,0.0002293523289087025,0.8733106646430954,left_images/camera_left_79.png,right_images/camera_right_79.png
2025-05-02 13:29:09,3.646986722946167,80,-0.06551905,-0.0006017169,0.11403263,2.2253249e-05,-0.00022474554,0.012609394,0.7999763,0.035163123,7.4181364e-05,0.0028101113,0.838262305107518,0.00047765115107966543,0.5452669801897122,-3.2699557567076134e-05,0.9999996585550225,-0.0008257242742431528,-0.5452671884191905,0.0006743435445021584,0.8382620345060455,-0.000901057,1.2796849e-05,0.1070866,0.0007109332,0.00013256948,-0.014058531,0.80597985,-0.045237213,-4.01704e-06,0.0047324467,0.8733104038076954,0.0006883432402145266,-0.48716369403396975,-0.0007128696204007877,0.9999997367905116,0.00013504003641333907,0.4871636587617594,0.0002293523289087025,0.8733106646430954,left_images/camera_left_80.png,right_images/camera_right_80.png
2025-05-02 13:29:09,3.6899890899658203,81,-0.06551905,-0.0006017269,0.11403263,2.2259734e-05,-0.00022467613,0.012609394,0.7999763,0.03516312,7.4174204e-05,0.0028101145,0.8382623177978238,0.00047736270996713483,0.5452669609329573,-3.265108670489345e-05,0.9999996589317499,-0.0008252698288634019,-0.5452671689127512,0.0006739890407329129,0.8382620474795732,-0.000901057,1.2796456e-05,0.1070866,0.00071095064,0.0001325721,-0.014058531,0.80597985,-0.045237213,-4.01704e-06,0.0047324467,0.8733104038076954,0.0006883432402145266,-0.48716369403396975,-0.0007128696204007877,0.9999997367905116,0.00013504003641333907,0.4871636587617594,0.0002293523289087025,0.8733106646430954,left_images/camera_left_81.png,right_images/camera_right_81.png
2025-05-02 13:29:09,3.7369229793548584,82,-0.06551905,-0.00060172734,0.11403263,2.22561e-05,-0.00022468383,0.012609394,0.7999763,0.03516312,7.4174204e-05,0.0028101145,0.8382623177978238,0.00047736270996713483,0.5452669609329573,-3.265108670489345e-05,0.9999996589317499,-0.0008252698288634019,-0.5452671689127512,0.0006739890407329129,0.8382620474795732,-0.000901057,1.2796063e-05,0.1070866,0.0007109681,0.00013257471,-0.014058531,0.80597985,-0.045237213,-4.01704e-06,0.0047324467,0.8733104038076954,0.0006883432402145266,-0.48716369403396975,-0.0007128696204007877,0.9999997367905116,0.00013504003641333907,0.4871636587617594,0.0002293523289087025,0.8733106646430954,left_images/camera_left_82.png,right_images/camera_right_82.png
2025-05-02 13:29:09,3.7796144485473633,83,-0.06551905,-0.00060172734,0.11403263,2.2252465e-05,-0.00022469151,0.012609394,0.7999763,0.03516312,7.4174204e-05,0.0028101145,0.8382623177978238,0.00047736270996713483,0.5452669609329573,-3.265108670489345e-05,0.9999996589317499,-0.0008252698288634019,-0.5452671689127512,0.0006739890407329129,0.8382620474795732,-0.00090104924,1.2794036e-05,0.1070866,0.0007109695,0.0001325131,-0.014058587,0.80597985,-0.045237213,-4.01704e-06,0.0047324467,0.8733104038076954,0.0006883432402145266,-0.48716369403396975,-0.0007128696204007877,0.9999997367905116,0.00013504003641333907,0.4871636587617594,0.0002293523289087025,0.8733106646430954,left_images/camera_left_83.png,right_images/camera_right_83.png
2025-05-02 13:29:09,3.8244595527648926,84,-0.06551905,-0.00060172734,0.11403263,2.224883e-05,-0.0002246992,0.012609394,0.7999763,0.03516312,7.4174204e-05,0.0028101145,0.8382623177978238,0.00047736270996713483,0.5452669609329573,-3.265108670489345e-05,0.9999996589317499,-0.0008252698288634019,-0.5452671689127512,0.0006739890407329129,0.8382620474795732,-0.0009010477,1.2793339e-05,0.1070866,0.00071098696,0.0001325157,-0.014058587,0.80597985,-0.045237213,-4.01704e-06,0.0047324467,0.8733104038076954,0.0006883432402145266,-0.48716369403396975,-0.0007128696204007877,0.9999997367905116,0.00013504003641333907,0.4871636587617594,0.0002293523289087025,0.8733106646430954,left_images/camera_left_84.png,right_images/camera_right_84.png
2025-05-02 13:29:09,3.877826452255249,85,-0.06551905,-0.00060172734,0.11403263,2.2245196e-05,-0.00022470688,0.012609394,0.7999763,0.035163123,7.4181364e-05,0.0028101113,0.838262305107518,0.00047765115107966543,0.5452669801897122,-3.2699557567076134e-05,0.9999996585550225,-0.0008257242742431528,-0.5452671884191905,0.0006743435445021584,0.8382620345060455,-0.0009010477,1.2792946e-05,0.1070866,0.0007110044,0.00013251833,-0.014058587,0.80597985,-0.045237213,-4.01704e-06,0.0047324467,0.8733104038076954,0.0006883432402145266,-0.48716369403396975,-0.0007128696204007877,0.9999997367905116,0.00013504003641333907,0.4871636587617594,0.0002293523289087025,0.8733106646430954,left_images/camera_left_85.png,right_images/camera_right_85.png
2025-05-02 13:29:10,3.9303905963897705,86,-0.06551905,-0.0006017327,0.11403263,2.2265067e-05,-0.00022472591,0.012609366,0.7999763,0.035163123,7.4181364e-05,0.0028101113,0.838262305107518,0.00047765115107966543,0.5452669801897122,-3.2699557567076134e-05,0.9999996585550225,-0.0008257242742431528,-0.5452671884191905,0.0006743435445021584,0.8382620345060455,-0.0009010477,1.2792553e-05,0.1070866,0.0007110219,0.00013252095,-0.014058587,0.80597985,-0.045237213,-4.01704e-06,0.0047324467,0.8733104038076954,0.0006883432402145266,-0.48716369403396975,-0.0007128696204007877,0.9999997367905116,0.00013504003641333907,0.4871636587617594,0.0002293523289087025,0.8733106646430954,left_images/camera_left_86.png,right_images/camera_right_86.png
2025-05-02 13:29:10,3.9746665954589844,87,-0.06551905,-0.0006017383,0.11403263,2.2284941e-05,-0.00022474496,0.012609338,0.7999763,0.035163123,7.4181364e-05,0.0028101113,0.838262305107518,0.00047765115107966543,0.5452669801897122,-3.2699557567076134e-05,0.9999996585550225,-0.0008257242742431528,-0.5452671884191905,0.0006743435445021584,0.8382620345060455,-0.0009010477,1.279216e-05,0.1070866,0.00071103935,0.00013252356,-0.014058587,0.80597985,-0.045237213,-4.01704e-06,0.0047324467,0.8733104038076954,0.0006883432402145266,-0.48716369403396975,-0.0007128696204007877,0.9999997367905116,0.00013504003641333907,0.4871636587617594,0.0002293523289087025,0.8733106646430954,left_images/camera_left_87.png,right_images/camera_right_87.png
2025-05-02 13:29:10,4.022794485092163,88,-0.06551905,-0.00060174824,0.11403263,2.2291426e-05,-0.00022467555,0.012609338,0.7999763,0.03516312,7.4174204e-05,0.0028101145,0.8382623177978238,0.00047736270996713483,0.5452669609329573,-3.265108670489345e-05,0.9999996589317499,-0.0008252698288634019,-0.5452671689127512,0.0006739890407329129,0.8382620474795732,-0.0009010477,1.2791767e-05,0.1070866,0.0007110568,0.00013252618,-0.014058587,0.80597985,-0.045237213,-4.01704e-06,0.0047324467,0.8733104038076954,0.0006883432402145266,-0.48716369403396975,-0.0007128696204007877,0.9999997367905116,0.00013504003641333907,0.4871636587617594,0.0002293523289087025,0.8733106646430954,left_images/camera_left_88.png,right_images/camera_right_88.png
2025-05-02 13:29:10,4.079487323760986,89,-0.06551905,-0.0006017487,0.11403263,2.2287792e-05,-0.00022468324,0.012609338,0.7999763,0.03516312,7.4174204e-05,0.0028101145,0.8382623177978238,0.00047736270996713483,0.5452669609329573,-3.265108670489345e-05,0.9999996589317499,-0.0008252698288634019,-0.5452671689127512,0.0006739890407329129,0.8382620474795732,-0.0009010477,1.27913745e-05,0.1070866,0.0007110743,0.0001325288,-0.014058587,0.80597985,-0.045237213,-4.01704e-06,0.0047324467,0.8733104038076954,0.0006883432402145266,-0.48716369403396975,-0.0007128696204007877,0.9999997367905116,0.00013504003641333907,0.4871636587617594,0.0002293523289087025,0.8733106646430954,left_images/camera_left_89.png,right_images/camera_right_89.png
2025-05-02 13:29:10,4.127115488052368,90,-0.06551905,-0.0006017487,0.11403263,2.2284157e-05,-0.00022469093,0.012609338,0.7999763,0.03516312,7.4174204e-05,0.0028101145,0.8382623177978238,0.00047736270996713483,0.5452669609329573,-3.265108670489345e-05,0.9999996589317499,-0.0008252698288634019,-0.5452671689127512,0.0006739890407329129,0.8382620474795732,-0.0009010477,1.2790982e-05,0.1070866,0.00071109174,0.00013253142,-0.014058587,0.80597985,-0.045237213,-4.01704e-06,0.0047324467,0.8733104038076954,0.0006883432402145266,-0.48716369403396975,-0.0007128696204007877,0.9999997367905116,0.00013504003641333907,0.4871636587617594,0.0002293523289087025,0.8733106646430954,left_images/camera_left_90.png,right_images/camera_right_90.png
2025-05-02 13:29:10,4.171252012252808,91,-0.06551905,-0.0006017487,0.11403263,2.2280523e-05,-0.00022469861,0.012609338,0.7999763,0.03516312,7.4174204e-05,0.0028101145,0.8382623177978238,0.00047736270996713483,0.5452669609329573,-3.265108670489345e-05,0.9999996589317499,-0.0008252698288634019,-0.5452671689127512,0.0006739890407329129,0.8382620474795732,-0.0009010477,1.2790589e-05,0.1070866,0.0007111092,0.00013253404,-0.014058587,0.80597985,-0.045237213,-4.01704e-06,0.0047324467,0.8733104038076954,0.0006883432402145266,-0.48716369403396975,-0.0007128696204007877,0.9999997367905116,0.00013504003641333907,0.4871636587617594,0.0002293523289087025,0.8733106646430954,left_images/camera_left_91.png,right_images/camera_right_91.png
2025-05-02 13:29:10,4.217634677886963,92,-0.06551905,-0.0006017487,0.11403263,2.2276889e-05,-0.0002247063,0.012609338,0.7999763,0.035163123,7.4181364e-05,0.0028101113,0.838262305107518,0.00047765115107966543,0.5452669801897122,-3.2699557567076134e-05,0.9999996585550225,-0.0008257242742431528,-0.5452671884191905,0.0006743435445021584,0.8382620345060455,-0.0009010477,1.2790196e-05,0.1070866,0.00071112666,0.00013253666,-0.014058587,0.80597985,-0.045237213,-4.01704e-06,0.0047324467,0.8733104038076954,0.0006883432402145266,-0.48716369403396975,-0.0007128696204007877,0.9999997367905116,0.00013504003641333907,0.4871636587617594,0.0002293523289087025,0.8733106646430954,left_images/camera_left_92.png,right_images/camera_right_92.png
2025-05-02 13:29:10,4.263735771179199,93,-0.06551905,-0.00060175406,0.11403263,2.229676e-05,-0.00022472533,0.01260931,0.7999763,0.035163123,7.4181364e-05,0.0028101113,0.838262305107518,0.00047765115107966543,0.5452669801897122,-3.2699557567076134e-05,0.9999996585550225,-0.0008257242742431528,-0.5452671884191905,0.0006743435445021584,0.8382620345060455,-0.0009010477,1.2789803e-05,0.1070866,0.0007111441,0.00013253928,-0.014058587,0.80597985,-0.045237213,-4.01704e-06,0.0047324467,0.8733104038076954,0.0006883432402145266,-0.48716369403396975,-0.0007128696204007877,0.9999997367905116,0.00013504003641333907,0.4871636587617594,0.0002293523289087025,0.8733106646430954,left_images/camera_left_93.png,right_images/camera_right_93.png
2025-05-02 13:29:10,4.327107667922974,94,-0.06551905,-0.00060175965,0.11403263,2.2316633e-05,-0.00022474438,0.0126092825,0.7999763,0.035163123,7.4181364e-05,0.0028101113,0.838262305107518,0.00047765115107966543,0.5452669801897122,-3.2699557567076134e-05,0.9999996585550225,-0.0008257242742431528,-0.5452671884191905,0.0006743435445021584,0.8382620345060455,-0.0009010477,1.278941e-05,0.1070866,0.0007111616,0.0001325419,-0.014058587,0.80597985,-0.045237213,-4.01704e-06,0.0047324467,0.8733104038076954,0.0006883432402145266,-0.48716369403396975,-0.0007128696204007877,0.9999997367905116,0.00013504003641333907,0.4871636587617594,0.0002293523289087025,0.8733106646430954,left_images/camera_left_94.png,right_images/camera_right_94.png
2025-05-02 13:29:10,4.374297142028809,95,-0.06551905,-0.0006017696,0.11403263,2.2323118e-05,-0.00022467496,0.0126092825,0.7999763,0.03516312,7.4174204e-05,0.0028101145,0.8382623177978238,0.00047736270996713483,0.5452669609329573,-3.265108670489345e-05,0.9999996589317499,-0.0008252698288634019,-0.5452671689127512,0.0006739890407329129,0.8382620474795732,-0.0009010477,1.2789017e-05,0.1070866,0.00071117905,0.00013254452,-0.014058587,0.80597985,-0.045237213,-4.01704e-06,0.0047324467,0.8733104038076954,0.0006883432402145266,-0.48716369403396975,-0.0007128696204007877,0.9999997367905116,0.00013504003641333907,0.4871636587617594,0.0002293523289087025,0.8733106646430954,left_images/camera_left_95.png,right_images/camera_right_95.png
2025-05-02 13:29:10,4.4171271324157715,96,-0.06551905,-0.00060177007,0.11403263,2.2319484e-05,-0.00022468266,0.0126092825,0.7999763,0.03516312,7.4174204e-05,0.0028101145,0.8382623177978238,0.00047736270996713483,0.5452669609329573,-3.265108670489345e-05,0.9999996589317499,-0.0008252698288634019,-0.5452671689127512,0.0006739890407329129,0.8382620474795732,-0.0009010477,1.2788624e-05,0.1070866,0.0007111965,0.00013254714,-0.014058587,0.80597985,-0.0452372,-3.962914e-06,0.0047324765,0.8733103474515397,0.0006885094330616512,-0.4871637948255513,-0.0007131365932947774,0.9999997366187029,0.0001349026474227379,0.48716375939746437,0.00022960245112556572,0.873310608439199,left_images/camera_left_96.png,right_images/camera_right_96.png
2025-05-02 13:29:10,4.462864637374878,97,-0.06551905,-0.00060177007,0.11403263,2.231585e-05,-0.00022469035,0.0126092825,0.7999763,0.03516312,7.4174204e-05,0.0028101145,0.8382623177978238,0.00047736270996713483,0.5452669609329573,-3.265108670489345e-05,0.9999996589317499,-0.0008252698288634019,-0.5452671689127512,0.0006739890407329129,0.8382620474795732,-0.0009010444,1.27996655e-05,0.1070866,0.0007112205,0.0001324713,-0.014058587,0.80597985,-0.0452372,-3.962914e-06,0.0047324765,0.8733103474515397,0.0006885094330616512,-0.4871637948255513,-0.0007131365932947774,0.9999997366187029,0.0001349026474227379,0.48716375939746437,0.00022960245112556572,0.873310608439199,left_images/camera_left_97.png,right_images/camera_right_97.png
2025-05-02 13:29:10,4.513217449188232,98,-0.06551905,-0.00060177007,0.11403263,2.2312215e-05,-0.00022469803,0.0126092825,0.7999763,0.03516312,7.4174204e-05,0.0028101145,0.8382623177978238,0.00047736270996713483,0.5452669609329573,-3.265108670489345e-05,0.9999996589317499,-0.0008252698288634019,-0.5452671689127512,0.0006739890407329129,0.8382620474795732,-0.0009010409,1.2811534e-05,0.1070866,0.0007112445,0.00013239545,-0.014058587,0.80597985,-0.0452372,-3.962914e-06,0.0047324765,0.8733103474515397,0.0006885094330616512,-0.4871637948255513,-0.0007131365932947774,0.9999997366187029,0.0001349026474227379,0.48716375939746437,0.00022960245112556572,0.873310608439199,left_images/camera_left_98.png,right_images/camera_right_98.png
2025-05-02 13:29:10,4.557622909545898,99,-0.06551905,-0.00060177007,0.11403263,2.230858e-05,-0.00022470571,0.0126092825,0.7999763,0.035163123,7.4181364e-05,0.0028101113,0.838262305107518,0.00047765115107966543,0.5452669801897122,-3.2699557567076134e-05,0.9999996585550225,-0.0008257242742431528,-0.5452671884191905,0.0006743435445021584,0.8382620345060455,-0.0009010374,1.2823403e-05,0.1070866,0.00071126845,0.0001323196,-0.014058587,0.80597985,-0.0452372,-3.962914e-06,0.0047324765,0.8733103474515397,0.0006885094330616512,-0.4871637948255513,-0.0007131365932947774,0.9999997366187029,0.0001349026474227379,0.48716375939746437,0.00022960245112556572,0.873310608439199,left_images/camera_left_99.png,right_images/camera_right_99.png
2025-05-02 13:29:10,4.601757287979126,100,-0.06551905,-0.0006017754,0.11403263,2.2328451e-05,-0.00022472475,0.012609255,0.7999763,0.035163116,7.417979e-05,0.002810115,0.8382620811804252,0.00047761172250638737,0.5452673244768154,-3.2727659152390114e-05,0.9999996586498971,-0.0008256082541389697,-0.5452675326699385,0.0006742307702118572,0.8382618106706913,-0.0009010339,1.2835272e-05,0.1070866,0.00071129244,0.00013224376,-0.014058587,0.80597985,-0.0452372,-3.962914e-06,0.0047324765,0.8733103474515397,0.0006885094330616512,-0.4871637948255513,-0.0007131365932947774,0.9999997366187029,0.0001349026474227379,0.48716375939746437,0.00022960245112556572,0.873310608439199,left_images/camera_left_100.png,right_images/camera_right_100.png
2025-05-02 13:29:10,4.645452499389648,101,-0.06551905,-0.0006017789,0.11403263,2.2291779e-05,-0.000224691,0.012609255,0.7999763,0.035163112,7.417321e-05,0.0028101136,0.8382620685249904,0.00047731433871610557,0.5452673441929439,-3.2670203094976516e-05,0.9999996590290487,-0.0008251511643452593,-0.5452675521291013,0.0006738789269940195,0.838261798295932,-0.00090103043,1.2847141e-05,0.1070866,0.0007113164,0.00013216792,-0.014058587,0.80597985,-0.0452372,-3.958269e-06,0.0047324793,0.8733103609772713,0.0006883981091224168,-0.4871637707360756,-0.0007131368104890598,0.9999997366494033,0.0001346737306406289,0.48716373515034733,0.00022980245332862508,0.8733106219124984,left_images/camera_left_101.png,right_images/camera_right_101.png
2025-05-02 13:29:10,4.692099571228027,102,-0.06551905,-0.0006017824,0.11403263,2.2300315e-05,-0.00022466082,0.012609255,0.7999763,0.035163112,7.417321e-05,0.0028101136,0.8382620685249904,0.00047731433871610557,0.5452673441929439,-3.2670203094976516e-05,0.9999996590290487,-0.0008251511643452593,-0.5452675521291013,0.0006738789269940195,0.838261798295932,-0.0009010335,1.2853284e-05,0.1070866,0.0007113333,0.0001321313,-0.014058587,0.80597985,-0.0452372,-3.958269e-06,0.0047324793,0.8733103609772713,0.0006883981091224168,-0.4871637707360756,-0.0007131368104890598,0.9999997366494033,0.0001346737306406289,0.48716373515034733,0.00022980245332862508,0.8733106219124984,left_images/camera_left_102.png,right_images/camera_right_102.png
2025-05-02 13:29:10,4.7337822914123535,103,-0.06551905,-0.0006017859,0.11403263,2.2308857e-05,-0.00022463064,0.012609255,0.7999763,0.035163112,7.417321e-05,0.0028101136,0.8382620685249904,0.00047731433871610557,0.5452673441929439,-3.2670203094976516e-05,0.9999996590290487,-0.0008251511643452593,-0.5452675521291013,0.0006738789269940195,0.838261798295932,-0.000901037,1.285901e-05,0.1070866,0.0007113502,0.00013209469,-0.014058587,0.80597985,-0.0452372,-3.958269e-06,0.0047324793,0.8733103609772713,0.0006883981091224168,-0.4871637707360756,-0.0007131368104890598,0.9999997366494033,0.0001346737306406289,0.48716373515034733,0.00022980245332862508,0.8733106219124984,left_images/camera_left_103.png,right_images/camera_right_103.png
2025-05-02 13:29:10,4.777403831481934,104,-0.06551905,-0.0006017894,0.11403263,2.23174e-05,-0.00022460046,0.012609255,0.7999763,0.035163112,7.417321e-05,0.0028101136,0.8382620685249904,0.00047731433871610557,0.5452673441929439,-3.2670203094976516e-05,0.9999996590290487,-0.0008251511643452593,-0.5452675521291013,0.0006738789269940195,0.838261798295932,-0.0009010405,1.2864736e-05,0.1070866,0.00071136706,0.00013205808,-0.014058587,0.80597985,-0.0452372,-3.958269e-06,0.0047324793,0.8733103609772713,0.0006883981091224168,-0.4871637707360756,-0.0007131368104890598,0.9999997366494033,0.0001346737306406289,0.48716373515034733,0.00022980245332862508,0.8733106219124984,left_images/camera_left_104.png,right_images/camera_right_104.png
2025-05-02 13:29:10,4.8202996253967285,105,-0.06551905,-0.0006017929,0.11403263,2.2325941e-05,-0.00022457028,0.012609255,0.7999763,0.035163112,7.417321e-05,0.0028101136,0.8382620685249904,0.00047731433871610557,0.5452673441929439,-3.2670203094976516e-05,0.9999996590290487,-0.0008251511643452593,-0.5452675521291013,0.0006738789269940195,0.838261798295932,-0.000901044,1.2870462e-05,0.1070866,0.00071138394,0.00013202147,-0.014058587,0.80597985,-0.0452372,-3.958269e-06,0.0047324793,0.8733103609772713,0.0006883981091224168,-0.4871637707360756,-0.0007131368104890598,0.9999997366494033,0.0001346737306406289,0.48716373515034733,0.00022980245332862508,0.8733106219124984,left_images/camera_left_105.png,right_images/camera_right_105.png
2025-05-02 13:29:10,4.8666510581970215,106,-0.06551905,-0.0006017964,0.11403263,2.2334483e-05,-0.0002245401,0.012609255,0.7999763,0.035163112,7.417321e-05,0.0028101136,0.8382620685249904,0.00047731433871610557,0.5452673441929439,-3.2670203094976516e-05,0.9999996590290487,-0.0008251511643452593,-0.5452675521291013,0.0006738789269940195,0.838261798295932,-0.0009010475,1.28761885e-05,0.1070866,0.0007114008,0.00013198485,-0.014058587,0.80597985,-0.0452372,-3.958269e-06,0.0047324793,0.8733103609772713,0.0006883981091224168,-0.4871637707360756,-0.0007131368104890598,0.9999997366494033,0.0001346737306406289,0.48716373515034733,0.00022980245332862508,0.8733106219124984,left_images/camera_left_106.png,right_images/camera_right_106.png
2025-05-02 13:29:10,4.909745454788208,107,-0.06551905,-0.00060179987,0.11403263,2.2343025e-05,-0.00022450992,0.012609255,0.7999763,0.035163112,7.417321e-05,0.0028101136,0.8382620685249904,0.00047731433871610557,0.5452673441929439,-3.2670203094976516e-05,0.9999996590290487,-0.0008251511643452593,-0.5452675521291013,0.0006738789269940195,0.838261798295932,-0.000901051,1.2881915e-05,0.1070866,0.0007114177,0.00013194824,-0.014058587,0.80597985,-0.0452372,-3.958269e-06,0.0047324793,0.8733103609772713,0.0006883981091224168,-0.4871637707360756,-0.0007131368104890598,0.9999997366494033,0.0001346737306406289,0.48716373515034733,0.00022980245332862508,0.8733106219124984,left_images/camera_left_107.png,right_images/camera_right_107.png
2025-05-02 13:29:11,4.9636757373809814,108,-0.06551905,-0.00060180336,0.11403263,2.2351567e-05,-0.00022447974,0.012609255,0.7999763,0.035163112,7.417321e-05,0.0028101136,0.8382620685249904,0.00047731433871610557,0.5452673441929439,-3.2670203094976516e-05,0.9999996590290487,-0.0008251511643452593,-0.5452675521291013,0.0006738789269940195,0.838261798295932,-0.0009010545,1.2887641e-05,0.1070866,0.0007114346,0.00013191163,-0.014058587,0.80597985,-0.0452372,-3.958269e-06,0.0047324793,0.8733103609772713,0.0006883981091224168,-0.4871637707360756,-0.0007131368104890598,0.9999997366494033,0.0001346737306406289,0.48716373515034733,0.00022980245332862508,0.8733106219124984,left_images/camera_left_108.png,right_images/camera_right_108.png
2025-05-02 13:29:11,5.018930673599243,109,-0.06551905,-0.00060180685,0.11403263,2.236011e-05,-0.00022444956,0.012609255,0.7999763,0.035163112,7.417321e-05,0.0028101136,0.8382620685249904,0.00047731433871610557,0.5452673441929439,-3.2670203094976516e-05,0.9999996590290487,-0.0008251511643452593,-0.5452675521291013,0.0006738789269940195,0.838261798295932,-0.00090105797,1.2893367e-05,0.1070866,0.00071145146,0.00013187501,-0.014058587,0.80597985,-0.0452372,-3.958269e-06,0.0047324793,0.8733103609772713,0.0006883981091224168,-0.4871637707360756,-0.0007131368104890598,0.9999997366494033,0.0001346737306406289,0.48716373515034733,0.00022980245332862508,0.8733106219124984,left_images/camera_left_109.png,right_images/camera_right_109.png
2025-05-02 13:29:11,5.06396222114563,110,-0.06551905,-0.00060181034,0.11403263,2.2368651e-05,-0.00022441937,0.012609255,0.7999763,0.035163112,7.417321e-05,0.0028101136,0.8382620685249904,0.00047731433871610557,0.5452673441929439,-3.2670203094976516e-05,0.9999996590290487,-0.0008251511643452593,-0.5452675521291013,0.0006738789269940195,0.838261798295932,-0.00090106146,1.2899093e-05,0.1070866,0.00071146834,0.0001318384,-0.014058587,0.80597985,-0.0452372,-3.958269e-06,0.0047324793,0.8733103609772713,0.0006883981091224168,-0.4871637707360756,-0.0007131368104890598,0.9999997366494033,0.0001346737306406289,0.48716373515034733,0.00022980245332862508,0.8733106219124984,left_images/camera_left_110.png,right_images/camera_right_110.png
2025-05-02 13:29:11,5.105234384536743,111,-0.06551905,-0.00060181384,0.11403263,2.2377193e-05,-0.0002243892,0.012609255,0.7999763,0.035163112,7.417321e-05,0.0028101136,0.8382620685249904,0.00047731433871610557,0.5452673441929439,-3.2670203094976516e-05,0.9999996590290487,-0.0008251511643452593,-0.5452675521291013,0.0006738789269940195,0.838261798295932,-0.0009010633,1.2903555e-05,0.1070866,0.00071148464,0.00013186948,-0.014058615,0.80597985,-0.0452372,-3.958269e-06,0.0047324793,0.8733103609772713,0.0006883981091224168,-0.4871637707360756,-0.0007131368104890598,0.9999997366494033,0.0001346737306406289,0.48716373515034733,0.00022980245332862508,0.8733106219124984,left_images/camera_left_111.png,right_images/camera_right_111.png
2025-05-02 13:29:11,5.150928020477295,112,-0.06551905,-0.00060181733,0.11403263,2.2385735e-05,-0.00022435901,0.012609255,0.7999763,0.035163112,7.417321e-05,0.0028101136,0.8382620685249904,0.00047731433871610557,0.5452673441929439,-3.2670203094976516e-05,0.9999996590290487,-0.0008251511643452593,-0.5452675521291013,0.0006738789269940195,0.838261798295932,-0.0009009364,1.2909369e-05,0.1070866,0.0007114844,0.00013184929,-0.014058727,0.80597985,-0.0452372,-3.9558618e-06,0.0047324765,0.8733105025656231,0.0006884515988068746,-0.48716351684313824,-0.0007132395244166027,0.999999736586175,0.0001345992622070462,0.48716348118261016,0.00022991732574332188,0.8733107635544543,left_images/camera_left_112.png,right_images/camera_right_112.png
2025-05-02 13:29:11,5.205374479293823,113,-0.06551905,-0.0006018208,0.11403263,2.2394277e-05,-0.00022432883,0.012609255,0.7999763,0.035163112,7.416695e-05,0.0028101117,0.838262099664182,0.0004772409306413941,0.5452672963856273,-3.2756733915653046e-05,0.9999996592469801,-0.0008248835799455904,-0.5452675042523567,0.000673607465963086,0.838261829656694,-0.00090091134,1.2909402e-05,0.1070866,0.0007114809,0.0001318519,-0.014058727,0.80597985,-0.0452372,-3.9558618e-06,0.0047324765,0.8733105025656231,0.0006884515988068746,-0.48716351684313824,-0.0007132395244166027,0.999999736586175,0.0001345992622070462,0.48716348118261016,0.00022991732574332188,0.8733107635544543,left_images/camera_left_113.png,right_images/camera_right_113.png
2025-05-02 13:29:11,5.25194525718689,114,-0.06551905,-0.0006018178,0.11403263,2.2392294e-05,-0.00022430655,0.012609255,0.7999763,0.035163112,7.416695e-05,0.0028101117,0.838262099664182,0.0004772409306413941,0.5452672963856273,-3.2756733915653046e-05,0.9999996592469801,-0.0008248835799455904,-0.5452675042523567,0.000673607465963086,0.838261829656694,-0.00090090785,1.2908968e-05,0.1070866,0.0007114774,0.00013185453,-0.014058727,0.80597985,-0.0452372,-3.9558618e-06,0.0047324765,0.8733105025656231,0.0006884515988068746,-0.48716351684313824,-0.0007132395244166027,0.999999736586175,0.0001345992622070462,0.48716348118261016,0.00022991732574332188,0.8733107635544543,left_images/camera_left_114.png,right_images/camera_right_114.png
2025-05-02 13:29:11,5.299091100692749,115,-0.06551905,-0.0006018171,0.11403263,2.2372491e-05,-0.00022431319,0.012609255,0.7999763,0.035163112,7.416695e-05,0.0028101117,0.838262099664182,0.0004772409306413941,0.5452672963856273,-3.2756733915653046e-05,0.9999996592469801,-0.0008248835799455904,-0.5452675042523567,0.000673607465963086,0.838261829656694,-0.00090090436,1.2908533e-05,0.1070866,0.0007114739,0.00013185714,-0.014058727,0.80597985,-0.0452372,-3.9558618e-06,0.0047324765,0.8733105025656231,0.0006884515988068746,-0.48716351684313824,-0.0007132395244166027,0.999999736586175,0.0001345992622070462,0.48716348118261016,0.00022991732574332188,0.8733107635544543,left_images/camera_left_115.png,right_images/camera_right_115.png
2025-05-02 13:29:11,5.3458521366119385,116,-0.06551905,-0.0006018171,0.11403263,2.2352682e-05,-0.00022431983,0.012609255,0.7999763,0.035163112,7.416695e-05,0.0028101117,0.838262099664182,0.0004772409306413941,0.5452672963856273,-3.2756733915653046e-05,0.9999996592469801,-0.0008248835799455904,-0.5452675042523567,0.000673607465963086,0.838261829656694,-0.00090090086,1.2908098e-05,0.1070866,0.00071147043,0.00013185976,-0.014058727,0.80597985,-0.0452372,-3.9558618e-06,0.0047324765,0.8733105025656231,0.0006884515988068746,-0.48716351684313824,-0.0007132395244166027,0.999999736586175,0.0001345992622070462,0.48716348118261016,0.00022991732574332188,0.8733107635544543,left_images/camera_left_116.png,right_images/camera_right_116.png
2025-05-02 13:29:11,5.399373531341553,117,-0.06551905,-0.0006018171,0.11403263,2.2332873e-05,-0.00022432646,0.012609255,0.7999763,0.035163112,7.416695e-05,0.0028101117,0.838262099664182,0.0004772409306413941,0.5452672963856273,-3.2756733915653046e-05,0.9999996592469801,-0.0008248835799455904,-0.5452675042523567,0.000673607465963086,0.838261829656694,-0.0009008974,1.2907663e-05,0.1070866,0.00071146694,0.00013186238,-0.014058727,0.80597985,-0.0452372,-3.9558618e-06,0.0047324765,0.8733105025656231,0.0006884515988068746,-0.48716351684313824,-0.0007132395244166027,0.999999736586175,0.0001345992622070462,0.48716348118261016,0.00022991732574332188,0.8733107635544543,left_images/camera_left_117.png,right_images/camera_right_117.png
2025-05-02 13:29:11,5.446009159088135,118,-0.06551905,-0.0006018139,0.11403263,2.2330887e-05,-0.00022430418,0.012609255,0.7999763,0.035163112,7.416695e-05,0.0028101117,0.838262099664182,0.0004772409306413941,0.5452672963856273,-3.2756733915653046e-05,0.9999996592469801,-0.0008248835799455904,-0.5452675042523567,0.000673607465963086,0.838261829656694,-0.0009008939,1.2907229e-05,0.1070866,0.00071146345,0.000131865,-0.014058727,0.80597985,-0.0452372,-3.9558618e-06,0.0047324765,0.8733105025656231,0.0006884515988068746,-0.48716351684313824,-0.0007132395244166027,0.999999736586175,0.0001345992622070462,0.48716348118261016,0.00022991732574332188,0.8733107635544543,left_images/camera_left_118.png,right_images/camera_right_118.png
2025-05-02 13:29:11,5.491218090057373,119,-0.06551905,-0.0006018132,0.11403263,2.2311084e-05,-0.00022431082,0.012609255,0.7999763,0.035163112,7.416695e-05,0.0028101117,0.838262099664182,0.0004772409306413941,0.5452672963856273,-3.2756733915653046e-05,0.9999996592469801,-0.0008248835799455904,-0.5452675042523567,0.000673607465963086,0.838261829656694,-0.0009008904,1.2906794e-05,0.1070866,0.00071145996,0.00013186762,-0.014058727,0.80597985,-0.0452372,-3.9558618e-06,0.0047324765,0.8733105025656231,0.0006884515988068746,-0.48716351684313824,-0.0007132395244166027,0.999999736586175,0.0001345992622070462,0.48716348118261016,0.00022991732574332188,0.8733107635544543,left_images/camera_left_119.png,right_images/camera_right_119.png
2025-05-02 13:29:11,5.535224676132202,120,-0.06551905,-0.0006018132,0.11403263,2.2291275e-05,-0.00022431745,0.012609255,0.7999763,0.035163112,7.416695e-05,0.0028101117,0.838262099664182,0.0004772409306413941,0.5452672963856273,-3.2756733915653046e-05,0.9999996592469801,-0.0008248835799455904,-0.5452675042523567,0.000673607465963086,0.838261829656694,-0.0009008869,1.2906359e-05,0.1070866,0.00071145647,0.00013187024,-0.014058727,0.80597985,-0.0452372,-3.9558618e-06,0.0047324765,0.8733105025656231,0.0006884515988068746,-0.48716351684313824,-0.0007132395244166027,0.999999736586175,0.0001345992622070462,0.48716348118261016,0.00022991732574332188,0.8733107635544543,left_images/camera_left_120.png,right_images/camera_right_120.png
2025-05-02 13:29:11,5.579499244689941,121,-0.06551905,-0.0006018132,0.11403263,2.2271466e-05,-0.00022432409,0.012609255,0.7999763,0.035163112,7.416695e-05,0.0028101117,0.838262099664182,0.0004772409306413941,0.5452672963856273,-3.2756733915653046e-05,0.9999996592469801,-0.0008248835799455904,-0.5452675042523567,0.000673607465963086,0.838261829656694,-0.0009008834,1.2905924e-05,0.1070866,0.000711453,0.00013187286,-0.014058727,0.80597985,-0.0452372,-3.9558618e-06,0.0047324765,0.8733105025656231,0.0006884515988068746,-0.48716351684313824,-0.0007132395244166027,0.999999736586175,0.0001345992622070462,0.48716348118261016,0.00022991732574332188,0.8733107635544543,left_images/camera_left_121.png,right_images/camera_right_121.png
2025-05-02 13:29:11,5.630086421966553,122,-0.06551905,-0.0006018132,0.11403263,2.2251657e-05,-0.00022433072,0.012609255,0.7999763,0.035163112,7.417321e-05,0.0028101136,0.8382620685249904,0.00047731433871610557,0.5452673441929439,-3.2670203094976516e-05,0.9999996590290487,-0.0008251511643452593,-0.5452675521291013,0.0006738789269940195,0.838261798295932,-0.0009008799,1.290549e-05,0.1070866,0.0007114495,0.00013187548,-0.014058727,0.80597985,-0.0452372,-3.9558618e-06,0.0047324765,0.8733105025656231,0.0006884515988068746,-0.48716351684313824,-0.0007132395244166027,0.999999736586175,0.0001345992622070462,0.48716348118261016,0.00022991732574332188,0.8733107635544543,left_images/camera_left_122.png,right_images/camera_right_122.png
2025-05-02 13:29:11,5.673123121261597,123,-0.06551905,-0.0006018197,0.11403263,2.2242371e-05,-0.00022432947,0.012609255,0.7999763,0.035163112,7.416695e-05,0.0028101117,0.838262099664182,0.0004772409306413941,0.5452672963856273,-3.2756733915653046e-05,0.9999996592469801,-0.0008248835799455904,-0.5452675042523567,0.000673607465963086,0.838261829656694,-0.0009008764,1.2905055e-05,0.1070866,0.000711446,0.0001318781,-0.014058727,0.80597985,-0.0452372,-3.9558618e-06,0.0047324765,0.8733105025656231,0.0006884515988068746,-0.48716351684313824,-0.0007132395244166027,0.999999736586175,0.0001345992622070462,0.48716348118261016,0.00022991732574332188,0.8733107635544543,left_images/camera_left_123.png,right_images/camera_right_123.png
2025-05-02 13:29:11,5.730429649353027,124,-0.06551905,-0.0006018171,0.11403263,2.2240385e-05,-0.0002243072,0.012609255,0.7999763,0.035163112,7.416695e-05,0.0028101117,0.838262099664182,0.0004772409306413941,0.5452672963856273,-3.2756733915653046e-05,0.9999996592469801,-0.0008248835799455904,-0.5452675042523567,0.000673607465963086,0.838261829656694,-0.0009008729,1.290462e-05,0.1070866,0.0007114425,0.00013188072,-0.014058727,0.80597985,-0.0452372,-3.9558618e-06,0.0047324765,0.8733105025656231,0.0006884515988068746,-0.48716351684313824,-0.0007132395244166027,0.999999736586175,0.0001345992622070462,0.48716348118261016,0.00022991732574332188,0.8733107635544543,left_images/camera_left_124.png,right_images/camera_right_124.png
2025-05-02 13:29:11,5.78634238243103,125,-0.06551905,-0.0006018164,0.11403263,2.2220582e-05,-0.00022431383,0.012609255,0.7999763,0.035163112,7.416695e-05,0.0028101117,0.838262099664182,0.0004772409306413941,0.5452672963856273,-3.2756733915653046e-05,0.9999996592469801,-0.0008248835799455904,-0.5452675042523567,0.000673607465963086,0.838261829656694,-0.00090086943,1.29041855e-05,0.1070866,0.000711439,0.00013188334,-0.014058727,0.80597985,-0.0452372,-3.9558618e-06,0.0047324765,0.8733105025656231,0.0006884515988068746,-0.48716351684313824,-0.0007132395244166027,0.999999736586175,0.0001345992622070462,0.48716348118261016,0.00022991732574332188,0.8733107635544543,left_images/camera_left_125.png,right_images/camera_right_125.png
2025-05-02 13:29:11,5.833678722381592,126,-0.06551905,-0.0006018164,0.11403263,2.2200773e-05,-0.00022432047,0.012609255,0.7999763,0.035163112,7.416695e-05,0.0028101117,0.838262099664182,0.0004772409306413941,0.5452672963856273,-3.2756733915653046e-05,0.9999996592469801,-0.0008248835799455904,-0.5452675042523567,0.000673607465963086,0.838261829656694,-0.00090086594,1.2903751e-05,0.1070866,0.0007114355,0.00013188596,-0.014058727,0.80597985,-0.0452372,-3.9558618e-06,0.0047324765,0.8733105025656231,0.0006884515988068746,-0.48716351684313824,-0.0007132395244166027,0.999999736586175,0.0001345992622070462,0.48716348118261016,0.00022991732574332188,0.8733107635544543,left_images/camera_left_126.png,right_images/camera_right_126.png
2025-05-02 13:29:11,5.883594989776611,127,-0.06551905,-0.0006018164,0.11403263,2.2180964e-05,-0.0002243271,0.012609255,0.7999763,0.035163112,7.416695e-05,0.0028101117,0.838262099664182,0.0004772409306413941,0.5452672963856273,-3.2756733915653046e-05,0.9999996592469801,-0.0008248835799455904,-0.5452675042523567,0.000673607465963086,0.838261829656694,-0.00090086245,1.2903316e-05,0.1070866,0.000711432,0.00013188858,-0.014058727,0.80597985,-0.0452372,-3.9558618e-06,0.0047324765,0.8733105025656231,0.0006884515988068746,-0.48716351684313824,-0.0007132395244166027,0.999999736586175,0.0001345992622070462,0.48716348118261016,0.00022991732574332188,0.8733107635544543,left_images/camera_left_127.png,right_images/camera_right_127.png
2025-05-02 13:29:12,5.938813209533691,128,-0.06551905,-0.0006018132,0.11403263,2.2178978e-05,-0.00022430482,0.012609255,0.7999763,0.035163112,7.416695e-05,0.0028101117,0.838262099664182,0.0004772409306413941,0.5452672963856273,-3.2756733915653046e-05,0.9999996592469801,-0.0008248835799455904,-0.5452675042523567,0.000673607465963086,0.838261829656694,-0.00090085895,1.2902881e-05,0.1070866,0.0007114285,0.0001318912,-0.014058727,0.80597985,-0.0452372,-3.9558618e-06,0.0047324765,0.8733105025656231,0.0006884515988068746,-0.48716351684313824,-0.0007132395244166027,0.999999736586175,0.0001345992622070462,0.48716348118261016,0.00022991732574332188,0.8733107635544543,left_images/camera_left_128.png,right_images/camera_right_128.png
2025-05-02 13:29:12,5.982286691665649,129,-0.06551905,-0.0006018125,0.11403263,2.2159174e-05,-0.00022431146,0.012609255,0.7999763,0.035163112,7.416695e-05,0.0028101117,0.838262099664182,0.0004772409306413941,0.5452672963856273,-3.2756733915653046e-05,0.9999996592469801,-0.0008248835799455904,-0.5452675042523567,0.000673607465963086,0.838261829656694,-0.00090085546,1.29024465e-05,0.1070866,0.00071142503,0.00013189382,-0.014058727,0.80597985,-0.0452372,-3.9558618e-06,0.0047324765,0.8733105025656231,0.0006884515988068746,-0.48716351684313824,-0.0007132395244166027,0.999999736586175,0.0001345992622070462,0.48716348118261016,0.00022991732574332188,0.8733107635544543,left_images/camera_left_129.png,right_images/camera_right_129.png
2025-05-02 13:29:12,6.028021812438965,130,-0.06551905,-0.0006018125,0.11403263,2.2139366e-05,-0.0002243181,0.012609255,0.7999763,0.035163112,7.416695e-05,0.0028101117,0.838262099664182,0.0004772409306413941,0.5452672963856273,-3.2756733915653046e-05,0.9999996592469801,-0.0008248835799455904,-0.5452675042523567,0.000673607465963086,0.838261829656694,-0.00090085197,1.2902012e-05,0.1070866,0.00071142154,0.00013189644,-0.014058727,0.80597985,-0.0452372,-3.9558618e-06,0.0047324765,0.8733105025656231,0.0006884515988068746,-0.48716351684313824,-0.0007132395244166027,0.999999736586175,0.0001345992622070462,0.48716348118261016,0.00022991732574332188,0.8733107635544543,left_images/camera_left_130.png,right_images/camera_right_130.png
2025-05-02 13:29:12,6.072220325469971,131,-0.06551905,-0.0006018125,0.11403263,2.2119557e-05,-0.00022432473,0.012609255,0.7999763,0.035163112,7.416695e-05,0.0028101117,0.838262099664182,0.0004772409306413941,0.5452672963856273,-3.2756733915653046e-05,0.9999996592469801,-0.0008248835799455904,-0.5452675042523567,0.000673607465963086,0.838261829656694,-0.0009008485,1.2901577e-05,0.1070866,0.00071141805,0.00013189905,-0.014058727,0.80597985,-0.0452372,-3.9558618e-06,0.0047324765,0.8733105025656231,0.0006884515988068746,-0.48716351684313824,-0.0007132395244166027,0.999999736586175,0.0001345992622070462,0.48716348118261016,0.00022991732574332188,0.8733107635544543,left_images/camera_left_131.png,right_images/camera_right_131.png
2025-05-02 13:29:12,6.115212917327881,132,-0.06551905,-0.0006018125,0.11403263,2.2099748e-05,-0.00022433136,0.012609255,0.7999763,0.035163112,7.417321e-05,0.0028101136,0.8382620685249904,0.00047731433871610557,0.5452673441929439,-3.2670203094976516e-05,0.9999996590290487,-0.0008251511643452593,-0.5452675521291013,0.0006738789269940195,0.838261798295932,-0.000900845,1.2901142e-05,0.1070866,0.00071141456,0.00013190167,-0.014058727,0.80597985,-0.0452372,-3.9558618e-06,0.0047324765,0.8733105025656231,0.0006884515988068746,-0.48716351684313824,-0.0007132395244166027,0.999999736586175,0.0001345992622070462,0.48716348118261016,0.00022991732574332188,0.8733107635544543,left_images/camera_left_132.png,right_images/camera_right_132.png
2025-05-02 13:29:12,6.155993461608887,133,-0.06551905,-0.000601819,0.11403263,2.2090462e-05,-0.00022433011,0.012609255,0.7999763,0.0351631,7.4184914e-05,0.0028101117,0.8382620374431609,0.00047715135563850995,0.5452673921189719,-3.235939771519791e-05,0.9999996588915698,-0.0008253300027168939,-0.5452675999309975,0.0006741982852377263,0.8382617669452437,-0.0009008415,1.2900708e-05,0.1070866,0.00071141106,0.0001319043,-0.014058727,0.80597985,-0.0452372,-3.9558618e-06,0.0047324765,0.8733105025656231,0.0006884515988068746,-0.48716351684313824,-0.0007132395244166027,0.999999736586175,0.0001345992622070462,0.48716348118261016,0.00022991732574332188,0.8733107635544543,left_images/camera_left_133.png,right_images/camera_right_133.png
2025-05-02 13:29:12,6.216839551925659,134,-0.06551905,-0.0006018196,0.11403263,2.2095395e-05,-0.00022433847,0.012609255,0.7999763,0.0351631,7.4184914e-05,0.0028101117,0.8382620374431609,0.00047715135563850995,0.5452673921189719,-3.235939771519791e-05,0.9999996588915698,-0.0008253300027168939,-0.5452675999309975,0.0006741982852377263,0.8382617669452437,-0.000900838,1.2900273e-05,0.1070866,0.00071140757,0.00013190691,-0.014058727,0.80597985,-0.0452372,-3.9558618e-06,0.0047324765,0.8733105025656231,0.0006884515988068746,-0.48716351684313824,-0.0007132395244166027,0.999999736586175,0.0001345992622070462,0.48716348118261016,0.00022991732574332188,0.8733107635544543,left_images/camera_left_134.png,right_images/camera_right_134.png
