jiaqis7/OS_Teleop_Extension/demo_4/teleop_log.csv
Epoch Time (Seconds),Time (Seconds),Frame Number,PSM1_joint_1,PSM1_joint_2,PSM1_joint_3,PSM1_joint_4,PSM1_joint_5,PSM1_joint_6,PSM1_jaw_angle,PSM1_ee_x,PSM1_ee_y,PSM1_ee_z,"PSM1_Orientation_Matrix_[1,1]","PSM1_Orientation_Matrix_[1,2]","PSM1_Orientation_Matrix_[1,3]","PSM1_Orientation_Matrix_[2,1]","PSM1_Orientation_Matrix_[2,2]","PSM1_Orientation_Matrix_[2,3]","PSM1_Orientation_Matrix_[3,1]","PSM1_Orientation_Matrix_[3,2]","PSM1_Orientation_Matrix_[3,3]",PSM2_joint_1,PSM2_joint_2,PSM2_joint_3,PSM2_joint_4,PSM2_joint_5,PSM2_joint_6,PSM2_jaw_angle,PSM2_ee_x,PSM2_ee_y,PSM2_ee_z,"PSM2_Orientation_Matrix_[1,1]","PSM2_Orientation_Matrix_[1,2]","PSM2_Orientation_Matrix_[1,3]","PSM2_Orientation_Matrix_[2,1]","PSM2_Orientation_Matrix_[2,2]","PSM2_Orientation_Matrix_[2,3]","PSM2_Orientation_Matrix_[3,1]","PSM2_Orientation_Matrix_[3,2]","PSM2_Orientation_Matrix_[3,3]",Camera Left,Camera Right
2025-05-15 15:27:41,0.0013239383697509766,1,-0.06551381,-0.00060161785,0.1140327,3.9360253e-05,-0.00021645683,0.012568421,7.964414e-12,0.035163354,7.3973e-05,0.0028098342,0.8382427008844426,0.00048715791520609765,0.5452971090067511,-4.980302948037654e-05,0.999999665160607,-0.0008168220934710002,-0.5452973243411463,0.0006575377097777884,0.8382424444697054,-0.00054849655,-0.002132251,0.107011996,-0.018526636,0.010742609,-0.022665443,0.746683,-0.045308225,3.2417294e-05,0.004780269,0.8771371367144687,-0.011743215995207175,-0.4800963864417575,0.018325650109058875,0.9997913293005946,0.009025984900856158,0.4798902103027564,-0.016715104948520163,0.8771693059621593,left_images/camera_left_1.png,right_images/camera_right_1.png
2025-05-15 15:27:41,0.0460820198059082,2,-0.06551381,-0.0006016161,0.1140327,3.9342733e-05,-0.0002164661,0.012568477,1.135712e-12,0.035163358,7.398095e-05,0.0028098323,0.8382428566687071,0.0004874261811231639,0.545296869291951,-4.9843740823170025e-05,0.999999664807477,-0.0008172518184920777,-0.5452970848624507,0.0006578758631258209,0.8382425999911135,-0.0005489812,-0.0021298777,0.10701259,-0.018526632,0.010742582,-0.022665279,0.7200147,-0.045307875,3.223765e-05,0.0047798185,0.877137260723087,-0.011741940586738497,-0.4800961910726401,0.01832551401164335,0.9997913099787356,0.009028401143786217,0.47988998883849254,-0.016717156524408097,0.8771693880262409,left_images/camera_left_2.png,right_images/camera_right_2.png
2025-05-15 15:27:41,0.08859872817993164,3,-0.06551381,-0.0006016115,0.1140327,3.934527e-05,-0.00021639888,0.012568423,7.1479185e-12,0.035163354,7.3973e-05,0.0028098342,0.8382427008844426,0.00048715791520609765,0.5452971090067511,-4.980302948037654e-05,0.999999665160607,-0.0008168220934710002,-0.5452973243411463,0.0006575377097777884,0.8382424444697054,-0.0005489972,-0.0021299243,0.10701259,-0.018526632,0.010742582,-0.022665279,0.6933464,-0.045307875,3.223765e-05,0.0047798185,0.877137260723087,-0.011741940586738497,-0.4800961910726401,0.01832551401164335,0.9997913099787356,0.009028401143786217,0.47988998883849254,-0.016717156524408097,0.8771693880262409,left_images/camera_left_3.png,right_images/camera_right_3.png
2025-05-15 15:27:41,0.13547754287719727,4,-0.06774529,0.008166648,0.11404618,-0.062426053,-0.061588492,0.04964395,7.539791e-07,0.035188183,0.00020429163,0.002824516,0.8549503418207077,-0.02190203790147652,0.5182472515666797,0.059662925820028814,0.9966292825782679,-0.05630637965737884,-0.5152671620657082,0.07905930586141921,0.85337528547144,-0.0005489972,-0.0021299243,0.10701259,-0.018526632,0.010742582,-0.022665279,0.6666781,-0.045307875,3.223765e-05,0.0047798185,0.877137260723087,-0.011741940586738497,-0.4800961910726401,0.01832551401164335,0.9997913099787356,0.009028401143786217,0.47988998883849254,-0.016717156524408097,0.8771693880262409,left_images/camera_left_4.png,right_images/camera_right_4.png
2025-05-15 15:27:41,0.180344820022583,5,-0.06895835,0.015334098,0.11410993,-0.11077552,-0.104893215,0.08021843,7.317637e-07,0.035190046,0.00020294369,0.002834036,0.866080775816691,-0.041168567222393294,0.4982060204710636,0.10306515335229868,0.989897341232857,-0.09736954341367565,-0.48916425045706863,0.1356775696015218,0.861574101967903,-0.0005489972,-0.0021299243,0.10701259,-0.018526632,0.010742582,-0.022665279,0.64000976,-0.045307875,3.223765e-05,0.0047798185,0.877137260723087,-0.011741940586738497,-0.4800961910726401,0.01832551401164335,0.9997913099787356,0.009028401143786217,0.47988998883849254,-0.016717156524408097,0.8771693880262409,left_images/camera_left_5.png,right_images/camera_right_5.png
2025-05-15 15:27:41,0.22772431373596191,6,-0.069486484,0.020539427,0.114191644,-0.14934976,-0.13473041,0.104436055,7.008477e-07,0.035187833,0.00018247473,0.002826577,0.8733415659394359,-0.0584183105123964,0.4835926076764731,0.13623058289970796,0.9824586112569745,-0.12734325836031885,-0.46767054374341327,0.17709426349798674,0.8659803025189695,-0.0005489972,-0.0021299243,0.10701259,-0.018526632,0.010742582,-0.022665279,0.61334145,-0.045307875,3.223765e-05,0.0047798185,0.877137260723087,-0.011741940586738497,-0.4800961910726401,0.01832551401164335,0.9997913099787356,0.009028401143786217,0.47988998883849254,-0.016717156524408097,0.8771693880262409,left_images/camera_left_6.png,right_images/camera_right_6.png
2025-05-15 15:27:41,0.27711987495422363,7,-0.069687866,0.024326568,0.11426844,-0.17937887,-0.15557076,0.12328281,6.4268204e-07,0.035183717,0.00015693519,0.0028148973,0.8780894506752165,-0.07271777349762965,0.47293872967906103,0.1612243794854736,0.9755530821961756,-0.1493414988443127,-0.4505170541415947,0.20738444791037075,0.8683467479598748,-0.0005489972,-0.0021299243,0.10701259,-0.018526632,0.010742582,-0.022665279,0.58667314,-0.045307875,3.223765e-05,0.0047798185,0.877137260723087,-0.011741940586738497,-0.4800961910726401,0.01832551401164335,0.9997913099787356,0.009028401143786217,0.47988998883849254,-0.016717156524408097,0.8771693880262409,left_images/camera_left_7.png,right_images/camera_right_7.png
2025-05-15 15:27:41,0.3262977600097656,8,-0.06973921,0.026996886,0.11433103,-0.20309521,-0.16961645,0.13838136,5.6063004e-07,0.03518466,0.00013246608,0.002801638,0.8814038697753893,-0.0850024194059946,0.4646523507312708,0.18057310712329785,0.9695963483630108,-0.16515530335097603,-0.43648662216476525,0.22947224219116855,0.8699551245523823,0.0003447646,-0.003914317,0.10701746,-0.09077002,0.021487385,-0.038276974,0.56000674,-0.045320403,3.6759448e-06,0.004774617,0.8805934567927138,-0.06965523670302765,-0.4687251986545043,0.08990853604895266,0.9957298704188939,0.020939921229733406,0.46526510614851996,-0.06058195404093906,0.883095808984047,left_images/camera_left_8.png,right_images/camera_right_8.png
2025-05-15 15:27:41,0.36896395683288574,9,-0.06973844,0.028860308,0.1143785,-0.22154513,-0.17840512,0.15165664,5.282169e-07,0.035200663,0.00010417204,0.002781407,0.8843453802672676,-0.09554694566313494,0.45695079557255125,0.19527056988957991,0.9647962399703156,-0.17617496948811912,-0.424031429182956,0.24502856264849399,0.8718706042478279,0.0021896686,-0.0045572137,0.10707865,-0.19198951,0.02604149,-0.068178065,0.53334045,-0.045305606,-9.02435e-05,0.004730083,0.8810191465890086,-0.1541355864435031,-0.4472666814499966,0.18893543677568245,0.9814023092600167,0.03395450057781765,0.4337149571711326,-0.11441909093689001,0.8937558993121213,left_images/camera_left_9.png,right_images/camera_right_9.png
2025-05-15 15:27:41,0.4121994972229004,10,-0.06971347,0.029948574,0.1144093,-0.23730962,-0.18283942,0.16320145,4.911003e-07,0.035226434,8.649251e-05,0.002760592,0.8867107885363893,-0.10599830080469524,0.4500092640376328,0.20794305803244845,0.9607885224063644,-0.18342600641214613,-0.4129208908608141,0.2562221212907118,0.8739831591352314,0.005110345,-0.003935657,0.10719198,-0.29397553,0.022874612,-0.10298345,0.5066736,-0.045210302,-0.00024638564,0.004682307,0.8738210998020002,-0.24045965021629923,-0.4226296749622273,0.28637605147534384,0.9569317164022673,0.04764921074689552,0.3929700277148553,-0.16266790329154018,0.9050490100301309,left_images/camera_left_10.png,right_images/camera_right_10.png
2025-05-15 15:27:41,0.45851588249206543,11,-0.06970957,0.030240316,0.11441458,-0.2507529,-0.18433917,0.17450593,5.1670236e-07,0.03527369,0.00011037674,0.0027471725,0.8892099703119367,-0.11585081137853695,0.44258809089352963,0.21859857788997075,0.9574200747447245,-0.18857747007606354,-0.4018958701483843,0.26443409382819927,0.8766722988545561,0.008754459,-0.0019812938,0.10732808,-0.40229988,0.0109623,-0.13244493,0.48000675,-0.04503131,-0.0004477572,0.004659431,0.852935836962682,-0.3326525151865348,-0.4022968582587257,0.3870351186239418,0.920127660344337,0.05974031821983827,0.35029169983960545,-0.20665767057945972,0.9135580617640847,left_images/camera_left_11.png,right_images/camera_right_11.png
2025-05-15 15:27:41,0.5197274684906006,12,-0.070086256,0.029279195,0.114333116,-0.26037532,-0.18355882,0.18785723,6.804589e-07,0.035365876,0.00024662318,0.0028057043,0.8931230742553066,-0.12324446720778501,0.4325990933132192,0.2252560588622444,0.9549963761869115,-0.1929809042773822,-0.3893467377269254,0.2698012653279007,0.8806908623625344,0.0132711185,0.0010630498,0.10749194,-0.5110638,-0.0065627564,-0.15119292,0.45334035,-0.044727404,-0.0006977431,0.004672723,0.8177817136088493,-0.4231190185729383,-0.3901324967352084,0.48422724464100464,0.8722125429554695,0.06905979625320381,0.3110579438534798,-0.2453886224604287,0.9181652245280358,left_images/camera_left_12.png,right_images/camera_right_12.png
2025-05-15 15:27:41,0.5761311054229736,13,-0.07127914,0.025798772,0.11406921,-0.27136645,-0.18173161,0.20715311,9.97148e-07,0.035530128,0.00067857455,0.0030475585,0.8990793571499791,-0.1307383957761352,0.4178083070220874,0.23164837621579001,0.9518872522243934,-0.20062325101862366,-0.37147723933421284,0.2771608394462979,0.8861075158997668,0.018231943,0.0038640008,0.10772714,-0.61615694,-0.022511141,-0.15397033,0.4266744,-0.044243276,-0.0009151604,0.004692805,0.7693874030375747,-0.5049279355255041,-0.39126819954226916,0.5732866353657027,0.8159797569053513,0.07429313583202397,0.28175425064791554,-0.2814690324825026,0.9172729833562066,left_images/camera_left_13.png,right_images/camera_right_13.png
2025-05-15 15:27:41,0.6329293251037598,14,-0.07316843,0.020905012,0.113679774,-0.2860306,-0.17880389,0.22946274,1.1154476e-06,0.035718042,0.0012700043,0.0034353873,0.9051073187678731,-0.14076529018341735,0.4012055266224655,0.2405682075315089,0.9475878957549805,-0.21024775229173098,-0.3505819148756942,0.2868140737450422,0.8915323931657587,0.023457685,0.005424962,0.10805021,-0.7231404,-0.033977896,-0.1425735,0.40000886,-0.04357355,-0.0010093467,0.0047020884,0.7067656716201152,-0.5803333398153387,-0.4045930055230095,0.6578665253992382,0.7494721954440086,0.07418263284267632,0.2601805530367345,-0.31859793306785955,0.9114830974112392,left_images/camera_left_14.png,right_images/camera_right_14.png
2025-05-15 15:27:41,0.682532787322998,15,-0.076423004,0.013893677,0.11312446,-0.3108235,-0.17001304,0.2607,1.4215982e-06,0.035936553,0.0020434211,0.0040193275,0.9116088617922166,-0.16055281800378407,0.37840728816044644,0.25749144133609997,0.9406156794572053,-0.22122454926593882,-0.3204176036683334,0.2991068975973369,0.8988145654522622,0.02757214,0.005164728,0.10843257,-0.8258993,-0.031227274,-0.120581895,0.37334287,-0.042776763,-0.0010086731,0.004701821,0.6358566728814397,-0.640429888311931,-0.4307387255737673,0.7317347234393061,0.6777179682039207,0.07254412510156455,0.2454599479861181,-0.3613141482564956,0.8995562796203109,left_images/camera_left_15.png,right_images/camera_right_15.png
2025-05-15 15:27:41,0.7445688247680664,16,-0.08314292,0.0033747174,0.11236692,-0.35307273,-0.15212125,0.30204773,1.579916e-06,0.03602428,0.0031262562,0.0049661547,0.9157934525879053,-0.1961013223380963,0.3505233566745216,0.288822139091666,0.9279851096268303,-0.23542601445336048,-0.2791131028232787,0.31684050828157945,0.9064810908917141,0.029075708,0.002810399,0.10881497,-0.9390404,-0.0044614626,-0.0934317,0.3466767,-0.04190192,-0.0009654468,0.0047464008,0.5502808841530721,-0.6882293154044302,-0.47279102989974625,0.8034521567528777,0.5905674063880145,0.07546370201151767,0.22727864031814066,-0.42139120533072727,0.8779372823414292,left_images/camera_left_16.png,right_images/camera_right_16.png
2025-05-15 15:27:41,0.8006649017333984,17,-0.09306331,-0.010246906,0.11150798,-0.40423077,-0.12972066,0.34529707,1.3584615e-06,0.035923004,0.0045247525,0.0062134294,0.9158386515763569,-0.23789781458631817,0.32348754859167933,0.32638447334752285,0.9103071391810993,-0.2545861109989758,-0.23390754548851228,0.33874111378894717,0.9113406157922311,0.03019656,0.000611999,0.10914126,-1.0557067,0.026384644,-0.083446264,0.32000995,-0.041095696,-0.0009820234,0.0048561916,0.4632152157913053,-0.7257902486996682,-0.5085864516007955,0.8660859958355275,0.4924253399126092,0.08609490362114411,0.1879540147935053,-0.4803600727625321,0.8566956804014934,left_images/camera_left_17.png,right_images/camera_right_17.png
2025-05-15 15:27:41,0.850670576095581,18,-0.10921131,-0.030010426,0.11054294,-0.46412584,-0.10275325,0.39324474,1.212497e-06,0.035426047,0.006592905,0.007978865,0.9122169800612011,-0.28256668718518557,0.2966753251977855,0.3667191559900624,0.8860185223656392,-0.2837044917778811,-0.18269439487285483,0.36759657957902575,0.9118637577861304,0.031732656,-6.613205e-05,0.10935599,-1.1723742,0.053503,-0.08167368,0.31314278,-0.040360495,-0.0010733234,0.0050807605,0.3748738122204227,-0.7537628780327157,-0.5397324787440212,0.9169145127476581,0.3874132400267688,0.09580583366730036,0.13688462742051236,-0.5308036408614764,0.8363672002321402,left_images/camera_left_18.png,right_images/camera_right_18.png
2025-05-15 15:27:42,0.9037189483642578,19,-0.13025932,-0.051964253,0.109525576,-0.50883776,-0.08132856,0.43667608,9.1169017e-07,0.03459303,0.008941022,0.010176234,0.9104463735957805,-0.3084786905715873,0.27555089959847967,0.3889930887446351,0.8650303842156423,-0.31687033829730243,-0.14061215351171102,0.3956808459440226,0.9075598550166384,0.031028064,0.00042618008,0.109416835,-1.2887357,0.091024816,-0.07253686,0.3041802,-0.039733715,-0.0011602084,0.0054488243,0.27957433367111845,-0.765076700319144,-0.5800826101350745,0.9560937249175784,0.2771445018472483,0.09526654328288836,0.08788049343045368,-0.5812474238434191,0.8089675216903387,left_images/camera_left_19.png,right_images/camera_right_19.png
2025-05-15 15:27:42,0.9546008110046387,20,-0.15199919,-0.072421454,0.108632945,-0.534868,-0.067113735,0.47083214,6.189031e-07,0.033645883,0.011132171,0.012384345,0.9120512373167461,-0.31610645224514605,0.26122643694308484,0.3942196172835913,0.8512965284963563,-0.3462442980307849,-0.11293110226049803,0.4187731264289047,0.9010414167635078,0.02677523,0.0017839031,0.10938785,-1.4041626,0.1541343,-0.057759553,0.2977894,-0.03913303,-0.001197588,0.006000937,0.17932710362911708,-0.7499840815716,-0.6366833336072142,0.9829307973081164,0.16362343097118826,0.08410957460626656,0.04109546942452724,-0.6408987831369475,0.7665245672294903,left_images/camera_left_20.png,right_images/camera_right_20.png
2025-05-15 15:27:42,1.0020711421966553,21,-0.17604282,-0.09347911,0.10788185,-0.5347052,-0.06316109,0.4911843,3.7768848e-07,0.032401044,0.013386338,0.014721919,0.91931193214603,-0.2969247476015271,0.2582658817492217,0.37793627666965635,0.8490626831938091,-0.3691296937186265,-0.10968018139577697,0.4369533776840493,0.8927720893595915,0.023226053,0.0033255122,0.10939767,-1.5006393,0.21373585,-0.054223564,0.29918492,-0.038574606,-0.0011480252,0.006551587,0.09884701362892206,-0.7221417516224303,-0.6846463017210651,0.9950863850648534,0.06779894240524847,0.07215531627878796,-0.0056880713080815215,-0.6884145509592441,0.7252951481103236,left_images/camera_left_21.png,right_images/camera_right_21.png
2025-05-15 15:27:42,1.0464119911193848,22,-0.19884922,-0.11333437,0.10736297,-0.5220474,-0.063755706,0.50193906,2.503872e-07,0.031121664,0.0154882185,0.01685004,0.927649423897518,-0.2666916547995782,0.261423234627042,0.35364125089616677,0.8522843286546742,-0.3854209241780284,-0.12001838195542067,0.4499855379786263,0.884934236880283,0.020550461,0.0036188609,0.109422095,-1.5792505,0.27092573,-0.06499832,0.28019357,-0.0380312,-0.00096629036,0.0071405335,0.0419331299643822,-0.685655908381727,-0.7267169929983881,0.9977666112753477,-0.009113645751809896,0.0661719796078355,-0.05199425002343533,-0.727868749681108,0.683742408515196,left_images/camera_left_22.png,right_images/camera_right_22.png
2025-05-15 15:27:42,1.099334955215454,23,-0.22038306,-0.13143636,0.10710718,-0.5012112,-0.06648519,0.5061312,2.9855957e-07,0.029788654,0.017389242,0.018722864,0.9352932115113177,-0.23038975613667617,0.2686022501173963,0.3252241176240444,0.8588090399359593,-0.3958235796916824,-0.1394843425496466,0.45756703682800276,0.8781665701858241,0.019324074,0.0031677166,0.10948077,-1.6428794,0.3214592,-0.08185353,0.26256788,-0.037472848,-0.00069333444,0.007730117,0.002328943143185269,-0.6469625527070716,-0.7625182171060476,0.9956734573644307,-0.0693320748343011,0.061866224219134736,-0.09289210043807378,-0.75936323244803,0.6440019711788796,left_images/camera_left_23.png,right_images/camera_right_23.png
2025-05-15 15:27:42,1.1490190029144287,24,-0.24267218,-0.14864166,0.107124686,-0.46978077,-0.06844329,0.50273377,6.109576e-07,0.02822438,0.019148912,0.020463686,0.9410545117887867,-0.18705064790496928,0.2818305536316089,0.2920582147312784,0.869642746916046,-0.3980244866139421,-0.1706411587218818,0.45687366728084133,0.8730109089211935,0.020506816,0.001321947,0.10957762,-1.6874689,0.36843947,-0.0951654,0.25486147,-0.036762226,-0.00025528402,0.008406242,-0.02347464890167772,-0.6062262343325145,-0.7949457174335628,0.9925732345479631,-0.10907176663083762,0.05386765061725146,-0.11936211676213332,-0.7877773178576843,0.604284355706,left_images/camera_left_24.png,right_images/camera_right_24.png
2025-05-15 15:27:42,1.2053663730621338,25,-0.26390463,-0.1647878,0.107327685,-0.43834335,-0.07074972,0.49651715,7.580468e-07,0.02663292,0.020819949,0.022041634,0.9437790140618668,-0.14425297183298685,0.2974428562493343,0.26010534638025606,0.8793592852504757,-0.3988388850503167,-0.20402544302321135,0.4537822468553879,0.8674418084448422,0.024023063,-0.0011124726,0.10975589,-1.7185332,0.4126266,-0.10775508,0.2629283,-0.035870165,0.00021681414,0.009142783,-0.03777531394830208,-0.5645571900777283,-0.8245290806197481,0.9898273939377557,-0.13439925524877666,0.046675158263955296,-0.13716689056218445,-0.8143783023387312,0.5638911462449006,left_images/camera_left_25.png,right_images/camera_right_25.png
2025-05-15 15:27:42,1.260495662689209,26,-0.28479034,-0.18097845,0.10769473,-0.4023884,-0.07358568,0.48595953,9.2911836e-07,0.024971945,0.02251168,0.02353733,0.9434749264033859,-0.09791125200421548,0.31665193822096277,0.22570538251905753,0.8894186709467338,-0.397481456263398,-0.24271823901398787,0.44648383453638346,0.8612433116997983,0.028658945,-0.005042199,0.11000086,-1.7275321,0.45539382,-0.11180304,0.25488538,-0.034896374,0.0007932334,0.009889154,-0.040821139395046724,-0.5239409247503131,-0.8507758470656517,0.9897273664286033,-0.13796793467218993,0.03747784871883303,-0.13701596520402853,-0.8405062500505736,0.5241906799105945,left_images/camera_left_26.png,right_images/camera_right_26.png
2025-05-15 15:27:42,1.3156204223632812,27,-0.30335957,-0.195941,0.10822826,-0.36127037,-0.075893804,0.474558,9.280519e-07,0.023391724,0.024087988,0.024768224,0.9409206909406824,-0.05020001177417431,0.33488537169840893,0.18789130352179456,0.900146139917669,-0.39298064182883247,-0.28171814180238663,0.43268566605469266,0.8563982735679804,0.035151344,-0.010108218,0.11039684,-1.7427013,0.49155885,-0.118235074,0.25500494,-0.03377497,0.0015206945,0.010555113,-0.047656582334898945,-0.48531837143761686,-0.8730377589230012,0.9889067629347805,-0.14602699499217336,0.027194318439879517,-0.14068498278782565,-0.8620569558206088,0.4868937672011155,left_images/camera_left_27.png,right_images/camera_right_27.png
2025-05-15 15:27:42,1.378169059753418,28,-0.31777444,-0.20924006,0.10882896,-0.32097545,-0.07685149,0.46414825,8.5508105e-07,0.022081228,0.025497794,0.025645655,0.9368139163958584,-0.007039278915196762,0.34975725096044497,0.15134652223469167,0.9095438613002504,-0.3870713042560695,-0.3153948576855964,0.41554832802381103,0.853138717221354,0.043088082,-0.015270931,0.11098811,-1.7792051,0.51887715,-0.13251613,0.26286942,-0.032534096,0.0023765573,0.011042694,-0.06538734462245632,-0.4489446068922483,-0.8911639776750342,0.9849779903437901,-0.17207703790519024,0.014417058093958657,-0.15982131804466188,-0.8768342106511017,0.45345221725152773,left_images/camera_left_28.png,right_images/camera_right_28.png
2025-05-15 15:27:42,1.4318890571594238,29,-0.32772002,-0.22151215,0.10948777,-0.2787872,-0.076594174,0.45625994,6.9224507e-07,0.021079626,0.02680193,0.026133949,0.9326008803891601,0.03381471309098564,0.3593218099085249,0.11286685384691275,0.9183384275832933,-0.37936210370376244,-0.34280704660211325,0.39434895410336634,0.8526266657790607,0.0521063,-0.020228134,0.111706816,-1.824457,0.5346939,-0.14846896,0.25573933,-0.03125103,0.0032701022,0.011330491,-0.08841168450148501,-0.4187121701250397,-0.9038050080812728,0.9786419026639049,-0.20557183830953513,-0.0004956252721213805,-0.18558933265137278,-0.8845452718110125,0.42794422735071436,left_images/camera_left_29.png,right_images/camera_right_29.png
2025-05-15 15:27:42,1.4823181629180908,30,-0.3342994,-0.23188712,0.11013358,-0.23266429,-0.0742602,0.45151326,4.5990424e-07,0.020331724,0.02786629,0.026324136,0.9283796722674077,0.0730077704113041,0.3643913412530968,0.07125681697009015,0.9273512486738841,-0.36734469863913777,-0.3647377827370666,0.36700071804092993,0.8557317469870392,0.06233757,-0.025166932,0.11253879,-1.8880041,0.53854966,-0.17119132,0.2555763,-0.029919162,0.0042498475,0.011435836,-0.11943664702393125,-0.3921441044132065,-0.9121172560157191,0.966850159929947,-0.25477322315111683,-0.017069651684405274,-0.2256892899344507,-0.8839194568167144,0.4095738495921438,left_images/camera_left_30.png,right_images/camera_right_30.png
2025-05-15 15:27:42,1.5338826179504395,31,-0.34191555,-0.23795824,0.11080467,-0.19581842,-0.065094285,0.45198712,2.8075473e-07,0.01942083,0.028400762,0.026484344,0.9244300262383974,0.09801909775805719,0.3685395271386393,0.0402838248114953,0.935896813882586,-0.3499633798313481,-0.37921806397827645,0.33836283814733575,0.8612225320516453,0.0718545,-0.030273896,0.11342369,-1.9539335,0.5376503,-0.19381912,0.26427963,-0.028673008,0.005261621,0.0113864085,-0.15123433157508498,-0.366800030568582,-0.9179247869667344,0.9515775732639454,-0.3054410938728156,-0.03472549833880839,-0.2676346371719065,-0.8787283287505105,0.3952318626290103,left_images/camera_left_31.png,right_images/camera_right_31.png
2025-05-15 15:27:42,1.5929069519042969,32,-0.35562032,-0.23740672,0.11156713,-0.13963346,-0.04742027,0.45000342,7.058796e-07,0.017805614,0.02801894,0.02692112,0.9146928195847057,0.12606381310966255,0.3839856258044474,-0.00021846409364778552,0.9502613097679379,-0.3114536810371057,-0.4041497223475736,0.2848005586061506,0.8692247371905633,0.080227375,-0.035831783,0.11435679,-2.0149572,0.5376126,-0.21348475,0.29094577,-0.027504517,0.006319152,0.011242752,-0.1806191023378448,-0.34018900901826676,-0.9228478628754799,0.9350155809619044,-0.35050244197665825,-0.05379499537012444,-0.3051599633456911,-0.8725935344199892,0.38138946034111576,left_images/camera_left_32.png,right_images/camera_right_32.png
2025-05-15 15:27:42,1.6468400955200195,33,-0.36795568,-0.23601441,0.11213522,-0.06679176,-0.025847122,0.44320112,7.9195667e-07,0.01633494,0.027361013,0.027400725,0.8998744913188974,0.15914377535214633,0.406077774127348,-0.052369451615242764,0.9637426945818901,-0.26164376388050353,-0.43299346462859534,0.21418047858454214,0.8755817392923531,0.08788681,-0.041194405,0.11525377,-2.0716717,0.53820705,-0.23679173,0.31761417,-0.026410932,0.0072947172,0.011115155,-0.20176690570172512,-0.31273793273727496,-0.9281622170670205,0.9179506659317473,-0.3908484295923995,-0.06785337132830271,-0.3415504218691768,-0.8656976900237003,0.36593827185553657,left_images/camera_left_33.png,right_images/camera_right_33.png
2025-05-15 15:27:42,1.6910851001739502,34,-0.37580493,-0.23624367,0.11249453,-0.007888215,-0.007973477,0.44051623,6.200226e-07,0.015396211,0.026943041,0.027745143,0.8878563695594462,0.18443473470514354,0.4215387238047807,-0.09616683945475775,0.9702967827652609,-0.22198218925100002,-0.4499588937025278,0.15655025387915303,0.8792206844634457,0.09468441,-0.046365384,0.11606425,-2.120229,0.54069555,-0.25849316,0.33798987,-0.025424652,0.008207248,0.011041518,-0.21697887445627306,-0.2855732061609876,-0.9334710022076866,0.902395117892476,-0.4233739523962019,-0.08023432953694365,-0.3722945329218698,-0.8597688296020929,0.3495630707056084,left_images/camera_left_34.png,right_images/camera_right_34.png
2025-05-15 15:27:42,1.7347064018249512,35,-0.38145724,-0.23717013,0.112747595,0.030923616,0.002872906,0.4434813,3.3995823e-07,0.014774401,0.026767917,0.028026985,0.8806373053800393,0.2016158250415952,0.4287528372684901,-0.12676298042451778,0.9722131208223959,-0.19680648997091252,-0.45651843683128157,0.11896514949166606,0.8817245658591739,0.10013285,-0.05222221,0.11676899,-2.1417825,0.54620594,-0.26680434,0.31132323,-0.02457199,0.009092707,0.0110050915,-0.22516139470210755,-0.26634451951694266,-0.9372101916107669,0.89616958665677,-0.43408183014546164,-0.0919403974811957,-0.3823380942140547,-0.8606006981526655,0.33642832825419,left_images/camera_left_35.png,right_images/camera_right_35.png
2025-05-15 15:27:42,1.7980947494506836,36,-0.38522893,-0.23791255,0.112901,0.057478253,0.0075424146,0.4482027,1.7353754e-07,0.014399076,0.026698066,0.028231053,0.8762286219698304,0.21513078492872878,0.4312100966081398,-0.14926885491547554,0.971977143437964,-0.1816018766048368,-0.4581945121813169,0.0947585247359027,0.8837865189041981,0.10428812,-0.0584051,0.11738607,-2.140001,0.5535724,-0.26331183,0.2846564,-0.023843136,0.009917531,0.010973488,-0.22835614114795857,-0.25566694799982803,-0.9394082629509211,0.8984585946617066,-0.4270002787993198,-0.10219058461430924,-0.37500083530376943,-0.8673552753086571,0.3272143027370883,left_images/camera_left_36.png,right_images/camera_right_36.png
2025-05-15 15:27:42,1.8561315536499023,37,-0.38772592,-0.23871557,0.112961374,0.074412994,0.009728799,0.45335877,1.1068077e-07,0.014207136,0.026690815,0.028392518,0.8740052223279043,0.2244413934378543,0.43097671892484474,-0.16436919826756696,0.9712082555522055,-0.17244503764422733,-0.45727195191092534,0.07987856570392346,0.8857323392180373,0.10701945,-0.064179294,0.11793296,-2.1270225,0.5620482,-0.25382674,0.25949824,-0.02325818,0.010648961,0.010908237,-0.22963826842651647,-0.24973772215244078,-0.940689819126465,0.904487560381793,-0.4116644979520594,-0.11151051179360283,-0.3594002209079225,-0.8764493204173242,0.3204185855273494,left_images/camera_left_37.png,right_images/camera_right_37.png
2025-05-15 15:27:43,1.907050609588623,38,-0.3898889,-0.24008362,0.11297767,0.083892375,0.010731021,0.45775118,5.492901e-08,0.014090211,0.02678632,0.028569028,0.8728475694587094,0.23052318996509688,0.43011182194673464,-0.17349922611579918,0.9703980548503018,-0.16800486207241033,-0.4561086921198087,0.07201856726613418,0.8870051786442349,0.10859711,-0.06988548,0.118342586,-2.1019778,0.56729025,-0.23394947,0.2706294,-0.022860156,0.011315856,0.010802894,-0.23277083647194413,-0.2520594824255303,-0.9392996087551219,0.9132725144449758,-0.38864129734438524,-0.12202973554763058,-0.3342918665590039,-0.8862414791228443,0.32066335717485733,left_images/camera_left_38.png,right_images/camera_right_38.png
2025-05-15 15:27:43,1.960268259048462,39,-0.3931437,-0.24360415,0.11298997,0.08128947,0.010359442,0.46106172,1.1046691e-07,0.013955441,0.02719346,0.028886493,0.8728148730483468,0.23221738080293847,0.42926598448819697,-0.17342038622699102,0.9697171532309747,-0.17197096374241594,-0.45620123523120715,0.07565534206278599,0.8866547818575634,0.10926846,-0.074846566,0.118584804,-2.0739174,0.5706166,-0.21026622,0.25855434,-0.02264709,0.011875438,0.010724582,-0.23721575576646947,-0.257789783345132,-0.9366285885125505,0.9217294991350855,-0.3642458783692105,-0.1331903544376501,-0.3068279903143247,-0.8949130503540064,0.32401730920702443,left_images/camera_left_39.png,right_images/camera_right_39.png
2025-05-15 15:27:43,2.0072219371795654,40,-0.39711198,-0.24900493,0.113045484,0.06981861,0.0048087956,0.46305007,1.447487e-07,0.013800463,0.027945513,0.029288493,0.8729742300524194,0.23422497595797073,0.42784886852938375,-0.16849221053606586,0.9679708971721416,-0.18612554154771344,-0.4577405036186507,0.09039359969183423,0.8844787326339151,0.10920034,-0.07855146,0.11867387,-2.0445633,0.5746883,-0.18646431,0.25411588,-0.022576503,0.012269096,0.010720517,-0.2401325280850638,-0.2638590005594508,-0.9341920556177105,0.9297790924199685,-0.33911651980847857,-0.14321600920178323,-0.27901112568171105,-0.9029830639700577,0.32676348928402466,left_images/camera_left_40.png,right_images/camera_right_40.png
2025-05-15 15:27:43,2.0493276119232178,41,-0.4005955,-0.25458407,0.11315689,0.057094112,-0.0013055304,0.46469128,1.3762741e-07,0.013645871,0.02874605,0.029627942,0.8733836462985857,0.23608547214909414,0.4259866854941903,-0.16279534781774446,0.9658617762011907,-0.20151601425787613,-0.4590192600611509,0.10665214068934681,0.8820014964722527,0.109285995,-0.08071547,0.11865744,-2.017461,0.5777306,-0.16528895,0.26647046,-0.022549843,0.012464457,0.010790438,-0.24117141193620362,-0.26979042165409184,-0.9322282330247271,0.9365062773506598,-0.3166441974448159,-0.15064011652722947,-0.2545434001256108,-0.909367681748277,0.32902595162731063,left_images/camera_left_41.png,right_images/camera_right_41.png
2025-05-15 15:27:43,2.091607093811035,42,-0.40336922,-0.259843,0.11331325,0.044305548,-0.0073205843,0.4667783,1.1559925e-07,0.013506355,0.029520653,0.029878639,0.874367058203156,0.23755366007448991,0.4231435998740527,-0.15702333173687294,0.963575289715261,-0.21648633753750557,-0.4591578386779547,0.12284510423848621,0.8798199585967714,0.109504454,-0.08131876,0.118601866,-1.9962505,0.5809853,-0.14825796,0.25433552,-0.022530105,0.012493073,0.010896592,-0.24160129496458335,-0.2734230561943103,-0.9310578105643064,0.9412635138388321,-0.2992917447306527,-0.15635680046565564,-0.23590636232880918,-0.9141467518278699,0.329672419737144,left_images/camera_left_42.png,right_images/camera_right_42.png
2025-05-15 15:27:43,2.136223554611206,43,-0.40561503,-0.26475668,0.11348561,0.031601235,-0.012635362,0.4691952,8.3830116e-08,0.013385929,0.030249229,0.030071337,0.8758231066555362,0.23822345125907,0.41974215075265325,-0.15102183413621542,0.9612911594405454,-0.23045978476859194,-0.45839534406708254,0.13845177518424887,0.8778979522051248,0.109692454,-0.08106156,0.11853922,-1.9800407,0.58341944,-0.13485551,0.26534975,-0.022521038,0.012430978,0.010988608,-0.2418146401146399,-0.27615287843520425,-0.9301963596779865,0.9445674505139601,-0.286397901713479,-0.1605259272630865,-0.2220765887161104,-0.9174507232685947,0.3301002258680653,left_images/camera_left_43.png,right_images/camera_right_43.png
2025-05-15 15:27:43,2.1834425926208496,44,-0.40781942,-0.2697254,0.11367438,0.018471228,-0.016968574,0.47136757,7.106437e-08,0.013254296,0.030974519,0.030256787,0.8773710242947264,0.23793735514077036,0.416660414194386,-0.14427264047546012,0.9590196519816809,-0.2438579757218821,-0.45760844718849,0.15384122380412327,0.8757439048718457,0.10956713,-0.08049111,0.1185007,-1.9677666,0.5863732,-0.12472831,0.254407,-0.022524592,0.012345639,0.01104649,-0.24172388556334973,-0.2774172035691657,-0.9298436741259366,0.9469699665086422,-0.2765078581602121,-0.16368044142863653,-0.21170131241628592,-0.9200995052381651,0.3295443138361,left_images/camera_left_44.png,right_images/camera_right_44.png
2025-05-15 15:27:43,2.2288265228271484,45,-0.41020167,-0.27507174,0.11387374,0.005089779,-0.020771163,0.47292516,9.493472e-08,0.013107167,0.031738587,0.03046509,0.8786400475652992,0.23742717535273564,0.414270446952797,-0.13715746400298565,0.9565444614714096,-0.25731405576967775,-0.4573614510239342,0.16926615028526065,0.8730231803823363,0.109261,-0.07984074,0.11849008,-1.9611027,0.58987826,-0.11835183,0.26575986,-0.022531385,0.012276688,0.011078602,-0.2422719180978466,-0.27662894453217035,-0.9299358820629559,0.94813378706194,-0.2708033565927765,-0.16645679286129883,-0.20578299135928158,-0.9220314360720587,0.32788929741930106,left_images/camera_left_45.png,right_images/camera_right_45.png
2025-05-15 15:27:43,2.277170181274414,46,-0.412802,-0.2818026,0.114139915,-0.010306271,-0.023827689,0.47312784,1.360588e-07,0.012920275,0.03267334,0.030692307,0.8795879742352241,0.23626761238177033,0.4129196179890125,-0.1282964026712277,0.9536067476178546,-0.27234941519915057,-0.45811028000078396,0.18657916881880096,0.8690933120905305,0.10912272,-0.079265535,0.11848911,-1.9567206,0.59282213,-0.11400768,0.2544405,-0.022522781,0.012218861,0.011109312,-0.24265395912151028,-0.27547950998350773,-0.9301774538774323,0.9488667637412211,-0.2669670727909303,-0.16846497176773478,-0.20191810416581774,-0.9234931627384625,0.32617396828286804,left_images/camera_left_46.png,right_images/camera_right_46.png
2025-05-15 15:27:43,2.3320446014404297,47,-0.4150276,-0.2892363,0.11447317,-0.025086537,-0.026347648,0.47174442,1.6210959e-07,0.012715947,0.03369746,0.030873872,0.8799328161957443,0.23554238289457502,0.41259910911461306,-0.11962555968924983,0.9503140625928043,-0.2873898187260533,-0.4597912183272541,0.203526333182479,0.864389418752008,0.10929313,-0.07871355,0.11849242,-1.953959,0.5952434,-0.11085538,0.2652564,-0.022489104,0.012166676,0.011152501,-0.24310532271380778,-0.2740276641439896,-0.9304883886175066,0.9492612415475421,-0.2645086085704088,-0.1701125841546272,-0.1995066348867482,-0.9246318376932168,0.32442729133078596,left_images/camera_left_47.png,right_images/camera_right_47.png
2025-05-15 15:27:43,2.392965793609619,48,-0.41656286,-0.29783827,0.11496147,-0.040123936,-0.028752923,0.4686075,1.7054316e-07,0.012464144,0.03489986,0.03094697,0.8798581288366208,0.23531804248376667,0.4128862942769212,-0.11067122031496993,0.9463726138443982,-0.3035304873638177,-0.4621704816559746,0.2213691366178436,0.8587165721231627,0.10973983,-0.07807535,0.11850161,-1.9532942,0.5976641,-0.10845032,0.25467014,-0.02243074,0.012118723,0.011210937,-0.24432708675652062,-0.27172866773497145,-0.9308425247097647,0.9491175415241915,-0.2637097396232424,-0.17214257346431255,-0.19869616767352655,-0.9255380620800093,0.32233387751372744,left_images/camera_left_48.png,right_images/camera_right_48.png
2025-05-15 15:27:43,2.442174196243286,49,-0.4167005,-0.30637476,0.11571302,-0.052076295,-0.03164706,0.46437943,1.5368168e-07,0.01210438,0.03617545,0.030760352,0.8793707662875594,0.2369070023715781,0.4130158927040745,-0.10413119672665869,0.9421208694956642,-0.3186925809130288,-0.464611395972058,0.23724109991324566,0.8531429606137818,0.11043674,-0.077397384,0.118512705,-1.9527532,0.59919083,-0.105465665,0.25354975,-0.022355158,0.012068277,0.011270469,-0.2461379436878776,-0.26996938910529145,-0.9308773504727779,0.9488031849565115,-0.26327553084639754,-0.1745236690937002,-0.19796118026896847,-0.9261762919680374,0.32094991400973094,left_images/camera_left_49.png,right_images/camera_right_49.png
2025-05-15 15:27:43,2.494791269302368,50,-0.41778985,-0.31520358,0.11660727,-0.067863636,-0.037043888,0.45969552,2.1569213e-07,0.011596161,0.037592802,0.030612797,0.8787777527812929,0.23848006588331638,0.4133726156785783,-0.09525795411493886,0.9364130352587305,-0.33772259263390636,-0.4676276118820367,0.2574060713616141,0.8456160659730174,0.1112675,-0.07673151,0.1185286,-1.9523597,0.5998415,-0.10299086,0.26229265,-0.02226876,0.012012404,0.01132273,-0.24759097095192176,-0.26882955790447655,-0.9308218840895225,0.9485022882055394,-0.2631876703731212,-0.1762828960291532,-0.19759079020020287,-0.9265327403607782,0.3201483416599349,left_images/camera_left_50.png,right_images/camera_right_50.png
2025-05-15 15:27:43,2.539823055267334,51,-0.41979817,-0.3234317,0.1177934,-0.08413078,-0.045550592,0.45444137,2.858415e-07,0.010800259,0.03909744,0.030403187,0.8773771918296402,0.24184742365663,0.41439001789109864,-0.0866630476606692,0.9293450095268124,-0.358897435819446,-0.4719097153347228,0.2789761225235222,0.8363453495024896,0.112116486,-0.07614814,0.118551634,-1.9502788,0.6000387,-0.10011406,0.25456885,-0.022175413,0.011951193,0.0113653205,-0.2482142497590396,-0.2685413619542011,-0.9307390736056694,0.9486488068356335,-0.26188552408010723,-0.17743002442263345,-0.1960997896630331,-0.9269851720481133,0.3197551614861657,left_images/camera_left_51.png,right_images/camera_right_51.png
2025-05-15 15:27:43,2.5990302562713623,52,-0.42033014,-0.33011675,0.119183175,-0.09267003,-0.055290062,0.44822636,3.0137002e-07,0.009906446,0.04049735,0.029925767,0.8747463087540004,0.24919241959214256,0.41559840391785047,-0.08392822980154142,0.9225928838876745,-0.3765347564863087,-0.47725773703904567,0.2944919500048137,0.8279489983197827,0.112856254,-0.07569888,0.11857215,-1.9487956,0.59984535,-0.098300524,0.26249728,-0.022095455,0.011900362,0.011397128,-0.2484036237736835,-0.2685150641374944,-0.9306961373226708,0.9487842695708305,-0.26106730343505113,-0.17791085658861994,-0.1952025858205979,-0.9272235563273769,0.3196129332185478,left_images/camera_left_52.png,right_images/camera_right_52.png
2025-05-15 15:27:43,2.65641188621521,53,-0.41934702,-0.3359329,0.12084101,-0.0973265,-0.06877404,0.44153264,2.5845677e-07,0.008907725,0.04194545,0.029168058,0.8715089726426318,0.26051502529674225,0.41545641431806346,-0.08518526048018332,0.9147606837421689,-0.3949131080079303,-0.48292399194936253,0.30877955417125275,0.8194141839909135,0.113598555,-0.075331025,0.118574575,-1.9476086,0.5993374,-0.09701951,0.25396478,-0.022027684,0.01185416,0.01143996,-0.2483712770332866,-0.26867316605715574,-0.9306591419986583,0.9489136032030829,-0.2605116593678805,-0.17803552732400302,-0.1946141885911632,-0.9273340310665934,0.31965123560653685,left_images/camera_left_53.png,right_images/camera_right_53.png
2025-05-15 15:27:43,2.699361801147461,54,-0.4171222,-0.34007752,0.12265276,-0.10033735,-0.08331378,0.43497524,2.3986257e-07,0.00784166,0.04327544,0.028179085,0.8685650165289235,0.27186118079702354,0.4143504681278391,-0.08732408001272285,0.9069760496261101,-0.41203027856523833,-0.4878209887981891,0.32169231228032846,0.8115076950391125,0.11442718,-0.07497199,0.11854462,-1.9464645,0.5983643,-0.09666361,0.2542234,-0.021972004,0.011796992,0.011509327,-0.24751094670878604,-0.2691568319569472,-0.9307485863917389,0.9491821455521762,-0.2601064343280757,-0.17719451849902612,-0.1944005808229175,-0.9273075232262672,0.3198580490525104,left_images/camera_left_54.png,right_images/camera_right_54.png
2025-05-15 15:27:43,2.7444891929626465,55,-0.41485152,-0.34259772,0.12432374,-0.10298628,-0.0975107,0.42942512,2.2298926e-07,0.006847405,0.04436975,0.027217884,0.8661200684607436,0.28182468149956674,0.4128085220864808,-0.08913924952727335,0.8997390637409336,-0.42722805546019876,-0.4918233638241185,0.33323335078628596,0.804403700091237,0.11511398,-0.07463783,0.11850106,-1.9437635,0.597776,-0.09474806,0.26230276,-0.02193454,0.0117417695,0.0115843,-0.2469722522788956,-0.269850438969479,-0.9306908440466517,0.9496711238843415,-0.25838662593691375,-0.17709067732997447,-0.1926900699686967,-0.927586703292429,0.3200834966232121,left_images/camera_left_55.png,right_images/camera_right_55.png
2025-05-15 15:27:43,2.796396255493164,56,-0.4129023,-0.3438608,0.12582283,-0.10676005,-0.110088944,0.42481062,2.019364e-07,0.0059224274,0.04523896,0.026339158,0.8644157919810218,0.2889890938082477,0.4114251356367408,-0.0890889909185238,0.8933947917601004,-0.4403508802682763,-0.4948216752234505,0.3439928047442482,0.7980103132248627,0.11567341,-0.07427059,0.1184585,-1.9419227,0.59706336,-0.093194075,0.25432923,-0.021909729,0.011687591,0.011645765,-0.24674827980522376,-0.2705390533874498,-0.9305503248107463,0.9499501965431465,-0.2573761045213193,-0.17706542550443882,-0.19159830505722136,-0.9276670531034577,0.32050573799160986,left_images/camera_left_56.png,right_images/camera_right_56.png
2025-05-15 15:27:43,2.8533101081848145,57,-0.41091403,-0.34412667,0.12721117,-0.11021719,-0.12162752,0.4201508,2.1756794e-07,0.005047311,0.045935243,0.025484521,0.8628372802382906,0.2947715055357992,0.4106355894892059,-0.08836279175832575,0.8878137553527655,-0.45164007001050555,-0.4976985481831991,0.3534069825719037,0.7920856391866714,0.11613521,-0.07390942,0.118419036,-1.9407672,0.5960186,-0.092630625,0.26248133,-0.021893192,0.011630819,0.011692533,-0.2461434175970587,-0.2714268954712771,-0.930451964578755,0.9501828711584184,-0.25697390528359176,-0.1763998961463541,-0.19122219884413227,-0.9275191924796621,0.32115762212828003,left_images/camera_left_57.png,right_images/camera_right_57.png
2025-05-15 15:27:44,2.9010426998138428,58,-0.40803036,-0.34334615,0.12872086,-0.11270079,-0.13263875,0.41471383,2.1397685e-07,0.0041050576,0.046533503,0.024443533,0.8613132182859801,0.29963424200774563,0.41031556273469755,-0.0873869225265061,0.8829209856523891,-0.46131774176370055,-0.5005028129563251,0.3614828545187968,0.786655629937108,0.11642622,-0.07349542,0.11838862,-1.9389789,0.5956536,-0.09171638,0.25451255,-0.021881714,0.011568652,0.011730095,-0.24537857667462482,-0.2720392898285185,-0.9304751360991497,0.9505653548434565,-0.2559339733442584,-0.17585024156808693,-0.19030202384753908,-0.9276273099029675,0.32139183816910294,left_images/camera_left_58.png,right_images/camera_right_58.png
2025-05-15 15:27:44,2.957581043243408,59,-0.40440732,-0.34221435,0.13039118,-0.10983078,-0.14744818,0.4065599,2.9487495e-07,0.0030940857,0.04718326,0.023246864,0.8574389985559063,0.30994437578638145,0.41077104045177637,-0.09082456899778929,0.876877649486479,-0.472055595769644,-0.5065069213957598,0.36745077459362924,0.7800196579758305,0.11661643,-0.07307544,0.118357,-1.937865,0.5949436,-0.09168367,0.25353923,-0.021881364,0.011502907,0.011755402,-0.24432080976658227,-0.2728724365653353,-0.9305095245498021,0.9508846553639505,-0.2555055423093033,-0.1747434978550274,-0.1900676566604183,-0.9275007014617972,0.321895533798609,left_images/camera_left_59.png,right_images/camera_right_59.png
2025-05-15 15:27:44,3.019536256790161,60,-0.4008123,-0.3411128,0.1320512,-0.10509831,-0.16214937,0.3977346,3.628486e-07,0.0020962479,0.047822133,0.022048494,0.8528514736693658,0.3212563355833288,0.4116293608424489,-0.09533514741283211,0.8708824700398545,-0.4821565441275848,-0.5133766390553479,0.3719651734031745,0.7733604180764501,0.11657877,-0.07277822,0.11832973,-1.9358042,0.594153,-0.09118039,0.25374925,-0.021898348,0.011446516,0.011759533,-0.24310786851063124,-0.274227246199194,-0.9304289235133569,0.9514111033790082,-0.2542941551841521,-0.17364157050175655,-0.18898538735932924,-0.9274340408251064,0.32272375692449295,left_images/camera_left_60.png,right_images/camera_right_60.png
2025-05-15 15:27:44,3.0660576820373535,61,-0.39751783,-0.34001547,0.13351531,-0.09975163,-0.17427686,0.39004448,3.4818396e-07,0.0012276617,0.04835003,0.020959258,0.8487326533769742,0.331148224027066,0.412302967264852,-0.09989978854874612,0.8660256354141015,-0.4899179840070356,-0.5193004095315131,0.3746204112556099,0.768105872996087,0.11635416,-0.07275728,0.118319556,-1.9313111,0.5933816,-0.08970993,0.2537632,-0.021919293,0.01140826,0.011739381,-0.24116551564798971,-0.2763474433527166,-0.9303070915642083,0.9525108932293678,-0.2510333955740237,-0.17235205999919945,-0.18590909698460456,-0.9276930121861395,0.32376454839802343,left_images/camera_left_61.png,right_images/camera_right_61.png
2025-05-15 15:27:44,3.1187164783477783,62,-0.3947571,-0.3388626,0.13483715,-0.0965131,-0.18311179,0.38516504,2.5380407e-07,0.00042889593,0.04877376,0.019967863,0.8463867770442633,0.3375232966260042,0.4119556382419579,-0.10280145869181632,0.8625210490046273,-0.495468768051824,-0.522552661207901,0.3770085731898835,0.7647242980354875,0.11614319,-0.07270827,0.11832134,-1.9282039,0.59278524,-0.08821242,0.2539699,-0.021934379,0.011382414,0.011711703,-0.24025762772128062,-0.277920922492516,-0.9300732407518515,0.9531800200886672,-0.24880831755042915,-0.17187865027830757,-0.18364128518802764,-0.9278223870755833,0.32468676661646645,left_images/camera_left_62.png,right_images/camera_right_62.png
2025-05-15 15:27:44,3.174595832824707,63,-0.39312762,-0.33791083,0.13598605,-0.09386983,-0.18975295,0.3814819,2.004057e-07,-0.00032329513,0.049130253,0.019171199,0.8443402192015057,0.3425299377557787,0.41202285856463794,-0.10509063218991181,0.8599072214041725,-0.49951529466361694,-0.5254003742525104,0.3784611107075306,0.7620509395160826,0.11605925,-0.0726605,0.11832141,-1.926024,0.59182614,-0.088105105,0.25394934,-0.021940809,0.011351958,0.011690664,-0.23873516796148878,-0.2794538253146734,-0.9300059564838258,0.9537958851417234,-0.24738920672039746,-0.17050510222561838,-0.18242513276715966,-0.9277414186696897,0.32560241249050303,left_images/camera_left_63.png,right_images/camera_right_63.png
2025-05-15 15:27:44,3.2352638244628906,64,-0.39280856,-0.33650216,0.13701932,-0.08942788,-0.19314446,0.38005558,1.4704793e-07,-0.0011103835,0.0493299,0.018517679,0.8425590857602522,0.34655621575800155,0.4123020450135331,-0.10887216310514561,0.8592844093607486,-0.4997771062487318,-0.5274855818917277,0.37620352623153747,0.7617282112061378,0.116052054,-0.07254251,0.118313745,-1.9244294,0.5908746,-0.088272646,0.25377643,-0.021945452,0.011315974,0.011680865,-0.23734096765928034,-0.28076187482095705,-0.9299688353474959,0.95427974793563,-0.24645988260273596,-0.1691380765746034,-0.1817124865012506,-0.9275938205456455,0.32642039816020374,left_images/camera_left_64.png,right_images/camera_right_64.png
2025-05-15 15:27:44,3.2905149459838867,65,-0.39353818,-0.33466765,0.13792075,-0.08397973,-0.19480321,0.3797605,1.3145123e-07,-0.0019015376,0.049397126,0.018011995,0.8407033263900016,0.3500914707257049,0.41310274644681266,-0.11340944850148363,0.8598091407588122,-0.4978619672742462,-0.529486745808973,0.3717044573215476,0.7625480853165378,0.11602157,-0.07245703,0.11830407,-1.9214889,0.5903178,-0.08722305,0.25311315,-0.021950603,0.011283217,0.011677347,-0.2360801527264523,-0.28208171287955747,-0.9298903530780336,0.9549637387395196,-0.24436274096139574,-0.16831847350327445,-0.17975099215663232,-0.9277482191245471,0.3270670003683307,left_images/camera_left_65.png,right_images/camera_right_65.png
2025-05-15 15:27:44,3.344923973083496,66,-0.3947893,-0.33311766,0.13862807,-0.076115176,-0.19738545,0.37827134,2.4195276e-07,-0.0025802185,0.04944333,0.0176836,0.8373318412670653,0.35612038359796555,0.41479351487980665,-0.1198817799530823,0.8598698264636535,-0.49623808839371397,-0.5333889260526387,0.36578976738477054,0.7626887305061013,0.115941614,-0.07241179,0.11829468,-1.9176104,0.5900574,-0.08524538,0.2531035,-0.02195862,0.011255289,0.011674675,-0.23499844194344108,-0.28341308259824743,-0.9297595156255807,0.9557685361059101,-0.24143329185397552,-0.16797759069149337,-0.17686785370473884,-0.9281093632739152,0.3276137544871506,left_images/camera_left_66.png,right_images/camera_right_66.png
2025-05-15 15:27:44,3.39455509185791,67,-0.39572436,-0.33197206,0.13914281,-0.06863193,-0.19998343,0.37680757,2.1890924e-07,-0.0030731766,0.049479242,0.017447203,0.8341565252968776,0.3620558321832193,0.4160510373581056,-0.1261848193207673,0.8596358581144807,-0.4950793702193269,-0.5368987639002576,0.3604743622310699,0.7627568101934445,0.11587801,-0.07236389,0.11828861,-1.914784,0.5898499,-0.0836765,0.25317153,-0.021964567,0.011234405,0.011670922,-0.23431985790538595,-0.28440019956475154,-0.9296293512356035,0.9563273329042907,-0.23930821079557024,-0.1678380546419334,-0.17473476051251352,-0.9283577471715052,0.3280543502764171,left_images/camera_left_67.png,right_images/camera_right_67.png
2025-05-15 15:27:44,3.4494528770446777,68,-0.39623275,-0.33129042,0.13948812,-0.0613533,-0.20270735,0.3754241,1.607541e-07,-0.0033842486,0.049522903,0.017279252,0.8311961276284108,0.36809241644476776,0.41667849761103126,-0.13255127355801566,0.8590368182965981,-0.49445515943208196,-0.5399473652993249,0.35575794828325225,0.7628191954451645,0.11582332,-0.07232139,0.11828756,-1.9127889,0.5896732,-0.082362175,0.25317597,-0.021968434,0.011220751,0.011664127,-0.23402910517812203,-0.28513239622069664,-0.9294782915996322,0.9566836366463223,-0.23781900012661672,-0.16792421669295904,-0.17316696365847356,-0.9285158263617372,0.3284380655360839,left_images/camera_left_68.png,right_images/camera_right_68.png
2025-05-15 15:27:44,3.4974606037139893,69,-0.39643866,-0.3309866,0.1397074,-0.055570945,-0.20434391,0.37489733,8.7774396e-08,-0.0035629943,0.04956207,0.017157868,0.829211383856645,0.37260004401124536,0.4166265571052401,-0.1378078817723225,0.8586708947966653,-0.4936529977124822,-0.5416802272595646,0.35192826205337985,0.7633669037652302,0.11576999,-0.07227697,0.118290484,-1.9113803,0.58953464,-0.08129833,0.25393108,-0.021970537,0.011210565,0.011654781,-0.23394413478316028,-0.28567547900203105,-0.9293329126300858,0.9569107396852501,-0.23677799570300978,-0.16810121066159267,-0.17202319051682013,-0.9286149371229313,0.3287587572622031,left_images/camera_left_69.png,right_images/camera_right_69.png
2025-05-15 15:27:44,3.5426666736602783,70,-0.39649367,-0.3309842,0.13983461,-0.050985627,-0.2053973,0.37530935,8.107689e-08,-0.003646644,0.049604785,0.01707837,0.828033145773732,0.3761227965449655,0.41580374146855825,-0.1423886315625279,0.8583604813063874,-0.4928922415023566,-0.5422975079251313,0.3489253875123753,0.7643065398434915,0.11566689,-0.0723078,0.11829665,-1.9086567,0.5895635,-0.07948518,0.25374097,-0.021972895,0.011204199,0.011642518,-0.23361038763752348,-0.28643705461535546,-0.9291824366243293,0.9573929120457256,-0.23462386183027537,-0.16837593481389612,-0.16977926478946576,-0.9289270462222142,0.329043377147179,left_images/camera_left_70.png,right_images/camera_right_70.png
2025-05-15 15:27:44,3.584904432296753,71,-0.3964845,-0.33114928,0.13990033,-0.04725023,-0.20628612,0.37600774,1.0630356e-07,-0.0036718887,0.04964924,0.017033098,0.827218784904368,0.37910306744749894,0.4147167059008331,-0.14636166081877738,0.8579917150225176,-0.49237026839065734,-0.5424825768111914,0.34659930929621874,0.7652330185320507,0.11558743,-0.07231206,0.11830318,-1.9067158,0.5895617,-0.07793842,0.25328237,-0.021974321,0.011199775,0.011630425,-0.23360001903655125,-0.2870060133633646,-0.9290094614154321,0.9576900210157745,-0.23310363548785373,-0.16879727121358185,-0.16810965098092545,-0.9291341363956089,0.32931580865706617,left_images/camera_left_71.png,right_images/camera_right_71.png
2025-05-15 15:27:44,3.629586935043335,72,-0.39607593,-0.33168694,0.13988808,-0.044766612,-0.20700398,0.37667465,1.21796e-07,-0.0035939428,0.04971899,0.017005734,0.8269043102662856,0.38132317097743834,0.4133060620638776,-0.14928370940375163,0.8574544048412328,-0.49242899764841586,-0.5421656903287912,0.3454917985916288,0.7659580806651411,0.11552337,-0.07235315,0.11830724,-1.9053805,0.5893368,-0.0774199,0.25380096,-0.021976642,0.011195306,0.011619313,-0.23311326137083346,-0.2876020308467861,-0.9289474039071629,0.9579809915537887,-0.23208880316243843,-0.16854437774143177,-0.16712458584742407,-0.9292038846773247,0.329620256516337,left_images/camera_left_72.png,right_images/camera_right_72.png
2025-05-15 15:27:44,3.684929847717285,73,-0.3953527,-0.33250165,0.13981329,-0.044967007,-0.20719571,0.3787254,0.0266671,-0.0034286298,0.04980338,0.016989926,0.8280689042682381,0.3816395839171943,0.4106739799056068,-0.15044733477511715,0.8569294959139007,-0.49298827419302005,-0.5400624864245468,0.34644345428981527,0.7670133269615838,0.11540971,-0.072377965,0.118313074,-1.9045277,0.5891951,-0.07692814,0.25397244,-0.021982953,0.011194152,0.011603651,-0.2329625877282415,-0.288048411367133,-0.9288468901965664,0.9581391053434941,-0.23144116059242334,-0.16853618007775312,-0.16642682335047476,-0.929227153010771,0.329907578841358,left_images/camera_left_73.png,right_images/camera_right_73.png
2025-05-15 15:27:44,3.739234447479248,74,-0.39420956,-0.33349717,0.13969588,-0.047460582,-0.20717624,0.38235497,0.053334467,-0.003181927,0.049899276,0.016960287,0.8307046924908276,0.3803971460332202,0.4064821338798307,-0.1503692495457824,0.8563212695818079,-0.4940677808285409,-0.5360212707204425,0.34930201051752024,0.7685501302996834,0.115242794,-0.07239457,0.11832127,-1.9041423,0.58890444,-0.07704963,0.25429264,-0.021993406,0.011190466,0.0115799215,-0.23260250729890655,-0.2885624796989752,-0.9287775669708224,0.9582642742822192,-0.23119966141314777,-0.16815557438520284,-0.1662096694919818,-0.9291277694011864,0.3302967361251725,left_images/camera_left_74.png,right_images/camera_right_74.png
2025-05-15 15:27:44,3.789357900619507,75,-0.39275053,-0.3344665,0.1395559,-0.049519967,-0.20800167,0.3855098,0.08000142,-0.0028903026,0.049996063,0.016916808,0.8330646776967658,0.3798614670577627,0.4021299648356335,-0.15071156893261572,0.8553044125439082,-0.49572208431013975,-0.5322492515390257,0.3523629204777997,0.7697734124458331,0.11500141,-0.072324455,0.11834053,-1.9040955,0.5887363,-0.07696392,0.2543481,-0.022003654,0.011183202,0.011542114,-0.2326506064061272,-0.28896038570966176,-0.928641798988924,0.9582605668766012,-0.23124374376130816,-0.16811608174291182,-0.16616371838700617,-0.9289931250885434,0.33069834022871325,left_images/camera_left_75.png,right_images/camera_right_75.png
2025-05-15 15:27:44,3.845102548599243,76,-0.39035487,-0.33524832,0.13939616,-0.046760246,-0.21041101,0.38825423,0.106668904,-0.0024990654,0.050070774,0.016777916,0.8342659562927132,0.3828728789323176,0.39674761845420553,-0.15553506010818766,0.853776149415622,-0.4968653054562937,-0.5289699039152864,0.35280964452111074,0.7718265319906671,0.11461138,-0.07223918,0.118375756,-1.9044504,0.58850396,-0.07763425,0.25342542,-0.022017378,0.0111722145,0.011479395,-0.23231773818869095,-0.28945605146550485,-0.9285707634816475,0.9582681752447473,-0.23162672559577424,-0.16754451439209234,-0.16658503184858164,-0.9287433737366737,0.3311875192458618,left_images/camera_left_76.png,right_images/camera_right_76.png
2025-05-15 15:27:45,3.8875036239624023,77,-0.3868374,-0.33533835,0.13925001,-0.029878322,-0.21656275,0.38992468,0.13333654,-0.0020123236,0.050071016,0.016471723,0.831322049550143,0.3961411432728182,0.38984079383545023,-0.17317211226184864,0.8511181731517066,-0.49558982522411743,-0.5281241042278976,0.3444851955271897,0.7761539026482277,0.1141288,-0.072171874,0.118414834,-1.9031173,0.58855855,-0.07716078,0.25809878,-0.022033714,0.011158489,0.011411408,-0.23179050834002968,-0.29019982702901753,-0.9284703660514958,0.9585695006015853,-0.2306072676260782,-0.16722679400879897,-0.16558282749094955,-0.9287649587007265,0.33162927905982575,left_images/camera_left_77.png,right_images/camera_right_77.png
2025-05-15 15:27:45,3.931417226791382,78,-0.38246083,-0.33499414,0.13912669,-0.0102174105,-0.22213455,0.39207923,0.16000396,-0.0014814425,0.050000813,0.016035693,0.8281543019225809,0.4100742336324995,0.3820989075067355,-0.19311996243864993,0.8487292452344565,-0.4923041218509593,-0.5261797528552548,0.3339128496995405,0.7820722962045867,0.11370769,-0.0720376,0.11844198,-1.90215,0.58866006,-0.07663174,0.2533306,-0.022052202,0.01114042,0.011357579,-0.23154014403838674,-0.2907606111614201,-0.9283573819902122,0.9587581828883318,-0.2299009621490853,-0.16711760633634448,-0.16483903798356642,-0.9287646712703723,0.33200041710318684,left_images/camera_left_78.png,right_images/camera_right_78.png
2025-05-15 15:27:45,3.9812171459198,79,-0.37791243,-0.3342386,0.13905028,0.009407075,-0.22606568,0.3951716,0.18667105,-0.0009889416,0.049863353,0.015529422,0.8254950724133976,0.4225333790294667,0.37419704572209156,-0.21278566379644653,0.8470532234153083,-0.48705553891157216,-0.5227620364027075,0.32243818059851004,0.7891473075341622,0.11338749,-0.071925096,0.118451394,-1.9014544,0.5885542,-0.076776676,0.25754365,-0.022072833,0.011119224,0.0113230925,-0.2308702140682683,-0.2913440808500558,-0.9283413008208283,0.9589779254861812,-0.22944533061308064,-0.16648176683971772,-0.1645000993504015,-0.9286944959530502,0.33236463485187134,left_images/camera_left_79.png,right_images/camera_right_79.png
2025-05-15 15:27:45,4.0308449268341064,80,-0.37380403,-0.33329263,0.13901576,0.026981965,-0.22868572,0.40059972,0.21333808,-0.00056446483,0.049694587,0.015027782,0.8240824279951692,0.43290068594754993,0.365356193290504,-0.23124525098051654,0.8458680090413985,-0.48065886570342076,-0.517120668479365,0.3116156404715301,0.7971711904258542,0.11313122,-0.0717831,0.11845024,-1.9009712,0.5884975,-0.07661027,0.25339675,-0.022094633,0.011098809,0.011302067,-0.23062164499038582,-0.29177363720393235,-0.92826817326391,0.9590863802253646,-0.22916121922440955,-0.16624816050046787,-0.16421623588468853,-0.9286297864253387,0.3326856588966439,left_images/camera_left_80.png,right_images/camera_right_80.png
2025-05-15 15:27:45,4.075415849685669,81,-0.3700445,-0.33219516,0.13901974,0.046997406,-0.22890198,0.4081694,0.24000508,-0.00020090281,0.049465574,0.014503138,0.8226994769534738,0.443163497364581,0.3560501161691621,-0.2518812248002899,0.8456557754981993,-0.4705551593167854,-0.5096287072110308,0.2974431440967038,0.8073451286880233,0.112931125,-0.07165981,0.118448466,-1.9006925,0.5884453,-0.07632565,0.25751373,-0.022112906,0.011083871,0.011285772,-0.23063833472971695,-0.2920938058721507,-0.928163329982512,0.9591175175977242,-0.22902546700672077,-0.16625559509241417,-0.16401081058967543,-0.9285626225696767,0.3329743383148945,left_images/camera_left_81.png,right_images/camera_right_81.png
2025-05-15 15:27:45,4.121452808380127,82,-0.366537,-0.3309292,0.13905586,0.06667089,-0.22876488,0.41558763,0.26667172,0.00010741898,0.04921701,0.013982241,0.8210679436773665,0.45295606571903985,0.3473877291928284,-0.2718005278466841,0.8453718470733718,-0.45985966689634744,-0.5019680317786033,0.283155862916671,0.8172214218730628,0.1127913,-0.07161008,0.11844547,-1.900569,0.5881823,-0.07674276,0.2539437,-0.022126898,0.011071578,0.011273015,-0.23015778839024487,-0.29250001065546294,-0.9281546941161614,0.9592172895082465,-0.22901976450366496,-0.1656868702557283,-0.16410235815418361,-0.9284361535578198,0.33328174989788456,left_images/camera_left_82.png,right_images/camera_right_82.png
2025-05-15 15:27:45,4.170752048492432,83,-0.36239538,-0.32916918,0.13912688,0.08713175,-0.22785841,0.42362812,0.29333878,0.0004262142,0.048894588,0.013355304,0.8196977374040582,0.4622222007386529,0.3382990636093814,-0.2920548052472454,0.8453337570322957,-0.4473419608684805,-0.49274700407679933,0.26788332603202475,0.8279123828083251,0.11268583,-0.07156953,0.1184422,-1.900508,0.5879819,-0.07695101,0.25844187,-0.022138536,0.0110633345,0.011264094,-0.22991707078251633,-0.2928003287510668,-0.9281196625683859,0.9592655911690011,-0.22904294887369248,-0.16537488675863005,-0.1641574432122222,-0.9283357663337712,0.33353416434229904,left_images/camera_left_83.png,right_images/camera_right_83.png
2025-05-15 15:27:45,4.220670700073242,84,-0.35717845,-0.3271183,0.13919476,0.10845189,-0.22553627,0.43652323,0.32000655,0.0008581979,0.048489045,0.012587132,0.8202222191862827,0.470643269521806,0.32516215032957696,-0.31430489737109146,0.8457120423181947,-0.4312581280005466,-0.4779622816098331,0.25152744250242914,0.8415972926682392,0.11260724,-0.07153097,0.11844025,-1.9005063,0.5878229,-0.07700955,0.2580877,-0.022147093,0.011057433,0.011256617,-0.22985574932625147,-0.29302318614648476,-0.9280645165516401,0.9592731960587026,-0.22910140339319746,-0.16524975729661123,-0.16419887278842377,-0.9282510217305606,0.3337495630426819,left_images/camera_left_84.png,right_images/camera_right_84.png
2025-05-15 15:27:45,4.265931129455566,85,-0.3526509,-0.32561788,0.13921925,0.12645485,-0.22389203,0.4500002,0.34667304,0.0012903437,0.048158407,0.0119487615,0.8211096579986396,0.4781208433741903,0.3117360881779816,-0.33403281834239756,0.8454047898247709,-0.4167886965976525,-0.4628185452330018,0.2380991400078718,0.8538780906639541,0.11254453,-0.07148948,0.11844132,-1.9005466,0.5876987,-0.07699711,0.25387883,-0.022152457,0.011052683,0.011248283,-0.22988759450408536,-0.2931900112484389,-0.9280039392143038,0.9592576789604652,-0.229186764137844,-0.1652214650080468,-0.16424493675150592,-0.9281772699480226,0.33393196358439436,left_images/camera_left_85.png,right_images/camera_right_85.png
2025-05-15 15:27:45,4.317953109741211,86,-0.3491771,-0.32475638,0.13920103,0.141514,-0.22258289,0.4636359,0.3733393,0.0016865127,0.047910463,0.011475833,0.8220310297091489,0.4847728883568489,0.29876451079315697,-0.35135480595294805,0.8446726014003234,-0.4038291678140356,-0.4481236286217036,0.2269877599294033,0.8646743724160841,0.112421535,-0.07140537,0.11844821,-1.9013383,0.5881551,-0.077383235,0.25757983,-0.022157539,0.011049445,0.011240041,-0.2300910051553158,-0.29270290859778003,-0.9281072872491714,0.9591066679942136,-0.2297475326143689,-0.16531929913548066,-0.16484091954261082,-0.9281923715243565,0.3335961520886256,left_images/camera_left_86.png,right_images/camera_right_86.png
2025-05-15 15:27:45,4.3716230392456055,87,-0.34697932,-0.3244618,0.13912396,0.1547618,-0.22113505,0.47881892,0.40000582,0.0020419469,0.04771551,0.011185312,0.8230709185214223,0.4909350166422563,0.28554697077498425,-0.36761262536159495,0.8437660479625028,-0.39104963109622687,-0.43291479618864703,0.21689090746319223,0.8749532064634857,0.11228346,-0.07133037,0.11845761,-1.9020108,0.5885103,-0.07762553,0.25387955,-0.022163015,0.011047289,0.011226824,-0.23034824724494812,-0.2923504631130599,-0.9281545624025987,0.9589632448423829,-0.23023339779360869,-0.165475308072769,-0.16531539563073994,-0.9281830580537384,0.33338720837707997,left_images/camera_left_87.png,right_images/camera_right_87.png
2025-05-15 15:27:45,4.42833948135376,88,-0.34571746,-0.32447413,0.13898271,0.16552338,-0.21919148,0.49398786,0.42667228,0.002364805,0.047540992,0.011045558,0.8243676326558418,0.4957222820028499,0.27327170610088747,-0.38142616607323304,0.8431742090294637,-0.3789080799642739,-0.41824883271095603,0.20812657771996604,0.8841669760755021,0.1121056,-0.071245916,0.1184739,-1.9026536,0.58880407,-0.07778719,0.2578544,-0.022168336,0.01104469,0.011203756,-0.2306595870690069,-0.29209950913215776,-0.9281562539022769,0.958813809768248,-0.23071511808847622,-0.1656701918967876,-0.16574749799273947,-0.9281424519168235,0.33328569705130434,left_images/camera_left_88.png,right_images/camera_right_88.png
2025-05-15 15:27:45,4.47474479675293,89,-0.3458405,-0.3247119,0.1387096,0.17547338,-0.21611606,0.5104313,0.4533388,0.0026665446,0.04733361,0.011125884,0.8257173924585763,0.49973354561649735,0.26164321351216685,-0.3943666834666502,0.8430679711914723,-0.3656655779843238,-0.4033183689877317,0.19875306120072417,0.8932141478393727,0.11193066,-0.07117859,0.11849579,-1.9026107,0.5885188,-0.07741549,0.2579459,-0.022172503,0.011040027,0.011166545,-0.23096845669332464,-0.29254040769147277,-0.9279405594543277,0.9587596315929814,-0.23078830330130393,-0.16588166832714124,-0.16563073639996345,-0.9279853818498501,0.3337807517407102,left_images/camera_left_89.png,right_images/camera_right_89.png
2025-05-15 15:27:45,4.5246970653533936,90,-0.3468063,-0.324908,0.13835244,0.18504758,-0.21343741,0.52359885,0.48000538,0.0029296014,0.047110707,0.011355659,0.8257737442423726,0.5038782684082065,0.25338589926410626,-0.4056498936787834,0.8427464603513103,-0.35387366011576643,-0.39184931680216584,0.18943361420636157,0.9003160660181463,0.11168497,-0.07107617,0.118526526,-1.9027617,0.588368,-0.07716768,0.25400662,-0.022177383,0.011033147,0.011118788,-0.23129915268692317,-0.29288132858905647,-0.9277506288492724,0.9586731868105859,-0.23100213845132303,-0.16608351188890186,-0.16566961959498372,-0.9278246274996287,0.33420807552844745,left_images/camera_left_90.png,right_images/camera_right_90.png
2025-05-15 15:27:45,4.578574180603027,91,-0.34841567,-0.32498103,0.13790934,0.19638215,-0.21190287,0.52359885,0.5066719,0.0031029512,0.046900123,0.011744099,0.8212552650335339,0.5097410853595181,0.25632755519296097,-0.41395016385487665,0.84149946062874,-0.3471655507190483,-0.3926640440621228,0.17900470289363868,0.9020932683723669,0.11144129,-0.07095316,0.118558004,-1.9023252,0.5877837,-0.07646621,0.2533,-0.02218309,0.011020425,0.011062859,-0.23160221170290704,-0.29376415355899077,-0.9273958365326488,0.9586707370546885,-0.23086962304254352,-0.1662817941664514,-0.165259896675939,-0.9275784814450816,0.3350930129243139,left_images/camera_left_91.png,right_images/camera_right_91.png
2025-05-15 15:27:45,4.627408266067505,92,-0.35018155,-0.32490313,0.13746093,0.20679623,-0.21088225,0.52359885,0.53333944,0.0032651853,0.046679895,0.012150769,0.8168914409301913,0.5152628745746957,0.25921524611800345,-0.421658157399882,0.8401243067699673,-0.3411679168275031,-0.39356419048629404,0.16939692812829638,0.9035551497875294,0.111155726,-0.07078469,0.118582085,-1.9020776,0.5874428,-0.07586062,0.25369918,-0.022195749,0.011003921,0.011013385,-0.23193520599217018,-0.2944230137947525,-0.9271036345357428,0.9586349735666473,-0.23085309747765523,-0.16651076493682143,-0.16500014447339972,-0.9273736767522502,0.3357871587639557,left_images/camera_left_92.png,right_images/camera_right_92.png
2025-05-15 15:27:45,4.6756861209869385,93,-0.35283226,-0.3245386,0.13696656,0.21736181,-0.21021001,0.52359885,0.5600066,0.003377221,0.046411984,0.012662443,0.8120796183149483,0.5209774253296054,0.2628863172825526,-0.42949762663728297,0.8385862671680664,-0.33511917466786245,-0.39504238029658106,0.15923440210602624,0.9047573834766686,0.11083386,-0.07068494,0.11859175,-1.9020154,0.58707327,-0.07608352,0.25777388,-0.022219332,0.010988554,0.010973709,-0.231686384450379,-0.2950859309903605,-0.9269550758218349,0.95868363341958,-0.2309494188987464,-0.16609652893352123,-0.16506698723168067,-0.927138964363964,0.3364018883484049,left_images/camera_left_93.png,right_images/camera_right_93.png
2025-05-15 15:27:45,4.733390808105469,94,-0.35588822,-0.3240465,0.13647246,0.2299096,-0.21093911,0.52359885,0.5866742,0.003463851,0.04613779,0.013206606,0.8059606283045104,0.5285651144866492,0.2665452782750317,-0.43938891281067,0.8358857734968236,-0.32898686442573094,-0.3966923857626412,0.14803341992040925,0.9059366742022378,0.1105129,-0.07061815,0.118592285,-1.9014376,0.5863425,-0.07564026,0.25327474,-0.022250587,0.01097583,0.010935229,-0.2316897879731814,-0.29620020763300703,-0.9265987692346164,0.9587615206258953,-0.23070761128029404,-0.1659829649827413,-0.16460919997394863,-0.9268438029654751,0.33743795902125817,left_images/camera_left_94.png,right_images/camera_right_94.png
2025-05-15 15:27:45,4.790867805480957,95,-0.35852066,-0.3233054,0.13603403,0.24545439,-0.21139841,0.5235988,0.6133415,0.0035378044,0.045829784,0.013658876,0.798907036989158,0.5372736441925239,0.27034159410880404,-0.4513495969447134,0.8326325503053374,-0.320946377935434,-0.3975312410201856,0.1343877502904,0.9076942464204761,0.110175155,-0.070547365,0.1185978,-1.9005065,0.5853528,-0.074878335,0.2624116,-0.022281745,0.01096136,0.010886947,-0.23172634896083427,-0.29765288304806903,-0.9261239983989478,0.9588819690937614,-0.23025126955925607,-0.1659208311611945,-0.16385441264779071,-0.9264918316313012,0.3387692686421308,left_images/camera_left_95.png,right_images/camera_right_95.png
2025-05-15 15:27:45,4.85204005241394,96,-0.35871065,-0.32157898,0.13573582,0.2636182,-0.21123804,0.5235988,0.6400082,0.003680221,0.045416728,0.013754285,0.7921902684624313,0.5459128185897204,0.272788880002188,-0.4646413369896003,0.8293330119633527,-0.3103468756541787,-0.3956551611112103,0.11910478482084831,0.9106432033012939,0.10970347,-0.07046227,0.118625015,-1.8995388,0.5842165,-0.07397437,0.25859058,-0.022312908,0.010947063,0.010807809,-0.23188244767881452,-0.2993730632866466,-0.9255302801296408,0.9589868109016383,-0.22980681792374794,-0.1659310789227466,-0.1630178731771068,-0.9260478364610172,0.3403829866645539,left_images/camera_left_96.png,right_images/camera_right_96.png
2025-05-15 15:27:46,4.907198190689087,97,-0.35725752,-0.31907356,0.13555942,0.28682587,-0.21499436,0.5235988,0.66667485,0.0038850985,0.04497052,0.013590831,0.7831284292700688,0.558900335581924,0.2726541365088895,-0.4830210247257853,0.8228458162057171,-0.2993584012945022,-0.39166382644028763,0.10273839418231441,0.9143545643889969,0.10924244,-0.070386514,0.11866197,-1.8983616,0.5829095,-0.07290014,0.25387788,-0.022338267,0.01093327,0.010718949,-0.2320425987198261,-0.3012882773846918,-0.9248684264747687,0.9591195315189962,-0.22923060065752918,-0.1659610074112875,-0.1620060388940202,-0.9255693953630669,0.34216273574005085,left_images/camera_left_97.png,right_images/camera_right_97.png
2025-05-15 15:27:46,4.951917409896851,98,-0.35538292,-0.31686237,0.13541584,0.31090164,-0.22048165,0.5235988,0.6933421,0.004130492,0.044590592,0.013376731,0.773033396430984,0.5733979743909614,0.27135609624019785,-0.502689361116448,0.814619261628006,-0.2893075609191361,-0.38694027216447047,0.08723658377644512,0.9179689560264557,0.10877487,-0.07033725,0.118700266,-1.8958288,0.5821177,-0.071203776,0.26210845,-0.022358682,0.01091723,0.010637806,-0.23175023592277164,-0.30307438020877864,-0.9243580194982919,0.9595381294945434,-0.22744623104947523,-0.16599635546451447,-0.15993250512592,-0.925426459553893,0.34352214158871064,left_images/camera_left_98.png,right_images/camera_right_98.png
2025-05-15 15:27:46,5.004868507385254,99,-0.3531468,-0.3149293,0.13528259,0.33365,-0.22688895,0.5235988,0.72000974,0.004420453,0.04426733,0.013134921,0.7630057745802286,0.587729549525407,0.2690653537189205,-0.5216184068169024,0.8056824041629713,-0.28069574505498185,-0.38175440485608303,0.07382303324056119,0.9213108781166871,0.10839087,-0.07024496,0.118729785,-1.8933396,0.5810527,-0.06939318,0.25397336,-0.022378553,0.0108958,0.0105650835,-0.23156003052058713,-0.3050222909779157,-0.9237647721535437,0.9599187052435401,-0.2257793400901312,-0.1660715776767071,-0.15791146756607144,-0.9251946236306438,0.345078073508128,left_images/camera_left_99.png,right_images/camera_right_99.png
2025-05-15 15:27:46,5.061845064163208,100,-0.34999707,-0.31277874,0.13515021,0.35868216,-0.23518224,0.5235988,0.7466761,0.004803089,0.043926906,0.012795026,0.751562541458618,0.603982165405564,0.26525325662142035,-0.5426784146109042,0.7947039489195189,-0.27192971865377,-0.3750385108114351,0.06042497367586265,0.9250378035327057,0.10803957,-0.07017345,0.11874734,-1.8909636,0.5796058,-0.0682647,0.25381243,-0.022404132,0.010869787,0.01049934,-0.23083733024035488,-0.30725130567015124,-0.9232067818920595,0.9603719764632123,-0.22427398587314437,-0.1654897159485027,-0.156204333459891,-0.9248231260217059,0.3468463518386654,left_images/camera_left_100.png,right_images/camera_right_100.png
2025-05-15 15:27:46,5.118713855743408,101,-0.34609836,-0.31038916,0.13503624,0.38325632,-0.24343698,0.5235988,0.7733424,0.005233449,0.043559738,0.012367128,0.740378692687246,0.6195712563581186,0.26071219708626475,-0.5630152155280053,0.7834743060890673,-0.2630244832372237,-0.36722371723334896,0.047952789210610997,0.9288957269296939,0.10764849,-0.07003331,0.1187533,-1.8892562,0.5786587,-0.06731133,0.25308126,-0.022437796,0.010841452,0.010446848,-0.2304169005885395,-0.30890667677891337,-0.9227592952469127,0.9606748921286629,-0.22321773177973128,-0.16515930446902993,-0.1549574249810345,-0.9245271814611616,0.34819202630549606,left_images/camera_left_101.png,right_images/camera_right_101.png
2025-05-15 15:27:46,5.163184642791748,102,-0.34183615,-0.30804858,0.13492948,0.40502816,-0.25140905,0.5235988,0.8000087,0.005693239,0.0432096,0.011910057,0.7303739272492988,0.6334316339241562,0.2555744344385992,-0.5809619222865691,0.7728670386541617,-0.2552641483151153,-0.35921744284977397,0.03795926377210694,0.9324815939450758,0.107299924,-0.069863684,0.11874716,-1.888033,0.57782304,-0.0671342,0.25299847,-0.022473775,0.010807509,0.010410247,-0.22962215598498179,-0.3103061217944464,-0.9224878190294432,0.9609729657635314,-0.222534082803558,-0.16434579721557174,-0.15428747373799112,-0.9242232916171662,0.3492945500288821,left_images/camera_left_102.png,right_images/camera_right_102.png
2025-05-15 15:27:46,5.219779968261719,103,-0.3375817,-0.30599493,0.13482106,0.42253676,-0.25825092,0.5235988,0.8266751,0.0061550075,0.042902127,0.011475295,0.7223588681474424,0.6445848757211685,0.2504156616513265,-0.5953189702753754,0.7639104402642823,-0.24907059819556598,-0.3518422789248224,0.030841161566260974,0.9355510854647282,0.10706729,-0.06972533,0.11873552,-1.8864614,0.5766755,-0.0664482,0.26163852,-0.02250463,0.010776219,0.010381308,-0.2290359056884163,-0.31196011825958464,-0.9220756143185617,0.9612775234113187,-0.2216248713630367,-0.16379236666438185,-0.1532582033357065,-0.923884895973943,0.3506403030193874,left_images/camera_left_103.png,right_images/camera_right_103.png
2025-05-15 15:27:46,5.28290057182312,104,-0.33327916,-0.30420178,0.13469166,0.4368065,-0.265988,0.5235988,0.8533416,0.0066582346,0.042650294,0.011067059,0.7153219549755514,0.6547423435561033,0.2441863310765312,-0.6076704443382215,0.7553675748396791,-0.2452681348210782,-0.3450378701066653,0.027060865386824978,0.9381985811952459,0.10683053,-0.069530234,0.118728824,-1.8853526,0.57588595,-0.065862335,0.25311887,-0.022531716,0.010744224,0.010353488,-0.2286710906928575,-0.3131873425092363,-0.9217500858548056,0.9614765235696082,-0.22103157220331823,-0.16342563664807958,-0.1525530298153392,-0.9236117867271574,0.3516658079950745,left_images/camera_left_104.png,right_images/camera_right_104.png
2025-05-15 15:27:46,5.33956503868103,105,-0.3296721,-0.302944,0.13455479,0.4463997,-0.2731994,0.5235988,0.8800097,0.0071193706,0.042484026,0.010758114,0.7101050927717107,0.662600528356256,0.23814133837217438,-0.6166341417206419,0.7485088908238919,-0.24391960893301406,-0.3398721707997398,0.026362476734886633,0.9401020834655538,0.10652231,-0.06928612,0.11873206,-1.8846616,0.5753997,-0.06541115,0.25313824,-0.022557952,0.010711016,0.010316556,-0.22847716029192938,-0.3141111135813906,-0.921483801023976,0.9615878998543042,-0.22072841937827253,-0.1631798876472162,-0.1521410466597516,-0.9233705503227987,0.3524768484849,left_images/camera_left_105.png,right_images/camera_right_105.png
2025-05-15 15:27:46,5.392137765884399,106,-0.32698298,-0.30197498,0.13445078,0.4532432,-0.27944103,0.5235988,0.906677,0.007474957,0.042367868,0.010530038,0.7060329681656022,0.6687302927900366,0.23306060020565803,-0.6233680944799277,0.7430261148755822,-0.24356603087738202,-0.33605009544372016,0.02668310547612343,0.9414660616476923,0.10617511,-0.06911426,0.11872848,-1.8836004,0.57461834,-0.06459528,0.25794256,-0.022593848,0.010684309,0.010277863,-0.228389235487148,-0.3154170112104907,-0.9210594259615592,0.9617356447069144,-0.22015546797092916,-0.1630831678091781,-0.1513370635824925,-0.9230621208572812,0.35362892164624526,left_images/camera_left_106.png,right_images/camera_right_106.png
2025-05-15 15:27:46,5.440172433853149,107,-0.32475367,-0.30080804,0.13439353,0.4612404,-0.2865424,0.5235988,0.9333434,0.007761284,0.04224302,0.010307744,0.7009848289471046,0.6757320726788246,0.22804919543637578,-0.6310996027949761,0.7366751361100617,-0.24294656858915564,-0.33216496043084054,0.026380102168144626,0.9428523369391287,0.105798535,-0.06895321,0.11871536,-1.8828624,0.5741494,-0.06390964,0.25349176,-0.022636704,0.010661387,0.010249496,-0.2284308305880861,-0.3163873500853983,-0.9207162431187889,0.9618206283770115,-0.21976298897506374,-0.16311133469258543,-0.15073299063339685,-0.9228235331755934,0.3545085219737696,left_images/camera_left_107.png,right_images/camera_right_107.png
2025-05-15 15:27:46,5.485424995422363,108,-0.32281786,-0.29951915,0.13437213,0.46992338,-0.29338282,0.5235988,0.9600104,0.00799036,0.0421043,0.010084078,0.6955806715215191,0.6827913844181943,0.22352506519394705,-0.6391010492106528,0.7301777852085543,-0.2416407475691411,-0.3282032576064952,0.025225529770773913,0.9442702443391239,0.10544243,-0.068765305,0.11869783,-1.8823161,0.57388467,-0.06331974,0.25323159,-0.02267934,0.010636961,0.010229647,-0.2285085114773791,-0.3171113051478524,-0.9204478694254324,0.9618720303089456,-0.2194917581351889,-0.1631734213040542,-0.15028658453680788,-0.9226395765726448,0.35517622984950936,left_images/camera_left_108.png,right_images/camera_right_108.png
2025-05-15 15:27:46,5.544360160827637,109,-0.32115853,-0.29823935,0.13437295,0.47809514,-0.29972583,0.5235988,0.986677,0.008174501,0.041968912,0.009873668,0.6904478656094676,0.6892934017353092,0.21944555406637026,-0.646516878269012,0.7240846357412013,-0.24024438889768743,-0.32449602615228135,0.024000970974055763,0.9455825095694613,0.10515986,-0.06857756,0.11868127,-1.8818934,0.5737154,-0.06282114,0.25300854,-0.0227141,0.0106133185,0.0102163255,-0.2285834308904905,-0.3176504625530522,-0.9202433367116354,0.9619059291164184,-0.21929739542827387,-0.16323491014196412,-0.14995532218968483,-0.9225003176141497,0.3556776143486971,left_images/camera_left_109.png,right_images/camera_right_109.png
2025-05-15 15:27:46,5.594621896743774,110,-0.31955144,-0.2970184,0.13437587,0.4870576,-0.3056957,0.5235988,1.0133443,0.00835151,0.04183131,0.009665408,0.6849421013977618,0.6959406027704983,0.21568726236904667,-0.654283226052203,0.7177615999880789,-0.23818426834968603,-0.32057413782078603,0.02202187544213459,0.9469674013198506,0.10492264,-0.068412654,0.118669145,-1.8816106,0.57361156,-0.06241571,0.2529251,-0.022742422,0.0105936015,0.010204263,-0.22868403546398133,-0.3180525295861353,-0.9200794532798617,0.9619175901673936,-0.21918705568757393,-0.16331437274645044,-0.14972695699326405,-0.9223880002704247,0.3560649032222416,left_images/camera_left_110.png,right_images/camera_right_110.png
2025-05-15 15:27:46,5.650324821472168,111,-0.31794468,-0.29589733,0.13437057,0.4959709,-0.31141508,0.5235988,1.0238287,0.008535831,0.041699685,0.009465239,0.6794415007079724,0.7024285602002591,0.21202208595023683,-0.661891650650261,0.7114724273038373,-0.23602209215634704,-0.31663652650187346,0.020027556051029988,0.9483354928944986,0.1047227,-0.06828216,0.11866389,-1.8814441,0.57354456,-0.06213197,0.261668,-0.02276311,0.010578501,0.010190714,-0.22877501319462085,-0.3183540270743992,-0.9199525568111181,0.9619173854387431,-0.21914229802331237,-0.16337563100950508,-0.14958922731431323,-0.9222946203153166,0.3563645554890838,left_images/camera_left_111.png,right_images/camera_right_111.png
2025-05-15 15:27:46,5.709355354309082,112,-0.31623587,-0.29467538,0.13437307,0.503363,-0.31585407,0.5235988,1.0245295,0.0087059215,0.041550573,0.009252428,0.6752073945742206,0.7074472743568193,0.2088380432713356,-0.6679583197860016,0.7065278568416061,-0.23377354541407971,-0.3129323526594121,0.018350518028501378,0.9495981261286962,0.10454494,-0.0682358,0.11866531,-1.8814209,0.57330245,-0.06275399,0.25826696,-0.02277803,0.010566326,0.010172224,-0.22819032161698344,-0.3187487630763478,-0.9199610878497178,0.9620223751169902,-0.2192037649952457,-0.16267347413199962,-0.1498069654408729,-0.9221436631291285,0.3566636197542296,left_images/camera_left_112.png,right_images/camera_right_112.png
2025-05-15 15:27:46,5.765167713165283,113,-0.31446537,-0.29331937,0.1343908,0.5100327,-0.3190847,0.5235988,1.024576,0.0088528255,0.04137804,0.00902221,0.6718280059949089,0.7114123858518235,0.2062511760391219,-0.6730484903982026,0.7025832656287446,-0.2310464984178499,-0.3092779654834875,0.016406465648185056,0.9508301467409044,0.104388975,-0.06819119,0.11867094,-1.8814448,0.57313144,-0.063198514,0.25341034,-0.022788594,0.010557004,0.0101530515,-0.22780103756232406,-0.31904636029280603,-0.9199544049948569,0.9620862981581559,-0.21928589349603622,-0.16218400602396282,-0.14998880685525967,-0.9220212128240639,0.35690368577611736,left_images/camera_left_113.png,right_images/camera_right_113.png
2025-05-15 15:27:46,5.8217315673828125,114,-0.31222937,-0.29123023,0.1344523,0.51612145,-0.32098758,0.5235988,1.0245793,0.008973331,0.041110672,0.008703041,0.6697099061738094,0.7140311223598812,0.20407890109993196,-0.6770537156195016,0.6999738091544081,-0.22723321206129937,-0.3051014712165356,0.014007954859892424,0.9522168185146432,0.104246095,-0.06815287,0.11867819,-1.8815023,0.573019,-0.06354197,0.261254,-0.022797074,0.010550017,0.010134289,-0.22753122132410597,-0.31927097111264174,-0.9199432538627321,0.9621252754731542,-0.21937790409314428,-0.16182796263750665,-0.1501482521325765,-0.9219215705256548,0.35709399348216764,left_images/camera_left_114.png,right_images/camera_right_114.png
2025-05-15 15:27:46,5.866960763931274,115,-0.30962884,-0.28873646,0.13453636,0.5226364,-0.32274148,0.5235988,1.0245795,0.009098612,0.040792376,0.008324227,0.6677147402529526,0.7165535596202817,0.20176229044208335,-0.6811408053539809,0.6974402974944734,-0.2227649764046199,-0.30034018867055134,0.011314929355681444,0.9537650357624847,0.10414979,-0.06808934,0.11869086,-1.8815857,0.57291204,-0.06375566,0.25316197,-0.022798276,0.010541891,0.010114485,-0.22737960247597047,-0.3194448438421341,-0.9199203814029472,0.9621363673845359,-0.21950395437909923,-0.16159091734385128,-0.15030677607466225,-0.9218313325954008,0.35726022352261433,left_images/camera_left_115.png,right_images/camera_right_115.png
2025-05-15 15:27:47,5.916351556777954,116,-0.3072389,-0.2864024,0.13461626,0.5283493,-0.32421535,0.5235988,1.0245796,0.009210618,0.040494535,0.007974512,0.6660754777273534,0.7186597813448887,0.19967868350826762,-0.6846387102841283,0.6953042488012221,-0.21868204768442678,-0.2959954296112757,0.008950993033467455,0.9551474155191707,0.10406321,-0.06796335,0.118707016,-1.8816868,0.5728437,-0.06381782,0.25338125,-0.022796202,0.010528258,0.010092577,-0.2273430830953034,-0.31957817759259904,-0.919883096363508,0.9621195031765823,-0.2196700391052481,-0.16146558619948992,-0.1504698779688748,-0.9217455518341772,0.357412861405322,left_images/camera_left_116.png,right_images/camera_right_116.png
2025-05-15 15:27:47,5.961593866348267,117,-0.30514234,-0.28427935,0.13468648,0.5333079,-0.32587785,0.5235988,1.0245794,0.009312509,0.040227503,0.007666141,0.6645546844555166,0.7206352872406016,0.19761541982316153,-0.6877643103276417,0.6932774326017339,-0.21528273243502732,-0.2921426446237727,0.007154315397296912,0.9563479967895703,0.103961036,-0.06786179,0.118723586,-1.8818226,0.5726281,-0.06467103,0.2528469,-0.022794954,0.010510247,0.010067848,-0.22662418723668779,-0.3198479367138141,-0.9199667250173925,0.9622181943722488,-0.21988328315530584,-0.1605848318112671,-0.15092257676809007,-0.9216011280205552,0.3575943744704613,left_images/camera_left_117.png,right_images/camera_right_117.png
2025-05-15 15:27:47,6.00764012336731,118,-0.30321044,-0.28215697,0.13473123,0.5383415,-0.32751533,0.5235988,1.0245793,0.009417871,0.03995203,0.007389487,0.6629406276620198,0.7226347962729411,0.19572602129163116,-0.6909128941167251,0.6912105135076025,-0.21181925965267506,-0.2883558512295844,0.005193961120496096,0.9575092301537048,0.103821196,-0.067771204,0.1187423,-1.8820064,0.57250273,-0.06533626,0.2534976,-0.022795828,0.010496091,0.010039713,-0.22612596951194341,-0.3200576927331801,-0.9200163690036157,0.9622741131804883,-0.22010807733979387,-0.159940505790386,-0.15131284484467533,-0.9214746375305687,0.3577553848272847,left_images/camera_left_118.png,right_images/camera_right_118.png
2025-05-15 15:27:47,6.05362606048584,119,-0.30178243,-0.28023425,0.13474354,0.54243094,-0.32955152,0.5235988,1.0245792,0.009511439,0.03970393,0.007188081,0.6614240691712501,0.7245126652828261,0.19390615917427928,-0.6936444959263887,0.689250397206214,-0.2092634779938976,-0.2852639374193161,0.003909961106187063,0.9584410249004247,0.103654996,-0.06770049,0.11876472,-1.8822521,0.5724331,-0.06587533,0.257932,-0.022796975,0.010486385,0.010007506,-0.22580535686956407,-0.3202238725982837,-0.9200372884982255,0.9622932091752832,-0.22035929361811937,-0.1594790308826156,-0.15166977412834654,-0.9213568543915446,0.3579075669521039,left_images/camera_left_119.png,right_images/camera_right_119.png
2025-05-15 15:27:47,6.106131553649902,120,-0.30074084,-0.27843004,0.13472244,0.5459852,-0.3313837,0.5235988,1.0245793,0.009594176,0.039462823,0.007048387,0.66008674999093,0.7261082980573835,0.19248953732247703,-0.6959918529994257,0.6875752621645832,-0.20696762891266418,-0.28263195687118825,0.0026454397582164196,0.9592247800195991,0.10351442,-0.06764057,0.118785,-1.8824712,0.57238424,-0.06625374,0.25379986,-0.022797454,0.010479335,0.00997937,-0.22561350046744322,-0.3203523556241243,-0.9200396277622511,0.9622939716918453,-0.22057854750258554,-0.15917102885633272,-0.15195019069537513,-0.9212597205065053,0.35803863886445964,left_images/camera_left_120.png,right_images/camera_right_120.png
2025-05-15 15:27:47,6.1627020835876465,121,-0.30015272,-0.27674186,0.13466454,0.5483724,-0.33353686,0.5235988,1.0245793,0.009668204,0.03923783,0.0069808653,0.6590632087908548,0.7273956822723677,0.19113138996464887,-0.6977396752446265,0.6862149425632744,-0.20559279703434383,-0.28070452865571127,0.0021386945547533787,0.9597918490890491,0.1033977,-0.06759741,0.118800595,-1.8826491,0.5723556,-0.06653838,0.2609368,-0.022798568,0.010474318,0.0099572325,-0.22548186554854668,-0.32044865466399086,-0.9200383622614793,0.9622910732819892,-0.22075063071405435,-0.1589498327182013,-0.1521637886967332,-0.9211850078911321,0.3581401438628047,left_images/camera_left_121.png,right_images/camera_right_121.png
2025-05-15 15:27:47,6.213602304458618,122,-0.29973456,-0.27539214,0.13461241,0.54977596,-0.33587694,0.5235988,1.0245793,0.0097347405,0.03906712,0.0069372626,0.6582720743999113,0.728502227559008,0.1896374976285053,-0.6990282231223649,0.6850389653311837,-0.20513692806603803,-0.2793517842141467,0.0024739481694305288,0.9601856384245852,0.10330181,-0.067557946,0.1188101,-1.8827866,0.5723442,-0.06670662,0.2541359,-0.022801463,0.010470144,0.009941775,-0.2254254954914913,-0.3205190445004945,-0.9200276561576317,0.9622805098185124,-0.22088560747524236,-0.15882622212253483,-0.1523140387680637,-0.9211281618335111,0.3582224770605239,left_images/camera_left_122.png,right_images/camera_right_122.png
2025-05-15 15:27:47,6.27070689201355,123,-0.29900253,-0.2739932,0.13457273,0.5514006,-0.33723706,0.5235988,1.0245793,0.009808397,0.038880456,0.0068551553,0.6578312306659924,0.7291976383445783,0.1884910506977874,-0.7001030182206897,0.6842996411517719,-0.20393568838689569,-0.27769378069871653,0.0021921113671579118,0.9606671425676051,0.10322456,-0.067491844,0.11881606,-1.8828795,0.5723478,-0.06678404,0.25361723,-0.022804463,0.010462761,0.009930395,-0.22539992545930052,-0.32057351192667266,-0.9200149439296849,0.9622682843755557,-0.22099559037803282,-0.1587472768849581,-0.15242907363054659,-0.9210828260718273,0.3582901129359687,left_images/camera_left_123.png,right_images/camera_right_123.png
2025-05-15 15:27:47,6.31850790977478,124,-0.29800013,-0.27247706,0.13446699,0.5550102,-0.33896405,0.5235988,1.0245792,0.00995582,0.038651593,0.006783315,0.6563292601353297,0.7309027267068349,0.1871178943413072,-0.7025061801941017,0.6824809677795675,-0.2017542946451385,-0.2751671656998761,0.0009657697338938259,0.9613959112714793,0.103159785,-0.067395,0.1188185,-1.8829392,0.5723679,-0.06675192,0.25793996,-0.022808574,0.010452581,0.009922824,-0.2254301159328726,-0.32061335271845737,-0.9199936635048752,0.9622481716530955,-0.22109249619061627,-0.15873425678938052,-0.15251137328332687,-0.9210457025505479,0.3583505195090435,left_images/camera_left_124.png,right_images/camera_right_124.png
2025-05-15 15:27:47,6.377871513366699,125,-0.29707152,-0.27091396,0.13429199,0.55866545,-0.34060666,0.5235988,1.0245795,0.010143166,0.038397286,0.006762472,0.6548311433334706,0.7325616798407684,0.18587511654186456,-0.7048862584859905,0.6807005330676795,-0.1994546236089771,-0.27263810503706465,-0.00041171622382886464,0.9621165699495825,0.10308187,-0.067278825,0.11881664,-1.8829768,0.5724222,-0.06666645,0.25369745,-0.022815837,0.010439901,0.009918009,-0.22548236683950926,-0.3206422917462523,-0.9199707728988807,0.9622262556139756,-0.22117537923767858,-0.15875164448337847,-0.15257239347785345,-0.9210157286185616,0.35840157977561815,left_images/camera_left_125.png,right_images/camera_right_125.png
2025-05-15 15:27:47,6.424161672592163,126,-0.29597142,-0.26893193,0.13404903,0.56283885,-0.3417049,0.5235988,1.024579,0.010376748,0.03806101,0.0067592068,0.6535115238925865,0.7339768623249873,0.18493418751317064,-0.7072698722653065,0.6791695978154357,-0.19620903442256926,-0.2696145692009372,-0.0025735140929422223,0.9629648805121643,0.10300166,-0.067182235,0.118812814,-1.8830235,0.57247967,-0.066562176,0.26639682,-0.02282479,0.010429943,0.009914963,-0.22557087833002937,-0.32066551958764783,-0.9199409782138215,0.9621986428075364,-0.2212538443826249,-0.1588096600501498,-0.1526156958794016,-0.9209887952051821,0.3584523517536925,left_images/camera_left_126.png,right_images/camera_right_126.png
2025-05-15 15:27:47,6.479629993438721,127,-0.29466897,-0.26683325,0.1337874,0.56680524,-0.34265494,0.5235988,1.0245793,0.010637355,0.037705187,0.006748695,0.6524661636828452,0.7351716172438408,0.18387658482815578,-0.7094297631128713,0.6778654836460731,-0.19289322769576545,-0.2664532162662063,-0.004591217741584705,0.9638369178761744,0.10291219,-0.067105815,0.118807554,-1.8830703,0.5725501,-0.06647509,0.25439537,-0.022835342,0.010422031,0.00991267,-0.22565564744892688,-0.32068239181681996,-0.9199143070705277,0.9621738824333186,-0.22131784384940448,-0.15887048799901415,-0.152646482886439,-0.9209675431699502,0.3584938433082302,left_images/camera_left_127.png,right_images/camera_right_127.png
2025-05-15 15:27:47,6.53728461265564,128,-0.29294473,-0.26450664,0.13351311,0.5700292,-0.34407994,0.5235988,1.0245792,0.0109465355,0.03732803,0.0067063784,0.6518688141823581,0.7361579510277617,0.18203988638508295,-0.7112152233021015,0.6767869447800574,-0.1900850796843806,-0.2631348613160715,-0.005559002957639711,0.9647430446737042,0.10277324,-0.0670554,0.11879854,-1.8831515,0.57266325,-0.06639679,0.25360012,-0.0228524,0.010417464,0.0099105695,-0.225780529076534,-0.3206952473127888,-0.9198791828500685,0.9621413827948351,-0.22138597434271745,-0.15897235570365154,-0.15266667024456598,-0.9209466915708613,0.358538811122481,left_images/camera_left_128.png,right_images/camera_right_128.png
2025-05-15 15:27:47,6.59455943107605,129,-0.29114482,-0.262163,0.13326794,0.573252,-0.3458027,0.5235988,1.024579,0.011246176,0.036960628,0.0066391425,0.6511824563740075,0.7372825337249693,0.1799329707830194,-0.7130872214891948,0.6755555829896012,-0.1874333717361979,-0.2597460741946516,-0.006254578776319977,0.9656566973747953,0.102630034,-0.0670284,0.11878864,-1.8832415,0.5727749,-0.06633553,0.26106083,-0.022870535,0.010415512,0.009908987,-0.2259101809363306,-0.32070832064672605,-0.9198427926647418,0.9621090770611995,-0.22144789997492095,-0.1590815873479524,-0.15267846601849644,-0.9209272504734857,0.35858372153457363,left_images/camera_left_129.png,right_images/camera_right_129.png
2025-05-15 15:27:47,6.652296781539917,130,-0.288793,-0.25930515,0.13304447,0.5785805,-0.34757113,0.5235988,1.0245793,0.011570461,0.036519557,0.006490915,0.6497393579474999,0.739122243331054,0.17758681298801743,-0.7161006162086954,0.673522265772948,-0.18321480555239428,-0.2550268107464348,-0.008128156085168883,0.9668998184295815,0.10255753,-0.06710544,0.11877318,-1.8826776,0.5721169,-0.06661599,0.25383532,-0.022888543,0.0104130255,0.009906305,-0.2252879613157542,-0.32149493853910116,-0.9197207940347609,0.9622964372754038,-0.22110097819698013,-0.158429556104294,-0.1524168668266619,-0.920736315094652,0.35918482258116846,left_images/camera_left_130.png,right_images/camera_right_130.png
2025-05-15 15:27:47,6.709813117980957,131,-0.2858681,-0.2559506,0.13283913,0.58661187,-0.34969983,0.5235988,1.0245794,0.011929439,0.036005728,0.006261727,0.647077154210993,0.7421052634460772,0.17484545880242544,-0.7207072048328027,0.6701881472956497,-0.177282182202591,-0.24874139462560466,-0.011297131939237676,0.96850404924794,0.10246418,-0.067180276,0.11875941,-1.8823019,0.5716574,-0.06683036,0.2533571,-0.022906829,0.010413412,0.009903677,-0.22486870609336573,-0.32207605822748453,-0.9196200724954526,0.9624247840365493,-0.2208611137112444,-0.1579838710831905,-0.15222549094056786,-0.92059077834121,0.3596387336495171,left_images/camera_left_131.png,right_images/camera_right_131.png
2025-05-15 15:27:47,6.771392583847046,132,-0.28251457,-0.2525628,0.13264658,0.595636,-0.3526282,0.5235988,1.0245795,0.01233151,0.035493355,0.0059852153,0.6436597074739259,0.7458982807164233,0.17128320349311357,-0.7261219513667546,0.6659090618810661,-0.1712075729867529,-0.24176247169053364,-0.014173077610794338,0.9702319470895203,0.10231418,-0.067241386,0.11875516,-1.8821523,0.57135427,-0.067033984,0.25737387,-0.022924319,0.010415854,0.00989142,-0.22463064766574184,-0.3225161939380798,-0.9195239946716804,0.9624923172243505,-0.2207753303851339,-0.15769208216469044,-0.1521499635667714,-0.9204572549233506,0.3600122642988711,left_images/camera_left_132.png,right_images/camera_right_132.png
2025-05-15 15:27:47,6.828021049499512,133,-0.2789422,-0.24923097,0.13248818,0.6040826,-0.35632005,0.5235988,1.02458,0.012743796,0.035009705,0.005672413,0.6402453077952872,0.7498184426551273,0.16690790544595924,-0.7314037263274353,0.6614537335865731,-0.1659142773805937,-0.23480744230211203,-0.015851226407510938,0.971912652279472,0.10212464,-0.06726315,0.11876261,-1.8821594,0.5711662,-0.06723158,0.25362566,-0.022937817,0.010416447,0.00986804,-0.22449955602867555,-0.3228555901991129,-0.9194369022505623,0.9625185540438684,-0.22081069862389868,-0.15748227993817765,-0.15217747029119766,-0.9203297796172893,0.36032639965087687,left_images/camera_left_133.png,right_images/camera_right_133.png
2025-05-15 15:27:47,6.878053188323975,134,-0.27551767,-0.24590005,0.13238549,0.61129487,-0.36021152,0.5235988,1.0245798,0.013108214,0.034550637,0.005341107,0.6373512632545055,0.7532750142318663,0.16235799999343326,-0.7359671324342396,0.6574956983192671,-0.16140565872416554,-0.22833253645595147,-0.01661805119865281,0.9734413660667758,0.10200212,-0.0673099,0.1187679,-1.8815347,0.5704879,-0.06692175,0.25361776,-0.022949442,0.010416348,0.009843471,-0.22436463462120326,-0.32372411879474244,-0.9191644062091728,0.9626281383738895,-0.22043560353841596,-0.15733789087017253,-0.15168249055877875,-0.9201145796058345,0.36108389946751185,left_images/camera_left_134.png,right_images/camera_right_134.png
2025-05-15 15:27:48,6.927477598190308,135,-0.27245188,-0.24266234,0.13233075,0.617956,-0.3637869,0.5235988,1.0245795,0.0134054795,0.034114886,0.005014537,0.6347090708536645,0.7563729189313579,0.15825423496177105,-0.7400876329621187,0.6539086053092356,-0.15707906110955283,-0.22229415402256136,-0.017422497231677853,0.9748239665075976,0.10190161,-0.067353904,0.11877059,-1.8810879,0.5699924,-0.06669194,0.25794002,-0.02295947,0.010417406,0.0098256245,-0.22428279768985054,-0.32436528926894387,-0.9189583155823162,0.9627050063785585,-0.22016358362357208,-0.15724842491957097,-0.15131522512316176,-0.919953887737587,0.3616469923591597,left_images/camera_left_135.png,right_images/camera_right_135.png
2025-05-15 15:27:48,6.990444660186768,136,-0.26925227,-0.23890102,0.1323167,0.6248006,-0.36716607,0.5235988,1.0245795,0.013675381,0.033617575,0.0046374667,0.6323084343797912,0.759215090225258,0.15420275803768974,-0.7440554190871996,0.6505750287343692,-0.15209755196664398,-0.2157952203806855,-0.018562832799107712,0.9762621800004974,0.10178605,-0.067455634,0.11877181,-1.8789968,0.5697455,-0.06564492,0.253766,-0.022968438,0.010417817,0.009812756,-0.22371765540027314,-0.325181856514557,-0.9188074721376349,0.9630986450053631,-0.2184877539606033,-0.15717538407169407,-0.1496375977187494,-0.920065139847716,0.3620617734392362,left_images/camera_left_136.png,right_images/camera_right_136.png
2025-05-15 15:27:48,7.038956880569458,137,-0.2664931,-0.23549697,0.13231206,0.63013047,-0.37020323,0.5235988,1.02458,0.013902828,0.033174694,0.0043068724,0.6305665847112439,0.7613941739611931,0.15054797940706416,-0.7471055414068379,0.648007276946753,-0.1480536356299621,-0.21028336178783397,-0.01911755428935201,0.9774535420536367,0.10169588,-0.067515664,0.1187727,-1.8774531,0.5695631,-0.064827636,0.26148352,-0.022975795,0.010416754,0.009802832,-0.22333241191309539,-0.3257895428843291,-0.9186859134308631,0.9633804880463841,-0.21725836325624537,-0.15715227916491747,-0.14839362870618905,-0.9201412811859043,0.36238012309862205,left_images/camera_left_137.png,right_images/camera_right_137.png
2025-05-15 15:27:48,7.096760272979736,138,-0.26399747,-0.23249699,0.13228305,0.6335069,-0.37194616,0.5235988,1.0245794,0.014115725,0.03277744,0.0040323855,0.6301206131047726,0.7623212618076366,0.147696671379141,-0.7487111407660684,0.6469080943016552,-0.1447119387603291,-0.20586315997098148,-0.01939616774038891,0.9783885465620235,0.10161069,-0.06754003,0.11877471,-1.8763396,0.5694378,-0.06418933,0.25458378,-0.022981817,0.010414419,0.009792956,-0.2230915483841998,-0.3262422014201116,-0.918583794246393,0.963575338683758,-0.21638017021713557,-0.15716929921993283,-0.14748805958456956,-0.920187832971814,0.3626315269396963,left_images/camera_left_138.png,right_images/camera_right_138.png
2025-05-15 15:27:48,7.157196998596191,139,-0.261623,-0.22986619,0.13224067,0.63563967,-0.3727773,0.5235988,1.0245795,0.014324243,0.032423224,0.003790942,0.630485394615452,0.7624690186023858,0.1453587384649184,-0.7494091338271877,0.6467310799967383,-0.1418621172217474,-0.20217348320930242,-0.019491173329670278,0.9791557469827008,0.10157229,-0.06746262,0.11877732,-1.8772904,0.5692401,-0.06455222,0.25409287,-0.022985853,0.010410512,0.009783393,-0.22345589948914973,-0.32624017622100854,-0.9184959490399403,0.9633766427693853,-0.21722824342944685,-0.15721747492866522,-0.14823260488125917,-0.9199887160589757,0.3628330982342628,left_images/camera_left_139.png,right_images/camera_right_139.png
2025-05-15 15:27:48,7.220669746398926,140,-0.25956985,-0.22765823,0.13220315,0.6365341,-0.3727532,0.5235988,1.0245795,0.014497432,0.032123912,0.0035880664,0.6315728166717904,0.7618841293684263,0.14369533972184365,-0.7492434545900507,0.6474194843128026,-0.139578856157053,-0.19937407804232612,-0.01950858141074842,0.9797292443609676,0.10154053,-0.06740475,0.11877912,-1.878019,0.56909114,-0.064793065,0.26646793,-0.02298937,0.010407851,0.009776131,-0.22377001293254858,-0.32623761641513327,-0.9184203824763144,0.9632181429182494,-0.21787646108054556,-0.15729162997482354,-0.1487877362731429,-0.9198363253007518,0.3629922095471523,left_images/camera_left_140.png,right_images/camera_right_140.png
2025-05-15 15:27:48,7.277180910110474,141,-0.25775424,-0.22563213,0.13218081,0.63592666,-0.37181723,0.5235988,1.0245793,0.014629726,0.031852026,0.003404514,0.6337000382529305,0.7603115316826473,0.142655656420001,-0.7479728774957833,0.6492692713222632,-0.13778965072651686,-0.1973849944877082,-0.019385254887266286,0.9801343662192666,0.101492085,-0.06729302,0.11878141,-1.8803916,0.5689072,-0.065859154,0.2556455,-0.022996336,0.010407564,0.009765983,-0.22456379035242585,-0.3258956815001173,-0.9183480325247753,0.9627465513660314,-0.21987943348175093,-0.1573915898787404,-0.1506326056847091,-0.919480853259772,0.3631319024725265,left_images/camera_left_141.png,right_images/camera_right_141.png
2025-05-15 15:27:48,7.336597919464111,142,-0.25609028,-0.22348978,0.13217212,0.63504785,-0.3703342,0.5235988,1.0245793,0.014729069,0.03156424,0.0032231407,0.6362094059380167,0.7583178459870358,0.14209727743196934,-0.7463275657321927,0.6515877281377845,-0.1357519692987916,-0.19553198312361927,-0.01968443542047365,0.980499753481826,0.1014224,-0.067273095,0.11878271,-1.8822447,0.5685802,-0.06743363,0.2537858,-0.02300471,0.0104074385,0.009754207,-0.2245486757936799,-0.3258115999805782,-0.9183815620521791,0.9624886059312843,-0.2214463429637257,-0.15677117286173858,-0.1522943717008542,-0.9191345486413226,0.36331543573340563,left_images/camera_left_142.png,right_images/camera_right_142.png
