jiaqis7/OS_Teleop_Extension/demo_4/teleop_log.csv
Epoch Time (Seconds),Time (Seconds),Frame Number,PSM1_joint_1,PSM1_joint_2,PSM1_joint_3,PSM1_joint_4,PSM1_joint_5,PSM1_joint_6,PSM1_jaw_angle,PSM1_ee_x,PSM1_ee_y,PSM1_ee_z,"PSM1_Orientation_Matrix_[1,1]","PSM1_Orientation_Matrix_[1,2]","PSM1_Orientation_Matrix_[1,3]","PSM1_Orientation_Matrix_[2,1]","PSM1_Orientation_Matrix_[2,2]","PSM1_Orientation_Matrix_[2,3]","PSM1_Orientation_Matrix_[3,1]","PSM1_Orientation_Matrix_[3,2]","PSM1_Orientation_Matrix_[3,3]",PSM2_joint_1,PSM2_joint_2,PSM2_joint_3,PSM2_joint_4,PSM2_joint_5,PSM2_joint_6,PSM2_jaw_angle,PSM2_ee_x,PSM2_ee_y,PSM2_ee_z,"PSM2_Orientation_Matrix_[1,1]","PSM2_Orientation_Matrix_[1,2]","PSM2_Orientation_Matrix_[1,3]","PSM2_Orientation_Matrix_[2,1]","PSM2_Orientation_Matrix_[2,2]","PSM2_Orientation_Matrix_[2,3]","PSM2_Orientation_Matrix_[3,1]","PSM2_Orientation_Matrix_[3,2]","PSM2_Orientation_Matrix_[3,3]",PSM3_joint_1,PSM3_joint_2,PSM3_joint_3,PSM3_joint_4,PSM3_joint_5,PSM3_joint_6,PSM3_jaw_angle,PSM3_ee_x,PSM3_ee_y,PSM3_ee_z,"PSM3_Orientation_Matrix_[1,1]","PSM3_Orientation_Matrix_[1,2]","PSM3_Orientation_Matrix_[1,3]","PSM3_Orientation_Matrix_[2,1]","PSM3_Orientation_Matrix_[2,2]","PSM3_Orientation_Matrix_[2,3]","PSM3_Orientation_Matrix_[3,1]","PSM3_Orientation_Matrix_[3,2]","PSM3_Orientation_Matrix_[3,3]",Camera Left,Camera Right
2025-05-30 16:02:20,0.003003835678100586,1,-0.03493184,-8.90503e-05,0.11432712,-0.0011935222,0.0007924085,-0.05889922,1.0471802,0.05745423,-5.052294e-06,0.0019883644,0.8152531172825965,-0.0013845432002860623,0.5791031322667278,0.001149531910868864,0.9999990408759527,0.0007725435654864742,-0.5791036464549283,3.587898022525609e-05,0.8152539269303178,0.016858857,0.000839065,0.112121545,0.00048467735,8.393716e-05,-0.011211132,1.0471792,-0.060939655,-9.815495e-05,0.0024163919,0.8630865103178482,0.0008906021276739475,-0.505055326212098,-0.0004950370199353431,0.9999994566501749,0.0009174081446211978,0.5050558688360205,-0.0005417815104877719,0.8630864822409671,0.0026659113,0.019334318,0.090639085,-0.00016625582,-0.012029266,-0.0062277005,0.5235896,0.00019102647,-0.011351369,0.0023488896,0.9999936388620272,-0.00014632426837313082,0.0035638216411264037,0.0010388213611227208,0.967790914275485,-0.25175318686364284,-0.0034121966035020558,0.2517552876009342,0.9677849100287262,left_images/camera_left_1.png,right_images/camera_right_1.png
2025-05-30 16:02:20,0.05276775360107422,2,-0.03493184,-8.905042e-05,0.11432712,-0.0011935825,0.000792405,-0.05889922,1.0471802,0.057454243,-5.052616e-06,0.0019883951,0.8152531826565558,-0.0013847812343714986,0.5791030396650402,0.0011499046288358265,0.9999990405352444,0.0007724298901479259,-0.5791035536825005,3.618733956157658e-05,0.8152539928162115,0.016858857,0.00083906733,0.112121545,0.00048463012,8.395651e-05,-0.011211188,1.0471792,-0.060939655,-9.815495e-05,0.0024163919,0.8630865103178482,0.0008906021276739475,-0.505055326212098,-0.0004950370199353431,0.9999994566501749,0.0009174081446211978,0.5050558688360205,-0.0005417815104877719,0.8630864822409671,0.0026659113,0.019334318,0.090639085,-0.0001662817,-0.012029266,-0.0062277005,0.5235896,0.00019103003,-0.011351375,0.0023488896,0.9999936386757502,-0.0001465723919737333,0.0035638637132408913,0.001039072084774639,0.9677909141282318,-0.251753186395016,-0.003412174854148911,0.2517552880226649,0.9677849099957022,left_images/camera_left_2.png,right_images/camera_right_2.png
2025-05-30 16:02:20,0.10794782638549805,3,-0.03493184,-8.904957e-05,0.11432712,-0.0011935756,0.000792398,-0.05889922,1.0471802,0.057454243,-5.052616e-06,0.0019883951,0.8152531826565558,-0.0013847812343714986,0.5791030396650402,0.0011499046288358265,0.9999990405352444,0.0007724298901479259,-0.5791035536825005,3.618733956157658e-05,0.8152539928162115,0.016858857,0.00083909783,0.112121545,0.00048468253,8.3905215e-05,-0.0112112155,1.0471792,-0.060939655,-9.815495e-05,0.0024163919,0.8630865103178482,0.0008906021276739475,-0.505055326212098,-0.0004950370199353431,0.9999994566501749,0.0009174081446211978,0.5050558688360205,-0.0005417815104877719,0.8630864822409671,0.0026659113,0.019334318,0.090639085,-0.00016632197,-0.012029266,-0.006227721,0.5235896,0.00019103003,-0.011351375,0.0023488896,0.9999936386757502,-0.0001465723919737333,0.0035638637132408913,0.001039072084774639,0.9677909141282318,-0.251753186395016,-0.003412174854148911,0.2517552880226649,0.9677849099957022,left_images/camera_left_3.png,right_images/camera_right_3.png
2025-05-30 16:02:20,0.1570730209350586,4,-0.03493184,-8.90487e-05,0.11432712,-0.0011935686,0.000792391,-0.05889922,1.0471802,0.057454243,-5.052616e-06,0.0019883951,0.8152531826565558,-0.0013847812343714986,0.5791030396650402,0.0011499046288358265,0.9999990405352444,0.0007724298901479259,-0.5791035536825005,3.618733956157658e-05,0.8152539928162115,0.016858857,0.00083910016,0.112121545,0.00048466842,8.3924715e-05,-0.0112112155,1.0471792,-0.060939655,-9.815495e-05,0.0024163919,0.8630865103178482,0.0008906021276739475,-0.505055326212098,-0.0004950370199353431,0.9999994566501749,0.0009174081446211978,0.5050558688360205,-0.0005417815104877719,0.8630864822409671,0.0026659113,0.019334318,0.090639085,-0.00016636225,-0.012029266,-0.0062277415,0.5235896,0.00019103003,-0.011351375,0.0023488896,0.9999936386757502,-0.0001465723919737333,0.0035638637132408913,0.001039072084774639,0.9677909141282318,-0.251753186395016,-0.003412174854148911,0.2517552880226649,0.9677849099957022,left_images/camera_left_4.png,right_images/camera_right_4.png
2025-05-30 16:02:20,0.2142646312713623,5,-0.03493184,-8.9047826e-05,0.11432712,-0.0011935616,0.00079238403,-0.05889922,1.0471802,0.057454243,-5.052616e-06,0.0019883951,0.8152531826565558,-0.0013847812343714986,0.5791030396650402,0.0011499046288358265,0.9999990405352444,0.0007724298901479259,-0.5791035536825005,3.618733956157658e-05,0.8152539928162115,0.016858857,0.00083909667,0.112121545,0.00048465427,8.3944215e-05,-0.0112112155,1.0471792,-0.060939655,-9.815495e-05,0.0024163919,0.8630865103178482,0.0008906021276739475,-0.505055326212098,-0.0004950370199353431,0.9999994566501749,0.0009174081446211978,0.5050558688360205,-0.0005417815104877719,0.8630864822409671,0.0026659113,0.019334318,0.090639085,-0.00016640253,-0.012029266,-0.006227762,0.5235896,0.00019103003,-0.011351375,0.0023488896,0.9999936386757502,-0.0001465723919737333,0.0035638637132408913,0.001039072084774639,0.9677909141282318,-0.251753186395016,-0.003412174854148911,0.2517552880226649,0.9677849099957022,left_images/camera_left_5.png,right_images/camera_right_5.png
2025-05-30 16:02:20,0.2730119228363037,6,-0.03493184,-8.904695e-05,0.11432712,-0.0011935546,0.00079237705,-0.05889922,1.0471802,0.057454243,-5.052616e-06,0.0019883951,0.8152531826565558,-0.0013847812343714986,0.5791030396650402,0.0011499046288358265,0.9999990405352444,0.0007724298901479259,-0.5791035536825005,3.618733956157658e-05,0.8152539928162115,0.016858857,0.0008390932,0.112121545,0.00048464013,8.3963714e-05,-0.0112112155,1.0471792,-0.060939655,-9.815495e-05,0.0024163919,0.8630865103178482,0.0008906021276739475,-0.505055326212098,-0.0004950370199353431,0.9999994566501749,0.0009174081446211978,0.5050558688360205,-0.0005417815104877719,0.8630864822409671,0.0026659113,0.019334318,0.090639085,-0.00016644281,-0.012029266,-0.0062277825,0.5235896,0.00019103003,-0.011351375,0.0023488896,0.9999936386757502,-0.0001465723919737333,0.0035638637132408913,0.001039072084774639,0.9677909141282318,-0.251753186395016,-0.003412174854148911,0.2517552880226649,0.9677849099957022,left_images/camera_left_6.png,right_images/camera_right_6.png
2025-05-30 16:02:20,0.3235495090484619,7,-0.03493184,-8.904383e-05,0.11432712,-0.0011936161,0.0007923536,-0.05889922,1.0471802,0.057454243,-5.052616e-06,0.0019883951,0.8152531826565558,-0.0013847812343714986,0.5791030396650402,0.0011499046288358265,0.9999990405352444,0.0007724298901479259,-0.5791035536825005,3.618733956157658e-05,0.8152539928162115,0.016858857,0.0008390897,0.112121545,0.00048462598,8.3983214e-05,-0.0112112155,1.0471792,-0.060939655,-9.815495e-05,0.0024163919,0.8630865103178482,0.0008906021276739475,-0.505055326212098,-0.0004950370199353431,0.9999994566501749,0.0009174081446211978,0.5050558688360205,-0.0005417815104877719,0.8630864822409671,0.0026659113,0.019334318,0.090639085,-0.00016648309,-0.012029266,-0.006227803,0.5235896,0.00019103003,-0.011351375,0.0023488896,0.9999936386757502,-0.0001465723919737333,0.0035638637132408913,0.001039072084774639,0.9677909141282318,-0.251753186395016,-0.003412174854148911,0.2517552880226649,0.9677849099957022,left_images/camera_left_7.png,right_images/camera_right_7.png
2025-05-30 16:02:20,0.37491321563720703,8,-0.03493184,-8.904256e-05,0.11432712,-0.0011936091,0.0007923466,-0.05889922,1.0471802,0.057454243,-5.052616e-06,0.0019883951,0.8152531826565558,-0.0013847812343714986,0.5791030396650402,0.0011499046288358265,0.9999990405352444,0.0007724298901479259,-0.5791035536825005,3.618733956157658e-05,0.8152539928162115,0.016858857,0.0008391151,0.112121545,0.0004846779,8.397124e-05,-0.011211188,1.0471792,-0.060939655,-9.815495e-05,0.0024163919,0.8630865103178482,0.0008906021276739475,-0.505055326212098,-0.0004950370199353431,0.9999994566501749,0.0009174081446211978,0.5050558688360205,-0.0005417815104877719,0.8630864822409671,0.0026659113,0.019334318,0.090639085,-0.00016652337,-0.012029266,-0.0062278234,0.5235896,0.00019103003,-0.011351375,0.0023488896,0.9999936386757502,-0.0001465723919737333,0.0035638637132408913,0.001039072084774639,0.9677909141282318,-0.251753186395016,-0.003412174854148911,0.2517552880226649,0.9677849099957022,left_images/camera_left_8.png,right_images/camera_right_8.png
2025-05-30 16:02:20,0.4385218620300293,9,-0.03493184,-8.9041685e-05,0.11432712,-0.0011936021,0.0007923396,-0.05889922,1.0471802,0.057454243,-5.052616e-06,0.0019883951,0.8152531826565558,-0.0013847812343714986,0.5791030396650402,0.0011499046288358265,0.9999990405352444,0.0007724298901479259,-0.5791035536825005,3.618733956157658e-05,0.8152539928162115,0.016858857,0.0008391166,0.112121545,0.00048463067,8.39906e-05,-0.011211243,1.0471792,-0.06093966,-9.8154625e-05,0.002416389,0.8630867004164069,0.0008905863693675397,-0.5050550013812739,-0.0004950103619658086,0.9999994566498319,0.0009174229028899285,0.5050555440038863,-0.0005418080470953236,0.8630866723075841,0.0026659113,0.019334318,0.090639085,-0.00016656365,-0.012029266,-0.006227844,0.5235896,0.00019103003,-0.011351375,0.0023488896,0.9999936386757502,-0.0001465723919737333,0.0035638637132408913,0.001039072084774639,0.9677909141282318,-0.251753186395016,-0.003412174854148911,0.2517552880226649,0.9677849099957022,left_images/camera_left_9.png,right_images/camera_right_9.png
2025-05-30 16:02:20,0.4919312000274658,10,-0.03493184,-8.904081e-05,0.11432712,-0.0011935951,0.00079233263,-0.05889922,1.0471802,0.057454243,-5.052616e-06,0.0019883951,0.8152531826565558,-0.0013847812343714986,0.5791030396650402,0.0011499046288358265,0.9999990405352444,0.0007724298901479259,-0.5791035536825005,3.618733956157658e-05,0.8152539928162115,0.016858857,0.0008391131,0.112121545,0.0004846369,8.401103e-05,-0.011211355,1.0471792,-0.06093966,-9.8154625e-05,0.002416389,0.8630867004164069,0.0008905863693675397,-0.5050550013812739,-0.0004950103619658086,0.9999994566498319,0.0009174229028899285,0.5050555440038863,-0.0005418080470953236,0.8630866723075841,0.0026659113,0.019334318,0.090639085,-0.00016660393,-0.012029266,-0.0062278644,0.5235896,0.00019103003,-0.011351375,0.0023488896,0.9999936386757502,-0.0001465723919737333,0.0035638637132408913,0.001039072084774639,0.9677909141282318,-0.251753186395016,-0.003412174854148911,0.2517552880226649,0.9677849099957022,left_images/camera_left_10.png,right_images/camera_right_10.png
2025-05-30 16:02:20,0.5508649349212646,11,-0.03493184,-8.903994e-05,0.11432712,-0.0011935881,0.00079232565,-0.05889922,1.0471802,0.057454243,-5.052616e-06,0.0019883951,0.8152531826565558,-0.0013847812343714986,0.5791030396650402,0.0011499046288358265,0.9999990405352444,0.0007724298901479259,-0.5791035536825005,3.618733956157658e-05,0.8152539928162115,0.016858857,0.0008391096,0.112121545,0.00048464313,8.403146e-05,-0.011211467,1.0471792,-0.06093966,-9.8154625e-05,0.002416389,0.8630867004164069,0.0008905863693675397,-0.5050550013812739,-0.0004950103619658086,0.9999994566498319,0.0009174229028899285,0.5050555440038863,-0.0005418080470953236,0.8630866723075841,0.0026659113,0.019334318,0.090639085,-0.00016664421,-0.012029266,-0.006227885,0.5235896,0.00019103003,-0.011351375,0.0023488896,0.9999936386757502,-0.0001465723919737333,0.0035638637132408913,0.001039072084774639,0.9677909141282318,-0.251753186395016,-0.003412174854148911,0.2517552880226649,0.9677849099957022,left_images/camera_left_11.png,right_images/camera_right_11.png
2025-05-30 16:02:20,0.607236385345459,12,-0.03493184,-8.9039066e-05,0.11432712,-0.0011935811,0.00079231866,-0.05889922,1.0471802,0.057454243,-5.052616e-06,0.0019883951,0.8152531826565558,-0.0013847812343714986,0.5791030396650402,0.0011499046288358265,0.9999990405352444,0.0007724298901479259,-0.5791035536825005,3.618733956157658e-05,0.8152539928162115,0.016858857,0.0008391061,0.112121545,0.00048464935,8.405189e-05,-0.011211579,1.0471792,-0.06093966,-9.8154625e-05,0.002416389,0.8630867004164069,0.0008905863693675397,-0.5050550013812739,-0.0004950103619658086,0.9999994566498319,0.0009174229028899285,0.5050555440038863,-0.0005418080470953236,0.8630866723075841,0.0026659237,0.019334318,0.090639085,-0.00016660155,-0.012029266,-0.006227909,0.5235896,0.00019103003,-0.011351375,0.0023488896,0.9999936386757502,-0.0001465723919737333,0.0035638637132408913,0.001039072084774639,0.9677909141282318,-0.251753186395016,-0.003412174854148911,0.2517552880226649,0.9677849099957022,left_images/camera_left_12.png,right_images/camera_right_12.png
2025-05-30 16:02:20,0.673281192779541,13,-0.03493184,-8.903819e-05,0.11432712,-0.0011935742,0.0007923117,-0.05889922,1.0471802,0.057454243,-5.052616e-06,0.0019883951,0.8152531826565558,-0.0013847812343714986,0.5791030396650402,0.0011499046288358265,0.9999990405352444,0.0007724298901479259,-0.5791035536825005,3.618733956157658e-05,0.8152539928162115,0.016858857,0.00083909975,0.112121545,0.0004846223,8.409139e-05,-0.011211607,1.0471792,-0.06093966,-9.8154625e-05,0.002416389,0.8630867004164069,0.0008905863693675397,-0.5050550013812739,-0.0004950103619658086,0.9999994566498319,0.0009174229028899285,0.5050555440038863,-0.0005418080470953236,0.8630866723075841,0.0026659258,0.019334318,0.090639085,-0.00016664181,-0.012029266,-0.0062279296,0.5235896,0.00019103003,-0.011351375,0.0023488896,0.9999936386757502,-0.0001465723919737333,0.0035638637132408913,0.001039072084774639,0.9677909141282318,-0.251753186395016,-0.003412174854148911,0.2517552880226649,0.9677849099957022,left_images/camera_left_13.png,right_images/camera_right_13.png
2025-05-30 16:02:21,0.7371008396148682,14,-0.03493184,-8.903732e-05,0.11432712,-0.0011935672,0.0007923047,-0.05889922,1.0471802,0.057454243,-5.052616e-06,0.0019883951,0.8152531826565558,-0.0013847812343714986,0.5791030396650402,0.0011499046288358265,0.9999990405352444,0.0007724298901479259,-0.5791035536825005,3.618733956157658e-05,0.8152539928162115,0.016858857,0.0008390931,0.112121545,0.00048459522,8.4130894e-05,-0.011211635,1.0471792,-0.060939647,-9.813281e-05,0.0024163853,0.8630868775093432,0.0008901822999307966,-0.5050546994600141,-0.0004945329278181977,0.9999994568711804,0.0009174391139145468,0.5050552418383117,-0.000542063480901144,0.8630868489664452,0.002665938,0.019334318,0.090639085,-0.00016659914,-0.012029266,-0.006227954,0.5235896,0.00019103003,-0.011351375,0.0023488896,0.9999936386757502,-0.0001465723919737333,0.0035638637132408913,0.001039072084774639,0.9677909141282318,-0.251753186395016,-0.003412174854148911,0.2517552880226649,0.9677849099957022,left_images/camera_left_14.png,right_images/camera_right_14.png
2025-05-30 16:02:21,0.7878236770629883,15,-0.03493184,-8.9036446e-05,0.11432712,-0.0011935602,0.0007922977,-0.05889922,1.0471802,0.057454243,-5.052616e-06,0.0019883951,0.8152531826565558,-0.0013847812343714986,0.5791030396650402,0.0011499046288358265,0.9999990405352444,0.0007724298901479259,-0.5791035536825005,3.618733956157658e-05,0.8152539928162115,0.016858857,0.0008390957,0.112121545,0.00048457054,8.4111736e-05,-0.011211635,1.0471792,-0.060939647,-9.813281e-05,0.0024163853,0.8630868775093432,0.0008901822999307966,-0.5050546994600141,-0.0004945329278181977,0.9999994568711804,0.0009174391139145468,0.5050552418383117,-0.000542063480901144,0.8630868489664452,0.0026659402,0.019334318,0.090639085,-0.00016663941,-0.012029266,-0.0062279743,0.5235896,0.00019103003,-0.011351375,0.0023488896,0.9999936386757502,-0.0001465723919737333,0.0035638637132408913,0.001039072084774639,0.9677909141282318,-0.251753186395016,-0.003412174854148911,0.2517552880226649,0.9677849099957022,left_images/camera_left_15.png,right_images/camera_right_15.png
2025-05-30 16:02:21,0.8393869400024414,16,-0.03493184,-8.903557e-05,0.11432712,-0.0011935532,0.0007922907,-0.05889922,1.0471802,0.05745423,-5.052294e-06,0.0019883644,0.8152531172825965,-0.0013845432002860623,0.5791031322667278,0.001149531910868864,0.9999990408759527,0.0007725435654864742,-0.5791036464549283,3.587898022525609e-05,0.8152539269303178,0.016858857,0.0008390992,0.112121545,0.00048454586,8.409257e-05,-0.011211635,1.0471792,-0.060939647,-9.813281e-05,0.0024163853,0.8630868775093432,0.0008901822999307966,-0.5050546994600141,-0.0004945329278181977,0.9999994568711804,0.0009174391139145468,0.5050552418383117,-0.000542063480901144,0.8630868489664452,0.0026659525,0.019334318,0.090639085,-0.00016659674,-0.012029266,-0.0062279985,0.5235896,0.00019103003,-0.011351375,0.0023488896,0.9999936386757502,-0.0001465723919737333,0.0035638637132408913,0.001039072084774639,0.9677909141282318,-0.251753186395016,-0.003412174854148911,0.2517552880226649,0.9677849099957022,left_images/camera_left_16.png,right_images/camera_right_16.png
2025-05-30 16:02:21,0.888228178024292,17,-0.03493184,-8.9037494e-05,0.11432712,-0.0011935445,0.0007923039,-0.05889922,1.0471802,0.05745423,-5.052294e-06,0.0019883644,0.8152531172825965,-0.0013845432002860623,0.5791031322667278,0.001149531910868864,0.9999990408759527,0.0007725435654864742,-0.5791036464549283,3.587898022525609e-05,0.8152539269303178,0.016858857,0.00083910266,0.112121545,0.00048452118,8.407341e-05,-0.011211635,1.0471792,-0.060939647,-9.813281e-05,0.0024163853,0.8630868775093432,0.0008901822999307966,-0.5050546994600141,-0.0004945329278181977,0.9999994568711804,0.0009174391139145468,0.5050552418383117,-0.000542063480901144,0.8630868489664452,0.0026659546,0.019334318,0.090639085,-0.00016663701,-0.012029266,-0.006228019,0.5235896,0.00019103003,-0.011351375,0.0023488896,0.9999936386757502,-0.0001465723919737333,0.0035638637132408913,0.001039072084774639,0.9677909141282318,-0.251753186395016,-0.003412174854148911,0.2517552880226649,0.9677849099957022,left_images/camera_left_17.png,right_images/camera_right_17.png
2025-05-30 16:02:21,0.9553172588348389,18,-0.03493184,-8.903979e-05,0.11432712,-0.0011935357,0.00079231703,-0.05889922,1.0471802,0.05745423,-5.052294e-06,0.0019883644,0.8152531172825965,-0.0013845432002860623,0.5791031322667278,0.001149531910868864,0.9999990408759527,0.0007725435654864742,-0.5791036464549283,3.587898022525609e-05,0.8152539269303178,0.016858857,0.00083910616,0.112121545,0.0004844965,8.405424e-05,-0.011211635,1.0471792,-0.060939647,-9.813281e-05,0.0024163853,0.8630868775093432,0.0008901822999307966,-0.5050546994600141,-0.0004945329278181977,0.9999994568711804,0.0009174391139145468,0.5050552418383117,-0.000542063480901144,0.8630868489664452,0.002665967,0.019334318,0.090639085,-0.00016659434,-0.012029266,-0.006228043,0.5235896,0.00019103003,-0.011351375,0.0023488896,0.9999936386757502,-0.0001465723919737333,0.0035638637132408913,0.001039072084774639,0.9677909141282318,-0.251753186395016,-0.003412174854148911,0.2517552880226649,0.9677849099957022,left_images/camera_left_18.png,right_images/camera_right_18.png
2025-05-30 16:02:21,1.007983684539795,19,-0.03493184,-8.904209e-05,0.11432712,-0.001193527,0.0007923302,-0.05889922,1.0471802,0.05745423,-5.052294e-06,0.0019883644,0.8152531172825965,-0.0013845432002860623,0.5791031322667278,0.001149531910868864,0.9999990408759527,0.0007725435654864742,-0.5791036464549283,3.587898022525609e-05,0.8152539269303178,0.016858857,0.00083910965,0.112121545,0.00048447182,8.403508e-05,-0.011211635,1.0471792,-0.060939647,-9.813281e-05,0.0024163853,0.8630868775093432,0.0008901822999307966,-0.5050546994600141,-0.0004945329278181977,0.9999994568711804,0.0009174391139145468,0.5050552418383117,-0.000542063480901144,0.8630868489664452,0.002665969,0.019334318,0.090639085,-0.00016660115,-0.01202923,-0.0062280116,0.5235896,0.00019103003,-0.011351375,0.0023488896,0.9999936386757502,-0.0001465723919737333,0.0035638637132408913,0.001039072084774639,0.9677909141282318,-0.251753186395016,-0.003412174854148911,0.2517552880226649,0.9677849099957022,left_images/camera_left_19.png,right_images/camera_right_19.png
2025-05-30 16:02:21,1.0598022937774658,20,-0.03493184,-8.904439e-05,0.11432712,-0.0011935183,0.00079234334,-0.05889922,1.0471802,0.05745423,-5.052294e-06,0.0019883644,0.8152531172825965,-0.0013845432002860623,0.5791031322667278,0.001149531910868864,0.9999990408759527,0.0007725435654864742,-0.5791036464549283,3.587898022525609e-05,0.8152539269303178,0.016858857,0.00083911314,0.112121545,0.00048444714,8.401591e-05,-0.011211635,1.0471792,-0.060939647,-9.813281e-05,0.0024163853,0.8630868775093432,0.0008901822999307966,-0.5050546994600141,-0.0004945329278181977,0.9999994568711804,0.0009174391139145468,0.5050552418383117,-0.000542063480901144,0.8630868489664452,0.002665969,0.019334318,0.090639085,-0.00016664142,-0.01202923,-0.006228032,0.5235896,0.00019103003,-0.011351375,0.0023488896,0.9999936386757502,-0.0001465723919737333,0.0035638637132408913,0.001039072084774639,0.9677909141282318,-0.251753186395016,-0.003412174854148911,0.2517552880226649,0.9677849099957022,left_images/camera_left_20.png,right_images/camera_right_20.png
2025-05-30 16:02:21,1.1145987510681152,21,-0.03493184,-8.9044515e-05,0.11432712,-0.0011935786,0.00079233985,-0.05889922,1.0471802,0.057454243,-5.052616e-06,0.0019883951,0.8152531826565558,-0.0013847812343714986,0.5791030396650402,0.0011499046288358265,0.9999990405352444,0.0007724298901479259,-0.5791035536825005,3.618733956157658e-05,0.8152539928162115,0.016858857,0.00083911663,0.112121545,0.00048442246,8.399675e-05,-0.011211635,1.0471792,-0.060939647,-9.813281e-05,0.0024163853,0.8630868775093432,0.0008901822999307966,-0.5050546994600141,-0.0004945329278181977,0.9999994568711804,0.0009174391139145468,0.5050552418383117,-0.000542063480901144,0.8630868489664452,0.0026659814,0.019334318,0.090639085,-0.00016659875,-0.01202923,-0.0062280563,0.5235896,0.00019102683,-0.011351376,0.0023488915,0.99999363734356,-0.00014660916786547013,0.0035642359838612926,0.001039201650538761,0.9677908954065754,-0.25175325783009955,-0.0034125257986235644,0.2517553599705296,0.9677848900420913,left_images/camera_left_21.png,right_images/camera_right_21.png
2025-05-30 16:02:21,1.1744210720062256,22,-0.03493184,-8.9043664e-05,0.11432712,-0.0011935716,0.00079233287,-0.05889922,1.0471802,0.057454243,-5.052616e-06,0.0019883951,0.8152531826565558,-0.0013847812343714986,0.5791030396650402,0.0011499046288358265,0.9999990405352444,0.0007724298901479259,-0.5791035536825005,3.618733956157658e-05,0.8152539928162115,0.016858857,0.0008391201,0.112121545,0.00048439778,8.397758e-05,-0.011211635,1.0471792,-0.060939647,-9.813281e-05,0.0024163853,0.8630868775093432,0.0008901822999307966,-0.5050546994600141,-0.0004945329278181977,0.9999994568711804,0.0009174391139145468,0.5050552418383117,-0.000542063480901144,0.8630868489664452,0.0026659833,0.019334318,0.090639085,-0.00016661939,-0.012029174,-0.0062280563,0.5235896,0.00019102683,-0.011351376,0.0023488915,0.99999363734356,-0.00014660916786547013,0.0035642359838612926,0.001039201650538761,0.9677908954065754,-0.25175325783009955,-0.0034125257986235644,0.2517553599705296,0.9677848900420913,left_images/camera_left_22.png,right_images/camera_right_22.png
2025-05-30 16:02:21,1.2446203231811523,23,-0.03493184,-8.904279e-05,0.11432712,-0.0011935646,0.0007923259,-0.05889922,1.0471802,0.057454243,-5.052616e-06,0.0019883951,0.8152531826565558,-0.0013847812343714986,0.5791030396650402,0.0011499046288358265,0.9999990405352444,0.0007724298901479259,-0.5791035536825005,3.618733956157658e-05,0.8152539928162115,0.016858857,0.0008391236,0.112121545,0.0004843731,8.395842e-05,-0.011211635,1.0471792,-0.060939647,-9.813281e-05,0.0024163853,0.8630868775093432,0.0008901822999307966,-0.5050546994600141,-0.0004945329278181977,0.9999994568711804,0.0009174391139145468,0.5050552418383117,-0.000542063480901144,0.8630868489664452,0.0026659833,0.019334318,0.090639085,-0.0001666395,-0.01202923,-0.0062280423,0.5235896,0.00019103003,-0.011351375,0.0023488896,0.9999936386757502,-0.0001465723919737333,0.0035638637132408913,0.001039072084774639,0.9677909141282318,-0.251753186395016,-0.003412174854148911,0.2517552880226649,0.9677849099957022,left_images/camera_left_23.png,right_images/camera_right_23.png
2025-05-30 16:02:21,1.3201851844787598,24,-0.03493184,-8.904192e-05,0.11432712,-0.0011935576,0.0007923189,-0.05889922,1.0471802,0.057454243,-5.052616e-06,0.0019883951,0.8152531826565558,-0.0013847812343714986,0.5791030396650402,0.0011499046288358265,0.9999990405352444,0.0007724298901479259,-0.5791035536825005,3.618733956157658e-05,0.8152539928162115,0.016858857,0.0008391271,0.112121545,0.00048434842,8.393925e-05,-0.011211635,1.0471792,-0.060939647,-9.813281e-05,0.0024163853,0.8630868775093432,0.0008901822999307966,-0.5050546994600141,-0.0004945329278181977,0.9999994568711804,0.0009174391139145468,0.5050552418383117,-0.000542063480901144,0.8630868489664452,0.0026659954,0.019334318,0.090639085,-0.00016659651,-0.012029202,-0.0062280106,0.5235896,0.00019103003,-0.011351375,0.0023488896,0.9999936386757502,-0.0001465723919737333,0.0035638637132408913,0.001039072084774639,0.9677909141282318,-0.251753186395016,-0.003412174854148911,0.2517552880226649,0.9677849099957022,left_images/camera_left_24.png,right_images/camera_right_24.png
2025-05-30 16:02:21,1.3735249042510986,25,-0.03493184,-8.9041045e-05,0.11432712,-0.0011935506,0.0007923119,-0.05889922,1.0471802,0.05745423,-5.052294e-06,0.0019883644,0.8152531172825965,-0.0013845432002860623,0.5791031322667278,0.001149531910868864,0.9999990408759527,0.0007725435654864742,-0.5791036464549283,3.587898022525609e-05,0.8152539269303178,0.016858857,0.0008391306,0.112121545,0.00048432374,8.392009e-05,-0.011211635,1.0471792,-0.060939647,-9.813281e-05,0.0024163853,0.8630868775093432,0.0008901822999307966,-0.5050546994600141,-0.0004945329278181977,0.9999994568711804,0.0009174391139145468,0.5050552418383117,-0.000542063480901144,0.8630868489664452,0.0026659973,0.019334318,0.090639085,-0.00016663676,-0.012029202,-0.006228031,0.5235896,0.00019103003,-0.011351375,0.0023488896,0.9999936386757502,-0.0001465723919737333,0.0035638637132408913,0.001039072084774639,0.9677909141282318,-0.251753186395016,-0.003412174854148911,0.2517552880226649,0.9677849099957022,left_images/camera_left_25.png,right_images/camera_right_25.png
2025-05-30 16:02:21,1.4241981506347656,26,-0.03493184,-8.9042966e-05,0.11432712,-0.0011935419,0.00079232507,-0.05889922,1.0471802,0.05745423,-5.052294e-06,0.0019883644,0.8152531172825965,-0.0013845432002860623,0.5791031322667278,0.001149531910868864,0.9999990408759527,0.0007725435654864742,-0.5791036464549283,3.587898022525609e-05,0.8152539269303178,0.016858857,0.0008391341,0.112121545,0.00048429906,8.390092e-05,-0.011211635,1.0471792,-0.060939647,-9.813281e-05,0.0024163853,0.8630868775093432,0.0008901822999307966,-0.5050546994600141,-0.0004945329278181977,0.9999994568711804,0.0009174391139145468,0.5050552418383117,-0.000542063480901144,0.8630868489664452,0.0026660096,0.019334318,0.090639085,-0.0001665941,-0.012029202,-0.0062280553,0.5235896,0.00019102683,-0.011351376,0.0023488915,0.99999363734356,-0.00014660916786547013,0.0035642359838612926,0.001039201650538761,0.9677908954065754,-0.25175325783009955,-0.0034125257986235644,0.2517553599705296,0.9677848900420913,left_images/camera_left_26.png,right_images/camera_right_26.png
2025-05-30 16:02:21,1.4802849292755127,27,-0.03493184,-8.9045265e-05,0.11432712,-0.0011935332,0.0007923382,-0.05889922,1.0471802,0.05745423,-5.052294e-06,0.0019883644,0.8152531172825965,-0.0013845432002860623,0.5791031322667278,0.001149531910868864,0.9999990408759527,0.0007725435654864742,-0.5791036464549283,3.587898022525609e-05,0.8152539269303178,0.016858857,0.0008391376,0.112121545,0.00048427438,8.388176e-05,-0.011211635,1.0471792,-0.060939647,-9.8122e-05,0.0024163872,0.8630868909393993,0.0008898228262693208,-0.5050546771428809,-0.0004944454168609337,0.9999994574300581,0.0009168769379982575,0.5050552189734222,-0.0005416224954134764,0.8630868626232131,0.0026660115,0.019334318,0.090639085,-0.00016661473,-0.012029146,-0.0062280553,0.5235896,0.0001910275,-0.011351383,0.0023488896,0.9999936372258257,-0.00014657846205844307,0.003564270278452638,0.0010391788526089196,0.9677910219421411,-0.251752771495168,-0.003412567241196966,0.25175487356343357,0.9677850164276587,left_images/camera_left_27.png,right_images/camera_right_27.png
2025-05-30 16:02:21,1.5328648090362549,28,-0.03493184,-8.9047564e-05,0.11432712,-0.0011935245,0.0007923514,-0.05889922,1.0471802,0.05745423,-5.052294e-06,0.0019883644,0.8152531172825965,-0.0013845432002860623,0.5791031322667278,0.001149531910868864,0.9999990408759527,0.0007725435654864742,-0.5791036464549283,3.587898022525609e-05,0.8152539269303178,0.016858857,0.0008391319,0.112121545,0.00048423492,8.38385e-05,-0.011211635,1.0471792,-0.060939647,-9.812923e-05,0.0024163863,0.8630869069655207,0.0008894878954822067,-0.5050546503458555,-0.0004940169002256009,0.999999457578424,0.0009169461053041321,0.5050551920057775,-0.0005418986450726398,0.8630868782306134,0.0026660115,0.019334318,0.090639085,-0.00016661943,-0.012029112,-0.0062280553,0.5235896,0.0001910275,-0.011351383,0.0023488896,0.9999936372258257,-0.00014657846205844307,0.003564270278452638,0.0010391788526089196,0.9677910219421411,-0.251752771495168,-0.003412567241196966,0.25175487356343357,0.9677850164276587,left_images/camera_left_28.png,right_images/camera_right_28.png
2025-05-30 16:02:21,1.5852296352386475,29,-0.03493184,-8.904986e-05,0.11432712,-0.0011935157,0.00079236453,-0.05889922,1.0471802,0.05745423,-5.052294e-06,0.0019883644,0.8152531172825965,-0.0013845432002860623,0.5791031322667278,0.001149531910868864,0.9999990408759527,0.0007725435654864742,-0.5791036464549283,3.587898022525609e-05,0.8152539269303178,0.016858857,0.0008391379,0.112121545,0.00048418253,8.38474e-05,-0.011211635,1.0471792,-0.060939647,-9.812923e-05,0.0024163863,0.8630869069655207,0.0008894878954822067,-0.5050546503458555,-0.0004940169002256009,0.999999457578424,0.0009169461053041321,0.5050551920057775,-0.0005418986450726398,0.8630868782306134,0.0026660115,0.019334318,0.090639085,-0.00016664033,-0.012029168,-0.0062280553,0.5235896,0.00019102683,-0.011351376,0.0023488915,0.99999363734356,-0.00014660916786547013,0.0035642359838612926,0.001039201650538761,0.9677908954065754,-0.25175325783009955,-0.0034125257986235644,0.2517553599705296,0.9677848900420913,left_images/camera_left_29.png,right_images/camera_right_29.png
2025-05-30 16:02:21,1.6610944271087646,30,-0.03493184,-8.904999e-05,0.11432712,-0.001193576,0.00079236104,-0.05889922,1.0471802,0.057454243,-5.052616e-06,0.0019883951,0.8152531826565558,-0.0013847812343714986,0.5791030396650402,0.0011499046288358265,0.9999990405352444,0.0007724298901479259,-0.5791035536825005,3.618733956157658e-05,0.8152539928162115,0.016858857,0.00083914184,0.112121545,0.00048419682,8.38288e-05,-0.011211635,1.0471792,-0.060939647,-9.812923e-05,0.0024163863,0.8630869069655207,0.0008894878954822067,-0.5050546503458555,-0.0004940169002256009,0.999999457578424,0.0009169461053041321,0.5050551920057775,-0.0005418986450726398,0.8630868782306134,0.0026660115,0.019334318,0.090639085,-0.00016666044,-0.012029224,-0.0062280414,0.5235896,0.00019102158,-0.01135137,0.0023488319,0.9999936383546678,-0.00014700117451189377,0.003563936145407207,0.0010395049399633206,0.9677909398340133,-0.251753085789781,-0.0034121371123739604,0.25175518895516674,0.9677849358997455,left_images/camera_left_30.png,right_images/camera_right_30.png
2025-05-30 16:02:22,1.7205708026885986,31,-0.03493184,-8.9049136e-05,0.11432712,-0.001193569,0.00079235405,-0.05889922,1.0471802,0.057454243,-5.052616e-06,0.0019883951,0.8152531826565558,-0.0013847812343714986,0.5791030396650402,0.0011499046288358265,0.9999990405352444,0.0007724298901479259,-0.5791035536825005,3.618733956157658e-05,0.8152539928162115,0.016858857,0.00083914533,0.112121545,0.00048421114,8.381019e-05,-0.011211635,1.0471792,-0.060939647,-9.812923e-05,0.0024163863,0.8630869069655207,0.0008894878954822067,-0.5050546503458555,-0.0004940169002256009,0.999999457578424,0.0009169461053041321,0.5050551920057775,-0.0005418986450726398,0.8630868782306134,0.0026660115,0.019334318,0.090639085,-0.00016667377,-0.012029196,-0.006228027,0.5235896,0.00019102158,-0.01135137,0.0023488319,0.9999936383546678,-0.00014700117451189377,0.003563936145407207,0.0010395049399633206,0.9677909398340133,-0.251753085789781,-0.0034121371123739604,0.25175518895516674,0.9677849358997455,left_images/camera_left_31.png,right_images/camera_right_31.png
2025-05-30 16:02:22,1.7739717960357666,32,-0.03493184,-8.904826e-05,0.11432712,-0.001193562,0.00079234707,-0.05889922,1.0471802,0.057454243,-5.052616e-06,0.0019883951,0.8152531826565558,-0.0013847812343714986,0.5791030396650402,0.0011499046288358265,0.9999990405352444,0.0007724298901479259,-0.5791035536825005,3.618733956157658e-05,0.8152539928162115,0.016858857,0.0008391488,0.112121545,0.00048422546,8.379158e-05,-0.011211635,1.0471792,-0.060939647,-9.812923e-05,0.0024163863,0.8630869069655207,0.0008894878954822067,-0.5050546503458555,-0.0004940169002256009,0.999999457578424,0.0009169461053041321,0.5050551920057775,-0.0005418986450726398,0.8630868782306134,0.0026660115,0.019334318,0.090639085,-0.0001666874,-0.012029196,-0.0062280735,0.5235896,0.00019101906,-0.011351367,0.002348829,0.9999936372102752,-0.0001470008891910907,0.0035642572442252606,0.0010395858539288636,0.9677909138678492,-0.2517531852749549,-0.0034124478335567586,0.25175528877378534,0.9677849088378117,left_images/camera_left_32.png,right_images/camera_right_32.png
2025-05-30 16:02:22,1.8450360298156738,33,-0.03493184,-8.904739e-05,0.11432712,-0.0011935551,0.0007923401,-0.05889922,1.0471802,0.057454243,-5.052616e-06,0.0019883951,0.8152531826565558,-0.0013847812343714986,0.5791030396650402,0.0011499046288358265,0.9999990405352444,0.0007724298901479259,-0.5791035536825005,3.618733956157658e-05,0.8152539928162115,0.016858857,0.0008391523,0.112121545,0.00048423978,8.377297e-05,-0.011211635,1.0471792,-0.060939647,-9.8122e-05,0.0024163872,0.8630868909393993,0.0008898228262693208,-0.5050546771428809,-0.0004944454168609337,0.9999994574300581,0.0009168769379982575,0.5050552189734222,-0.0005416224954134764,0.8630868626232131,0.0026660115,0.019334318,0.090639085,-0.00016669004,-0.012029196,-0.0062280735,0.5235896,0.00019101906,-0.011351367,0.002348829,0.9999936372102752,-0.0001470008891910907,0.0035642572442252606,0.0010395858539288636,0.9677909138678492,-0.2517531852749549,-0.0034124478335567586,0.25175528877378534,0.9677849088378117,left_images/camera_left_33.png,right_images/camera_right_33.png
2025-05-30 16:02:22,1.8992266654968262,34,-0.03493184,-8.904427e-05,0.11432712,-0.0011936165,0.0007923166,-0.05889922,1.0471802,0.057454243,-5.052616e-06,0.0019883951,0.8152531826565558,-0.0013847812343714986,0.5791030396650402,0.0011499046288358265,0.9999990405352444,0.0007724298901479259,-0.5791035536825005,3.618733956157658e-05,0.8152539928162115,0.016858857,0.0008391405,0.112121545,0.00048428192,8.380408e-05,-0.011211635,1.0471792,-0.060939647,-9.8122e-05,0.0024163872,0.8630868909393993,0.0008898228262693208,-0.5050546771428809,-0.0004944454168609337,0.9999994574300581,0.0009168769379982575,0.5050552189734222,-0.0005416224954134764,0.8630868626232131,0.0026660115,0.019334318,0.090639085,-0.00016669265,-0.012029196,-0.0062280735,0.5235896,0.00019101906,-0.011351367,0.002348829,0.9999936372102752,-0.0001470008891910907,0.0035642572442252606,0.0010395858539288636,0.9677909138678492,-0.2517531852749549,-0.0034124478335567586,0.25175528877378534,0.9677849088378117,left_images/camera_left_34.png,right_images/camera_right_34.png
2025-05-30 16:02:22,1.9533123970031738,35,-0.03493184,-8.9042995e-05,0.11432712,-0.0011936096,0.00079230964,-0.05889922,1.0471802,0.057454243,-5.052616e-06,0.0019883951,0.8152531826565558,-0.0013847812343714986,0.5791030396650402,0.0011499046288358265,0.9999990405352444,0.0007724298901479259,-0.5791035536825005,3.618733956157658e-05,0.8152539928162115,0.016858857,0.0008391308,0.112121545,0.00048425747,8.386269e-05,-0.011211635,1.0471792,-0.060939647,-9.8122e-05,0.0024163872,0.8630868909393993,0.0008898228262693208,-0.5050546771428809,-0.0004944454168609337,0.9999994574300581,0.0009168769379982575,0.5050552189734222,-0.0005416224954134764,0.8630868626232131,0.0026660115,0.019334318,0.090639085,-0.00016669527,-0.012029196,-0.0062280735,0.5235896,0.00019101906,-0.011351367,0.002348829,0.9999936372102752,-0.0001470008891910907,0.0035642572442252606,0.0010395858539288636,0.9677909138678492,-0.2517531852749549,-0.0034124478335567586,0.25175528877378534,0.9677849088378117,left_images/camera_left_35.png,right_images/camera_right_35.png
2025-05-30 16:02:22,2.007862091064453,36,-0.03493184,-8.904212e-05,0.11432712,-0.0011936026,0.00079230266,-0.05889922,1.0471802,0.057454243,-5.052616e-06,0.0019883951,0.8152531826565558,-0.0013847812343714986,0.5791030396650402,0.0011499046288358265,0.9999990405352444,0.0007724298901479259,-0.5791035536825005,3.618733956157658e-05,0.8152539928162115,0.016858857,0.0008391239,0.112121545,0.000484218,8.381943e-05,-0.011211635,1.0471792,-0.060939647,-9.812923e-05,0.0024163863,0.8630869069655207,0.0008894878954822067,-0.5050546503458555,-0.0004940169002256009,0.999999457578424,0.0009169461053041321,0.5050551920057775,-0.0005418986450726398,0.8630868782306134,0.0026660115,0.019334318,0.090639085,-0.0001666979,-0.012029196,-0.0062280735,0.5235896,0.00019101906,-0.011351367,0.002348829,0.9999936372102752,-0.0001470008891910907,0.0035642572442252606,0.0010395858539288636,0.9677909138678492,-0.2517531852749549,-0.0034124478335567586,0.25175528877378534,0.9677849088378117,left_images/camera_left_36.png,right_images/camera_right_36.png
2025-05-30 16:02:22,2.0598292350769043,37,-0.03493184,-8.904125e-05,0.11432712,-0.0011935956,0.0007922957,-0.05889922,1.0471802,0.057454243,-5.052616e-06,0.0019883951,0.8152531826565558,-0.0013847812343714986,0.5791030396650402,0.0011499046288358265,0.9999990405352444,0.0007724298901479259,-0.5791035536825005,3.618733956157658e-05,0.8152539928162115,0.016858857,0.00083912676,0.112121545,0.0004842323,8.3800805e-05,-0.011211635,1.0471792,-0.060939647,-9.812923e-05,0.0024163863,0.8630869069655207,0.0008894878954822067,-0.5050546503458555,-0.0004940169002256009,0.999999457578424,0.0009169461053041321,0.5050551920057775,-0.0005418986450726398,0.8630868782306134,0.0026660115,0.019334318,0.090639085,-0.00016670051,-0.012029196,-0.0062280735,0.5235896,0.00019101906,-0.011351367,0.002348829,0.9999936372102752,-0.0001470008891910907,0.0035642572442252606,0.0010395858539288636,0.9677909138678492,-0.2517531852749549,-0.0034124478335567586,0.25175528877378534,0.9677849088378117,left_images/camera_left_37.png,right_images/camera_right_37.png
2025-05-30 16:02:22,2.1202032566070557,38,-0.03493184,-8.9040375e-05,0.11432712,-0.0011935886,0.0007922887,-0.05889922,1.0471802,0.057454243,-5.052616e-06,0.0019883951,0.8152531826565558,-0.0013847812343714986,0.5791030396650402,0.0011499046288358265,0.9999990405352444,0.0007724298901479259,-0.5791035536825005,3.618733956157658e-05,0.8152539928162115,0.016858857,0.0008391334,0.112121545,0.00048417994,8.380972e-05,-0.011211635,1.0471792,-0.060939647,-9.812923e-05,0.0024163863,0.8630869069655207,0.0008894878954822067,-0.5050546503458555,-0.0004940169002256009,0.999999457578424,0.0009169461053041321,0.5050551920057775,-0.0005418986450726398,0.8630868782306134,0.0026660115,0.019334318,0.090639085,-0.00016670313,-0.012029196,-0.0062280735,0.5235896,0.00019101906,-0.011351367,0.002348829,0.9999936372102752,-0.0001470008891910907,0.0035642572442252606,0.0010395858539288636,0.9677909138678492,-0.2517531852749549,-0.0034124478335567586,0.25175528877378534,0.9677849088378117,left_images/camera_left_38.png,right_images/camera_right_38.png
2025-05-30 16:02:22,2.1754298210144043,39,-0.03493184,-8.90395e-05,0.11432712,-0.0011935816,0.0007922817,-0.05889922,1.0471802,0.057454243,-5.052616e-06,0.0019883951,0.8152531826565558,-0.0013847812343714986,0.5791030396650402,0.0011499046288358265,0.9999990405352444,0.0007724298901479259,-0.5791035536825005,3.618733956157658e-05,0.8152539928162115,0.016858857,0.00083913736,0.112121545,0.00048419423,8.379112e-05,-0.011211635,1.0471792,-0.060939647,-9.812923e-05,0.0024163863,0.8630869069655207,0.0008894878954822067,-0.5050546503458555,-0.0004940169002256009,0.999999457578424,0.0009169461053041321,0.5050551920057775,-0.0005418986450726398,0.8630868782306134,0.0026660115,0.019334318,0.090639085,-0.00016670575,-0.012029196,-0.0062280735,0.5235896,0.00019101906,-0.011351367,0.002348829,0.9999936372102752,-0.0001470008891910907,0.0035642572442252606,0.0010395858539288636,0.9677909138678492,-0.2517531852749549,-0.0034124478335567586,0.25175528877378534,0.9677849088378117,left_images/camera_left_39.png,right_images/camera_right_39.png
2025-05-30 16:02:22,2.237825393676758,40,-0.03493184,-8.903863e-05,0.11432712,-0.0011935746,0.0007922747,-0.05889922,1.0471802,0.057454243,-5.052616e-06,0.0019883951,0.8152531826565558,-0.0013847812343714986,0.5791030396650402,0.0011499046288358265,0.9999990405352444,0.0007724298901479259,-0.5791035536825005,3.618733956157658e-05,0.8152539928162115,0.016858857,0.00083914085,0.112121545,0.00048420855,8.377251e-05,-0.011211635,1.0471792,-0.060939647,-9.812923e-05,0.0024163863,0.8630869069655207,0.0008894878954822067,-0.5050546503458555,-0.0004940169002256009,0.999999457578424,0.0009169461053041321,0.5050551920057775,-0.0005418986450726398,0.8630868782306134,0.0026660115,0.019334318,0.090639085,-0.00016670837,-0.012029196,-0.0062280735,0.5235896,0.00019101906,-0.011351367,0.002348829,0.9999936372102752,-0.0001470008891910907,0.0035642572442252606,0.0010395858539288636,0.9677909138678492,-0.2517531852749549,-0.0034124478335567586,0.25175528877378534,0.9677849088378117,left_images/camera_left_40.png,right_images/camera_right_40.png
2025-05-30 16:02:22,2.305028200149536,41,-0.03493184,-8.9037756e-05,0.11432712,-0.0011935676,0.00079226773,-0.05889922,1.0471802,0.057454243,-5.052616e-06,0.0019883951,0.8152531826565558,-0.0013847812343714986,0.5791030396650402,0.0011499046288358265,0.9999990405352444,0.0007724298901479259,-0.5791035536825005,3.618733956157658e-05,0.8152539928162115,0.016858857,0.00083914434,0.112121545,0.00048422287,8.37539e-05,-0.011211635,1.0471792,-0.060939647,-9.812923e-05,0.0024163863,0.8630869069655207,0.0008894878954822067,-0.5050546503458555,-0.0004940169002256009,0.999999457578424,0.0009169461053041321,0.5050551920057775,-0.0005418986450726398,0.8630868782306134,0.0026660115,0.019334318,0.090639085,-0.00016671099,-0.012029196,-0.0062280735,0.5235896,0.00019101906,-0.011351367,0.002348829,0.9999936372102752,-0.0001470008891910907,0.0035642572442252606,0.0010395858539288636,0.9677909138678492,-0.2517531852749549,-0.0034124478335567586,0.25175528877378534,0.9677849088378117,left_images/camera_left_41.png,right_images/camera_right_41.png
2025-05-30 16:02:22,2.371589183807373,42,-0.03493184,-8.903688e-05,0.11432712,-0.0011935607,0.00079226075,-0.05889922,1.0471802,0.057454243,-5.052616e-06,0.0019883951,0.8152531826565558,-0.0013847812343714986,0.5791030396650402,0.0011499046288358265,0.9999990405352444,0.0007724298901479259,-0.5791035536825005,3.618733956157658e-05,0.8152539928162115,0.016858857,0.00083914783,0.112121545,0.00048423719,8.3735285e-05,-0.011211635,1.0471792,-0.060939647,-9.812923e-05,0.0024163863,0.8630869069655207,0.0008894878954822067,-0.5050546503458555,-0.0004940169002256009,0.999999457578424,0.0009169461053041321,0.5050551920057775,-0.0005418986450726398,0.8630868782306134,0.0026660115,0.019334318,0.090639085,-0.00016671361,-0.012029196,-0.0062280735,0.5235896,0.00019101906,-0.011351367,0.002348829,0.9999936372102752,-0.0001470008891910907,0.0035642572442252606,0.0010395858539288636,0.9677909138678492,-0.2517531852749549,-0.0034124478335567586,0.25175528877378534,0.9677849088378117,left_images/camera_left_42.png,right_images/camera_right_42.png
2025-05-30 16:02:22,2.436408758163452,43,-0.03493184,-8.903601e-05,0.11432712,-0.0011935537,0.00079225376,-0.05889922,1.0471802,0.05745423,-5.052294e-06,0.0019883644,0.8152531172825965,-0.0013845432002860623,0.5791031322667278,0.001149531910868864,0.9999990408759527,0.0007725435654864742,-0.5791036464549283,3.587898022525609e-05,0.8152539269303178,0.016858857,0.00083915447,0.112121545,0.00048418483,8.37442e-05,-0.011211635,1.0471792,-0.060939647,-9.812923e-05,0.0024163863,0.8630869069655207,0.0008894878954822067,-0.5050546503458555,-0.0004940169002256009,0.999999457578424,0.0009169461053041321,0.5050551920057775,-0.0005418986450726398,0.8630868782306134,0.0026660115,0.019334318,0.090639085,-0.00016671623,-0.012029196,-0.0062280735,0.5235896,0.00019101906,-0.011351367,0.002348829,0.9999936372102752,-0.0001470008891910907,0.0035642572442252606,0.0010395858539288636,0.9677909138678492,-0.2517531852749549,-0.0034124478335567586,0.25175528877378534,0.9677849088378117,left_images/camera_left_43.png,right_images/camera_right_43.png
2025-05-30 16:02:22,2.492922782897949,44,-0.03493184,-8.903793e-05,0.11432712,-0.001193545,0.0007922669,-0.05889922,1.0471802,0.05745423,-5.052294e-06,0.0019883644,0.8152531172825965,-0.0013845432002860623,0.5791031322667278,0.001149531910868864,0.9999990408759527,0.0007725435654864742,-0.5791036464549283,3.587898022525609e-05,0.8152539269303178,0.016858857,0.0008391584,0.112121545,0.00048419912,8.37256e-05,-0.011211635,1.0471792,-0.060939647,-9.812923e-05,0.0024163863,0.8630869069655207,0.0008894878954822067,-0.5050546503458555,-0.0004940169002256009,0.999999457578424,0.0009169461053041321,0.5050551920057775,-0.0005418986450726398,0.8630868782306134,0.0026660115,0.019334318,0.090639085,-0.00016671885,-0.012029196,-0.0062280735,0.5235896,0.00019101906,-0.011351367,0.002348829,0.9999936372102752,-0.0001470008891910907,0.0035642572442252606,0.0010395858539288636,0.9677909138678492,-0.2517531852749549,-0.0034124478335567586,0.25175528877378534,0.9677849088378117,left_images/camera_left_44.png,right_images/camera_right_44.png
2025-05-30 16:02:22,2.560725450515747,45,-0.03493184,-8.904023e-05,0.11432712,-0.0011935362,0.0007922801,-0.05889922,1.0471802,0.05745423,-5.052294e-06,0.0019883644,0.8152531172825965,-0.0013845432002860623,0.5791031322667278,0.001149531910868864,0.9999990408759527,0.0007725435654864742,-0.5791036464549283,3.587898022525609e-05,0.8152539269303178,0.016858857,0.0008391619,0.112121545,0.00048421344,8.370699e-05,-0.011211635,1.0471792,-0.060939647,-9.812923e-05,0.0024163863,0.8630869069655207,0.0008894878954822067,-0.5050546503458555,-0.0004940169002256009,0.999999457578424,0.0009169461053041321,0.5050551920057775,-0.0005418986450726398,0.8630868782306134,0.0026660115,0.019334318,0.090639085,-0.00016672147,-0.012029196,-0.0062280735,0.5235896,0.00019101906,-0.011351367,0.002348829,0.9999936372102752,-0.0001470008891910907,0.0035642572442252606,0.0010395858539288636,0.9677909138678492,-0.2517531852749549,-0.0034124478335567586,0.25175528877378534,0.9677849088378117,left_images/camera_left_45.png,right_images/camera_right_45.png
2025-05-30 16:02:22,2.608489513397217,46,-0.03493184,-8.904253e-05,0.11432712,-0.0011935275,0.0007922932,-0.05889922,1.0471802,0.05745423,-5.052294e-06,0.0019883644,0.8152531172825965,-0.0013845432002860623,0.5791031322667278,0.001149531910868864,0.9999990408759527,0.0007725435654864742,-0.5791036464549283,3.587898022525609e-05,0.8152539269303178,0.016858857,0.0008391654,0.112121545,0.00048422776,8.368838e-05,-0.011211635,1.0471792,-0.060939647,-9.812923e-05,0.0024163863,0.8630869069655207,0.0008894878954822067,-0.5050546503458555,-0.0004940169002256009,0.999999457578424,0.0009169461053041321,0.5050551920057775,-0.0005418986450726398,0.8630868782306134,0.0026660115,0.019334318,0.090639085,-0.00016672409,-0.012029196,-0.0062280735,0.5235896,0.00019101906,-0.011351367,0.002348829,0.9999936372102752,-0.0001470008891910907,0.0035642572442252606,0.0010395858539288636,0.9677909138678492,-0.2517531852749549,-0.0034124478335567586,0.25175528877378534,0.9677849088378117,left_images/camera_left_46.png,right_images/camera_right_46.png
2025-05-30 16:02:22,2.6662607192993164,47,-0.03493184,-8.904483e-05,0.11432712,-0.0011935188,0.0007923064,-0.05889922,1.0471802,0.05745423,-5.052294e-06,0.0019883644,0.8152531172825965,-0.0013845432002860623,0.5791031322667278,0.001149531910868864,0.9999990408759527,0.0007725435654864742,-0.5791036464549283,3.587898022525609e-05,0.8152539269303178,0.016858857,0.0008391689,0.112121545,0.00048424207,8.3669765e-05,-0.011211635,1.0471792,-0.060939647,-9.8122e-05,0.0024163872,0.8630868909393993,0.0008898228262693208,-0.5050546771428809,-0.0004944454168609337,0.9999994574300581,0.0009168769379982575,0.5050552189734222,-0.0005416224954134764,0.8630868626232131,0.0026660115,0.019334318,0.090639085,-0.0001667267,-0.012029196,-0.0062280735,0.5235896,0.00019101906,-0.011351367,0.002348829,0.9999936372102752,-0.0001470008891910907,0.0035642572442252606,0.0010395858539288636,0.9677909138678492,-0.2517531852749549,-0.0034124478335567586,0.25175528877378534,0.9677849088378117,left_images/camera_left_47.png,right_images/camera_right_47.png
2025-05-30 16:02:23,2.7211480140686035,48,-0.03493184,-8.904495e-05,0.11432712,-0.001193579,0.0007923029,-0.05889922,1.0471802,0.057454243,-5.052616e-06,0.0019883951,0.8152531826565558,-0.0013847812343714986,0.5791030396650402,0.0011499046288358265,0.9999990405352444,0.0007724298901479259,-0.5791035536825005,3.618733956157658e-05,0.8152539928162115,0.016858857,0.0008391571,0.112121545,0.00048428422,8.370088e-05,-0.011211635,1.0471792,-0.060939647,-9.8122e-05,0.0024163872,0.8630868909393993,0.0008898228262693208,-0.5050546771428809,-0.0004944454168609337,0.9999994574300581,0.0009168769379982575,0.5050552189734222,-0.0005416224954134764,0.8630868626232131,0.0026660115,0.019334318,0.090639085,-0.00016672933,-0.012029196,-0.0062280735,0.5235896,0.00019101906,-0.011351367,0.002348829,0.9999936372102752,-0.0001470008891910907,0.0035642572442252606,0.0010395858539288636,0.9677909138678492,-0.2517531852749549,-0.0034124478335567586,0.25175528877378534,0.9677849088378117,left_images/camera_left_48.png,right_images/camera_right_48.png
2025-05-30 16:02:23,2.7827587127685547,49,-0.03493184,-8.90441e-05,0.11432712,-0.0011935721,0.0007922959,-0.05889922,1.0471802,0.057454243,-5.052616e-06,0.0019883951,0.8152531826565558,-0.0013847812343714986,0.5791030396650402,0.0011499046288358265,0.9999990405352444,0.0007724298901479259,-0.5791035536825005,3.618733956157658e-05,0.8152539928162115,0.016858857,0.00083914737,0.112121545,0.00048425977,8.3759485e-05,-0.011211635,1.0471792,-0.060939647,-9.8122e-05,0.0024163872,0.8630868909393993,0.0008898228262693208,-0.5050546771428809,-0.0004944454168609337,0.9999994574300581,0.0009168769379982575,0.5050552189734222,-0.0005416224954134764,0.8630868626232131,0.0026660115,0.019334318,0.090639085,-0.00016673194,-0.012029196,-0.0062280735,0.5235896,0.00019101906,-0.011351367,0.002348829,0.9999936372102752,-0.0001470008891910907,0.0035642572442252606,0.0010395858539288636,0.9677909138678492,-0.2517531852749549,-0.0034124478335567586,0.25175528877378534,0.9677849088378117,left_images/camera_left_49.png,right_images/camera_right_49.png
2025-05-30 16:02:23,2.840125322341919,50,-0.03493184,-8.904323e-05,0.11432712,-0.0011935651,0.0007922889,-0.05889922,1.0471802,0.057454243,-5.052616e-06,0.0019883951,0.8152531826565558,-0.0013847812343714986,0.5791030396650402,0.0011499046288358265,0.9999990405352444,0.0007724298901479259,-0.5791035536825005,3.618733956157658e-05,0.8152539928162115,0.016858857,0.00083913794,0.112121545,0.00048423532,8.38181e-05,-0.011211635,1.0471792,-0.060939647,-9.812923e-05,0.0024163863,0.8630869069655207,0.0008894878954822067,-0.5050546503458555,-0.0004940169002256009,0.999999457578424,0.0009169461053041321,0.5050551920057775,-0.0005418986450726398,0.8630868782306134,0.0026660115,0.019334318,0.090639085,-0.00016673456,-0.012029196,-0.0062280735,0.5235896,0.00019101906,-0.011351367,0.002348829,0.9999936372102752,-0.0001470008891910907,0.0035642572442252606,0.0010395858539288636,0.9677909138678492,-0.2517531852749549,-0.0034124478335567586,0.25175528877378534,0.9677849088378117,left_images/camera_left_50.png,right_images/camera_right_50.png
2025-05-30 16:02:23,2.914494037628174,51,-0.03493184,-8.9042354e-05,0.11432712,-0.0011935581,0.00079228193,-0.05889922,1.0471802,0.057454243,-5.052616e-06,0.0019883951,0.8152531826565558,-0.0013847812343714986,0.5791030396650402,0.0011499046288358265,0.9999990405352444,0.0007724298901479259,-0.5791035536825005,3.618733956157658e-05,0.8152539928162115,0.016858857,0.00083914364,0.112121545,0.00048418297,8.382703e-05,-0.011211635,1.0471792,-0.060939647,-9.812923e-05,0.0024163863,0.8630869069655207,0.0008894878954822067,-0.5050546503458555,-0.0004940169002256009,0.999999457578424,0.0009169461053041321,0.5050551920057775,-0.0005418986450726398,0.8630868782306134,0.0026660115,0.019334318,0.090639085,-0.00016673718,-0.012029196,-0.0062280735,0.5235896,0.00019101906,-0.011351367,0.002348829,0.9999936372102752,-0.0001470008891910907,0.0035642572442252606,0.0010395858539288636,0.9677909138678492,-0.2517531852749549,-0.0034124478335567586,0.25175528877378534,0.9677849088378117,left_images/camera_left_51.png,right_images/camera_right_51.png
2025-05-30 16:02:23,2.9801294803619385,52,-0.03493184,-8.904148e-05,0.11432712,-0.0011935511,0.00079227495,-0.05889922,1.0471802,0.05745423,-5.052294e-06,0.0019883644,0.8152531172825965,-0.0013845432002860623,0.5791031322667278,0.001149531910868864,0.9999990408759527,0.0007725435654864742,-0.5791036464549283,3.587898022525609e-05,0.8152539269303178,0.016858857,0.0008391476,0.112121545,0.00048419725,8.380843e-05,-0.011211635,1.0471792,-0.060939647,-9.812923e-05,0.0024163863,0.8630869069655207,0.0008894878954822067,-0.5050546503458555,-0.0004940169002256009,0.999999457578424,0.0009169461053041321,0.5050551920057775,-0.0005418986450726398,0.8630868782306134,0.0026660115,0.019334318,0.090639085,-0.0001667398,-0.012029196,-0.0062280735,0.5235896,0.00019101906,-0.011351367,0.002348829,0.9999936372102752,-0.0001470008891910907,0.0035642572442252606,0.0010395858539288636,0.9677909138678492,-0.2517531852749549,-0.0034124478335567586,0.25175528877378534,0.9677849088378117,left_images/camera_left_52.png,right_images/camera_right_52.png
2025-05-30 16:02:23,3.047362804412842,53,-0.03493184,-8.90434e-05,0.11432712,-0.0011935424,0.0007922881,-0.05889922,1.0471802,0.05745423,-5.052294e-06,0.0019883644,0.8152531172825965,-0.0013845432002860623,0.5791031322667278,0.001149531910868864,0.9999990408759527,0.0007725435654864742,-0.5791036464549283,3.587898022525609e-05,0.8152539269303178,0.016858857,0.0008391511,0.112121545,0.00048421157,8.378982e-05,-0.011211635,1.0471792,-0.060939647,-9.812923e-05,0.0024163863,0.8630869069655207,0.0008894878954822067,-0.5050546503458555,-0.0004940169002256009,0.999999457578424,0.0009169461053041321,0.5050551920057775,-0.0005418986450726398,0.8630868782306134,0.0026660115,0.019334318,0.090639085,-0.00016674242,-0.012029196,-0.0062280735,0.5235896,0.00019101906,-0.011351367,0.002348829,0.9999936372102752,-0.0001470008891910907,0.0035642572442252606,0.0010395858539288636,0.9677909138678492,-0.2517531852749549,-0.0034124478335567586,0.25175528877378534,0.9677849088378117,left_images/camera_left_53.png,right_images/camera_right_53.png
2025-05-30 16:02:23,3.100550889968872,54,-0.03493184,-8.90457e-05,0.11432712,-0.0011935337,0.00079230126,-0.05889922,1.0471802,0.05745423,-5.052294e-06,0.0019883644,0.8152531172825965,-0.0013845432002860623,0.5791031322667278,0.001149531910868864,0.9999990408759527,0.0007725435654864742,-0.5791036464549283,3.587898022525609e-05,0.8152539269303178,0.016858857,0.0008391546,0.112121545,0.0004842259,8.377121e-05,-0.011211635,1.0471792,-0.060939647,-9.812923e-05,0.0024163863,0.8630869069655207,0.0008894878954822067,-0.5050546503458555,-0.0004940169002256009,0.999999457578424,0.0009169461053041321,0.5050551920057775,-0.0005418986450726398,0.8630868782306134,0.0026660115,0.019334318,0.090639085,-0.00016674504,-0.012029196,-0.0062280735,0.5235896,0.00019101906,-0.011351367,0.002348829,0.9999936372102752,-0.0001470008891910907,0.0035642572442252606,0.0010395858539288636,0.9677909138678492,-0.2517531852749549,-0.0034124478335567586,0.25175528877378534,0.9677849088378117,left_images/camera_left_54.png,right_images/camera_right_54.png
2025-05-30 16:02:23,3.1485798358917236,55,-0.03493184,-8.9048e-05,0.11432712,-0.0011935249,0.0007923144,-0.05889922,1.0471802,0.05745423,-5.052294e-06,0.0019883644,0.8152531172825965,-0.0013845432002860623,0.5791031322667278,0.001149531910868864,0.9999990408759527,0.0007725435654864742,-0.5791036464549283,3.587898022525609e-05,0.8152539269303178,0.016858857,0.0008391581,0.112121545,0.0004842402,8.3752595e-05,-0.011211635,1.0471792,-0.060939647,-9.8122e-05,0.0024163872,0.8630868909393993,0.0008898228262693208,-0.5050546771428809,-0.0004944454168609337,0.9999994574300581,0.0009168769379982575,0.5050552189734222,-0.0005416224954134764,0.8630868626232131,0.0026660115,0.019334318,0.090639085,-0.00016674766,-0.012029196,-0.0062280735,0.5235896,0.00019101906,-0.011351367,0.002348829,0.9999936372102752,-0.0001470008891910907,0.0035642572442252606,0.0010395858539288636,0.9677909138678492,-0.2517531852749549,-0.0034124478335567586,0.25175528877378534,0.9677849088378117,left_images/camera_left_55.png,right_images/camera_right_55.png
2025-05-30 16:02:23,3.1989758014678955,56,-0.03493184,-8.90503e-05,0.11432712,-0.0011935162,0.00079232757,-0.05889922,1.0471802,0.05745423,-5.052294e-06,0.0019883644,0.8152531172825965,-0.0013845432002860623,0.5791031322667278,0.001149531910868864,0.9999990408759527,0.0007725435654864742,-0.5791036464549283,3.587898022525609e-05,0.8152539269303178,0.016858857,0.00083914626,0.112121545,0.00048428235,8.378371e-05,-0.011211635,1.0471792,-0.060939647,-9.8122e-05,0.0024163872,0.8630868909393993,0.0008898228262693208,-0.5050546771428809,-0.0004944454168609337,0.9999994574300581,0.0009168769379982575,0.5050552189734222,-0.0005416224954134764,0.8630868626232131,0.0026660115,0.019334318,0.090639085,-0.00016675028,-0.012029196,-0.0062280735,0.5235896,0.00019101906,-0.011351367,0.002348829,0.9999936372102752,-0.0001470008891910907,0.0035642572442252606,0.0010395858539288636,0.9677909138678492,-0.2517531852749549,-0.0034124478335567586,0.25175528877378534,0.9677849088378117,left_images/camera_left_56.png,right_images/camera_right_56.png
2025-05-30 16:02:23,3.250810146331787,57,-0.03493184,-8.905042e-05,0.11432712,-0.0011935765,0.0007923241,-0.05889922,1.0471802,0.057454243,-5.052616e-06,0.0019883951,0.8152531826565558,-0.0013847812343714986,0.5791030396650402,0.0011499046288358265,0.9999990405352444,0.0007724298901479259,-0.5791035536825005,3.618733956157658e-05,0.8152539928162115,0.016858857,0.00083913654,0.112121545,0.0004842579,8.3842315e-05,-0.011211635,1.0471792,-0.060939647,-9.8122e-05,0.0024163872,0.8630868909393993,0.0008898228262693208,-0.5050546771428809,-0.0004944454168609337,0.9999994574300581,0.0009168769379982575,0.5050552189734222,-0.0005416224954134764,0.8630868626232131,0.0026660115,0.019334318,0.090639085,-0.0001667529,-0.012029196,-0.0062280735,0.5235896,0.00019101906,-0.011351367,0.002348829,0.9999936372102752,-0.0001470008891910907,0.0035642572442252606,0.0010395858539288636,0.9677909138678492,-0.2517531852749549,-0.0034124478335567586,0.25175528877378534,0.9677849088378117,left_images/camera_left_57.png,right_images/camera_right_57.png
2025-05-30 16:02:23,3.3008012771606445,58,-0.03493184,-8.904957e-05,0.11432712,-0.0011935695,0.0007923171,-0.05889922,1.0471802,0.057454243,-5.052616e-06,0.0019883951,0.8152531826565558,-0.0013847812343714986,0.5791030396650402,0.0011499046288358265,0.9999990405352444,0.0007724298901479259,-0.5791035536825005,3.618733956157658e-05,0.8152539928162115,0.016858857,0.0008391271,0.112121545,0.00048423346,8.390093e-05,-0.011211635,1.0471792,-0.060939647,-9.813764e-05,0.0024163872,0.8630868778075241,0.0008897715451596387,-0.5050546996742604,-0.00049409098285974,0.9999994571428936,0.0009173810652398555,0.5050552417612955,-0.0005422365863976214,0.8630868489027763,0.0026660115,0.019334318,0.090639085,-0.00016675552,-0.012029196,-0.0062280735,0.5235896,0.00019101906,-0.011351367,0.002348829,0.9999936372102752,-0.0001470008891910907,0.0035642572442252606,0.0010395858539288636,0.9677909138678492,-0.2517531852749549,-0.0034124478335567586,0.25175528877378534,0.9677849088378117,left_images/camera_left_58.png,right_images/camera_right_58.png
2025-05-30 16:02:23,3.3539366722106934,59,-0.03493184,-8.90487e-05,0.11432712,-0.0011935625,0.0007923101,-0.05889922,1.0471802,0.057454243,-5.052616e-06,0.0019883951,0.8152531826565558,-0.0013847812343714986,0.5791030396650402,0.0011499046288358265,0.9999990405352444,0.0007724298901479259,-0.5791035536825005,3.618733956157658e-05,0.8152539928162115,0.016858857,0.0008391297,0.112121545,0.00048421833,8.388198e-05,-0.0112116905,1.0471792,-0.060939647,-9.812923e-05,0.0024163863,0.8630869069655207,0.0008894878954822067,-0.5050546503458555,-0.0004940169002256009,0.999999457578424,0.0009169461053041321,0.5050551920057775,-0.0005418986450726398,0.8630868782306134,0.0026660115,0.019334318,0.090639085,-0.00016675814,-0.012029196,-0.0062280735,0.5235896,0.00019101906,-0.011351367,0.002348829,0.9999936372102752,-0.0001470008891910907,0.0035642572442252606,0.0010395858539288636,0.9677909138678492,-0.2517531852749549,-0.0034124478335567586,0.25175528877378534,0.9677849088378117,left_images/camera_left_59.png,right_images/camera_right_59.png
2025-05-30 16:02:23,3.40609073638916,60,-0.03493184,-8.9047826e-05,0.11432712,-0.0011935555,0.0007923031,-0.05889922,1.0471802,0.057454243,-5.052616e-06,0.0019883951,0.8152531826565558,-0.0013847812343714986,0.5791030396650402,0.0011499046288358265,0.9999990405352444,0.0007724298901479259,-0.5791035536825005,3.618733956157658e-05,0.8152539928162115,0.016858857,0.00083913316,0.112121545,0.00048423265,8.386337e-05,-0.0112116905,1.0471792,-0.060939647,-9.812923e-05,0.0024163863,0.8630869069655207,0.0008894878954822067,-0.5050546503458555,-0.0004940169002256009,0.999999457578424,0.0009169461053041321,0.5050551920057775,-0.0005418986450726398,0.8630868782306134,0.0026660115,0.019334318,0.090639085,-0.00016676076,-0.012029196,-0.0062280735,0.5235896,0.00019101906,-0.011351367,0.002348829,0.9999936372102752,-0.0001470008891910907,0.0035642572442252606,0.0010395858539288636,0.9677909138678492,-0.2517531852749549,-0.0034124478335567586,0.25175528877378534,0.9677849088378117,left_images/camera_left_60.png,right_images/camera_right_60.png
2025-05-30 16:02:23,3.4703402519226074,61,-0.03493184,-8.9044705e-05,0.11432712,-0.001193617,0.00079227966,-0.05889922,1.0471802,0.057454243,-5.052616e-06,0.0019883951,0.8152531826565558,-0.0013847812343714986,0.5791030396650402,0.0011499046288358265,0.9999990405352444,0.0007724298901479259,-0.5791035536825005,3.618733956157658e-05,0.8152539928162115,0.016858857,0.0008391398,0.112121545,0.0004841803,8.3872284e-05,-0.0112116905,1.0471792,-0.060939647,-9.812923e-05,0.0024163863,0.8630869069655207,0.0008894878954822067,-0.5050546503458555,-0.0004940169002256009,0.999999457578424,0.0009169461053041321,0.5050551920057775,-0.0005418986450726398,0.8630868782306134,0.0026660115,0.019334318,0.090639085,-0.00016676338,-0.012029196,-0.0062280735,0.5235896,0.00019101906,-0.011351367,0.002348829,0.9999936372102752,-0.0001470008891910907,0.0035642572442252606,0.0010395858539288636,0.9677909138678492,-0.2517531852749549,-0.0034124478335567586,0.25175528877378534,0.9677849088378117,left_images/camera_left_61.png,right_images/camera_right_61.png
2025-05-30 16:02:23,3.520625591278076,62,-0.03493184,-8.904343e-05,0.11432712,-0.00119361,0.0007922727,-0.05889922,1.0471802,0.057454243,-5.052616e-06,0.0019883951,0.8152531826565558,-0.0013847812343714986,0.5791030396650402,0.0011499046288358265,0.9999990405352444,0.0007724298901479259,-0.5791035536825005,3.618733956157658e-05,0.8152539928162115,0.016858857,0.00083914376,0.112121545,0.00048419458,8.385369e-05,-0.0112116905,1.0471792,-0.060939647,-9.812923e-05,0.0024163863,0.8630869069655207,0.0008894878954822067,-0.5050546503458555,-0.0004940169002256009,0.999999457578424,0.0009169461053041321,0.5050551920057775,-0.0005418986450726398,0.8630868782306134,0.0026660115,0.019334318,0.090639085,-0.000166766,-0.012029196,-0.0062280735,0.5235896,0.00019101906,-0.011351367,0.002348829,0.9999936372102752,-0.0001470008891910907,0.0035642572442252606,0.0010395858539288636,0.9677909138678492,-0.2517531852749549,-0.0034124478335567586,0.25175528877378534,0.9677849088378117,left_images/camera_left_62.png,right_images/camera_right_62.png
2025-05-30 16:02:23,3.5722224712371826,63,-0.03493184,-8.904256e-05,0.11432712,-0.001193603,0.0007922657,-0.05889922,1.0471802,0.057454243,-5.052616e-06,0.0019883951,0.8152531826565558,-0.0013847812343714986,0.5791030396650402,0.0011499046288358265,0.9999990405352444,0.0007724298901479259,-0.5791035536825005,3.618733956157658e-05,0.8152539928162115,0.016858857,0.00083914725,0.112121545,0.0004842089,8.3835075e-05,-0.0112116905,1.0471792,-0.060939647,-9.812923e-05,0.0024163863,0.8630869069655207,0.0008894878954822067,-0.5050546503458555,-0.0004940169002256009,0.999999457578424,0.0009169461053041321,0.5050551920057775,-0.0005418986450726398,0.8630868782306134,0.0026660115,0.019334318,0.090639085,-0.00016676862,-0.012029196,-0.0062280735,0.5235896,0.00019101906,-0.011351367,0.002348829,0.9999936372102752,-0.0001470008891910907,0.0035642572442252606,0.0010395858539288636,0.9677909138678492,-0.2517531852749549,-0.0034124478335567586,0.25175528877378534,0.9677849088378117,left_images/camera_left_63.png,right_images/camera_right_63.png
2025-05-30 16:02:23,3.63576602935791,64,-0.03493184,-8.9041685e-05,0.11432712,-0.001193596,0.0007922587,-0.05889922,1.0471802,0.057454243,-5.052616e-06,0.0019883951,0.8152531826565558,-0.0013847812343714986,0.5791030396650402,0.0011499046288358265,0.9999990405352444,0.0007724298901479259,-0.5791035536825005,3.618733956157658e-05,0.8152539928162115,0.016858857,0.00083915074,0.112121545,0.00048422322,8.381646e-05,-0.0112116905,1.0471792,-0.060939647,-9.812923e-05,0.0024163863,0.8630869069655207,0.0008894878954822067,-0.5050546503458555,-0.0004940169002256009,0.999999457578424,0.0009169461053041321,0.5050551920057775,-0.0005418986450726398,0.8630868782306134,0.0026660115,0.019334318,0.090639085,-0.00016677123,-0.012029196,-0.0062280735,0.5235896,0.00019101906,-0.011351367,0.002348829,0.9999936372102752,-0.0001470008891910907,0.0035642572442252606,0.0010395858539288636,0.9677909138678492,-0.2517531852749549,-0.0034124478335567586,0.25175528877378534,0.9677849088378117,left_images/camera_left_64.png,right_images/camera_right_64.png
2025-05-30 16:02:23,3.6883416175842285,65,-0.03493184,-8.904081e-05,0.11432712,-0.0011935891,0.0007922517,-0.05889922,1.0471802,0.057454243,-5.052616e-06,0.0019883951,0.8152531826565558,-0.0013847812343714986,0.5791030396650402,0.0011499046288358265,0.9999990405352444,0.0007724298901479259,-0.5791035536825005,3.618733956157658e-05,0.8152539928162115,0.016858857,0.00083915424,0.112121545,0.00048423753,8.379785e-05,-0.0112116905,1.0471792,-0.060939647,-9.812923e-05,0.0024163863,0.8630869069655207,0.0008894878954822067,-0.5050546503458555,-0.0004940169002256009,0.999999457578424,0.0009169461053041321,0.5050551920057775,-0.0005418986450726398,0.8630868782306134,0.0026660115,0.019334318,0.090639085,-0.00016677385,-0.012029196,-0.0062280735,0.5235896,0.00019101906,-0.011351367,0.002348829,0.9999936372102752,-0.0001470008891910907,0.0035642572442252606,0.0010395858539288636,0.9677909138678492,-0.2517531852749549,-0.0034124478335567586,0.25175528877378534,0.9677849088378117,left_images/camera_left_65.png,right_images/camera_right_65.png
2025-05-30 16:02:24,3.7586922645568848,66,-0.03493184,-8.903994e-05,0.11432712,-0.0011935821,0.00079224474,-0.05889922,1.0471802,0.057454243,-5.052616e-06,0.0019883951,0.8152531826565558,-0.0013847812343714986,0.5791030396650402,0.0011499046288358265,0.9999990405352444,0.0007724298901479259,-0.5791035536825005,3.618733956157658e-05,0.8152539928162115,0.016858857,0.0008391609,0.112121545,0.00048418518,8.3806764e-05,-0.0112116905,1.0471792,-0.060939647,-9.812923e-05,0.0024163863,0.8630869069655207,0.0008894878954822067,-0.5050546503458555,-0.0004940169002256009,0.999999457578424,0.0009169461053041321,0.5050551920057775,-0.0005418986450726398,0.8630868782306134,0.0026660115,0.019334318,0.090639085,-0.00016677647,-0.012029196,-0.0062280735,0.5235896,0.00019101906,-0.011351367,0.002348829,0.9999936372102752,-0.0001470008891910907,0.0035642572442252606,0.0010395858539288636,0.9677909138678492,-0.2517531852749549,-0.0034124478335567586,0.25175528877378534,0.9677849088378117,left_images/camera_left_66.png,right_images/camera_right_66.png
2025-05-30 16:02:24,3.8116979598999023,67,-0.03493184,-8.9039066e-05,0.11432712,-0.0011935751,0.00079223776,-0.05889922,1.0471802,0.057454243,-5.052616e-06,0.0019883951,0.8152531826565558,-0.0013847812343714986,0.5791030396650402,0.0011499046288358265,0.9999990405352444,0.0007724298901479259,-0.5791035536825005,3.618733956157658e-05,0.8152539928162115,0.016858857,0.00083916483,0.112121545,0.00048419947,8.378817e-05,-0.0112116905,1.0471792,-0.060939647,-9.812923e-05,0.0024163863,0.8630869069655207,0.0008894878954822067,-0.5050546503458555,-0.0004940169002256009,0.999999457578424,0.0009169461053041321,0.5050551920057775,-0.0005418986450726398,0.8630868782306134,0.0026660115,0.019334318,0.090639085,-0.0001667791,-0.012029196,-0.0062280735,0.5235896,0.00019101906,-0.011351367,0.002348829,0.9999936372102752,-0.0001470008891910907,0.0035642572442252606,0.0010395858539288636,0.9677909138678492,-0.2517531852749549,-0.0034124478335567586,0.25175528877378534,0.9677849088378117,left_images/camera_left_67.png,right_images/camera_right_67.png
2025-05-30 16:02:24,3.8792884349823,68,-0.03493184,-8.903819e-05,0.11432712,-0.0011935681,0.00079223077,-0.05889922,1.0471802,0.057454243,-5.052616e-06,0.0019883951,0.8152531826565558,-0.0013847812343714986,0.5791030396650402,0.0011499046288358265,0.9999990405352444,0.0007724298901479259,-0.5791035536825005,3.618733956157658e-05,0.8152539928162115,0.016858857,0.0008391683,0.112121545,0.0004842138,8.3769555e-05,-0.0112116905,1.0471792,-0.060939647,-9.812923e-05,0.0024163863,0.8630869069655207,0.0008894878954822067,-0.5050546503458555,-0.0004940169002256009,0.999999457578424,0.0009169461053041321,0.5050551920057775,-0.0005418986450726398,0.8630868782306134,0.0026660115,0.019334318,0.090639085,-0.00016678171,-0.012029196,-0.0062280735,0.5235896,0.00019101906,-0.011351367,0.002348829,0.9999936372102752,-0.0001470008891910907,0.0035642572442252606,0.0010395858539288636,0.9677909138678492,-0.2517531852749549,-0.0034124478335567586,0.25175528877378534,0.9677849088378117,left_images/camera_left_68.png,right_images/camera_right_68.png
2025-05-30 16:02:24,3.942580223083496,69,-0.03493184,-8.903732e-05,0.11432712,-0.0011935611,0.0007922238,-0.05889922,1.0471802,0.057454243,-5.052616e-06,0.0019883951,0.8152531826565558,-0.0013847812343714986,0.5791030396650402,0.0011499046288358265,0.9999990405352444,0.0007724298901479259,-0.5791035536825005,3.618733956157658e-05,0.8152539928162115,0.016858857,0.0008391718,0.112121545,0.0004842281,8.375094e-05,-0.0112116905,1.0471792,-0.060939647,-9.812923e-05,0.0024163863,0.8630869069655207,0.0008894878954822067,-0.5050546503458555,-0.0004940169002256009,0.999999457578424,0.0009169461053041321,0.5050551920057775,-0.0005418986450726398,0.8630868782306134,0.0026660115,0.019334318,0.090639085,-0.00016678433,-0.012029196,-0.0062280735,0.5235896,0.00019101906,-0.011351367,0.002348829,0.9999936372102752,-0.0001470008891910907,0.0035642572442252606,0.0010395858539288636,0.9677909138678492,-0.2517531852749549,-0.0034124478335567586,0.25175528877378534,0.9677849088378117,left_images/camera_left_69.png,right_images/camera_right_69.png
2025-05-30 16:02:24,4.004645824432373,70,-0.03493184,-8.9036446e-05,0.11432712,-0.0011935541,0.0007922168,-0.05889922,1.0471802,0.057454243,-5.052616e-06,0.0019883951,0.8152531826565558,-0.0013847812343714986,0.5791030396650402,0.0011499046288358265,0.9999990405352444,0.0007724298901479259,-0.5791035536825005,3.618733956157658e-05,0.8152539928162115,0.016858857,0.0008391753,0.112121545,0.00048424242,8.373233e-05,-0.0112116905,1.0471792,-0.060939647,-9.8122e-05,0.0024163872,0.8630868909393993,0.0008898228262693208,-0.5050546771428809,-0.0004944454168609337,0.9999994574300581,0.0009168769379982575,0.5050552189734222,-0.0005416224954134764,0.8630868626232131,0.0026660115,0.019334318,0.090639085,-0.00016678695,-0.012029196,-0.0062280735,0.5235896,0.00019101906,-0.011351367,0.002348829,0.9999936372102752,-0.0001470008891910907,0.0035642572442252606,0.0010395858539288636,0.9677909138678492,-0.2517531852749549,-0.0034124478335567586,0.25175528877378534,0.9677849088378117,left_images/camera_left_70.png,right_images/camera_right_70.png
2025-05-30 16:02:24,4.105227470397949,71,-0.03493184,-8.9033325e-05,0.11432712,-0.0011936156,0.00079219334,-0.05889922,1.0471802,0.057454243,-5.052616e-06,0.0019883951,0.8152531826565558,-0.0013847812343714986,0.5791030396650402,0.0011499046288358265,0.9999990405352444,0.0007724298901479259,-0.5791035536825005,3.618733956157658e-05,0.8152539928162115,0.016858857,0.0008391635,0.112121545,0.00048428457,8.376344e-05,-0.0112116905,1.0471792,-0.060939647,-9.8122e-05,0.0024163872,0.8630868909393993,0.0008898228262693208,-0.5050546771428809,-0.0004944454168609337,0.9999994574300581,0.0009168769379982575,0.5050552189734222,-0.0005416224954134764,0.8630868626232131,0.0026660115,0.019334318,0.090639085,-0.00016678957,-0.012029196,-0.0062280735,0.5235896,0.00019101906,-0.011351367,0.002348829,0.9999936372102752,-0.0001470008891910907,0.0035642572442252606,0.0010395858539288636,0.9677909138678492,-0.2517531852749549,-0.0034124478335567586,0.25175528877378534,0.9677849088378117,left_images/camera_left_71.png,right_images/camera_right_71.png
2025-05-30 16:02:24,4.174412965774536,72,-0.03493184,-8.903205e-05,0.11432712,-0.0011936086,0.00079218636,-0.05889922,1.0471802,0.057454243,-5.052616e-06,0.0019883951,0.8152531826565558,-0.0013847812343714986,0.5791030396650402,0.0011499046288358265,0.9999990405352444,0.0007724298901479259,-0.5791035536825005,3.618733956157658e-05,0.8152539928162115,0.016858857,0.00083915377,0.112121545,0.00048426012,8.382205e-05,-0.0112116905,1.0471792,-0.060939647,-9.8122e-05,0.0024163872,0.8630868909393993,0.0008898228262693208,-0.5050546771428809,-0.0004944454168609337,0.9999994574300581,0.0009168769379982575,0.5050552189734222,-0.0005416224954134764,0.8630868626232131,0.0026660115,0.019334318,0.090639085,-0.00016679219,-0.012029196,-0.0062280735,0.5235896,0.00019101906,-0.011351367,0.002348829,0.9999936372102752,-0.0001470008891910907,0.0035642572442252606,0.0010395858539288636,0.9677909138678492,-0.2517531852749549,-0.0034124478335567586,0.25175528877378534,0.9677849088378117,left_images/camera_left_72.png,right_images/camera_right_72.png
2025-05-30 16:02:24,4.227357864379883,73,-0.03493184,-8.903118e-05,0.11432712,-0.0011936016,0.0007921794,-0.05889922,1.0471802,0.057454243,-5.052616e-06,0.0019883951,0.8152531826565558,-0.0013847812343714986,0.5791030396650402,0.0011499046288358265,0.9999990405352444,0.0007724298901479259,-0.5791035536825005,3.618733956157658e-05,0.8152539928162115,0.016858857,0.00083914434,0.112121545,0.00048423567,8.3880666e-05,-0.0112116905,1.0471792,-0.060939647,-9.812923e-05,0.0024163863,0.8630869069655207,0.0008894878954822067,-0.5050546503458555,-0.0004940169002256009,0.999999457578424,0.0009169461053041321,0.5050551920057775,-0.0005418986450726398,0.8630868782306134,0.0026660115,0.019334318,0.090639085,-0.00016679481,-0.012029196,-0.0062280735,0.5235896,0.00019101906,-0.011351367,0.002348829,0.9999936372102752,-0.0001470008891910907,0.0035642572442252606,0.0010395858539288636,0.9677909138678492,-0.2517531852749549,-0.0034124478335567586,0.25175528877378534,0.9677849088378117,left_images/camera_left_73.png,right_images/camera_right_73.png
2025-05-30 16:02:24,4.286820650100708,74,-0.03493184,-8.9030305e-05,0.11432712,-0.0011935947,0.0007921724,-0.05889922,1.0471802,0.057454243,-5.052616e-06,0.0019883951,0.8152531826565558,-0.0013847812343714986,0.5791030396650402,0.0011499046288358265,0.9999990405352444,0.0007724298901479259,-0.5791035536825005,3.618733956157658e-05,0.8152539928162115,0.016858857,0.00083915005,0.112121545,0.0004841833,8.3889594e-05,-0.0112116905,1.0471792,-0.060939647,-9.813764e-05,0.0024163872,0.8630868778075241,0.0008897715451596387,-0.5050546996742604,-0.00049409098285974,0.9999994571428936,0.0009173810652398555,0.5050552417612955,-0.0005422365863976214,0.8630868489027763,0.0026660115,0.019334318,0.090639085,-0.00016679743,-0.012029196,-0.0062280735,0.5235896,0.00019101906,-0.011351367,0.002348829,0.9999936372102752,-0.0001470008891910907,0.0035642572442252606,0.0010395858539288636,0.9677909138678492,-0.2517531852749549,-0.0034124478335567586,0.25175528877378534,0.9677849088378117,left_images/camera_left_74.png,right_images/camera_right_74.png
2025-05-30 16:02:24,4.347962379455566,75,-0.03493184,-8.902943e-05,0.11432712,-0.0011935877,0.0007921654,-0.05889922,1.0471802,0.057454243,-5.052616e-06,0.0019883951,0.8152531826565558,-0.0013847812343714986,0.5791030396650402,0.0011499046288358265,0.9999990405352444,0.0007724298901479259,-0.5791035536825005,3.618733956157658e-05,0.8152539928162115,0.016858857,0.000839154,0.112121545,0.00048418358,8.3936946e-05,-0.011211718,1.0471792,-0.060939647,-9.813764e-05,0.0024163872,0.8630868778075241,0.0008897715451596387,-0.5050546996742604,-0.00049409098285974,0.9999994571428936,0.0009173810652398555,0.5050552417612955,-0.0005422365863976214,0.8630868489027763,0.0026660115,0.019334318,0.090639085,-0.00016680005,-0.012029196,-0.0062280735,0.5235896,0.00019101906,-0.011351367,0.002348829,0.9999936372102752,-0.0001470008891910907,0.0035642572442252606,0.0010395858539288636,0.9677909138678492,-0.2517531852749549,-0.0034124478335567586,0.25175528877378534,0.9677849088378117,left_images/camera_left_75.png,right_images/camera_right_75.png
2025-05-30 16:02:24,4.398449182510376,76,-0.03493184,-8.902856e-05,0.11432712,-0.0011935807,0.0007921584,-0.05889922,1.0471802,0.057454243,-5.052616e-06,0.0019883951,0.8152531826565558,-0.0013847812343714986,0.5791030396650402,0.0011499046288358265,0.9999990405352444,0.0007724298901479259,-0.5791035536825005,3.618733956157658e-05,0.8152539928162115,0.016858857,0.0008391575,0.112121545,0.00048416844,8.391801e-05,-0.011211774,1.0471792,-0.060939647,-9.813764e-05,0.0024163872,0.8630868778075241,0.0008897715451596387,-0.5050546996742604,-0.00049409098285974,0.9999994571428936,0.0009173810652398555,0.5050552417612955,-0.0005422365863976214,0.8630868489027763,0.0026660115,0.019334318,0.090639085,-0.00016680267,-0.012029196,-0.0062280735,0.5235896,0.00019101906,-0.011351367,0.002348829,0.9999936372102752,-0.0001470008891910907,0.0035642572442252606,0.0010395858539288636,0.9677909138678492,-0.2517531852749549,-0.0034124478335567586,0.25175528877378534,0.9677849088378117,left_images/camera_left_76.png,right_images/camera_right_76.png
2025-05-30 16:02:24,4.448810577392578,77,-0.03493184,-8.9027686e-05,0.11432712,-0.0011935737,0.00079215143,-0.05889922,1.0471802,0.057454243,-5.052616e-06,0.0019883951,0.8152531826565558,-0.0013847812343714986,0.5791030396650402,0.0011499046288358265,0.9999990405352444,0.0007724298901479259,-0.5791035536825005,3.618733956157658e-05,0.8152539928162115,0.016858857,0.000839161,0.112121545,0.0004841533,8.389906e-05,-0.01121183,1.0471792,-0.060939647,-9.813764e-05,0.0024163872,0.8630868778075241,0.0008897715451596387,-0.5050546996742604,-0.00049409098285974,0.9999994571428936,0.0009173810652398555,0.5050552417612955,-0.0005422365863976214,0.8630868489027763,0.0026660115,0.019334318,0.090639085,-0.00016680529,-0.012029196,-0.0062280735,0.5235896,0.00019101906,-0.011351367,0.002348829,0.9999936372102752,-0.0001470008891910907,0.0035642572442252606,0.0010395858539288636,0.9677909138678492,-0.2517531852749549,-0.0034124478335567586,0.25175528877378534,0.9677849088378117,left_images/camera_left_77.png,right_images/camera_right_77.png
2025-05-30 16:02:24,4.4994401931762695,78,-0.03493184,-8.902681e-05,0.11432712,-0.0011935667,0.00079214445,-0.05889922,1.0471802,0.057454243,-5.052616e-06,0.0019883951,0.8152531826565558,-0.0013847812343714986,0.5791030396650402,0.0011499046288358265,0.9999990405352444,0.0007724298901479259,-0.5791035536825005,3.618733956157658e-05,0.8152539928162115,0.016858857,0.0008391645,0.112121545,0.00048413817,8.388011e-05,-0.011211886,1.0471792,-0.060939647,-9.812923e-05,0.0024163863,0.8630869069655207,0.0008894878954822067,-0.5050546503458555,-0.0004940169002256009,0.999999457578424,0.0009169461053041321,0.5050551920057775,-0.0005418986450726398,0.8630868782306134,0.0026660115,0.019334318,0.090639085,-0.0001668079,-0.012029196,-0.0062280735,0.5235896,0.00019101906,-0.011351367,0.002348829,0.9999936372102752,-0.0001470008891910907,0.0035642572442252606,0.0010395858539288636,0.9677909138678492,-0.2517531852749549,-0.0034124478335567586,0.25175528877378534,0.9677849088378117,left_images/camera_left_78.png,right_images/camera_right_78.png
2025-05-30 16:02:24,4.548739910125732,79,-0.03493184,-8.902594e-05,0.11432712,-0.0011935597,0.00079213746,-0.05889922,1.0471802,0.057454243,-5.052616e-06,0.0019883951,0.8152531826565558,-0.0013847812343714986,0.5791030396650402,0.0011499046288358265,0.9999990405352444,0.0007724298901479259,-0.5791035536825005,3.618733956157658e-05,0.8152539928162115,0.016858857,0.000839168,0.112121545,0.0004841525,8.38615e-05,-0.011211886,1.0471792,-0.060939647,-9.812923e-05,0.0024163863,0.8630869069655207,0.0008894878954822067,-0.5050546503458555,-0.0004940169002256009,0.999999457578424,0.0009169461053041321,0.5050551920057775,-0.0005418986450726398,0.8630868782306134,0.0026660115,0.019334318,0.090639085,-0.00016681053,-0.012029196,-0.0062280735,0.5235896,0.00019101906,-0.011351367,0.002348829,0.9999936372102752,-0.0001470008891910907,0.0035642572442252606,0.0010395858539288636,0.9677909138678492,-0.2517531852749549,-0.0034124478335567586,0.25175528877378534,0.9677849088378117,left_images/camera_left_79.png,right_images/camera_right_79.png
2025-05-30 16:02:24,4.599648952484131,80,-0.03493184,-8.902507e-05,0.11432712,-0.0011935527,0.0007921305,-0.05889922,1.0471802,0.05745423,-5.052294e-06,0.0019883644,0.8152531172825965,-0.0013845432002860623,0.5791031322667278,0.001149531910868864,0.9999990408759527,0.0007725435654864742,-0.5791036464549283,3.587898022525609e-05,0.8152539269303178,0.016858857,0.00083917147,0.112121545,0.0004841668,8.384289e-05,-0.011211886,1.0471792,-0.060939647,-9.812923e-05,0.0024163863,0.8630869069655207,0.0008894878954822067,-0.5050546503458555,-0.0004940169002256009,0.999999457578424,0.0009169461053041321,0.5050551920057775,-0.0005418986450726398,0.8630868782306134,0.0026660115,0.019334318,0.090639085,-0.00016681314,-0.012029196,-0.0062280735,0.5235896,0.00019101906,-0.011351367,0.002348829,0.9999936372102752,-0.0001470008891910907,0.0035642572442252606,0.0010395858539288636,0.9677909138678492,-0.2517531852749549,-0.0034124478335567586,0.25175528877378534,0.9677849088378117,left_images/camera_left_80.png,right_images/camera_right_80.png
2025-05-30 16:02:24,4.653324127197266,81,-0.03493184,-8.902699e-05,0.11432712,-0.001193544,0.00079214363,-0.05889922,1.0471802,0.05745423,-5.052294e-06,0.0019883644,0.8152531172825965,-0.0013845432002860623,0.5791031322667278,0.001149531910868864,0.9999990408759527,0.0007725435654864742,-0.5791036464549283,3.587898022525609e-05,0.8152539269303178,0.016858857,0.00083917496,0.112121545,0.00048418113,8.382428e-05,-0.011211886,1.0471792,-0.060939647,-9.812923e-05,0.0024163863,0.8630869069655207,0.0008894878954822067,-0.5050546503458555,-0.0004940169002256009,0.999999457578424,0.0009169461053041321,0.5050551920057775,-0.0005418986450726398,0.8630868782306134,0.0026660115,0.019334318,0.090639085,-0.00016681576,-0.012029196,-0.0062280735,0.5235896,0.00019101906,-0.011351367,0.002348829,0.9999936372102752,-0.0001470008891910907,0.0035642572442252606,0.0010395858539288636,0.9677909138678492,-0.2517531852749549,-0.0034124478335567586,0.25175528877378534,0.9677849088378117,left_images/camera_left_81.png,right_images/camera_right_81.png
2025-05-30 16:02:25,4.712201356887817,82,-0.03493184,-8.902929e-05,0.11432712,-0.0011935353,0.0007921568,-0.05889922,1.0471802,0.05745423,-5.052294e-06,0.0019883644,0.8152531172825965,-0.0013845432002860623,0.5791031322667278,0.001149531910868864,0.9999990408759527,0.0007725435654864742,-0.5791036464549283,3.587898022525609e-05,0.8152539269303178,0.016858857,0.00083917845,0.112121545,0.00048419545,8.3805666e-05,-0.011211886,1.0471792,-0.060939647,-9.812923e-05,0.0024163863,0.8630869069655207,0.0008894878954822067,-0.5050546503458555,-0.0004940169002256009,0.999999457578424,0.0009169461053041321,0.5050551920057775,-0.0005418986450726398,0.8630868782306134,0.0026660115,0.019334318,0.090639085,-0.00016681838,-0.012029196,-0.0062280735,0.5235896,0.00019101906,-0.011351367,0.002348829,0.9999936372102752,-0.0001470008891910907,0.0035642572442252606,0.0010395858539288636,0.9677909138678492,-0.2517531852749549,-0.0034124478335567586,0.25175528877378534,0.9677849088378117,left_images/camera_left_82.png,right_images/camera_right_82.png
2025-05-30 16:02:25,4.780415773391724,83,-0.03493184,-8.9031586e-05,0.11432712,-0.0011935266,0.00079216994,-0.05889922,1.0471802,0.05745423,-5.052294e-06,0.0019883644,0.8152531172825965,-0.0013845432002860623,0.5791031322667278,0.001149531910868864,0.9999990408759527,0.0007725435654864742,-0.5791036464549283,3.587898022525609e-05,0.8152539269303178,0.016858857,0.00083918194,0.112121545,0.00048420977,8.3787054e-05,-0.011211886,1.0471792,-0.060939647,-9.812923e-05,0.0024163863,0.8630869069655207,0.0008894878954822067,-0.5050546503458555,-0.0004940169002256009,0.999999457578424,0.0009169461053041321,0.5050551920057775,-0.0005418986450726398,0.8630868782306134,0.0026660115,0.019334318,0.090639085,-0.000166821,-0.012029196,-0.0062280735,0.5235896,0.00019101906,-0.011351367,0.002348829,0.9999936372102752,-0.0001470008891910907,0.0035642572442252606,0.0010395858539288636,0.9677909138678492,-0.2517531852749549,-0.0034124478335567586,0.25175528877378534,0.9677849088378117,left_images/camera_left_83.png,right_images/camera_right_83.png
2025-05-30 16:02:25,4.851098299026489,84,-0.03493184,-8.9033885e-05,0.11432712,-0.0011935178,0.0007921831,-0.05889922,1.0471802,0.05745423,-5.052294e-06,0.0019883644,0.8152531172825965,-0.0013845432002860623,0.5791031322667278,0.001149531910868864,0.9999990408759527,0.0007725435654864742,-0.5791036464549283,3.587898022525609e-05,0.8152539269303178,0.016858857,0.00083918544,0.112121545,0.0004842241,8.376844e-05,-0.011211886,1.0471792,-0.060939647,-9.812923e-05,0.0024163863,0.8630869069655207,0.0008894878954822067,-0.5050546503458555,-0.0004940169002256009,0.999999457578424,0.0009169461053041321,0.5050551920057775,-0.0005418986450726398,0.8630868782306134,0.0026660115,0.019334318,0.090639085,-0.00016682362,-0.012029196,-0.0062280735,0.5235896,0.00019101906,-0.011351367,0.002348829,0.9999936372102752,-0.0001470008891910907,0.0035642572442252606,0.0010395858539288636,0.9677909138678492,-0.2517531852749549,-0.0034124478335567586,0.25175528877378534,0.9677849088378117,left_images/camera_left_84.png,right_images/camera_right_84.png
2025-05-30 16:02:25,4.916455507278442,85,-0.03493184,-8.903401e-05,0.11432712,-0.0011935781,0.0007921796,-0.05889922,1.0471802,0.057454243,-5.052616e-06,0.0019883951,0.8152531826565558,-0.0013847812343714986,0.5791030396650402,0.0011499046288358265,0.9999990405352444,0.0007724298901479259,-0.5791035536825005,3.618733956157658e-05,0.8152539928162115,0.016858857,0.0008391889,0.112121545,0.0004842384,8.374983e-05,-0.011211886,1.0471792,-0.060939647,-9.8122e-05,0.0024163872,0.8630868909393993,0.0008898228262693208,-0.5050546771428809,-0.0004944454168609337,0.9999994574300581,0.0009168769379982575,0.5050552189734222,-0.0005416224954134764,0.8630868626232131,0.0026660115,0.019334318,0.090639085,-0.00016682624,-0.012029196,-0.0062280735,0.5235896,0.00019101906,-0.011351367,0.002348829,0.9999936372102752,-0.0001470008891910907,0.0035642572442252606,0.0010395858539288636,0.9677909138678492,-0.2517531852749549,-0.0034124478335567586,0.25175528877378534,0.9677849088378117,left_images/camera_left_85.png,right_images/camera_right_85.png
2025-05-30 16:02:25,4.979375123977661,86,-0.03493184,-8.903316e-05,0.11432712,-0.0011935711,0.0007921726,-0.05889922,1.0471802,0.057454243,-5.052616e-06,0.0019883951,0.8152531826565558,-0.0013847812343714986,0.5791030396650402,0.0011499046288358265,0.9999990405352444,0.0007724298901479259,-0.5791035536825005,3.618733956157658e-05,0.8152539928162115,0.016858857,0.0008391771,0.112121545,0.00048428055,8.378094e-05,-0.011211886,1.0471792,-0.060939647,-9.8122e-05,0.0024163872,0.8630868909393993,0.0008898228262693208,-0.5050546771428809,-0.0004944454168609337,0.9999994574300581,0.0009168769379982575,0.5050552189734222,-0.0005416224954134764,0.8630868626232131,0.0026660115,0.019334318,0.090639085,-0.00016682886,-0.012029196,-0.0062280735,0.5235896,0.00019101906,-0.011351367,0.002348829,0.9999936372102752,-0.0001470008891910907,0.0035642572442252606,0.0010395858539288636,0.9677909138678492,-0.2517531852749549,-0.0034124478335567586,0.25175528877378534,0.9677849088378117,left_images/camera_left_86.png,right_images/camera_right_86.png
2025-05-30 16:02:25,5.05044150352478,87,-0.03493184,-8.9032284e-05,0.11432712,-0.0011935642,0.00079216564,-0.05889922,1.0471802,0.057454243,-5.052616e-06,0.0019883951,0.8152531826565558,-0.0013847812343714986,0.5791030396650402,0.0011499046288358265,0.9999990405352444,0.0007724298901479259,-0.5791035536825005,3.618733956157658e-05,0.8152539928162115,0.016858857,0.0008391674,0.112121545,0.0004842561,8.383955e-05,-0.011211886,1.0471792,-0.060939647,-9.8122e-05,0.0024163872,0.8630868909393993,0.0008898228262693208,-0.5050546771428809,-0.0004944454168609337,0.9999994574300581,0.0009168769379982575,0.5050552189734222,-0.0005416224954134764,0.8630868626232131,0.0026660115,0.019334318,0.090639085,-0.00016683148,-0.012029196,-0.0062280735,0.5235896,0.00019101906,-0.011351367,0.002348829,0.9999936372102752,-0.0001470008891910907,0.0035642572442252606,0.0010395858539288636,0.9677909138678492,-0.2517531852749549,-0.0034124478335567586,0.25175528877378534,0.9677849088378117,left_images/camera_left_87.png,right_images/camera_right_87.png
2025-05-30 16:02:25,5.119570255279541,88,-0.03493184,-8.903141e-05,0.11432712,-0.0011935572,0.00079215865,-0.05889922,1.0471802,0.057454243,-5.052616e-06,0.0019883951,0.8152531826565558,-0.0013847812343714986,0.5791030396650402,0.0011499046288358265,0.9999990405352444,0.0007724298901479259,-0.5791035536825005,3.618733956157658e-05,0.8152539928162115,0.016858857,0.00083915796,0.112121545,0.00048423166,8.3898165e-05,-0.011211886,1.0471792,-0.060939647,-9.813764e-05,0.0024163872,0.8630868778075241,0.0008897715451596387,-0.5050546996742604,-0.00049409098285974,0.9999994571428936,0.0009173810652398555,0.5050552417612955,-0.0005422365863976214,0.8630868489027763,0.0026660115,0.019334318,0.090639085,-0.0001668341,-0.012029196,-0.0062280735,0.5235896,0.00019101906,-0.011351367,0.002348829,0.9999936372102752,-0.0001470008891910907,0.0035642572442252606,0.0010395858539288636,0.9677909138678492,-0.2517531852749549,-0.0034124478335567586,0.25175528877378534,0.9677849088378117,left_images/camera_left_88.png,right_images/camera_right_88.png
2025-05-30 16:02:25,5.1703996658325195,89,-0.03493184,-8.902829e-05,0.11432712,-0.0011936186,0.0007921352,-0.05889922,1.0471802,0.057454243,-5.052616e-06,0.0019883951,0.8152531826565558,-0.0013847812343714986,0.5791030396650402,0.0011499046288358265,0.9999990405352444,0.0007724298901479259,-0.5791035536825005,3.618733956157658e-05,0.8152539928162115,0.016858857,0.0008391605,0.112121545,0.00048423195,8.394551e-05,-0.011211914,1.0471792,-0.060939647,-9.813764e-05,0.0024163872,0.8630868778075241,0.0008897715451596387,-0.5050546996742604,-0.00049409098285974,0.9999994571428936,0.0009173810652398555,0.5050552417612955,-0.0005422365863976214,0.8630868489027763,0.0026660115,0.019334318,0.090639085,-0.00016683672,-0.012029196,-0.0062280735,0.5235896,0.00019101906,-0.011351367,0.002348829,0.9999936372102752,-0.0001470008891910907,0.0035642572442252606,0.0010395858539288636,0.9677909138678492,-0.2517531852749549,-0.0034124478335567586,0.25175528877378534,0.9677849088378117,left_images/camera_left_89.png,right_images/camera_right_89.png
2025-05-30 16:02:25,5.222796201705933,90,-0.03493184,-8.902702e-05,0.11432712,-0.0011936116,0.0007921282,-0.05889922,1.0471802,0.057454243,-5.052616e-06,0.0019883951,0.8152531826565558,-0.0013847812343714986,0.5791030396650402,0.0011499046288358265,0.9999990405352444,0.0007724298901479259,-0.5791035536825005,3.618733956157658e-05,0.8152539928162115,0.016858857,0.000839164,0.112121545,0.0004842168,8.392657e-05,-0.01121197,1.0471792,-0.060939647,-9.813764e-05,0.0024163872,0.8630868778075241,0.0008897715451596387,-0.5050546996742604,-0.00049409098285974,0.9999994571428936,0.0009173810652398555,0.5050552417612955,-0.0005422365863976214,0.8630868489027763,0.0026660115,0.019334318,0.090639085,-0.00016683934,-0.012029196,-0.0062280735,0.5235896,0.00019101906,-0.011351367,0.002348829,0.9999936372102752,-0.0001470008891910907,0.0035642572442252606,0.0010395858539288636,0.9677909138678492,-0.2517531852749549,-0.0034124478335567586,0.25175528877378534,0.9677849088378117,left_images/camera_left_90.png,right_images/camera_right_90.png
2025-05-30 16:02:25,5.2749879360198975,91,-0.03493184,-8.902614e-05,0.11432712,-0.0011936047,0.0007921212,-0.05889922,1.0471802,0.057454243,-5.052616e-06,0.0019883951,0.8152531826565558,-0.0013847812343714986,0.5791030396650402,0.0011499046288358265,0.9999990405352444,0.0007724298901479259,-0.5791035536825005,3.618733956157658e-05,0.8152539928162115,0.016858857,0.0008391675,0.112121545,0.00048421833,8.389039e-05,-0.011211942,1.0471792,-0.060939647,-9.813764e-05,0.0024163872,0.8630868778075241,0.0008897715451596387,-0.5050546996742604,-0.00049409098285974,0.9999994571428936,0.0009173810652398555,0.5050552417612955,-0.0005422365863976214,0.8630868489027763,0.0026660115,0.019334318,0.090639085,-0.00016684196,-0.012029196,-0.0062280735,0.5235896,0.00019101906,-0.011351367,0.002348829,0.9999936372102752,-0.0001470008891910907,0.0035642572442252606,0.0010395858539288636,0.9677909138678492,-0.2517531852749549,-0.0034124478335567586,0.25175528877378534,0.9677849088378117,left_images/camera_left_91.png,right_images/camera_right_91.png
2025-05-30 16:02:25,5.331673860549927,92,-0.03493184,-8.902527e-05,0.11432712,-0.0011935977,0.00079211424,-0.05889922,1.0471802,0.057454243,-5.052616e-06,0.0019883951,0.8152531826565558,-0.0013847812343714986,0.5791030396650402,0.0011499046288358265,0.9999990405352444,0.0007724298901479259,-0.5791035536825005,3.618733956157658e-05,0.8152539928162115,0.016858857,0.000839171,0.112121545,0.00048421862,8.393773e-05,-0.01121197,1.0471792,-0.060939647,-9.813764e-05,0.0024163872,0.8630868778075241,0.0008897715451596387,-0.5050546996742604,-0.00049409098285974,0.9999994571428936,0.0009173810652398555,0.5050552417612955,-0.0005422365863976214,0.8630868489027763,0.0026660115,0.019334318,0.090639085,-0.00016684458,-0.012029196,-0.0062280735,0.5235896,0.00019101906,-0.011351367,0.002348829,0.9999936372102752,-0.0001470008891910907,0.0035642572442252606,0.0010395858539288636,0.9677909138678492,-0.2517531852749549,-0.0034124478335567586,0.25175528877378534,0.9677849088378117,left_images/camera_left_92.png,right_images/camera_right_92.png
2025-05-30 16:02:25,5.403831720352173,93,-0.03493184,-8.90244e-05,0.11432712,-0.0011935907,0.00079210725,-0.05889922,1.0471802,0.057454243,-5.052616e-06,0.0019883951,0.8152531826565558,-0.0013847812343714986,0.5791030396650402,0.0011499046288358265,0.9999990405352444,0.0007724298901479259,-0.5791035536825005,3.618733956157658e-05,0.8152539928162115,0.016858857,0.0008391745,0.112121545,0.00048422013,8.3901556e-05,-0.011211942,1.0471792,-0.060939647,-9.813764e-05,0.0024163872,0.8630868778075241,0.0008897715451596387,-0.5050546996742604,-0.00049409098285974,0.9999994571428936,0.0009173810652398555,0.5050552417612955,-0.0005422365863976214,0.8630868489027763,0.0026660115,0.019334318,0.090639085,-0.0001668472,-0.012029196,-0.0062280735,0.5235896,0.00019101906,-0.011351367,0.002348829,0.9999936372102752,-0.0001470008891910907,0.0035642572442252606,0.0010395858539288636,0.9677909138678492,-0.2517531852749549,-0.0034124478335567586,0.25175528877378534,0.9677849088378117,left_images/camera_left_93.png,right_images/camera_right_93.png
2025-05-30 16:02:25,5.457820653915405,94,-0.03493184,-8.9023524e-05,0.11432712,-0.0011935837,0.00079210027,-0.05889922,1.0471802,0.057454243,-5.052616e-06,0.0019883951,0.8152531826565558,-0.0013847812343714986,0.5791030396650402,0.0011499046288358265,0.9999990405352444,0.0007724298901479259,-0.5791035536825005,3.618733956157658e-05,0.8152539928162115,0.016858857,0.000839178,0.112121545,0.000484205,8.388261e-05,-0.011211998,1.0471792,-0.06093965,-9.81303e-05,0.0024163844,0.8630870970011858,0.0008895826763511186,-0.5050543254272035,-0.0004940695912968665,0.9999994574625042,0.0009170441299723982,0.5050548672028661,-0.0005419569718133222,0.8630870682598228,0.0026660115,0.019334318,0.090639085,-0.00016684982,-0.012029196,-0.0062280735,0.5235896,0.00019101906,-0.011351367,0.002348829,0.9999936372102752,-0.0001470008891910907,0.0035642572442252606,0.0010395858539288636,0.9677909138678492,-0.2517531852749549,-0.0034124478335567586,0.25175528877378534,0.9677849088378117,left_images/camera_left_94.png,right_images/camera_right_94.png
