jiaqis7/OS_Teleop_Extension/test_01/teleop_log.csv
Epoch Time (Seconds),Time (Seconds),Frame Number,PSM1_joint_1,PSM1_joint_2,PSM1_joint_3,PSM1_joint_4,PSM1_joint_5,PSM1_joint_6,PSM1_jaw_angle,PSM1_ee_x,PSM1_ee_y,PSM1_ee_z,"PSM1_Orientation_Matrix_[1,1]","PSM1_Orientation_Matrix_[1,2]","PSM1_Orientation_Matrix_[1,3]","PSM1_Orientation_Matrix_[2,1]","PSM1_Orientation_Matrix_[2,2]","PSM1_Orientation_Matrix_[2,3]","PSM1_Orientation_Matrix_[3,1]","PSM1_Orientation_Matrix_[3,2]","PSM1_Orientation_Matrix_[3,3]",PSM2_joint_1,PSM2_joint_2,PSM2_joint_3,PSM2_joint_4,PSM2_joint_5,PSM2_joint_6,PSM2_jaw_angle,PSM2_ee_x,PSM2_ee_y,PSM2_ee_z,"PSM2_Orientation_Matrix_[1,1]","PSM2_Orientation_Matrix_[1,2]","PSM2_Orientation_Matrix_[1,3]","PSM2_Orientation_Matrix_[2,1]","PSM2_Orientation_Matrix_[2,2]","PSM2_Orientation_Matrix_[2,3]","PSM2_Orientation_Matrix_[3,1]","PSM2_Orientation_Matrix_[3,2]","PSM2_Orientation_Matrix_[3,3]",PSM3_joint_1,PSM3_joint_2,PSM3_joint_3,PSM3_joint_4,PSM3_joint_5,PSM3_joint_6,PSM3_jaw_angle,PSM3_ee_x,PSM3_ee_y,PSM3_ee_z,"PSM3_Orientation_Matrix_[1,1]","PSM3_Orientation_Matrix_[1,2]","PSM3_Orientation_Matrix_[1,3]","PSM3_Orientation_Matrix_[2,1]","PSM3_Orientation_Matrix_[2,2]","PSM3_Orientation_Matrix_[2,3]","PSM3_Orientation_Matrix_[3,1]","PSM3_Orientation_Matrix_[3,2]","PSM3_Orientation_Matrix_[3,3]",Camera Left,Camera Right
2025-06-30 10:14:11,0.001560211181640625,1,-0.026670752,-0.00023918171,0.11362946,-0.00012768908,0.00013994676,-0.016056895,1.047179,0.05897075,2.4944091e-05,0.0018486492,0.8437708882759261,-5.6440483001339284e-05,0.5367035354015535,0.00012866650936002323,0.999999987006331,-9.711986075720633e-05,-0.5367035229463135,0.00015100268164164375,0.8437708845742463,0.050760034,0.0005350272,0.112250455,0.00077898405,7.5019284e-06,-0.015322443,1.047179,-0.057594385,-6.179797e-05,0.004346478,0.8476603777629808,0.0009488678575997111,-0.530538390336184,-0.0007873526360128185,0.9999995493135061,0.0005305173050797082,0.5305386546205157,-3.1977699096471883e-05,0.8476607428275061,0.0027373822,-0.006500907,0.09171626,-0.0006381351,-0.011875613,-0.006221246,1.4783166e-13,0.0002006799,-0.008734515,0.0019246619,0.9999936664381729,-0.000688137383229003,0.003491926471428335,0.0016268962708539973,0.9610073307862583,-0.2765181067915712,-0.003165484491186232,0.27652203644920004,0.9610023637150552,left_images/camera_left_1.png,right_images/camera_right_1.png
2025-06-30 10:14:11,0.052361249923706055,2,-0.026670752,-0.00023918258,0.11362946,-0.00012768865,0.00013995328,-0.016056895,1.047179,0.05897075,2.4944091e-05,0.0018486492,0.8437708882759261,-5.6440483001339284e-05,0.5367035354015535,0.00012866650936002323,0.999999987006331,-9.711986075720633e-05,-0.5367035229463135,0.00015100268164164375,0.8437708845742463,0.050760034,0.00053503417,0.112250455,0.0007789693,7.4844947e-06,-0.015322443,1.047179,-0.0575944,-6.176896e-05,0.0043464787,0.8476603347862399,0.0009484319954497103,-0.5305384597810324,-0.0007869614546029947,0.99999954972568,0.0005303207583454378,0.5305387238663631,-3.201855353107279e-05,0.8476606994859816,0.0027373822,-0.006500907,0.09171626,-0.0006381386,-0.011875613,-0.006221246,1.4764554e-13,0.0002006799,-0.008734515,0.0019246619,0.9999936664381729,-0.000688137383229003,0.003491926471428335,0.0016268962708539973,0.9610073307862583,-0.2765181067915712,-0.003165484491186232,0.27652203644920004,0.9610023637150552,left_images/camera_left_2.png,right_images/camera_right_2.png
2025-06-30 10:14:12,0.10763359069824219,3,-0.026670752,-0.00023918346,0.11362946,-0.00012768821,0.0001399598,-0.016056895,1.047179,0.05897075,2.4944091e-05,0.0018486492,0.8437708882759261,-5.6440483001339284e-05,0.5367035354015535,0.00012866650936002323,0.999999987006331,-9.711986075720633e-05,-0.5367035229463135,0.00015100268164164375,0.8437708845742463,0.050760034,0.0005350362,0.112250455,0.0007789658,7.472809e-06,-0.015322443,1.047179,-0.0575944,-6.176896e-05,0.0043464787,0.8476603347862399,0.0009484319954497103,-0.5305384597810324,-0.0007869614546029947,0.99999954972568,0.0005303207583454378,0.5305387238663631,-3.201855353107279e-05,0.8476606994859816,0.0027373822,-0.006500907,0.09171626,-0.0006381421,-0.011875613,-0.006221246,1.470506e-13,0.0002006799,-0.008734515,0.0019246619,0.9999936664381729,-0.000688137383229003,0.003491926471428335,0.0016268962708539973,0.9610073307862583,-0.2765181067915712,-0.003165484491186232,0.27652203644920004,0.9610023637150552,left_images/camera_left_3.png,right_images/camera_right_3.png
2025-06-30 10:14:12,0.15972232818603516,4,-0.026670752,-0.00023918433,0.11362946,-0.00012768777,0.00013996632,-0.016056895,1.047179,0.05897075,2.4944091e-05,0.0018486492,0.8437708882759261,-5.6440483001339284e-05,0.5367035354015535,0.00012866650936002323,0.999999987006331,-9.711986075720633e-05,-0.5367035229463135,0.00015100268164164375,0.8437708845742463,0.050760034,0.0005350382,0.112250455,0.00077896233,7.4611194e-06,-0.015322443,1.047179,-0.0575944,-6.176896e-05,0.0043464787,0.8476603347862399,0.0009484319954497103,-0.5305384597810324,-0.0007869614546029947,0.99999954972568,0.0005303207583454378,0.5305387238663631,-3.201855353107279e-05,0.8476606994859816,0.0027373822,-0.006500907,0.09171626,-0.0006381456,-0.011875613,-0.006221246,1.4710822e-13,0.0002006799,-0.008734515,0.0019246619,0.9999936664381729,-0.000688137383229003,0.003491926471428335,0.0016268962708539973,0.9610073307862583,-0.2765181067915712,-0.003165484491186232,0.27652203644920004,0.9610023637150552,left_images/camera_left_4.png,right_images/camera_right_4.png
2025-06-30 10:14:12,0.21018075942993164,5,-0.026670752,-0.0002391852,0.11362946,-0.00012768734,0.00013997284,-0.016056895,1.047179,0.05897075,2.4944091e-05,0.0018486492,0.8437708882759261,-5.6440483001339284e-05,0.5367035354015535,0.00012866650936002323,0.999999987006331,-9.711986075720633e-05,-0.5367035229463135,0.00015100268164164375,0.8437708845742463,0.050760034,0.00053504016,0.112250455,0.00077895884,7.4494296e-06,-0.015322443,1.047179,-0.0575944,-6.176896e-05,0.0043464787,0.8476603347862399,0.0009484319954497103,-0.5305384597810324,-0.0007869614546029947,0.99999954972568,0.0005303207583454378,0.5305387238663631,-3.201855353107279e-05,0.8476606994859816,0.0027373822,-0.006500907,0.09171626,-0.0006381491,-0.011875613,-0.006221246,1.4790256e-13,0.0002006799,-0.008734515,0.0019246619,0.9999936664381729,-0.000688137383229003,0.003491926471428335,0.0016268962708539973,0.9610073307862583,-0.2765181067915712,-0.003165484491186232,0.27652203644920004,0.9610023637150552,left_images/camera_left_5.png,right_images/camera_right_5.png
2025-06-30 10:14:12,0.2684438228607178,6,-0.026670752,-0.00023918608,0.11362946,-0.0001276869,0.00013997935,-0.016056895,1.047179,0.05897075,2.4944091e-05,0.0018486492,0.8437708882759261,-5.6440483001339284e-05,0.5367035354015535,0.00012866650936002323,0.999999987006331,-9.711986075720633e-05,-0.5367035229463135,0.00015100268164164375,0.8437708845742463,0.050760034,0.00053504214,0.112250455,0.00077895535,7.43774e-06,-0.015322443,1.047179,-0.0575944,-6.176896e-05,0.0043464787,0.8476603347862399,0.0009484319954497103,-0.5305384597810324,-0.0007869614546029947,0.99999954972568,0.0005303207583454378,0.5305387238663631,-3.201855353107279e-05,0.8476606994859816,0.0027373822,-0.006500907,0.09171626,-0.0006381526,-0.011875613,-0.006221246,1.485941e-13,0.0002006799,-0.008734515,0.0019246619,0.9999936664381729,-0.000688137383229003,0.003491926471428335,0.0016268962708539973,0.9610073307862583,-0.2765181067915712,-0.003165484491186232,0.27652203644920004,0.9610023637150552,left_images/camera_left_6.png,right_images/camera_right_6.png
2025-06-30 10:14:12,0.3213193416595459,7,-0.026670752,-0.00023918695,0.11362946,-0.00012768646,0.00013998587,-0.016056895,1.047179,0.05897075,2.4944091e-05,0.0018486492,0.8437708882759261,-5.6440483001339284e-05,0.5367035354015535,0.00012866650936002323,0.999999987006331,-9.711986075720633e-05,-0.5367035229463135,0.00015100268164164375,0.8437708845742463,0.050760034,0.0005350441,0.112250455,0.00077895186,7.42605e-06,-0.015322443,1.047179,-0.0575944,-6.176896e-05,0.0043464787,0.8476603347862399,0.0009484319954497103,-0.5305384597810324,-0.0007869614546029947,0.99999954972568,0.0005303207583454378,0.5305387238663631,-3.201855353107279e-05,0.8476606994859816,0.0027373822,-0.006500907,0.09171626,-0.0006381561,-0.011875613,-0.006221246,1.4747298e-13,0.0002006799,-0.008734515,0.0019246619,0.9999936664381729,-0.000688137383229003,0.003491926471428335,0.0016268962708539973,0.9610073307862583,-0.2765181067915712,-0.003165484491186232,0.27652203644920004,0.9610023637150552,left_images/camera_left_7.png,right_images/camera_right_7.png
2025-06-30 10:14:12,0.37294435501098633,8,-0.026670752,-0.00023918782,0.11362946,-0.00012768603,0.0001399924,-0.016056895,1.047179,0.05897075,2.4944091e-05,0.0018486492,0.8437708882759261,-5.6440483001339284e-05,0.5367035354015535,0.00012866650936002323,0.999999987006331,-9.711986075720633e-05,-0.5367035229463135,0.00015100268164164375,0.8437708845742463,0.050760034,0.0005350461,0.112250455,0.00077894836,7.4143604e-06,-0.015322443,1.047179,-0.0575944,-6.176896e-05,0.0043464787,0.8476603347862399,0.0009484319954497103,-0.5305384597810324,-0.0007869614546029947,0.99999954972568,0.0005303207583454378,0.5305387238663631,-3.201855353107279e-05,0.8476606994859816,0.0027373822,-0.006500907,0.09171626,-0.0006381596,-0.011875613,-0.006221246,1.493426e-13,0.0002006799,-0.008734515,0.0019246619,0.9999936664381729,-0.000688137383229003,0.003491926471428335,0.0016268962708539973,0.9610073307862583,-0.2765181067915712,-0.003165484491186232,0.27652203644920004,0.9610023637150552,left_images/camera_left_8.png,right_images/camera_right_8.png
2025-06-30 10:14:12,0.439532995223999,9,-0.026670752,-0.0002391887,0.11362946,-0.00012768559,0.00013999891,-0.016056895,1.047179,0.05897075,2.4944091e-05,0.0018486492,0.8437708882759261,-5.6440483001339284e-05,0.5367035354015535,0.00012866650936002323,0.999999987006331,-9.711986075720633e-05,-0.5367035229463135,0.00015100268164164375,0.8437708845742463,0.050760034,0.0005350481,0.112250455,0.0007789449,7.4026707e-06,-0.015322443,1.047179,-0.0575944,-6.176896e-05,0.0043464787,0.8476603347862399,0.0009484319954497103,-0.5305384597810324,-0.0007869614546029947,0.99999954972568,0.0005303207583454378,0.5305387238663631,-3.201855353107279e-05,0.8476606994859816,0.002737364,-0.006500907,0.09171626,-0.0006381135,-0.011875641,-0.006221218,1.9052047e-12,0.00020067739,-0.008734507,0.0019246629,0.9999936663554764,-0.000688078346212198,0.003491961786962739,0.001626850848650682,0.9610071956830841,-0.2765185765941426,-0.003165533959441705,0.2765225061247708,0.9610022284059635,left_images/camera_left_9.png,right_images/camera_right_9.png
2025-06-30 10:14:12,0.4966554641723633,10,-0.026670752,-0.00023918957,0.11362946,-0.00012768515,0.00014000543,-0.016056895,1.047179,0.05897075,2.4944091e-05,0.0018486492,0.8437708882759261,-5.6440483001339284e-05,0.5367035354015535,0.00012866650936002323,0.999999987006331,-9.711986075720633e-05,-0.5367035229463135,0.00015100268164164375,0.8437708845742463,0.050760034,0.00053505006,0.112250455,0.0007789414,7.390981e-06,-0.015322443,1.047179,-0.0575944,-6.176896e-05,0.0043464787,0.8476603347862399,0.0009484319954497103,-0.5305384597810324,-0.0007869614546029947,0.99999954972568,0.0005303207583454378,0.5305387238663631,-3.201855353107279e-05,0.8476606994859816,0.0027373566,-0.006500907,0.09171626,-0.0006380934,-0.01187567,-0.006221218,2.0610293e-12,0.00020067739,-0.008734507,0.0019246629,0.9999936663554764,-0.000688078346212198,0.003491961786962739,0.001626850848650682,0.9610071956830841,-0.2765185765941426,-0.003165533959441705,0.2765225061247708,0.9610022284059635,left_images/camera_left_10.png,right_images/camera_right_10.png
2025-06-30 10:14:12,0.5631070137023926,11,-0.026670752,-0.00023919044,0.11362946,-0.00012768472,0.00014001195,-0.016056895,1.047179,0.05897075,2.4944091e-05,0.0018486492,0.8437708882759261,-5.6440483001339284e-05,0.5367035354015535,0.00012866650936002323,0.999999987006331,-9.711986075720633e-05,-0.5367035229463135,0.00015100268164164375,0.8437708845742463,0.050760034,0.00053505204,0.112250455,0.0007789379,7.379291e-06,-0.015322443,1.047179,-0.0575944,-6.176896e-05,0.0043464787,0.8476603347862399,0.0009484319954497103,-0.5305384597810324,-0.0007869614546029947,0.99999954972568,0.0005303207583454378,0.5305387238663631,-3.201855353107279e-05,0.8476606994859816,0.0028898683,0.0013463446,0.091727234,-0.013031084,-0.058177985,-0.0070443423,6.5757845e-08,0.00019361207,-0.008632991,0.0019664,0.9999011466527356,-0.01317293592580481,0.004916368745232711,0.014049977856614852,0.9495931159617083,-0.31317010112774535,-0.000543180239968682,0.3132082180869912,0.9496843249617204,left_images/camera_left_11.png,right_images/camera_right_11.png
2025-06-30 10:14:12,0.6289188861846924,12,-0.026670752,-0.00023919131,0.11362946,-0.00012768428,0.00014001847,-0.016056895,1.047179,0.05897075,2.4944091e-05,0.0018486492,0.8437708882759261,-5.6440483001339284e-05,0.5367035354015535,0.00012866650936002323,0.999999987006331,-9.711986075720633e-05,-0.5367035229463135,0.00015100268164164375,0.8437708845742463,0.050760034,0.000535054,0.112250455,0.0007789344,7.3676015e-06,-0.015322443,1.047179,-0.0575944,-6.176896e-05,0.0043464787,0.8476603347862399,0.0009484319954497103,-0.5305384597810324,-0.0007869614546029947,0.99999954972568,0.0005303207583454378,0.5305387238663631,-3.201855353107279e-05,0.8476606994859816,0.0031565316,0.007814404,0.09174423,-0.023086218,-0.09266299,-0.0069323014,1.0552351e-07,0.00019451571,-0.008618735,0.001992884,0.9997120888709985,-0.023252480039476504,0.0059212783416053155,0.023881360514638586,0.9402791748860605,-0.3395655369668118,0.002328086157099566,0.339609180452477,0.9405637589059246,left_images/camera_left_12.png,right_images/camera_right_12.png
2025-06-30 10:14:12,0.6985268592834473,13,-0.026670752,-0.00023919219,0.11362946,-0.00012768384,0.00014002499,-0.016056895,1.047179,0.05897075,2.4944091e-05,0.0018486492,0.8437708882759261,-5.6440483001339284e-05,0.5367035354015535,0.00012866650936002323,0.999999987006331,-9.711986075720633e-05,-0.5367035229463135,0.00015100268164164375,0.8437708845742463,0.050760034,0.000535056,0.112250455,0.0007789309,7.3559117e-06,-0.015322443,1.047179,-0.0575944,-6.176896e-05,0.0043464787,0.8476603347862399,0.0009484319954497103,-0.5305384597810324,-0.0007869614546029947,0.99999954972568,0.0005303207583454378,0.5305387238663631,-3.201855353107279e-05,0.8476606994859816,0.0034089743,0.012538682,0.09175398,-0.029124582,-0.11773585,-0.008592976,1.6588561e-07,0.00017929799,-0.008615078,0.0020243581,0.9995341969417211,-0.029276125444038795,0.008619606896688663,0.030419870764102647,0.9330270386228257,-0.3585180283631709,0.0024536924753993444,0.3586132368969459,0.9334830077272596,left_images/camera_left_13.png,right_images/camera_right_13.png
2025-06-30 10:14:12,0.7552952766418457,14,-0.026670752,-0.00023919306,0.11362946,-0.00012768341,0.00014003151,-0.016056895,1.047179,0.05897075,2.4944091e-05,0.0018486492,0.8437708882759261,-5.6440483001339284e-05,0.5367035354015535,0.00012866650936002323,0.999999987006331,-9.711986075720633e-05,-0.5367035229463135,0.00015100268164164375,0.8437708845742463,0.050760034,0.000535058,0.112250455,0.0007789274,7.344222e-06,-0.015322443,1.047179,-0.0575944,-6.176896e-05,0.0043464787,0.8476603347862399,0.0009484319954497103,-0.5305384597810324,-0.0007869614546029947,0.99999954972568,0.0005303207583454378,0.5305387238663631,-3.201855353107279e-05,0.8476606994859816,0.0036304123,0.015820013,0.09174156,-0.033654597,-0.13517451,-0.010569419,1.2018671e-07,0.0001610781,-0.008619359,0.0020701494,0.9993634407438028,-0.03377303143991565,0.011493287261106436,0.03562520744122904,0.9277236784642551,-0.3715637509385449,0.001886239506860437,0.37173667933647614,0.9283362986205014,left_images/camera_left_14.png,right_images/camera_right_14.png
2025-06-30 10:14:12,0.8046064376831055,15,-0.026670752,-0.00023919393,0.11362946,-0.00012768297,0.00014003803,-0.016056895,1.047179,0.05897075,2.4944091e-05,0.0018486492,0.8437708882759261,-5.6440483001339284e-05,0.5367035354015535,0.00012866650936002323,0.999999987006331,-9.711986075720633e-05,-0.5367035229463135,0.00015100268164164375,0.8437708845742463,0.050760034,0.00053505995,0.112250455,0.0007789239,7.3325323e-06,-0.015322443,1.047179,-0.0575944,-6.176896e-05,0.0043464787,0.8476603347862399,0.0009484319954497103,-0.5305384597810324,-0.0007869614546029947,0.99999954972568,0.0005303207583454378,0.5305387238663631,-3.201855353107279e-05,0.8476606994859816,0.0038164856,0.018061576,0.0917063,-0.036932345,-0.14762834,-0.012552704,1.206144e-07,0.0001434909,-0.008620877,0.0021334896,0.9992139616140595,-0.03701471377753929,0.014190485527402534,0.03962927340835219,0.9237709969604984,-0.3808893092011548,0.0009897497980032458,0.38115227421409115,0.924511743709491,left_images/camera_left_15.png,right_images/camera_right_15.png
2025-06-30 10:14:12,0.8558692932128906,16,-0.026670752,-0.00023919481,0.11362946,-0.00012768254,0.00014004455,-0.016056895,1.047179,0.05897075,2.4944091e-05,0.0018486492,0.8437708882759261,-5.6440483001339284e-05,0.5367035354015535,0.00012866650936002323,0.999999987006331,-9.711986075720633e-05,-0.5367035229463135,0.00015100268164164375,0.8437708845742463,0.050760034,0.00053506193,0.112250455,0.0007789204,7.3208425e-06,-0.015322443,1.047179,-0.0575944,-6.176896e-05,0.0043464787,0.8476603347862399,0.0009484319954497103,-0.5305384597810324,-0.0007869614546029947,0.99999954972568,0.0005303207583454378,0.5305387238663631,-3.201855353107279e-05,0.8476606994859816,0.003993562,0.019542847,0.091653004,-0.03999622,-0.15662251,-0.013185238,8.9006875e-08,0.00013913398,-0.008616465,0.002211148,0.9990785026090132,-0.04004109153433579,0.01545498667973849,0.04290068630236687,0.9207713235491977,-0.3877366385115606,0.0012948896933190398,0.38804236974613693,0.9216406254839705,left_images/camera_left_16.png,right_images/camera_right_16.png
2025-06-30 10:14:12,0.9062156677246094,17,-0.026670752,-0.00023919568,0.11362946,-0.0001276821,0.00014005107,-0.016056895,1.047179,0.05897075,2.4944091e-05,0.0018486492,0.8437708882759261,-5.6440483001339284e-05,0.5367035354015535,0.00012866650936002323,0.999999987006331,-9.711986075720633e-05,-0.5367035229463135,0.00015100268164164375,0.8437708845742463,0.050760034,0.0005350639,0.112250455,0.00077891693,7.309153e-06,-0.015322443,1.047179,-0.0575944,-6.176896e-05,0.0043464787,0.8476603347862399,0.0009484319954497103,-0.5305384597810324,-0.0007869614546029947,0.99999954972568,0.0005303207583454378,0.5305387238663631,-3.201855353107279e-05,0.8476606994859816,0.004244303,0.020491412,0.091587774,-0.04426742,-0.16317184,-0.010859993,9.1577746e-08,0.0001666255,-0.008607379,0.0022971751,0.9989238736962331,-0.044267967983736174,0.013836241191271765,0.046142556037997336,0.9184169543536386,-0.3929136832410739,0.0046860518554975375,0.39312929802595176,0.919471258904611,left_images/camera_left_17.png,right_images/camera_right_17.png
2025-06-30 10:14:12,0.9546449184417725,18,-0.026670752,-0.00023919655,0.11362946,-0.00012768166,0.00014005759,-0.016056895,1.047179,0.05897075,2.4944091e-05,0.0018486492,0.8437708882759261,-5.6440483001339284e-05,0.5367035354015535,0.00012866650936002323,0.999999987006331,-9.711986075720633e-05,-0.5367035229463135,0.00015100268164164375,0.8437708845742463,0.050760034,0.0005350659,0.112250455,0.00077891344,7.297463e-06,-0.015322443,1.047179,-0.0575944,-6.176896e-05,0.0043464787,0.8476603347862399,0.0009484319954497103,-0.5305384597810324,-0.0007869614546029947,0.99999954972568,0.0005303207583454378,0.5305387238663631,-3.201855353107279e-05,0.8476606994859816,0.0045497604,0.021186167,0.09153518,-0.05226343,-0.16790839,-0.006622763,1.5422656e-07,0.00020613527,-0.008602678,0.002365035,0.9985793814998525,-0.05216945291670214,0.010842832920603935,0.05218687180657736,0.9164627229478909,-0.39670216517934626,0.010758682745391988,0.3967044562760916,0.9178833396005587,left_images/camera_left_18.png,right_images/camera_right_18.png
2025-06-30 10:14:12,1.01422119140625,19,-0.026670752,-0.00023919743,0.11362946,-0.00012768123,0.0001400641,-0.016056895,1.047179,0.05897075,2.4944091e-05,0.0018486492,0.8437708882759261,-5.6440483001339284e-05,0.5367035354015535,0.00012866650936002323,0.999999987006331,-9.711986075720633e-05,-0.5367035229463135,0.00015100268164164375,0.8437708845742463,0.050760034,0.00053506787,0.112250455,0.00077890995,7.2857733e-06,-0.015322443,1.047179,-0.0575944,-6.176896e-05,0.0043464787,0.8476603347862399,0.0009484319954497103,-0.5305384597810324,-0.0007869614546029947,0.99999954972568,0.0005303207583454378,0.5305387238663631,-3.201855353107279e-05,0.8476606994859816,0.0050660116,0.021667982,0.09149424,-0.07246075,-0.17146058,-0.001000494,1.8985756e-07,0.00024001882,-0.008597616,0.0024179686,0.9973631795015108,-0.07209102305284688,0.008341017313922484,0.06941198830385185,0.9140677468545401,-0.3995774393530878,0.021181691489189147,0.39910279196650394,0.916661495531583,left_images/camera_left_19.png,right_images/camera_right_19.png
2025-06-30 10:14:12,1.079881191253662,20,-0.026670752,-0.00023919408,0.11362946,-0.00012766417,0.00013998244,-0.016056895,1.047179,0.05897075,2.4944091e-05,0.0018486492,0.8437708882759261,-5.6440483001339284e-05,0.5367035354015535,0.00012866650936002323,0.999999987006331,-9.711986075720633e-05,-0.5367035229463135,0.00015100268164164375,0.8437708845742463,0.050760034,0.00053506985,0.112250455,0.00077890645,7.2740836e-06,-0.015322443,1.047179,-0.0575944,-6.176896e-05,0.0043464787,0.8476603347862399,0.0009484319954497103,-0.5305384597810324,-0.0007869614546029947,0.99999954972568,0.0005303207583454378,0.5305387238663631,-3.201855353107279e-05,0.8476606994859816,0.0056494568,0.0215807,0.09142927,-0.09533133,-0.17196728,0.007261185,2.3378101e-07,0.00029861304,-0.00859582,0.0024876548,0.9955066347675446,-0.09462806082799227,0.003474224767108708,0.0880919270257241,0.9120399559771324,-0.40052831497176955,0.03473258594883336,0.39903464612131656,0.9162777955773799,left_images/camera_left_20.png,right_images/camera_right_20.png
2025-06-30 10:14:13,1.1395111083984375,21,-0.026670752,-0.00023919431,0.11362946,-0.00012766373,0.00013998896,-0.016056895,1.047179,0.05897075,2.4944091e-05,0.0018486492,0.8437708882759261,-5.6440483001339284e-05,0.5367035354015535,0.00012866650936002323,0.999999987006331,-9.711986075720633e-05,-0.5367035229463135,0.00015100268164164375,0.8437708845742463,0.050760034,0.0005350718,0.112250455,0.00077890296,7.262394e-06,-0.015322443,1.047179,-0.0575944,-6.176896e-05,0.0043464787,0.8476603347862399,0.0009484319954497103,-0.5305384597810324,-0.0007869614546029947,0.99999954972568,0.0005303207583454378,0.5305387238663631,-3.201855353107279e-05,0.8476606994859816,0.0061690863,0.020934083,0.09132195,-0.11597503,-0.17037196,0.017099375,3.3216895e-07,0.0003762887,-0.008585102,0.0025991658,0.9933644522188422,-0.11495671691969878,-0.0034667424196142063,0.1039557543265679,0.9103807372706012,-0.40049983064794287,0.04919620117807852,0.39748190706204595,0.9162902746116894,left_images/camera_left_21.png,right_images/camera_right_21.png
2025-06-30 10:14:13,1.192720890045166,22,-0.026670752,-0.00023919519,0.11362946,-0.0001276633,0.00013999548,-0.016056895,1.047179,0.05897075,2.4944091e-05,0.0018486492,0.8437708882759261,-5.6440483001339284e-05,0.5367035354015535,0.00012866650936002323,0.999999987006331,-9.711986075720633e-05,-0.5367035229463135,0.00015100268164164375,0.8437708845742463,0.050760034,0.0005350738,0.112250455,0.00077889947,7.250704e-06,-0.015322443,1.047179,-0.0575944,-6.176896e-05,0.0043464787,0.8476603347862399,0.0009484319954497103,-0.5305384597810324,-0.0007869614546029947,0.99999954972568,0.0005303207583454378,0.5305387238663631,-3.201855353107279e-05,0.8476606994859816,0.006570708,0.019835047,0.09117148,-0.1328109,-0.16745539,0.027291944,3.7602823e-07,0.00046157915,-0.00856325,0.0027564531,0.9912453473785291,-0.13153259895971336,-0.011482016866499037,0.11600498299908539,0.9091448482926044,-0.3999981109235385,0.06305160759093512,0.39516429524176483,0.9164440378693498,left_images/camera_left_22.png,right_images/camera_right_22.png
2025-06-30 10:14:13,1.242711067199707,23,-0.026670752,-0.00023919606,0.11362946,-0.00012766286,0.000140002,-0.016056895,1.047179,0.05897075,2.4944091e-05,0.0018486492,0.8437708882759261,-5.6440483001339284e-05,0.5367035354015535,0.00012866650936002323,0.999999987006331,-9.711986075720633e-05,-0.5367035229463135,0.00015100268164164375,0.8437708845742463,0.050760034,0.0005350758,0.112250455,0.000778896,7.2390144e-06,-0.015322443,1.047179,-0.0575944,-6.176896e-05,0.0043464787,0.8476603347862399,0.0009484319954497103,-0.5305384597810324,-0.0007869614546029947,0.99999954972568,0.0005303207583454378,0.5305387238663631,-3.201855353107279e-05,0.8476606994859816,0.0067976844,0.01857364,0.09099902,-0.1444624,-0.16435671,0.03411465,2.950352e-07,0.000516702,-0.008536471,0.0029372089,0.9895769805672778,-0.1430057776994184,-0.016933607882960933,0.12443684588612629,0.9083588416851529,-0.399248902463513,0.0724766922345509,0.3929803586402147,0.9166861877467917,left_images/camera_left_23.png,right_images/camera_right_23.png
2025-06-30 10:14:13,1.2939705848693848,24,-0.026670752,-0.00023919693,0.11362946,-0.00012766242,0.00014000852,-0.016056895,1.047179,0.05897075,2.4944091e-05,0.0018486492,0.8437708882759261,-5.6440483001339284e-05,0.5367035354015535,0.00012866650936002323,0.999999987006331,-9.711986075720633e-05,-0.5367035229463135,0.00015100268164164375,0.8437708845742463,0.050760034,0.00053507776,0.112250455,0.0007788925,7.2273247e-06,-0.015322443,1.047179,-0.0575944,-6.176896e-05,0.0043464787,0.8476603347862399,0.0009484319954497103,-0.5305384597810324,-0.0007869614546029947,0.99999954972568,0.0005303207583454378,0.5305387238663631,-3.201855353107279e-05,0.8476606994859816,0.006916559,0.017092716,0.09080714,-0.15313028,-0.16055442,0.038722843,1.9521246e-07,0.00055328885,-0.00850857,0.0031366413,0.988231009184459,-0.15155717380907271,-0.02073392276613363,0.1309152899740115,0.9080631520317111,-0.39784733098671665,0.07912432835282686,0.3904506818911194,0.9172173164923751,left_images/camera_left_24.png,right_images/camera_right_24.png
2025-06-30 10:14:13,1.3470954895019531,25,-0.026670752,-0.0002391978,0.11362946,-0.00012766199,0.00014001504,-0.016056895,1.047179,0.05897075,2.4944091e-05,0.0018486492,0.8437708882759261,-5.6440483001339284e-05,0.5367035354015535,0.00012866650936002323,0.999999987006331,-9.711986075720633e-05,-0.5367035229463135,0.00015100268164164375,0.8437708845742463,0.050760034,0.00053507974,0.112250455,0.000778889,7.215635e-06,-0.015322443,1.047179,-0.0575944,-6.176896e-05,0.0043464787,0.8476603347862399,0.0009484319954497103,-0.5305384597810324,-0.0007869614546029947,0.99999954972568,0.0005303207583454378,0.5305387238663631,-3.201855353107279e-05,0.8476606994859816,0.006973042,0.015648559,0.09062313,-0.15956132,-0.15670934,0.042522192,1.3567684e-07,0.0005843191,-0.0084835775,0.003327204,0.9871586214487886,-0.15791590454129925,-0.024091973605966703,0.13559070966908174,0.9080586933058267,-0.3962884920902316,0.08445718175952902,0.38793295374925035,0.9178098974431579,left_images/camera_left_25.png,right_images/camera_right_25.png
2025-06-30 10:14:13,1.4096932411193848,26,-0.026670752,-0.00023919868,0.11362946,-0.00012766155,0.00014002156,-0.016056895,1.047179,0.05897075,2.4944091e-05,0.0018486492,0.8437708882759261,-5.6440483001339284e-05,0.5367035354015535,0.00012866650936002323,0.999999987006331,-9.711986075720633e-05,-0.5367035229463135,0.00015100268164164375,0.8437708845742463,0.050760034,0.0005350817,0.112250455,0.0007788855,7.203945e-06,-0.015322443,1.047179,-0.0575944,-6.176896e-05,0.0043464787,0.8476603347862399,0.0009484319954497103,-0.5305384597810324,-0.0007869614546029947,0.99999954972568,0.0005303207583454378,0.5305387238663631,-3.201855353107279e-05,0.8476606994859816,0.007043111,0.013933497,0.09042627,-0.16621378,-0.1520473,0.048000958,2.0125361e-07,0.0006345412,-0.008449328,0.003532879,0.985941719299867,-0.16450790727774758,-0.029258752316505796,0.1398266536668031,0.9081874694041162,-0.3945174613901034,0.09147367418206472,0.38488007074989455,0.9184225052072656,left_images/camera_left_26.png,right_images/camera_right_26.png
2025-06-30 10:14:13,1.4762225151062012,27,-0.026670752,-0.00023919955,0.11362946,-0.00012766111,0.00014002807,-0.016056895,1.047179,0.05897075,2.4944091e-05,0.0018486492,0.8437708882759261,-5.6440483001339284e-05,0.5367035354015535,0.00012866650936002323,0.999999987006331,-9.711986075720633e-05,-0.5367035229463135,0.00015100268164164375,0.8437708845742463,0.050760034,0.0005350837,0.112250455,0.000778882,7.1922555e-06,-0.015322443,1.047179,-0.0575944,-6.176896e-05,0.0043464787,0.8476603347862399,0.0009484319954497103,-0.5305384597810324,-0.0007869614546029947,0.99999954972568,0.0005303207583454378,0.5305387238663631,-3.201855353107279e-05,0.8476606994859816,0.007079765,0.011879088,0.090163946,-0.17176847,-0.14900869,0.053102236,1.8956399e-07,0.0006766721,-0.008374381,0.0038228398,0.9848594975412106,-0.16999553124184497,-0.03396011573415026,0.14307163258313776,0.9076877442917646,-0.3945040770543744,0.09788911100255024,0.38367235790493304,0.9182664339541108,left_images/camera_left_27.png,right_images/camera_right_27.png
2025-06-30 10:14:13,1.54838228225708,28,-0.026670752,-0.00023920042,0.11362946,-0.00012766068,0.0001400346,-0.016056895,1.047179,0.05897075,2.4944091e-05,0.0018486492,0.8437708882759261,-5.6440483001339284e-05,0.5367035354015535,0.00012866650936002323,0.999999987006331,-9.711986075720633e-05,-0.5367035229463135,0.00015100268164164375,0.8437708845742463,0.050760034,0.0005350857,0.112250455,0.0007788785,7.1805657e-06,-0.015322443,1.047179,-0.0575944,-6.176896e-05,0.0043464787,0.8476603347862399,0.0009484319954497103,-0.5305384597810324,-0.0007869614546029947,0.99999954972568,0.0005303207583454378,0.5305387238663631,-3.201855353107279e-05,0.8476606994859816,0.0070250737,0.009671135,0.08987604,-0.1746796,-0.14483492,0.054588374,1.2508104e-07,0.0006883264,-0.008316985,0.004130259,0.9842916777073096,-0.17291619933079078,-0.03563539259113559,0.14527871708006707,0.9079709116069288,-0.3930431503527991,0.10031942762845074,0.38169203775383814,0.9188292554961575,left_images/camera_left_28.png,right_images/camera_right_28.png
2025-06-30 10:14:13,1.6123840808868408,29,-0.026670752,-0.0002392013,0.11362946,-0.00012766024,0.00014004111,-0.016056895,1.047179,0.05897075,2.4944091e-05,0.0018486492,0.8437708882759261,-5.6440483001339284e-05,0.5367035354015535,0.00012866650936002323,0.999999987006331,-9.711986075720633e-05,-0.5367035229463135,0.00015100268164164375,0.8437708845742463,0.050760034,0.00053508766,0.112250455,0.000778875,7.168876e-06,-0.015322443,1.047179,-0.0575944,-6.176896e-05,0.0043464787,0.8476603347862399,0.0009484319954497103,-0.5305384597810324,-0.0007869614546029947,0.99999954972568,0.0005303207583454378,0.5305387238663631,-3.201855353107279e-05,0.8476606994859816,0.0069444394,0.0071623265,0.08954192,-0.17575547,-0.14090899,0.054103844,4.3948333e-08,0.00068380823,-0.008244186,0.0044902507,0.9840948238825998,-0.17404125625928119,-0.035595206519504645,0.14647358326212462,0.9083380317492253,-0.3917492941720468,0.10051301912602376,0.380304695208506,0.9193832018198598,left_images/camera_left_29.png,right_images/camera_right_29.png
2025-06-30 10:14:13,1.6749048233032227,30,-0.026670752,-0.00023920217,0.11362946,-0.0001276598,0.00014004763,-0.016056895,1.047179,0.05897075,2.4944091e-05,0.0018486492,0.8437708882759261,-5.6440483001339284e-05,0.5367035354015535,0.00012866650936002323,0.999999987006331,-9.711986075720633e-05,-0.5367035229463135,0.00015100268164164375,0.8437708845742463,0.050760034,0.00053508964,0.112250455,0.00077887153,7.1571862e-06,-0.015322443,1.047179,-0.0575944,-6.176896e-05,0.0043464787,0.8476603347862399,0.0009484319954497103,-0.5305384597810324,-0.0007869614546029947,0.99999954972568,0.0005303207583454378,0.5305387238663631,-3.201855353107279e-05,0.8476606994859816,0.006862931,0.0044820504,0.089177564,-0.17605439,-0.13665877,0.052950013,4.0612118e-08,0.0006759884,-0.008172365,0.004881135,0.9840475973695219,-0.17441399058800408,-0.0350725818616042,0.1471858158179091,0.9088900189789325,-0.3901990120726756,0.09993328641292576,0.37881221375193685,0.9200623049441102,left_images/camera_left_30.png,right_images/camera_right_30.png
2025-06-30 10:14:13,1.7420086860656738,31,-0.026670752,-0.00023920304,0.11362946,-0.00012765937,0.00014005415,-0.016056895,1.047179,0.05897075,2.4944091e-05,0.0018486492,0.8437708882759261,-5.6440483001339284e-05,0.5367035354015535,0.00012866650936002323,0.999999987006331,-9.711986075720633e-05,-0.5367035229463135,0.00015100268164164375,0.8437708845742463,0.050760034,0.0005350916,0.112250455,0.00077886804,7.1454965e-06,-0.015322443,1.047179,-0.0575944,-6.176896e-05,0.0043464787,0.8476603347862399,0.0009484319954497103,-0.5305384597810324,-0.0007869614546029947,0.99999954972568,0.0005303207583454378,0.5305387238663631,-3.201855353107279e-05,0.8476606994859816,0.0067698443,0.0013208552,0.08876885,-0.17622465,-0.12996295,0.051833365,3.601014e-08,0.0006753287,-0.008112571,0.0053102635,0.9839987210483759,-0.17469966938643836,-0.035022028659536,0.1478295397627257,0.9102079520760277,-0.38686937220605117,0.09946328040388033,0.37550167708524634,0.9214692324529703,left_images/camera_left_31.png,right_images/camera_right_31.png
2025-06-30 10:14:13,1.8028504848480225,32,-0.026670752,-0.00023920392,0.11362946,-0.00012765893,0.00014006067,-0.016056895,1.047179,0.05897075,2.4944091e-05,0.0018486492,0.8437708882759261,-5.6440483001339284e-05,0.5367035354015535,0.00012866650936002323,0.999999987006331,-9.711986075720633e-05,-0.5367035229463135,0.00015100268164164375,0.8437708845742463,0.050760034,0.0005350936,0.112250455,0.00077886455,7.133807e-06,-0.015322443,1.047179,-0.0575944,-6.176896e-05,0.0043464787,0.8476603347862399,0.0009484319954497103,-0.5305384597810324,-0.0007869614546029947,0.99999954972568,0.0005303207583454378,0.5305387238663631,-3.201855353107279e-05,0.8476606994859816,0.0066660615,-0.0019757813,0.088345595,-0.1760023,-0.12250743,0.05031754,4.6165297e-08,0.0006736627,-0.008060893,0.005751754,0.9840247910251575,-0.1746062481347888,-0.03475440634203907,0.14826979541589924,0.9118145618294619,-0.3828972089256773,0.09854581886220432,0.37162731727907056,0.9231369663472146,left_images/camera_left_32.png,right_images/camera_right_32.png
2025-06-30 10:14:13,1.8514256477355957,33,-0.026670752,-0.00023920479,0.11362946,-0.0001276585,0.00014006719,-0.016056895,1.047179,0.05897075,2.493717e-05,0.0018486492,0.8437708882535591,-5.675390643656047e-05,0.5367035354036661,0.00012874416229290874,0.9999999870410895,-9.66579630134889e-05,-0.536703522962856,0.00015065462237385865,0.8437708846259417,0.050760034,0.0005350956,0.112250455,0.00077886105,7.122117e-06,-0.015322443,1.047179,-0.0575944,-6.176896e-05,0.0043464787,0.8476603347862399,0.0009484319954497103,-0.5305384597810324,-0.0007869614546029947,0.99999954972568,0.0005303207583454378,0.5305387238663631,-3.201855353107279e-05,0.8476606994859816,0.006567099,-0.005453052,0.087899335,-0.17550799,-0.114901826,0.048578303,5.1778976e-08,0.00067121093,-0.008005329,0.00621932,0.9841044688859868,-0.174240918042628,-0.034329241155203874,0.1485117272583207,0.9134402753011087,-0.37890781243540617,0.09737895658395664,0.36778657661406966,0.9247974766818533,left_images/camera_left_33.png,right_images/camera_right_33.png
2025-06-30 10:14:13,1.9044427871704102,34,-0.026670752,-0.0002392046,0.11362946,-0.0001276617,0.00014012255,-0.016056895,1.047179,0.05897075,2.493717e-05,0.0018486492,0.8437708882535591,-5.675390643656047e-05,0.5367035354036661,0.00012874416229290874,0.9999999870410895,-9.66579630134889e-05,-0.536703522962856,0.00015065462237385865,0.8437708846259417,0.050760034,0.00053509756,0.112250455,0.00077885756,7.1104273e-06,-0.015322443,1.047179,-0.0575944,-6.176047e-05,0.004346478,0.8476603782209272,0.0009481769868736637,-0.5305383908396794,-0.0007869603747867112,0.9999995499804013,0.0005298418287769016,0.5305386544708343,-3.161323408436349e-05,0.8476607429348608,0.006498863,-0.008871603,0.08746261,-0.1750733,-0.108463556,0.04717519,3.7930032e-08,0.00067080697,-0.007935823,0.0066846125,0.984172243455558,-0.1739128253354242,-0.034048853071788746,0.148617466565912,0.9146345189907167,-0.3759741285010853,0.09652897929214867,0.3649630472451571,0.9260043900016595,left_images/camera_left_34.png,right_images/camera_right_34.png
2025-06-30 10:14:13,1.9546551704406738,35,-0.026670752,-0.00023920022,0.11362946,-0.00012764828,0.00014008976,-0.016056895,1.047179,0.05897075,2.493717e-05,0.0018486492,0.8437708882535591,-5.675390643656047e-05,0.5367035354036661,0.00012874416229290874,0.9999999870410895,-9.66579630134889e-05,-0.536703522962856,0.00015065462237385865,0.8437708846259417,0.050760034,0.0005351043,0.112250455,0.0007788336,7.0584465e-06,-0.015322443,1.047179,-0.0575944,-6.176047e-05,0.004346478,0.8476603782209272,0.0009481769868736637,-0.5305383908396794,-0.0007869603747867112,0.9999995499804013,0.0005298418287769016,0.5305386544708343,-3.161323408436349e-05,0.8476607429348608,0.006380614,-0.013187752,0.08696573,-0.1735515,-0.1020909,0.04382466,1.0127082e-07,0.00064962136,-0.007810387,0.0072302446,0.9844907888807326,-0.1725113690923377,-0.031901632291785026,0.14834124997197737,0.9156465560990709,-0.3736124433964461,0.0936630138621663,0.36308568112471545,0.9270361524754346,left_images/camera_left_35.png,right_images/camera_right_35.png
2025-06-30 10:14:13,2.0042169094085693,36,-0.026670752,-0.00023919521,0.11362946,-0.00012763486,0.00014005696,-0.016056895,1.047179,0.05897075,2.4944091e-05,0.0018486492,0.8437708882759261,-5.6440483001339284e-05,0.5367035354015535,0.00012866650936002323,0.999999987006331,-9.711986075720633e-05,-0.5367035229463135,0.00015100268164164375,0.8437708845742463,0.050760034,0.0005351113,0.112250455,0.0007788096,7.0064625e-06,-0.015322443,1.047179,-0.0575944,-6.176047e-05,0.004346478,0.8476603782209272,0.0009481769868736637,-0.5305383908396794,-0.0007869603747867112,0.9999995499804013,0.0005298418287769016,0.5305386544708343,-3.161323408436349e-05,0.8476607429348608,0.0062755602,-0.017535407,0.086444505,-0.1710528,-0.096833594,0.03941969,1.3371324e-07,0.00061769097,-0.0076759933,0.0078067277,0.9850053628446291,-0.17013359562213354,-0.02861808533086529,0.14747095024035217,0.9163926423737255,-0.37212476918166676,0.08953632783696187,0.3623245570534594,0.9277414302236838,left_images/camera_left_36.png,right_images/camera_right_36.png
2025-06-30 10:14:13,2.059412956237793,37,-0.026670752,-0.00023919572,0.11362946,-0.00012763441,0.0001400635,-0.016056895,1.047179,0.05897075,2.4944091e-05,0.0018486492,0.8437708882759261,-5.6440483001339284e-05,0.5367035354015535,0.00012866650936002323,0.999999987006331,-9.711986075720633e-05,-0.5367035229463135,0.00015100268164164375,0.8437708845742463,0.050760034,0.0005351183,0.112250455,0.0007787856,6.9544785e-06,-0.015322443,1.047179,-0.0575944,-6.176047e-05,0.004346478,0.8476603782209272,0.0009481769868736637,-0.5305383908396794,-0.0007869603747867112,0.9999995499804013,0.0005298418287769016,0.5305386544708343,-3.161323408436349e-05,0.8476607429348608,0.0061148773,-0.022293147,0.085912906,-0.16373123,-0.091632,0.032296423,2.1195181e-07,0.00056364393,-0.007517599,0.008402893,0.9863562008586774,-0.1630073910426287,-0.023022499714674287,0.14301351630895645,0.9177156354100856,-0.3706010613541343,0.08153882008334742,0.36225212627303993,0.9285067677890544,left_images/camera_left_37.png,right_images/camera_right_37.png
2025-06-30 10:14:14,2.107288360595703,38,-0.026670752,-0.00023919238,0.11362946,-0.00012761736,0.00013998183,-0.016056895,1.047179,0.05897075,2.4944091e-05,0.0018486492,0.8437708882759261,-5.6440483001339284e-05,0.5367035354015535,0.00012866650936002323,0.999999987006331,-9.711986075720633e-05,-0.5367035229463135,0.00015100268164164375,0.8437708845742463,0.050760034,0.00053512526,0.112250455,0.00077876163,6.9024945e-06,-0.015322443,1.047179,-0.0575944,-6.176047e-05,0.004346478,0.8476603782209272,0.0009481769868736637,-0.5305383908396794,-0.0007869603747867112,0.9999995499804013,0.0005298418287769016,0.5305386544708343,-3.161323408436349e-05,0.8476607429348608,0.0059168357,-0.027204182,0.08546103,-0.15236029,-0.08599436,0.024560547,2.1829871e-07,0.0005073006,-0.007336352,0.008923619,0.9882516088458693,-0.15187402085891902,-0.017118393665746426,0.13494809636148045,0.9196779858404746,-0.3687565777702417,0.07174795399147929,0.3621141866159793,0.9293683591286526,left_images/camera_left_38.png,right_images/camera_right_38.png
2025-06-30 10:14:14,2.1591403484344482,39,-0.026670752,-0.00023919261,0.11362946,-0.00012761692,0.00013998835,-0.016056895,1.047179,0.05897075,2.4944091e-05,0.0018486492,0.8437708882759261,-5.6440483001339284e-05,0.5367035354015535,0.00012866650936002323,0.999999987006331,-9.711986075720633e-05,-0.5367035229463135,0.00015100268164164375,0.8437708845742463,0.050760034,0.00053513225,0.112250455,0.00077873765,6.8505105e-06,-0.015322443,1.047179,-0.0575944,-6.176047e-05,0.004346478,0.8476603782209272,0.0009481769868736637,-0.5305383908396794,-0.0007869603747867112,0.9999995499804013,0.0005298418287769016,0.5305386544708343,-3.161323408436349e-05,0.8476607429348608,0.005730482,-0.03230434,0.08510944,-0.13952567,-0.0808456,0.015805975,2.4057385e-07,0.0004418844,-0.0071071177,0.009357294,0.9902039551403591,-0.1392617218145417,-0.010114349293905766,0.12583992138754355,0.9214622708786543,-0.36752088040318265,0.06050158187656579,0.36264784045186704,0.9299602692620962,left_images/camera_left_39.png,right_images/camera_right_39.png
2025-06-30 10:14:14,2.2103307247161865,40,-0.026670752,-0.00023919348,0.11362946,-0.00012761648,0.00013999487,-0.016056895,1.047179,0.05897075,2.4944091e-05,0.0018486492,0.8437708882759261,-5.6440483001339284e-05,0.5367035354015535,0.00012866650936002323,0.999999987006331,-9.711986075720633e-05,-0.5367035229463135,0.00015100268164164375,0.8437708845742463,0.050760034,0.00053513923,0.112250455,0.0007787137,6.7985266e-06,-0.015322443,1.047179,-0.0575944,-6.176047e-05,0.004346478,0.8476603782209272,0.0009481769868736637,-0.5305383908396794,-0.0007869603747867112,0.9999995499804013,0.0005298418287769016,0.5305386544708343,-3.161323408436349e-05,0.8476607429348608,0.0055927746,-0.037191287,0.08484414,-0.12756264,-0.076083146,0.0076382123,2.1789486e-07,0.0003818136,-0.0068657864,0.009707182,0.9918354942453671,-0.12747689816900412,-0.003463060533316527,0.11733957724826291,0.9229228950916515,-0.3666670878696957,0.049937720875576616,0.3632670782617846,0.9303457711436641,left_images/camera_left_40.png,right_images/camera_right_40.png
2025-06-30 10:14:14,2.264928102493286,41,-0.026670752,-0.00023919436,0.11362946,-0.00012761605,0.00014000139,-0.016056895,1.047179,0.05897075,2.4944091e-05,0.0018486492,0.8437708882759261,-5.6440483001339284e-05,0.5367035354015535,0.00012866650936002323,0.999999987006331,-9.711986075720633e-05,-0.5367035229463135,0.00015100268164164375,0.8437708845742463,0.050760034,0.0005351462,0.112250455,0.0007786897,6.7465426e-06,-0.015322443,1.047179,-0.0575944,-6.176047e-05,0.004346478,0.8476603782209272,0.0009481769868736637,-0.5305383908396794,-0.0007869603747867112,0.9999995499804013,0.0005298418287769016,0.5305386544708343,-3.161323408436349e-05,0.8476607429348608,0.0054794997,-0.04212782,0.08461105,-0.11716802,-0.072060764,0.0009240555,1.7711088e-07,0.0003317004,-0.006598822,0.010035209,0.9931041190702509,-0.11721768348396654,0.0020550825662722545,0.10979510337317154,0.9237864277441613,-0.36682921256486173,0.041100413148484685,0.364525239996265,0.9302860342092049,left_images/camera_left_41.png,right_images/camera_right_41.png
2025-06-30 10:14:14,2.3186450004577637,42,-0.026670752,-0.00023919523,0.11362946,-0.00012761561,0.0001400079,-0.016056895,1.047179,0.05897075,2.4944091e-05,0.0018486492,0.8437708882759261,-5.6440483001339284e-05,0.5367035354015535,0.00012866650936002323,0.999999987006331,-9.711986075720633e-05,-0.5367035229463135,0.00015100268164164375,0.8437708845742463,0.050760034,0.0005351501,0.112250455,0.00077864574,6.780389e-06,-0.015322443,1.047179,-0.0575944,-6.176047e-05,0.004346478,0.8476603782209272,0.0009481769868736637,-0.5305383908396794,-0.0007869603747867112,0.9999995499804013,0.0005298418287769016,0.5305386544708343,-3.161323408436349e-05,0.8476607429348608,0.005376059,-0.04674194,0.084394366,-0.1089431,-0.06907996,-0.005170325,1.5341222e-07,0.0002818905,-0.006337425,0.010347246,0.9940054519019894,-0.10908628124175754,0.007303754785451623,0.10411274559763561,0.9240608632725303,-0.36779349800145744,0.03337211100970147,0.36634915615143737,0.9298788082292693,left_images/camera_left_42.png,right_images/camera_right_42.png
2025-06-30 10:14:14,2.3840575218200684,43,-0.026670752,-0.0002391961,0.11362946,-0.00012761517,0.00014001442,-0.016056895,1.047179,0.05897075,2.4944091e-05,0.0018486492,0.8437708882759261,-5.6440483001339284e-05,0.5367035354015535,0.00012866650936002323,0.999999987006331,-9.711986075720633e-05,-0.5367035229463135,0.00015100268164164375,0.8437708845742463,0.050760034,0.00053515675,0.112250455,0.0007786217,6.7284195e-06,-0.015322443,1.047179,-0.0575944,-6.175304e-05,0.0043464787,0.8476603957140835,0.0009480056997508115,-0.530538363196326,-0.0007870219148779606,0.9999995501550388,0.0005294206507554242,0.530538626430111,-3.122359979955907e-05,0.8476607604995868,0.0053887395,-0.05190495,0.08416966,-0.10409609,-0.06570017,-0.007427718,1.0663478e-07,0.00027329268,-0.0060390187,0.010681452,0.9945050862554977,-0.10431288910110809,0.008857458965466913,0.10019556387168388,0.9238928690586119,-0.3693004406754505,0.03033945273699446,0.3681586447036475,0.929267846176544,left_images/camera_left_43.png,right_images/camera_right_43.png
2025-06-30 10:14:14,2.4336087703704834,44,-0.026670752,-0.00023919698,0.11362946,-0.00012761474,0.00014002094,-0.016056895,1.047179,0.05897075,2.4944091e-05,0.0018486492,0.8437708882759261,-5.6440483001339284e-05,0.5367035354015535,0.00012866650936002323,0.999999987006331,-9.711986075720633e-05,-0.5367035229463135,0.00015100268164164375,0.8437708845742463,0.050760034,0.0005351601,0.112250455,0.00077860284,6.7156216e-06,-0.015322443,1.047179,-0.0575944,-6.175304e-05,0.0043464787,0.8476603957140835,0.0009480056997508115,-0.530538363196326,-0.0007870219148779606,0.9999995501550388,0.0005294206507554242,0.530538626430111,-3.122359979955907e-05,0.8476607604995868,0.005364887,-0.05726844,0.083907165,-0.10117431,-0.06283736,-0.0075677074,3.2233e-08,0.00027717117,-0.0057286513,0.011062367,0.9948047542077663,-0.1014420529144605,0.008544641954191596,0.09733789015192572,0.9232509639842217,-0.3716624713943781,0.029813355168400255,0.37056331092365996,0.9283286037017806,left_images/camera_left_44.png,right_images/camera_right_44.png
2025-06-30 10:14:14,2.496051788330078,45,-0.026670752,-0.00023919785,0.11362946,-0.0001276143,0.00014002746,-0.016056895,1.047179,0.05897075,2.4944091e-05,0.0018486492,0.8437708882759261,-5.6440483001339284e-05,0.5367035354015535,0.00012866650936002323,0.999999987006331,-9.711986075720633e-05,-0.5367035229463135,0.00015100268164164375,0.8437708845742463,0.050760116,0.00053514435,0.112250455,0.0007786496,6.727575e-06,-0.015322527,1.047179,-0.0575944,-6.175304e-05,0.0043464787,0.8476603957140835,0.0009480056997508115,-0.530538363196326,-0.0007870219148779606,0.9999995501550388,0.0005294206507554242,0.530538626430111,-3.122359979955907e-05,0.8476607604995868,0.005195444,-0.062657565,0.083642684,-0.09934896,-0.05914369,-0.0076832436,9.880404e-09,0.00026880018,-0.005434183,0.011441271,0.99498850447223,-0.09964005703729882,0.008350748572395495,0.09554283432913728,0.9227911792953037,-0.37326666904927097,0.029486315071072487,0.37219389899404154,0.92768650888926,left_images/camera_left_45.png,right_images/camera_right_45.png
2025-06-30 10:14:14,2.5490338802337646,46,-0.026670752,-0.00023919872,0.11362946,-0.00012761386,0.00014003398,-0.016056895,1.047179,0.05897075,2.4944091e-05,0.0018486492,0.8437708882759261,-5.6440483001339284e-05,0.5367035354015535,0.00012866650936002323,0.999999987006331,-9.711986075720633e-05,-0.5367035229463135,0.00015100268164164375,0.8437708845742463,0.050760116,0.0005351441,0.112250455,0.0007786307,6.714777e-06,-0.015322527,1.047179,-0.0575944,-6.175304e-05,0.0043464787,0.8476603957140835,0.0009480056997508115,-0.530538363196326,-0.0007870219148779606,0.9999995501550388,0.0005294206507554242,0.530538626430111,-3.122359979955907e-05,0.8476607604995868,0.0049642003,-0.06973536,0.08335205,-0.09822607,-0.052818608,-0.008044597,5.1898645e-09,0.00025652983,-0.0050595943,0.0118763875,0.9950993815602316,-0.09853458842147111,0.008255646737576058,0.09445991848705973,0.9226162049685308,-0.3739741463375294,0.02923259512705621,0.37292126945788046,0.9274023841720811,left_images/camera_left_46.png,right_images/camera_right_46.png
2025-06-30 10:14:14,2.598546028137207,47,-0.026670752,-0.0002391996,0.11362946,-0.00012761343,0.0001400405,-0.016056895,1.047179,0.05897075,2.4944091e-05,0.0018486492,0.8437708882759261,-5.6440483001339284e-05,0.5367035354015535,0.00012866650936002323,0.999999987006331,-9.711986075720633e-05,-0.5367035229463135,0.00015100268164164375,0.8437708845742463,0.050760116,0.0005351476,0.112250455,0.00077861187,6.7019823e-06,-0.015322527,1.047179,-0.0575944,-6.175304e-05,0.0043464787,0.8476603957140835,0.0009480056997508115,-0.530538363196326,-0.0007870219148779606,0.9999995501550388,0.0005294206507554242,0.530538626430111,-3.122359979955907e-05,0.8476607604995868,0.004823192,-0.076835945,0.08306435,-0.09815082,-0.046829723,-0.00694749,2.8848495e-08,0.0002637498,-0.0046803225,0.012313992,0.9951165835390734,-0.09847790073056185,0.006714777228131545,0.09379448892605081,0.9222118722066893,-0.3751371170760544,0.03075026849675882,0.3739349754017856,0.9269450119390269,left_images/camera_left_47.png,right_images/camera_right_47.png
2025-06-30 10:14:14,2.6484029293060303,48,-0.026670752,-0.00023920047,0.11362946,-0.00012761299,0.00014004702,-0.016056895,1.047179,0.05897075,2.4944091e-05,0.0018486492,0.8437708882759261,-5.6440483001339284e-05,0.5367035354015535,0.00012866650936002323,0.999999987006331,-9.711986075720633e-05,-0.5367035229463135,0.00015100268164164375,0.8437708845742463,0.050760116,0.0005351511,0.112250455,0.000778593,6.6891876e-06,-0.015322527,1.047179,-0.057594437,-6.176785e-05,0.004346448,0.8476603785700179,0.0009476717187058097,-0.5305383911846976,-0.0007866432235302129,0.9999995504659582,0.0005293961845263973,0.5305386543834224,-3.1403739941105455e-05,0.8476607429973576,0.0046348977,-0.08367223,0.08277833,-0.09843737,-0.0416385,-0.0052263835,3.735248e-08,0.00027122445,-0.004312787,0.012749879,0.995099273780981,-0.0987694580087551,0.0046935578425419955,0.09324882834796448,0.9215713797901132,-0.3768432671064709,0.03289515666927853,0.3754341301965018,0.926265147002358,left_images/camera_left_48.png,right_images/camera_right_48.png
2025-06-30 10:14:14,2.7044179439544678,49,-0.026670752,-0.00023920134,0.11362946,-0.00012761255,0.00014005354,-0.016056895,1.047179,0.05897075,2.4944091e-05,0.0018486492,0.8437708882759261,-5.6440483001339284e-05,0.5367035354015535,0.00012866650936002323,0.999999987006331,-9.711986075720633e-05,-0.5367035229463135,0.00015100268164164375,0.8437708845742463,0.050760116,0.0005351546,0.112250455,0.0007785774,6.6766124e-06,-0.015322583,1.047179,-0.05759444,-6.1767314e-05,0.004346446,0.8476605783758006,0.0009476958477083879,-0.5305380719045367,-0.0007866556519189131,0.9999995504426047,0.0005294218297439604,0.5305383351280928,-3.141924158367356e-05,0.8476609428140137,0.004042463,-0.09093992,0.08248972,-0.10003011,-0.035421625,-0.0034791632,3.278604e-08,0.00024595688,-0.0039339447,0.013195596,0.9949520162594331,-0.10030732423671908,0.00298764886800032,0.09398920649423954,0.9210237721473188,-0.3779963494560588,0.03516410675492774,0.3763690367763977,0.9258022649314132,left_images/camera_left_49.png,right_images/camera_right_49.png
2025-06-30 10:14:14,2.7587711811065674,50,-0.026670752,-0.00023920221,0.11362946,-0.00012761212,0.00014006006,-0.016056895,1.047179,0.05897075,2.4944091e-05,0.0018486492,0.8437708882759261,-5.6440483001339284e-05,0.5367035354015535,0.00012866650936002323,0.999999987006331,-9.711986075720633e-05,-0.5367035229463135,0.00015100268164164375,0.8437708845742463,0.050760116,0.0005351549,0.112250455,0.00077859266,6.6658936e-06,-0.015322695,1.047179,-0.05759444,-6.1767314e-05,0.004346446,0.8476605783758006,0.0009476958477083879,-0.5305380719045367,-0.0007866556519189131,0.9999995504426047,0.0005294218297439604,0.5305383351280928,-3.141924158367356e-05,0.8476609428140137,0.0033465722,-0.09876332,0.08220879,-0.10239611,-0.028246157,-0.0007538829,4.3809685e-08,0.00022278616,-0.0035286709,0.013646543,0.9947228811990446,-0.10259770383182099,0.00031747048584915283,0.09506841386651563,0.9205512494130779,-0.3788764889629949,0.038579609951065325,0.3769072941353874,0.9254471920771948,left_images/camera_left_50.png,right_images/camera_right_50.png
2025-06-30 10:14:14,2.8202831745147705,51,-0.026670752,-0.00023920309,0.11362946,-0.00012761168,0.00014006658,-0.016056895,1.047179,0.05897075,2.493717e-05,0.0018486492,0.8437708882535591,-5.675390643656047e-05,0.5367035354036661,0.00012874416229290874,0.9999999870410895,-9.66579630134889e-05,-0.536703522962856,0.00015065462237385865,0.8437708846259417,0.050760046,0.0005351744,0.112250455,0.00077852694,6.6294706e-06,-0.015322695,1.047179,-0.057594404,-6.17461e-05,0.004346449,0.8476605783217721,0.0009478005572596523,-0.5305380718038081,-0.0007866827532475024,0.9999995503397082,0.0005295758936631676,0.5305383351742311,-3.1535457258549074e-05,0.8476609427808209,0.0025572777,-0.10677843,0.081971936,-0.104748964,-0.020553498,0.0015242883,3.7665043e-08,0.00019012095,-0.003107099,0.014061081,0.9944853536635225,-0.1048582760458482,-0.0019034950567005,0.09629903464797919,0.9201964859116176,-0.3794270987182876,0.04153766091880344,0.3771513877219631,0.9252196784898123,left_images/camera_left_51.png,right_images/camera_right_51.png
2025-06-30 10:14:14,2.8911592960357666,52,-0.026670752,-0.0002392029,0.11362946,-0.00012761488,0.00014012193,-0.016056895,1.047179,0.05897075,2.493717e-05,0.0018486492,0.8437708882535591,-5.675390643656047e-05,0.5367035354036661,0.00012874416229290874,0.9999999870410895,-9.66579630134889e-05,-0.536703522962856,0.00015065462237385865,0.8437708846259417,0.050760046,0.0005351901,0.112250455,0.0007785855,6.5432405e-06,-0.01532275,1.047179,-0.057594404,-6.17461e-05,0.004346449,0.8476605783217721,0.0009478005572596523,-0.5305380718038081,-0.0007866827532475024,0.9999995503397082,0.0005295758936631676,0.5305383351742311,-3.1535457258549074e-05,0.8476609427808209,0.0018115495,-0.11583193,0.08177792,-0.10639277,-0.012647425,0.0030838838,2.9753526e-08,0.0001559361,-0.0025973616,0.014469177,0.9943156399726081,-0.10641437608577718,-0.0035197539882314485,0.0970702977593101,0.9195977039569134,-0.38068020722135254,0.04374660442573543,0.37817462030052706,0.9247000546997769,left_images/camera_left_52.png,right_images/camera_right_52.png
2025-06-30 10:14:14,2.949314832687378,53,-0.026670752,-0.00023919852,0.11362946,-0.00012760147,0.00014008915,-0.016056895,1.047179,0.05897075,2.493717e-05,0.0018486492,0.8437708882535591,-5.675390643656047e-05,0.5367035354036661,0.00012874416229290874,0.9999999870410895,-9.66579630134889e-05,-0.536703522962856,0.00015065462237385865,0.8437708846259417,0.050760046,0.000535201,0.112250455,0.0007785603,6.5053414e-06,-0.015322817,1.047179,-0.057594404,-6.17461e-05,0.004346449,0.8476605783217721,0.0009478005572596523,-0.5305380718038081,-0.0007866827532475024,0.9999995503397082,0.0005295758936631676,0.5305383351742311,-3.1535457258549074e-05,0.8476609427808209,0.0006725661,-0.12619117,0.08162154,-0.10947018,-0.0064519322,0.006766215,5.9204428e-08,0.00010587863,-0.0019457536,0.014901398,0.9939821900588185,-0.1093375115825887,-0.006686883190394975,0.0983557926629253,0.9176895847779996,-0.3849311159670394,0.048223893408997506,0.38195697997406713,0.9229210808913012,left_images/camera_left_53.png,right_images/camera_right_53.png
2025-06-30 10:14:14,2.998168706893921,54,-0.026670752,-0.00023919351,0.11362946,-0.00012758805,0.00014005635,-0.016056895,1.047179,0.05897075,2.4944091e-05,0.0018486492,0.8437708882759261,-5.6440483001339284e-05,0.5367035354015535,0.00012866650936002323,0.999999987006331,-9.711986075720633e-05,-0.5367035229463135,0.00015100268164164375,0.8437708845742463,0.050760046,0.0005352145,0.112250455,0.00077861885,6.41911e-06,-0.015322872,1.047179,-0.05759441,-6.174234e-05,0.004346447,0.8476605475917294,0.0009481631111493388,-0.5305381202545241,-0.0007870900002880173,0.9999995500019371,0.0005296085862687152,0.5305383836687225,-3.1347055021883354e-05,0.8476609124358285,-0.0012555687,-0.13532549,0.08151593,-0.114563346,-0.0017907284,0.0132560395,9.3235144e-08,1.3916651e-05,-0.0013466217,0.0152645605,0.9933953101465938,-0.11414196517199836,-0.011720476331083165,0.10058165820213343,0.91540116918452,-0.3897743314905733,0.05521854590680897,0.38602112797396004,0.9208358164980603,left_images/camera_left_54.png,right_images/camera_right_54.png
2025-06-30 10:14:14,3.0521187782287598,55,-0.026670752,-0.00023919402,0.11362946,-0.0001275876,0.00014006288,-0.016056895,1.047179,0.05897075,2.4944091e-05,0.0018486492,0.8437708882759261,-5.6440483001339284e-05,0.5367035354015535,0.00012866650936002323,0.999999987006331,-9.711986075720633e-05,-0.5367035229463135,0.00015100268164164375,0.8437708845742463,0.050760046,0.000535212,0.112250455,0.00077860535,6.445718e-06,-0.015322928,1.047179,-0.05759441,-6.174234e-05,0.004346447,0.8476605475917294,0.0009481631111493388,-0.5305381202545241,-0.0007870900002880173,0.9999995500019371,0.0005296085862687152,0.5305383836687225,-3.1347055021883354e-05,0.8476609124358285,-0.0065368847,-0.1436454,0.08145652,-0.12006985,0.0011572018,0.020711688,8.767356e-08,-0.00035111472,-0.0007662212,0.015577334,0.992809395342587,-0.11885687888462504,-0.014231895913489664,0.10357937162238065,0.9125652045784969,-0.3955958305732243,0.06000681872753792,0.39127712651573693,0.9183144297961285,left_images/camera_left_55.png,right_images/camera_right_55.png
2025-06-30 10:14:15,3.114374876022339,56,-0.026670752,-0.00023919067,0.11362946,-0.00012757054,0.00013998122,-0.016056895,1.047179,0.05897075,2.4944091e-05,0.0018486492,0.8437708882759261,-5.6440483001339284e-05,0.5367035354015535,0.00012866650936002323,0.999999987006331,-9.711986075720633e-05,-0.5367035229463135,0.00015100268164164375,0.8437708845742463,0.050760046,0.00053521176,0.112250455,0.00077869376,6.389951e-06,-0.0153229,1.047179,-0.05759441,-6.174234e-05,0.004346447,0.8476605475917294,0.0009481631111493388,-0.5305381202545241,-0.0007870900002880173,0.9999995500019371,0.0005296085862687152,0.5305383836687225,-3.1347055021883354e-05,0.8476609124358285,-0.013884752,-0.15045857,0.081428126,-0.12356195,0.0027194591,0.026901152,1.02623176e-07,-0.00090169715,-0.00027153525,0.015828518,0.9925380582142057,-0.12120730518700519,-0.013303840260539806,0.10573606115439073,0.9098805187740151,-0.4011699476868672,0.060729633359083615,0.39676974522364106,0.9159070263445073,left_images/camera_left_56.png,right_images/camera_right_56.png
2025-06-30 10:14:15,3.164083480834961,57,-0.026670752,-0.00023919091,0.11362946,-0.0001275701,0.00013998774,-0.016056895,1.047179,0.05897075,2.4944091e-05,0.0018486492,0.8437708882759261,-5.6440483001339284e-05,0.5367035354015535,0.00012866650936002323,0.999999987006331,-9.711986075720633e-05,-0.5367035229463135,0.00015100268164164375,0.8437708845742463,0.050760046,0.00053520873,0.112250455,0.00077868026,6.416552e-06,-0.015322956,1.047179,-0.057594415,-6.1743434e-05,0.004346447,0.8476607300372794,0.0009480959914094214,-0.5305378288743017,-0.0007869782611582933,0.9999995500623189,0.0005296606239080821,0.5305380923344554,-3.1450773087731776e-05,0.8476610947737108,-0.022963762,-0.15644935,0.081425525,-0.12726532,0.003741982,0.031717677,1.4201927e-07,-0.0016090337,0.00017488352,0.016040832,0.9923109826495483,-0.12342323473484429,-0.009253044940746837,0.10904558248670074,0.9071811380021813,-0.4063636841466073,0.05854890821547488,0.4022301430532712,0.9136645650161339,left_images/camera_left_57.png,right_images/camera_right_57.png
2025-06-30 10:14:15,3.2179272174835205,58,-0.026670752,-0.00023919178,0.11362946,-0.00012756967,0.00013999426,-0.016056895,1.047179,0.05897075,2.4944091e-05,0.0018486492,0.8437708882759261,-5.6440483001339284e-05,0.5367035354015535,0.00012866650936002323,0.999999987006331,-9.711986075720633e-05,-0.5367035229463135,0.00015100268164164375,0.8437708845742463,0.050760046,0.00053521077,0.112250455,0.0007786733,6.404525e-06,-0.015322956,1.047179,-0.057594415,-6.1743434e-05,0.004346447,0.8476607300372794,0.0009480959914094214,-0.5305378288743017,-0.0007869782611582933,0.9999995500623189,0.0005296606239080821,0.5305380923344554,-3.1450773087731776e-05,0.8476610947737108,-0.033203527,-0.16133548,0.08144507,-0.13446571,0.005769316,0.03594923,1.8682096e-07,-0.002415197,0.00052591995,0.016198926,0.99165244874065,-0.12888876477825364,-0.00362038956588414,0.11610441198674673,0.904799673699202,-0.4097039369972291,0.05608196166223627,0.4058635691802773,0.9122113662898319,left_images/camera_left_58.png,right_images/camera_right_58.png
2025-06-30 10:14:15,3.2681565284729004,59,-0.026670752,-0.00023919265,0.11362946,-0.00012756923,0.00014000077,-0.016056895,1.047179,0.05897075,2.4944091e-05,0.0018486492,0.8437708882759261,-5.6440483001339284e-05,0.5367035354015535,0.00012866650936002323,0.999999987006331,-9.711986075720633e-05,-0.5367035229463135,0.00015100268164164375,0.8437708845742463,0.050760046,0.0005352137,0.112250455,0.0007786663,6.392494e-06,-0.015322956,1.047179,-0.057594415,-6.1743434e-05,0.004346447,0.8476607300372794,0.0009480959914094214,-0.5305378288743017,-0.0007869782611582933,0.9999995500623189,0.0005296606239080821,0.5305380923344554,-3.1450773087731776e-05,0.8476610947737108,-0.044046644,-0.1658503,0.081480004,-0.1598179,0.013324386,0.03795916,2.3120501e-07,-0.003273962,0.000764539,0.016301982,0.9883154276787462,-0.15237263393999773,0.003898183982891802,0.14067751806872608,0.9020174538302439,-0.40813520908594403,0.058672406821267085,0.40391471056621775,0.9129131696202046,left_images/camera_left_59.png,right_images/camera_right_59.png
2025-06-30 10:14:15,3.319178581237793,60,-0.026670752,-0.00023919353,0.11362946,-0.0001275688,0.0001400073,-0.016056895,1.047179,0.05897075,2.4944091e-05,0.0018486492,0.8437708882759261,-5.6440483001339284e-05,0.5367035354015535,0.00012866650936002323,0.999999987006331,-9.711986075720633e-05,-0.5367035229463135,0.00015100268164164375,0.8437708845742463,0.050760046,0.0005352166,0.112250455,0.0007786593,6.380463e-06,-0.015322956,1.047179,-0.057594415,-6.1743434e-05,0.004346447,0.8476607300372794,0.0009480959914094214,-0.5305378288743017,-0.0007869782611582933,0.9999995500623189,0.0005296606239080821,0.5305380923344554,-3.1450773087731776e-05,0.8476610947737108,-0.05445088,-0.17050569,0.08153044,-0.1955379,0.024392478,0.0382755,2.3604876e-07,-0.0040902146,0.000963527,0.016379584,0.9824442413159852,-0.18620029417855696,0.011522289393904168,0.1749260999044894,0.8979713307950297,-0.4037924573867221,0.06483958881164051,0.3987191235920621,0.9147780540681522,left_images/camera_left_60.png,right_images/camera_right_60.png
2025-06-30 10:14:15,3.378476858139038,61,-0.026670752,-0.0002391944,0.11362946,-0.00012756836,0.00014001381,-0.016056895,1.047179,0.05897075,2.4944091e-05,0.0018486492,0.8437708882759261,-5.6440483001339284e-05,0.5367035354015535,0.00012866650936002323,0.999999987006331,-9.711986075720633e-05,-0.5367035229463135,0.00015100268164164375,0.8437708845742463,0.050760046,0.0005352195,0.112250455,0.0007786523,6.3684324e-06,-0.015322956,1.047179,-0.057594415,-6.1743434e-05,0.004346447,0.8476607300372794,0.0009480959914094214,-0.5305378288743017,-0.0007869782611582933,0.9999995500623189,0.0005296606239080821,0.5305380923344554,-3.1450773087731776e-05,0.8476610947737108,-0.0645369,-0.17501648,0.0815914,-0.24554145,0.03923924,0.036322623,2.3671895e-07,-0.0048631215,0.0010971648,0.01642553,0.9720504831382923,-0.23399509938406743,0.0190827590995833,0.22222906781017998,0.8908611009533317,-0.3962079507385434,0.07571063102914118,0.38937487370458057,0.9179624763990688,left_images/camera_left_61.png,right_images/camera_right_61.png
2025-06-30 10:14:15,3.4303386211395264,62,-0.026670752,-0.00023919527,0.11362946,-0.00012756792,0.00014002033,-0.016056895,1.047179,0.05897075,2.4944091e-05,0.0018486492,0.8437708882759261,-5.6440483001339284e-05,0.5367035354015535,0.00012866650936002323,0.999999987006331,-9.711986075720633e-05,-0.5367035229463135,0.00015100268164164375,0.8437708845742463,0.050760046,0.0005352243,0.112250455,0.00077864435,6.402834e-06,-0.015322984,1.047179,-0.057594415,-6.1743434e-05,0.004346447,0.8476607300372794,0.0009480959914094214,-0.5305378288743017,-0.0007869782611582933,0.9999995500623189,0.0005296606239080821,0.5305380923344554,-3.1450773087731776e-05,0.8476610947737108,-0.07309437,-0.17969602,0.08166092,-0.29876104,0.055720318,0.03324726,2.1789553e-07,-0.00548253,0.0012256852,0.016461335,0.9583274339338429,-0.28464129426898194,0.024245885561371666,0.27148729085842377,0.8810442907748107,-0.38737011835641716,0.08889983280147336,0.3778098612926744,0.9216054082078081,left_images/camera_left_62.png,right_images/camera_right_62.png
2025-06-30 10:14:15,3.478269577026367,63,-0.026670752,-0.00023919615,0.11362946,-0.00012756749,0.00014002685,-0.016056895,1.047179,0.05897075,2.4944091e-05,0.0018486492,0.8437708882759261,-5.6440483001339284e-05,0.5367035354015535,0.00012866650936002323,0.999999987006331,-9.711986075720633e-05,-0.5367035229463135,0.00015100268164164375,0.8437708845742463,0.050760046,0.00053522695,0.112250455,0.00077863736,6.390814e-06,-0.015322984,1.047179,-0.057594415,-6.1743434e-05,0.004346447,0.8476607300372794,0.0009480959914094214,-0.5305378288743017,-0.0007869782611582933,0.9999995500623189,0.0005296606239080821,0.5305380923344554,-3.1450773087731776e-05,0.8476610947737108,-0.080431886,-0.18556069,0.081761286,-0.3595067,0.07431997,0.02766715,1.7984287e-07,-0.0059717735,0.0014303806,0.016499188,0.9393870093831538,-0.3417326441924799,0.027764122449486728,0.32638992023045815,0.8665322644700225,-0.37761283691687414,0.10498412534345039,0.3637865232875877,0.9255472429326338,left_images/camera_left_63.png,right_images/camera_right_63.png
2025-06-30 10:14:15,3.530867338180542,64,-0.026670752,-0.00023919702,0.11362946,-0.00012756705,0.00014003337,-0.016056895,1.047179,0.05897075,2.4944091e-05,0.0018486492,0.8437708882759261,-5.6440483001339284e-05,0.5367035354015535,0.00012866650936002323,0.999999987006331,-9.711986075720633e-05,-0.5367035229463135,0.00015100268164164375,0.8437708845742463,0.050760046,0.00053522986,0.112250455,0.0007786304,6.3787834e-06,-0.015322984,1.047179,-0.057594415,-6.1743434e-05,0.004346447,0.8476607300372794,0.0009480959914094214,-0.5305378288743017,-0.0007869782611582933,0.9999995500623189,0.0005296606239080821,0.5305380923344554,-3.1450773087731776e-05,0.8476610947737108,-0.08667094,-0.19113716,0.0818667,-0.4211983,0.09120811,0.020496143,1.6274107e-07,-0.006356739,0.0016494726,0.01653621,0.9167076337624639,-0.3984218146943416,0.0301192924434161,0.38067056795305715,0.8479849483621203,-0.36879729668964356,0.12139618155412149,0.34954482534713593,0.9290217339638072,left_images/camera_left_64.png,right_images/camera_right_64.png
2025-06-30 10:14:15,3.5828347206115723,65,-0.026670752,-0.00023919789,0.11362946,-0.00012756661,0.00014003989,-0.016056895,1.047179,0.05897075,2.4944091e-05,0.0018486492,0.8437708882759261,-5.6440483001339284e-05,0.5367035354015535,0.00012866650936002323,0.999999987006331,-9.711986075720633e-05,-0.5367035229463135,0.00015100268164164375,0.8437708845742463,0.050760046,0.0005352328,0.112250455,0.0007786234,6.3667526e-06,-0.015322984,1.047179,-0.057594415,-6.1743434e-05,0.004346447,0.8476607300372794,0.0009480959914094214,-0.5305378288743017,-0.0007869782611582933,0.9999995500623189,0.0005296606239080821,0.5305380923344554,-3.1450773087731776e-05,0.8476610947737108,-0.092360735,-0.19632316,0.08197045,-0.48458067,0.105811976,0.01098558,1.736922e-07,-0.006697174,0.0018773088,0.01657841,0.8898945221203094,-0.45498057969629435,0.03286961514059006,0.4350869403650883,0.8249152474083223,-0.3608520318870501,0.13706601994663953,0.33542138675476635,0.9320436682277806,left_images/camera_left_65.png,right_images/camera_right_65.png
2025-06-30 10:14:15,3.6330573558807373,66,-0.026670752,-0.00023919877,0.11362946,-0.00012756618,0.00014004641,-0.016056895,1.047179,0.05897075,2.4944091e-05,0.0018486492,0.8437708882759261,-5.6440483001339284e-05,0.5367035354015535,0.00012866650936002323,0.999999987006331,-9.711986075720633e-05,-0.5367035229463135,0.00015100268164164375,0.8437708845742463,0.050760046,0.00053523754,0.112250455,0.0007786154,6.401154e-06,-0.015323012,1.047179,-0.057594415,-6.1743434e-05,0.004346447,0.8476607300372794,0.0009480959914094214,-0.5305378288743017,-0.0007869782611582933,0.9999995500623189,0.0005296606239080821,0.5305380923344554,-3.1450773087731776e-05,0.8476610947737108,-0.09705725,-0.20021093,0.08205772,-0.54217327,0.11726868,-6.002111e-05,2.0081221e-07,-0.0069771875,0.0020437716,0.016605167,0.8625002133789428,-0.5047593763521206,0.03621262080955278,0.48353067323439264,0.8008831205697851,-0.3532482345715238,0.14930328182184502,0.32218659061329896,0.9348285034519462,left_images/camera_left_66.png,right_images/camera_right_66.png
2025-06-30 10:14:15,3.6852946281433105,67,-0.026670752,-0.00023919964,0.11362946,-0.00012756574,0.00014005293,-0.016056895,1.047179,0.05897075,2.4944091e-05,0.0018486492,0.8437708882759261,-5.6440483001339284e-05,0.5367035354015535,0.00012866650936002323,0.999999987006331,-9.711986075720633e-05,-0.5367035229463135,0.00015100268164164375,0.8437708845742463,0.050760046,0.0005352402,0.112250455,0.00077860843,6.3891343e-06,-0.015323012,1.047179,-0.057594415,-6.1743434e-05,0.004346447,0.8476607300372794,0.0009480959914094214,-0.5305378288743017,-0.0007869782611582933,0.9999995500623189,0.0005296606239080821,0.5305380923344554,-3.1450773087731776e-05,0.8476610947737108,-0.1009668,-0.20330809,0.08214347,-0.59919405,0.12784193,-0.013281003,2.5101681e-07,-0.00719655,0.0021589631,0.016606193,0.8326105257386079,-0.5524428707493537,0.03958013374777251,0.5303802981269509,0.7746905533684731,-0.3443127733332229,0.15955078122041713,0.3076709623605411,0.9380203234110085,left_images/camera_left_67.png,right_images/camera_right_67.png
2025-06-30 10:14:15,3.7373106479644775,68,-0.026670752,-0.00023920051,0.11362946,-0.0001275653,0.00014005945,-0.016056895,1.047179,0.05897075,2.4944091e-05,0.0018486492,0.8437708882759261,-5.6440483001339284e-05,0.5367035354015535,0.00012866650936002323,0.999999987006331,-9.711986075720633e-05,-0.5367035229463135,0.00015100268164164375,0.8437708845742463,0.050760046,0.00053524313,0.112250455,0.00077860145,6.3771035e-06,-0.015323012,1.047179,-0.057594415,-6.1743434e-05,0.004346447,0.8476607300372794,0.0009480959914094214,-0.5305378288743017,-0.0007869782611582933,0.9999995500623189,0.0005296606239080821,0.5305380923344554,-3.1450773087731776e-05,0.8476610947737108,-0.10404408,-0.20578219,0.082247786,-0.64693874,0.13669088,-0.026047409,2.5933673e-07,-0.0073634763,0.002257017,0.016573876,0.8055795920468587,-0.590973474242112,0.04233052822519974,0.5686024052608525,0.7510469920377887,-0.33558861792760936,0.16653175555788102,0.29441258209050364,0.9410570683532495,left_images/camera_left_68.png,right_images/camera_right_68.png
2025-06-30 10:14:15,3.789443254470825,69,-0.026670752,-0.00023920138,0.11362946,-0.00012756487,0.00014006597,-0.016056895,1.047179,0.05897075,2.493717e-05,0.0018486492,0.8437708882535591,-5.675390643656047e-05,0.5367035354036661,0.00012874416229290874,0.9999999870410895,-9.66579630134889e-05,-0.536703522962856,0.00015065462237385865,0.8437708846259417,0.050760046,0.00053524633,0.112250455,0.0007786622,6.3182133e-06,-0.015323012,1.047179,-0.057594422,-6.173493e-05,0.0043464443,0.8476607650070089,0.0009478816806049704,-0.5305377733847535,-0.000787029696067334,0.9999995502792027,0.0005291744983209586,0.5305380363856959,-3.101147752970128e-05,0.8476611298073649,-0.10663018,-0.20807804,0.08237456,-0.6887092,0.14558306,-0.038208224,2.5146952e-07,-0.0074852817,0.0023518996,0.016513215,0.7805568156184897,-0.6235576826144155,0.0436677689384644,0.6010334530931601,0.7294977550115405,-0.32648401752005346,0.17172607796847628,0.2810851150197436,0.944193471837156,left_images/camera_left_69.png,right_images/camera_right_69.png
2025-06-30 10:14:15,3.8463423252105713,70,-0.026670752,-0.0002392012,0.11362946,-0.00012756807,0.00014012132,-0.016056895,1.047179,0.05897075,2.493717e-05,0.0018486492,0.8437708882535591,-5.675390643656047e-05,0.5367035354036661,0.00012874416229290874,0.9999999870410895,-9.66579630134889e-05,-0.536703522962856,0.00015065462237385865,0.8437708846259417,0.050760046,0.00053525314,0.112250455,0.000778652,6.266919e-06,-0.015323014,1.047179,-0.057594422,-6.173493e-05,0.0043464443,0.8476607650070089,0.0009478816806049704,-0.5305377733847535,-0.000787029696067334,0.9999995502792027,0.0005291744983209586,0.5305380363856959,-3.101147752970128e-05,0.8476611298073649,-0.10879387,-0.21125087,0.08257337,-0.72136164,0.15507655,-0.049292695,0.026666597,-0.007571878,0.0025374044,0.016416695,0.7602765305947141,-0.6481316942406592,0.04364520532197584,0.6256164041897925,0.7124646615729993,-0.3178021724568696,0.17488199402882743,0.2689226895046316,0.9471519810643363,left_images/camera_left_70.png,right_images/camera_right_70.png
2025-06-30 10:14:15,3.8969597816467285,71,-0.026670752,-0.00023919682,0.11362946,-0.00012755465,0.00014008854,-0.016056895,1.047179,0.05897075,2.493717e-05,0.0018486492,0.8437708882535591,-5.675390643656047e-05,0.5367035354036661,0.00012874416229290874,0.9999999870410895,-9.66579630134889e-05,-0.536703522962856,0.00015065462237385865,0.8437708846259417,0.050760046,0.00053526013,0.112250455,0.0007786417,6.215631e-06,-0.015323018,1.047179,-0.057594422,-6.173493e-05,0.0043464443,0.8476607650070089,0.0009478816806049704,-0.5305377733847535,-0.000787029696067334,0.9999995502792027,0.0005291744983209586,0.5305380363856959,-3.101147752970128e-05,0.8476611298073649,-0.11058598,-0.21440296,0.0828398,-0.74605256,0.16413365,-0.05866616,0.05333318,-0.0076384605,0.0027615784,0.016261986,0.7446025427352901,-0.6661405671580796,0.0427059496844682,0.6437175960993975,0.6996648465518531,-0.30999477249073837,0.17662024183018574,0.2583134671012792,0.9497786283602948,left_images/camera_left_71.png,right_images/camera_right_71.png
2025-06-30 10:14:15,3.9607696533203125,72,-0.026670752,-0.00023919181,0.11362946,-0.00012754124,0.00014005574,-0.016056895,1.047179,0.05897075,2.4944091e-05,0.0018486492,0.8437708882759261,-5.6440483001339284e-05,0.5367035354015535,0.00012866650936002323,0.999999987006331,-9.711986075720633e-05,-0.5367035229463135,0.00015100268164164375,0.8437708845742463,0.050760046,0.0005352671,0.112250455,0.0007786315,6.1643427e-06,-0.015323021,1.047179,-0.057594422,-6.173493e-05,0.0043464443,0.8476607650070089,0.0009478816806049704,-0.5305377733847535,-0.000787029696067334,0.9999995502792027,0.0005291744983209586,0.5305380363856959,-3.101147752970128e-05,0.8476611298073649,-0.11182551,-0.21653745,0.08309002,-0.7646686,0.16966748,-0.065233424,0.07999962,-0.007693039,0.002957081,0.016101234,0.7325222545504686,-0.679445223203366,0.04201589287909033,0.6569651977259644,0.6894177941847511,-0.3051226540890027,0.17834762562250056,0.2511121138606434,0.9513857423291859,left_images/camera_left_72.png,right_images/camera_right_72.png
2025-06-30 10:14:15,4.0248823165893555,73,-0.026670752,-0.00023919232,0.11362946,-0.00012754078,0.00014006227,-0.016056895,1.047179,0.05897075,2.4944091e-05,0.0018486492,0.8437708882759261,-5.6440483001339284e-05,0.5367035354015535,0.00012866650936002323,0.999999987006331,-9.711986075720633e-05,-0.5367035229463135,0.00015100268164164375,0.8437708845742463,0.050760046,0.0005352741,0.112250455,0.00077862124,6.1130545e-06,-0.015323025,1.047179,-0.057594422,-6.173493e-05,0.0043464443,0.8476607650070089,0.0009478816806049704,-0.5305377733847535,-0.000787029696067334,0.9999995502792027,0.0005291744983209586,0.5305380363856959,-3.101147752970128e-05,0.8476611298073649,-0.11281185,-0.21825731,0.083302185,-0.7780897,0.17348315,-0.07142865,0.106666505,-0.0077535417,0.0031211702,0.01596421,0.7236419975593248,-0.6888588368436811,0.0426117621170589,0.6667608376132547,0.6818128721201956,-0.30093386787877613,0.17824770627870923,0.24618023948639847,0.952692523793904,left_images/camera_left_73.png,right_images/camera_right_73.png
2025-06-30 10:14:15,4.074119567871094,74,-0.026670752,-0.00023919319,0.11362946,-0.00012754035,0.00014006879,-0.016056895,1.047179,0.05897075,2.493717e-05,0.0018486492,0.8437708882535591,-5.675390643656047e-05,0.5367035354036661,0.00012874416229290874,0.9999999870410895,-9.66579630134889e-05,-0.536703522962856,0.00015065462237385865,0.8437708846259417,0.050760046,0.0005352811,0.112250455,0.000778611,6.0617663e-06,-0.015323029,1.047179,-0.057594422,-6.173493e-05,0.0043464443,0.8476607650070089,0.0009478816806049704,-0.5305377733847535,-0.000787029696067334,0.9999995502792027,0.0005291744983209586,0.5305380363856959,-3.101147752970128e-05,0.8476611298073649,-0.11381199,-0.220097,0.08348269,-0.7882576,0.17709748,-0.076907806,0.13333324,-0.00781681,0.0032822657,0.015861444,0.7168979479105917,-0.6958346008879318,0.04326130475049683,0.6741832047928841,0.6761113156566713,-0.2972381119846534,0.17757910534964108,0.24225543760282822,0.9538228159858011,left_images/camera_left_74.png,right_images/camera_right_74.png
2025-06-30 10:14:16,4.1217873096466064,75,-0.026670752,-0.000239193,0.11362946,-0.00012754355,0.00014012415,-0.016056895,1.047179,0.05897075,2.493717e-05,0.0018486492,0.8437708882535591,-5.675390643656047e-05,0.5367035354036661,0.00012874416229290874,0.9999999870410895,-9.66579630134889e-05,-0.536703522962856,0.00015065462237385865,0.8437708846259417,0.050760046,0.00053528807,0.112250455,0.00077860075,6.010478e-06,-0.015323033,1.047179,-0.057594422,-6.173493e-05,0.0043464443,0.8476607650070089,0.0009478816806049704,-0.5305377733847535,-0.000787029696067334,0.9999995502792027,0.0005291744983209586,0.5305380363856959,-3.101147752970128e-05,0.8476611298073649,-0.114702776,-0.22189467,0.083631516,-0.7965976,0.18109986,-0.080211125,0.15999977,-0.007851917,0.0034325295,0.01578559,0.711464081957181,-0.7014540482976137,0.04220282231930207,0.6797285154014989,0.6717047144127507,-0.29458771526619915,0.17829191073882128,0.23827504015858228,0.9546920968576864,left_images/camera_left_75.png,right_images/camera_right_75.png
2025-06-30 10:14:16,4.173784494400024,76,-0.026670752,-0.00023918862,0.11362946,-0.00012753013,0.00014009136,-0.016056895,1.047179,0.05897075,2.493717e-05,0.0018486492,0.8437708882535591,-5.675390643656047e-05,0.5367035354036661,0.00012874416229290874,0.9999999870410895,-9.66579630134889e-05,-0.536703522962856,0.00015065462237385865,0.8437708846259417,0.050760046,0.0005352891,0.112250455,0.00077865424,6.0191624e-06,-0.0153230345,1.047179,-0.057594422,-6.173493e-05,0.0043464443,0.8476607650070089,0.0009478816806049704,-0.5305377733847535,-0.000787029696067334,0.9999995502792027,0.0005291744983209586,0.5305380363856959,-3.101147752970128e-05,0.8476611298073649,-0.115744516,-0.22354977,0.08374991,-0.8043475,0.18594287,-0.081022464,0.18666616,-0.007870117,0.003562776,0.01573348,0.7065472167933053,-0.7065916214588918,0.038978339186380856,0.6841429457590146,0.6679412753634739,-0.2929212905099153,0.18094048803353077,0.23362947834104847,0.9553417224429579,left_images/camera_left_76.png,right_images/camera_right_76.png
2025-06-30 10:14:16,4.223031044006348,77,-0.026670752,-0.00023918362,0.11362946,-0.00012751672,0.00014005856,-0.016056895,1.047179,0.05897075,2.4944091e-05,0.0018486492,0.8437708882759261,-5.6440483001339284e-05,0.5367035354015535,0.00012866650936002323,0.999999987006331,-9.711986075720633e-05,-0.5367035229463135,0.00015100268164164375,0.8437708845742463,0.050760046,0.00053529534,0.112250455,0.000778644,5.9678846e-06,-0.015323036,1.047179,-0.057594422,-6.172935e-05,0.0043464443,0.847660795467849,0.0009477202149698288,-0.5305377250047425,-0.0007870234614837999,0.9999995504398441,0.0005288801196877283,0.5305379877265008,-3.0765306180658173e-05,0.8476611602713737,-0.11668701,-0.22477403,0.083838254,-0.81031764,0.18934615,-0.08138503,0.21333306,-0.007897729,0.0036638698,0.01569764,0.702728467916861,-0.7105138170417237,0.036644456224933925,0.6874887545144254,0.6648950565152408,-0.29201673965339503,0.18311721053856528,0.2304011276326454,0.955710943533755,left_images/camera_left_77.png,right_images/camera_right_77.png
2025-06-30 10:14:16,4.272264242172241,78,-0.026670752,-0.00023918413,0.11362946,-0.00012751626,0.0001400651,-0.016056895,1.047179,0.05897075,2.4944091e-05,0.0018486492,0.8437708882759261,-5.6440483001339284e-05,0.5367035354015535,0.00012866650936002323,0.999999987006331,-9.711986075720633e-05,-0.5367035229463135,0.00015100268164164375,0.8437708845742463,0.050760046,0.0005352969,0.112250455,0.00077864935,5.956407e-06,-0.015323068,1.047179,-0.057594422,-6.172935e-05,0.0043464443,0.847660795467849,0.0009477202149698288,-0.5305377250047425,-0.0007870234614837999,0.9999995504398441,0.0005288801196877283,0.5305379877265008,-3.0765306180658173e-05,0.8476611602713737,-0.11740879,-0.225726,0.08390356,-0.81468695,0.1916107,-0.08261478,0.23999994,-0.007929716,0.0037392767,0.01567268,0.6998804087353461,-0.7133629437457584,0.03578720384202691,0.6902031731112009,0.6625643549458773,-0.2909090156430063,0.18381238613236667,0.22830196242156883,0.9560811789062611,left_images/camera_left_78.png,right_images/camera_right_78.png
2025-06-30 10:14:16,4.325082540512085,79,-0.026670752,-0.00023918078,0.11362946,-0.00012749921,0.00013998343,-0.016056895,1.047179,0.05897075,2.4944091e-05,0.0018486492,0.8437708882759261,-5.6440483001339284e-05,0.5367035354015535,0.00012866650936002323,0.999999987006331,-9.711986075720633e-05,-0.5367035229463135,0.00015100268164164375,0.8437708845742463,0.050760046,0.0005352982,0.112250455,0.0007786547,5.944933e-06,-0.0153231,1.047179,-0.057594422,-6.172935e-05,0.0043464443,0.847660795467849,0.0009477202149698288,-0.5305377250047425,-0.0007870234614837999,0.9999995504398441,0.0005288801196877283,0.5305379877265008,-3.0765306180658173e-05,0.8476611602713737,-0.1180321,-0.22631812,0.08395873,-0.8178345,0.19280298,-0.083779454,0.2666666,-0.007970143,0.0037937623,0.015646253,0.6977802910051898,-0.7154182541887614,0.035768520492427694,0.6922961350218774,0.6607230690889767,-0.2901225386063858,0.1839258734340633,0.22720419790828683,0.9563208277217269,left_images/camera_left_79.png,right_images/camera_right_79.png
2025-06-30 10:14:16,4.372985363006592,80,-0.026670752,-0.00023918101,0.11362946,-0.00012749877,0.00013998995,-0.016056895,1.047179,0.05897075,2.4944091e-05,0.0018486492,0.8437708882759261,-5.6440483001339284e-05,0.5367035354015535,0.00012866650936002323,0.999999987006331,-9.711986075720633e-05,-0.5367035229463135,0.00015100268164164375,0.8437708845742463,0.050760046,0.0005352995,0.112250455,0.00077866006,5.933459e-06,-0.015323131,1.047179,-0.057594422,-6.172935e-05,0.0043464443,0.847660795467849,0.0009477202149698288,-0.5305377250047425,-0.0007870234614837999,0.9999995504398441,0.0005288801196877283,0.5305379877265008,-3.0765306180658173e-05,0.8476611602713737,-0.11866377,-0.22664598,0.084005006,-0.8198018,0.19315317,-0.08586126,0.2933336,-0.008031083,0.003825606,0.015619239,0.696388039923709,-0.7166996693333435,0.037219374372638364,0.6940681293786687,0.6593943691483305,-0.28890915131970224,0.1825188473336661,0.2270256591510112,0.9566327510884407,left_images/camera_left_80.png,right_images/camera_right_80.png
2025-06-30 10:14:16,4.421900272369385,81,-0.026670752,-0.00023918189,0.11362946,-0.00012749834,0.00013999647,-0.016056895,1.047179,0.05897075,2.4944091e-05,0.0018486492,0.8437708882759261,-5.6440483001339284e-05,0.5367035354015535,0.00012866650936002323,0.999999987006331,-9.711986075720633e-05,-0.5367035229463135,0.00015100268164164375,0.8437708845742463,0.050760046,0.00053530076,0.112250455,0.0007786654,5.9219847e-06,-0.015323163,1.047179,-0.057594422,-6.172935e-05,0.0043464443,0.847660795467849,0.0009477202149698288,-0.5305377250047425,-0.0007870234614837999,0.9999995504398441,0.0005288801196877283,0.5305379877265008,-3.0765306180658173e-05,0.8476611602713737,-0.11926943,-0.22685575,0.08404034,-0.8213375,0.19329241,-0.08755994,0.32000017,-0.008090471,0.0038473578,0.015598335,0.6952819219485927,-0.7176994558739846,0.03860751286546646,0.6955088215815111,0.6582945481785402,-0.2879509801002754,0.18124714649827886,0.2270589766483541,0.9568666014704628,left_images/camera_left_81.png,right_images/camera_right_81.png
2025-06-30 10:14:16,4.4727771282196045,82,-0.026670752,-0.00023918276,0.11362946,-0.0001274979,0.00014000299,-0.016056895,1.047179,0.05897075,2.4944091e-05,0.0018486492,0.8437708882759261,-5.6440483001339284e-05,0.5367035354015535,0.00012866650936002323,0.999999987006331,-9.711986075720633e-05,-0.5367035229463135,0.00015100268164164375,0.8437708845742463,0.050760046,0.00053530204,0.112250455,0.0007786708,5.9105105e-06,-0.015323195,1.047179,-0.057594422,-6.172935e-05,0.0043464443,0.847660795467849,0.0009477202149698288,-0.5305377250047425,-0.0007870234614837999,0.9999995504398441,0.0005288801196877283,0.5305379877265008,-3.0765306180658173e-05,0.8476611602713737,-0.119710274,-0.22700332,0.08406585,-0.82232875,0.19320029,-0.08903741,0.34666675,-0.008138204,0.0038633354,0.015583668,0.6945398593113599,-0.7183444144333357,0.03994603960575259,0.6965628399971089,0.6575095678928646,-0.2871957138686103,0.18004053366650108,0.22729379749955017,0.9570386281939278,left_images/camera_left_82.png,right_images/camera_right_82.png
2025-06-30 10:14:16,4.522070646286011,83,-0.026670752,-0.00023918363,0.11362946,-0.00012749746,0.0001400095,-0.016056895,1.047179,0.05897075,2.4944091e-05,0.0018486492,0.8437708882759261,-5.6440483001339284e-05,0.5367035354015535,0.00012866650936002323,0.999999987006331,-9.711986075720633e-05,-0.5367035229463135,0.00015100268164164375,0.8437708845742463,0.050760046,0.0005353033,0.112250455,0.0007786761,5.8990363e-06,-0.015323226,1.047179,-0.057594422,-6.172935e-05,0.0043464443,0.847660795467849,0.0009477202149698288,-0.5305377250047425,-0.0007870234614837999,0.9999995504398441,0.0005288801196877283,0.5305379877265008,-3.0765306180658173e-05,0.8476611602713737,-0.12003846,-0.2271598,0.084089436,-0.8234472,0.19431336,-0.08999851,0.37333322,-0.008156468,0.0038682814,0.015565805,0.6938075356432905,-0.719053027500494,0.039923015003351006,0.697447905863861,0.6570802074478426,-0.28602800489884717,0.179436679892097,0.22629260841369483,0.9573892276846586,left_images/camera_left_83.png,right_images/camera_right_83.png
2025-06-30 10:14:16,4.570079326629639,84,-0.026670752,-0.0002391845,0.11362946,-0.00012749703,0.00014001603,-0.016056895,1.047179,0.05897075,2.4944091e-05,0.0018486492,0.8437708882759261,-5.6440483001339284e-05,0.5367035354015535,0.00012866650936002323,0.999999987006331,-9.711986075720633e-05,-0.5367035229463135,0.00015100268164164375,0.8437708845742463,0.050760046,0.0005353046,0.112250455,0.0007786815,5.887562e-06,-0.015323258,1.047179,-0.057594422,-6.172935e-05,0.0043464443,0.847660795467849,0.0009477202149698288,-0.5305377250047425,-0.0007870234614837999,0.9999995504398441,0.0005288801196877283,0.5305379877265008,-3.0765306180658173e-05,0.8476611602713737,-0.1203335,-0.22732513,0.08410878,-0.8246024,0.19582744,-0.09050176,0.39999965,-0.008163185,0.0038702188,0.015551001,0.6930944021589573,-0.7197772904505485,0.039253048895392995,0.6981900038996328,0.6567686732301918,-0.28493091850145735,0.17930663164129793,0.2248901109767171,0.9577440001557471,left_images/camera_left_84.png,right_images/camera_right_84.png
2025-06-30 10:14:16,4.622361660003662,85,-0.026670752,-0.00023918538,0.11362946,-0.00012749659,0.00014002254,-0.016056895,1.047179,0.05897075,2.4944091e-05,0.0018486492,0.8437708882759261,-5.6440483001339284e-05,0.5367035354015535,0.00012866650936002323,0.999999987006331,-9.711986075720633e-05,-0.5367035229463135,0.00015100268164164375,0.8437708845742463,0.050760046,0.0005353059,0.112250455,0.00077868684,5.876088e-06,-0.01532329,1.047179,-0.057594422,-6.172935e-05,0.0043464443,0.847660795467849,0.0009477202149698288,-0.5305377250047425,-0.0007870234614837999,0.9999995504398441,0.0005288801196877283,0.5305379877265008,-3.0765306180658173e-05,0.8476611602713737,-0.12081056,-0.22762945,0.08412737,-0.8256623,0.2001684,-0.09359039,0.42666692,-0.008164276,0.0038311707,0.015527838,0.6925467334406167,-0.7203426173804993,0.03854264633030885,0.6994290151692474,0.6574423453852706,-0.2803009369119048,0.17657314274857444,0.2210793434035085,0.9591380761809873,left_images/camera_left_85.png,right_images/camera_right_85.png
2025-06-30 10:14:16,4.679980039596558,86,-0.026670752,-0.00023918625,0.11362946,-0.00012749615,0.00014002906,-0.016056895,1.047179,0.05897075,2.4944091e-05,0.0018486492,0.8437708882759261,-5.6440483001339284e-05,0.5367035354015535,0.00012866650936002323,0.999999987006331,-9.711986075720633e-05,-0.5367035229463135,0.00015100268164164375,0.8437708845742463,0.050760046,0.00053530716,0.112250455,0.0007786922,5.8646137e-06,-0.015323321,1.047179,-0.057594422,-6.172935e-05,0.0043464443,0.847660795467849,0.0009477202149698288,-0.5305377250047425,-0.0007870234614837999,0.9999995504398441,0.0005288801196877283,0.5305379877265008,-3.0765306180658173e-05,0.8476611602713737,-0.12142829,-0.22807956,0.084147245,-0.8291687,0.20564851,-0.09899016,0.4533342,-0.008168918,0.0037797214,0.01550374,0.6903119010183458,-0.7225011299042633,0.03823083309973917,0.7026253747586063,0.6568424328610312,-0.27363406428756176,0.1725892872045225,0.215754804535761,0.9610737756603132,left_images/camera_left_86.png,right_images/camera_right_86.png
2025-06-30 10:14:16,4.736290454864502,87,-0.026670752,-0.00023918712,0.11362946,-0.00012749572,0.00014003558,-0.016056895,1.047179,0.05897075,2.4944091e-05,0.0018486492,0.8437708882759261,-5.6440483001339284e-05,0.5367035354015535,0.00012866650936002323,0.999999987006331,-9.711986075720633e-05,-0.5367035229463135,0.00015100268164164375,0.8437708845742463,0.050760046,0.00053530955,0.112250455,0.00077869836,5.835846e-06,-0.015323309,1.047179,-0.057594422,-6.172935e-05,0.0043464443,0.847660795467849,0.0009477202149698288,-0.5305377250047425,-0.0007870234614837999,0.9999995504398441,0.0005288801196877283,0.5305379877265008,-3.0765306180658173e-05,0.8476611602713737,-0.122326635,-0.22887526,0.08418822,-0.83740485,0.21401452,-0.10533527,0.48000103,-0.008150236,0.0037337285,0.01546778,0.6850032830883493,-0.7276657218119026,0.03568051930879837,0.7085261720851138,0.6539854474573669,-0.2651295871539109,0.16959117202436658,0.20689521940815953,0.9635523870332381,left_images/camera_left_87.png,right_images/camera_right_87.png
2025-06-30 10:14:16,4.804170370101929,88,-0.026670752,-0.000239188,0.11362946,-0.00012749528,0.0001400421,-0.016056895,1.047179,0.05897075,2.4944091e-05,0.0018486492,0.8437708882759261,-5.6440483001339284e-05,0.5367035354015535,0.00012866650936002323,0.999999987006331,-9.711986075720633e-05,-0.5367035229463135,0.00015100268164164375,0.8437708845742463,0.050760046,0.00053531106,0.112250455,0.0007787037,5.8243686e-06,-0.015323341,1.047179,-0.057594426,-6.1730905e-05,0.004346447,0.8476609299647279,0.0009477676025278691,-0.5305375100291252,-0.0007870262124266248,0.9999995503927526,0.0005289650589589972,0.5305377728315614,-3.0836086727555815e-05,0.847661294768177,-0.12340616,-0.22979051,0.08423882,-0.85168344,0.22438315,-0.1112872,0.5066674,-0.0080950055,0.0036940635,0.01542862,0.6756455604724233,-0.7366140697441437,0.03004644519531613,0.7175191785431454,0.6476774205902003,-0.2562814610548236,0.16932012590556167,0.19471433206776265,0.9661350960661403,left_images/camera_left_88.png,right_images/camera_right_88.png
2025-06-30 10:14:16,4.853100776672363,89,-0.026670752,-0.00023918887,0.11362946,-0.00012749484,0.00014004862,-0.016056895,1.047179,0.05897075,2.4944091e-05,0.0018486492,0.8437708882759261,-5.6440483001339284e-05,0.5367035354015535,0.00012866650936002323,0.999999987006331,-9.711986075720633e-05,-0.5367035229463135,0.00015100268164164375,0.8437708845742463,0.050760046,0.0005353178,0.112250455,0.00077874004,5.775761e-06,-0.015323358,1.047179,-0.057594426,-6.1730905e-05,0.004346447,0.8476609299647279,0.0009477676025278691,-0.5305375100291252,-0.0007870262124266248,0.9999995503927526,0.0005289650589589972,0.5305377728315614,-3.0836086727555815e-05,0.847661294768177,-0.124508925,-0.23070624,0.08430544,-0.8681297,0.23374006,-0.11854889,0.5333343,-0.008053999,0.0036726063,0.015381827,0.6646006550024115,-0.7467717716435216,0.025256493160408997,0.7279210884754244,0.6394554969525995,-0.247442026280617,0.1686323169594699,0.18283486673361898,0.9685734629770634,left_images/camera_left_89.png,right_images/camera_right_89.png
2025-06-30 10:14:16,4.903048753738403,90,-0.026670752,-0.00023918974,0.11362946,-0.00012749441,0.00014005514,-0.016056895,1.047179,0.05897075,2.4944091e-05,0.0018486492,0.8437708882759261,-5.6440483001339284e-05,0.5367035354015535,0.00012866650936002323,0.999999987006331,-9.711986075720633e-05,-0.5367035229463135,0.00015100268164164375,0.8437708845742463,0.050760046,0.0005353248,0.112250455,0.00077877636,5.7271513e-06,-0.015323374,1.047179,-0.057594426,-6.1730905e-05,0.004346447,0.8476609299647279,0.0009477676025278691,-0.5305375100291252,-0.0007870262124266248,0.9999995503927526,0.0005289650589589972,0.5305377728315614,-3.0836086727555815e-05,0.847661294768177,-0.1254587,-0.23125444,0.084371515,-0.88785297,0.24103628,-0.12698857,0.56000125,-0.008019693,0.003649533,0.015330578,0.6508860268589163,-0.7588712989778607,0.021487941443255484,0.7403662000576766,0.6282439602742976,-0.23909708528341234,0.1679442462603904,0.1715338974270726,0.9707578751581201,left_images/camera_left_90.png,right_images/camera_right_90.png
2025-06-30 10:14:16,4.955406188964844,91,-0.026670752,-0.00023919062,0.11362946,-0.00012749397,0.00014006166,-0.016056895,1.047179,0.05897075,2.4944091e-05,0.0018486492,0.8437708882759261,-5.6440483001339284e-05,0.5367035354015535,0.00012866650936002323,0.999999987006331,-9.711986075720633e-05,-0.5367035229463135,0.00015100268164164375,0.8437708845742463,0.050760046,0.0005353318,0.112250455,0.0007788127,5.6785416e-06,-0.015323391,1.047179,-0.057594426,-6.1730905e-05,0.004346447,0.8476609299647279,0.0009477676025278691,-0.5305375100291252,-0.0007870262124266248,0.9999995503927526,0.0005289650589589972,0.5305377728315614,-3.0836086727555815e-05,0.847661294768177,-0.12670043,-0.23186412,0.084443025,-0.9132712,0.25089458,-0.13496396,0.58666754,-0.007945923,0.0036251154,0.015279889,0.6331287636599265,-0.7739213222428587,0.01391961221867874,0.7552210826915478,0.6136887810997159,-0.23027634748395562,0.16967346547017723,0.15630696379307749,0.9730257181519563,left_images/camera_left_91.png,right_images/camera_right_91.png
2025-06-30 10:14:16,5.005950450897217,92,-0.026670752,-0.00023919149,0.11362946,-0.00012749353,0.00014006818,-0.016056895,1.047179,0.05897075,2.493717e-05,0.0018486492,0.8437708882535591,-5.675390643656047e-05,0.5367035354036661,0.00012874416229290874,0.9999999870410895,-9.66579630134889e-05,-0.536703522962856,0.00015065462237385865,0.8437708846259417,0.050760046,0.00053533877,0.112250455,0.000778849,5.629932e-06,-0.015323408,1.047179,-0.057594426,-6.1730905e-05,0.004346447,0.8476609299647279,0.0009477676025278691,-0.5305375100291252,-0.0007870262124266248,0.9999995503927526,0.0005289650589589972,0.5305377728315614,-3.0836086727555815e-05,0.847661294768177,-0.1279394,-0.23275219,0.084530465,-0.93484837,0.26035458,-0.1418416,0.613334,-0.007881564,0.0036375555,0.0152292745,0.618051141106446,-0.7861110543252556,0.006495940628949329,0.767295263437662,0.6014184242157763,-0.22260695793245366,0.17108701202355708,0.1425667888445527,0.9748866318887565,left_images/camera_left_92.png,right_images/camera_right_92.png
2025-06-30 10:14:16,5.055243015289307,93,-0.026670752,-0.0002391913,0.11362946,-0.00012749674,0.00014012353,-0.016056895,1.047179,0.05897075,2.493717e-05,0.0018486492,0.8437708882535591,-5.675390643656047e-05,0.5367035354036661,0.00012874416229290874,0.9999999870410895,-9.66579630134889e-05,-0.536703522962856,0.00015065462237385865,0.8437708846259417,0.050760046,0.00053534715,0.112250455,0.0007789158,5.6316903e-06,-0.015323472,1.047179,-0.057594426,-6.1730905e-05,0.004346447,0.8476609299647279,0.0009477676025278691,-0.5305375100291252,-0.0007870262124266248,0.9999995503927526,0.0005289650589589972,0.5305377728315614,-3.0836086727555815e-05,0.847661294768177,-0.12923858,-0.23389181,0.08465272,-0.95354676,0.27128673,-0.14639956,0.6400004,-0.007798267,0.0036833123,0.015159366,0.6052407775858831,-0.7960367136708599,-0.0030251669925854263,0.7768556280712533,0.5914778618558769,-0.21598442552281114,0.17372085160179856,0.12837246364582108,0.9763921222010388,left_images/camera_left_93.png,right_images/camera_right_93.png
2025-06-30 10:14:17,5.1068115234375,94,-0.026670752,-0.00023918692,0.11362946,-0.00012748332,0.00014009075,-0.016056895,1.047179,0.05897075,2.493717e-05,0.0018486492,0.8437708882535591,-5.675390643656047e-05,0.5367035354036661,0.00012874416229290874,0.9999999870410895,-9.66579630134889e-05,-0.536703522962856,0.00015065462237385865,0.8437708846259417,0.050760046,0.0005353556,0.112250455,0.00077898265,5.6334593e-06,-0.0153235365,1.047179,-0.057594426,-6.174272e-05,0.0043464424,0.8476609166521254,0.0009481552840280363,-0.5305375306064931,-0.0007874914897375497,0.9999995500331554,0.0005289523985647346,0.5305377934112062,-3.05784846937352e-05,0.8476612818970347,-0.1306948,-0.23504813,0.08477117,-0.9705287,0.28459182,-0.14645284,0.66666645,-0.0076711015,0.0037358142,0.015099707,0.5938952537867326,-0.8043676817828619,-0.016764845148611318,0.7841572185632314,0.5833827084909421,-0.21157048945670262,0.17996078490818143,0.11250443518829331,0.977218945763023,left_images/camera_left_94.png,right_images/camera_right_94.png
2025-06-30 10:14:17,5.155775547027588,95,-0.026670752,-0.00023918191,0.11362946,-0.0001274699,0.00014005795,-0.016056895,1.047179,0.05897075,2.4944091e-05,0.0018486492,0.8437708882759261,-5.6440483001339284e-05,0.5367035354015535,0.00012866650936002323,0.999999987006331,-9.711986075720633e-05,-0.5367035229463135,0.00015100268164164375,0.8437708845742463,0.050760046,0.0005353713,0.112250455,0.00077903795,5.6082895e-06,-0.0153235365,1.047179,-0.057594422,-6.173638e-05,0.004346445,0.8476608864625863,0.00094781650706145,-0.530537579446858,-0.0007873408146658747,0.9999995503621472,0.0005285545809437033,0.5305378418698367,-3.0321154614050007e-05,0.8476612515767863,-0.13251816,-0.2366297,0.084897235,-0.9877798,0.3017632,-0.14208198,0.6933322,-0.0074894987,0.0038232205,0.015059192,0.5825566546306714,-0.8119883991192999,-0.03609132639841704,0.7901021566522598,0.576155074864945,-0.2092460555442261,0.19069957052643938,0.09338184728867806,0.9771967582825812,left_images/camera_left_95.png,right_images/camera_right_95.png
