jiaqis7/OS_Teleop_Extension/test/teleop_log.csv
Epoch Time (Seconds),Time (Seconds),Frame Number,PSM1_joint_1,PSM1_joint_2,PSM1_joint_3,PSM1_joint_4,PSM1_joint_5,PSM1_joint_6,PSM1_jaw_angle,PSM1_ee_x,PSM1_ee_y,PSM1_ee_z,"PSM1_Orientation_Matrix_[1,1]","PSM1_Orientation_Matrix_[1,2]","PSM1_Orientation_Matrix_[1,3]","PSM1_Orientation_Matrix_[2,1]","PSM1_Orientation_Matrix_[2,2]","PSM1_Orientation_Matrix_[2,3]","PSM1_Orientation_Matrix_[3,1]","PSM1_Orientation_Matrix_[3,2]","PSM1_Orientation_Matrix_[3,3]",PSM2_joint_1,PSM2_joint_2,PSM2_joint_3,PSM2_joint_4,PSM2_joint_5,PSM2_joint_6,PSM2_jaw_angle,PSM2_ee_x,PSM2_ee_y,PSM2_ee_z,"PSM2_Orientation_Matrix_[1,1]","PSM2_Orientation_Matrix_[1,2]","PSM2_Orientation_Matrix_[1,3]","PSM2_Orientation_Matrix_[2,1]","PSM2_Orientation_Matrix_[2,2]","PSM2_Orientation_Matrix_[2,3]","PSM2_Orientation_Matrix_[3,1]","PSM2_Orientation_Matrix_[3,2]","PSM2_Orientation_Matrix_[3,3]",PSM3_joint_1,PSM3_joint_2,PSM3_joint_3,PSM3_joint_4,PSM3_joint_5,PSM3_joint_6,PSM3_jaw_angle,PSM3_ee_x,PSM3_ee_y,PSM3_ee_z,"PSM3_Orientation_Matrix_[1,1]","PSM3_Orientation_Matrix_[1,2]","PSM3_Orientation_Matrix_[1,3]","PSM3_Orientation_Matrix_[2,1]","PSM3_Orientation_Matrix_[2,2]","PSM3_Orientation_Matrix_[2,3]","PSM3_Orientation_Matrix_[3,1]","PSM3_Orientation_Matrix_[3,2]","PSM3_Orientation_Matrix_[3,3]",Camera Left,Camera Right
2025-06-28 11:30:07,0.003672361373901367,1,-0.026681153,-0.00020496991,0.11362281,-0.00013220645,0.00014523273,-0.01612824,1.047179,0.058972623,2.1010774e-05,0.0018553967,0.8437268141609738,-8.140554765891295e-05,0.536772816412037,0.00013312136943791607,0.9999999894810705,-5.758958200717857e-05,-0.5367728060776501,0.00012004580695359639,0.843726816122689,0.05075765,0.0005356837,0.11225074,0.0007785509,4.8820257e-06,-0.015325095,1.047179,-0.057594538,-6.182545e-05,0.004346013,0.8476631412185944,0.0009473431483251274,-0.5305339777623903,-0.0007867624004089763,0.9999995508003817,0.0005285867575124277,0.530534240199773,-3.065932543667532e-05,0.8476635057826043,0.0029622314,-0.0066539836,0.091940336,-0.0022855136,-0.011824324,-0.0038962231,3.4162647e-13,0.00024389906,-0.0086620785,0.0017121648,0.9999967997366451,-0.0023400662385876683,0.0009615645931334103,0.0025147419254381476,0.9609779242738519,-0.2766136387298485,-0.0002767481096399708,0.2766151715801534,0.9609807335540946,left_images/camera_left_1.png,right_images/camera_right_1.png
2025-06-28 11:30:07,0.09064793586730957,2,-0.026681153,-0.00020497078,0.11362281,-0.00013220508,0.00014523797,-0.01612824,1.047179,0.058972623,2.1010774e-05,0.0018553967,0.8437268141609738,-8.140554765891295e-05,0.536772816412037,0.00013312136943791607,0.9999999894810705,-5.758958200717857e-05,-0.5367728060776501,0.00012004580695359639,0.843726816122689,0.05075765,0.00053568924,0.11225074,0.00077856035,4.916313e-06,-0.015325095,1.047179,-0.057594538,-6.182545e-05,0.004346013,0.8476631412185944,0.0009473431483251274,-0.5305339777623903,-0.0007867624004089763,0.9999995508003817,0.0005285867575124277,0.530534240199773,-3.065932543667532e-05,0.8476635057826043,0.0029622314,-0.0066539836,0.091940336,-0.0022854996,-0.011824324,-0.003896251,3.4573147e-13,0.00024389906,-0.0086620785,0.0017121648,0.9999967997366451,-0.0023400662385876683,0.0009615645931334103,0.0025147419254381476,0.9609779242738519,-0.2766136387298485,-0.0002767481096399708,0.2766151715801534,0.9609807335540946,left_images/camera_left_2.png,right_images/camera_right_2.png
2025-06-28 11:30:07,0.16346073150634766,3,-0.026681153,-0.00020497166,0.11362281,-0.00013220371,0.0001452432,-0.01612824,1.047179,0.058972623,2.1010774e-05,0.0018553967,0.8437268141609738,-8.140554765891295e-05,0.536772816412037,0.00013312136943791607,0.9999999894810705,-5.758958200717857e-05,-0.5367728060776501,0.00012004580695359639,0.843726816122689,0.05075765,0.00053569616,0.11225074,0.00077855686,4.8653064e-06,-0.015325095,1.047179,-0.05759454,-6.181627e-05,0.004346015,0.8476632021754784,0.0009470035289459022,-0.5305338809745616,-0.0007866885171118708,0.9999995511343425,0.0005280646653973954,0.5305341429152238,-3.025607312499509e-05,0.8476635666853797,-0.0037448395,0.0011453851,0.09195963,-0.118972294,-0.0508304,0.10611766,1.4521731e-06,0.0005128365,-0.008591008,0.0017809747,0.9883732266236871,-0.11835150628567423,-0.09545305575723363,0.0825709342381517,0.944943777226442,-0.3166438041397039,0.1276730422310065,0.30508061039819684,0.9437295245177737,left_images/camera_left_3.png,right_images/camera_right_3.png
2025-06-28 11:30:07,0.2381880283355713,4,-0.026681153,-0.00020497253,0.11362281,-0.00013220235,0.00014524844,-0.01612824,1.047179,0.058972623,2.1010774e-05,0.0018553967,0.8437268141609738,-8.140554765891295e-05,0.536772816412037,0.00013312136943791607,0.9999999894810705,-5.758958200717857e-05,-0.5367728060776501,0.00012004580695359639,0.843726816122689,0.05075765,0.0005356974,0.11225074,0.0007785648,4.853992e-06,-0.01532515,1.047179,-0.05759454,-6.181627e-05,0.004346015,0.8476632021754784,0.0009470035289459022,-0.5305338809745616,-0.0007866885171118708,0.9999995511343425,0.0005280646653973954,0.5305341429152238,-3.025607312499509e-05,0.8476635666853797,-0.0073807323,0.007540716,0.09206055,-0.2356268,-0.0542318,0.19735587,1.6208346e-06,0.000843804,-0.008848478,0.0017299792,0.957381236029191,-0.2327565875249505,-0.17101327393789895,0.16413977141937303,0.9256442502208952,-0.3409411349065892,0.2376537488398085,0.2983405654562202,0.924399049472493,left_images/camera_left_4.png,right_images/camera_right_4.png
2025-06-28 11:30:07,0.30292487144470215,5,-0.026681153,-0.0002049734,0.11362281,-0.00013220098,0.00014525368,-0.01612824,1.047179,0.05897261,2.1039115e-05,0.0018553687,0.8437267834925359,-8.0935195682015e-05,0.5367728646893708,0.0001326510221145209,0.999999989535678,-5.772651230894553e-05,-0.5367728544003001,0.00011990887369705335,0.8437267853996437,0.05075765,0.0005356979,0.11225074,0.0007785727,4.8426805e-06,-0.015325206,1.047179,-0.05759454,-6.181876e-05,0.0043460103,0.8476634194481212,0.0009470474758092052,-0.5305335337474886,-0.000786654965194022,0.9999995510886646,0.0005282011317309632,0.5305337958165199,-3.0389938955043623e-05,0.8476637839220025,-0.01025212,0.011703154,0.092189364,-0.35228175,-0.03466372,0.2678832,1.3207039e-06,0.0011239144,-0.009178923,0.0016374486,0.9109019860587276,-0.34457199291759444,-0.22699716626218636,0.2509827279201794,0.8993489384741863,-0.3580211685795957,0.32751372807870305,0.2691498254915862,0.9057003529632954,left_images/camera_left_5.png,right_images/camera_right_5.png
2025-06-28 11:30:07,0.3656187057495117,6,-0.026681153,-0.00020500534,0.11362281,-0.00013215271,0.0001452773,-0.016128184,1.047179,0.05897261,2.1039115e-05,0.0018553687,0.8437267834925359,-8.0935195682015e-05,0.5367728646893708,0.0001326510221145209,0.999999989535678,-5.772651230894553e-05,-0.5367728544003001,0.00011990887369705335,0.8437267853996437,0.05075765,0.000535711,0.11225074,0.00077859365,4.7540066e-06,-0.015325204,1.047179,-0.05759454,-6.181876e-05,0.0043460103,0.8476634194481212,0.0009470474758092052,-0.5305335337474886,-0.000786654965194022,0.9999995510886646,0.0005282011317309632,0.5305337958165199,-3.0389938955043623e-05,0.8476637839220025,-0.013513921,0.014778293,0.09231228,-0.4689423,-0.0063787424,0.31672835,9.575369e-07,0.0012527134,-0.009481935,0.0015440555,0.8526195380132299,-0.4519841854284251,-0.2622026306517722,0.34152810113021326,0.8618109468781843,-0.37502059674012367,0.39547247633242133,0.23020032138016355,0.8891621519722778,left_images/camera_left_6.png,right_images/camera_right_6.png
2025-06-28 11:30:07,0.4368929862976074,7,-0.026681153,-0.00020501381,0.11362281,-0.00013218926,0.00014530313,-0.016128184,1.047179,0.05897261,2.1039115e-05,0.0018553687,0.8437267834925359,-8.0935195682015e-05,0.5367728646893708,0.0001326510221145209,0.999999989535678,-5.772651230894553e-05,-0.5367728544003001,0.00011990887369705335,0.8437267853996437,0.05075765,0.0005357204,0.11225074,0.0007785312,4.7156964e-06,-0.01532523,1.047179,-0.05759454,-6.181876e-05,0.0043460103,0.8476634194481212,0.0009470474758092052,-0.5305335337474886,-0.000786654965194022,0.9999995510886646,0.0005282011317309632,0.5305337958165199,-3.0389938955043623e-05,0.8476637839220025,-0.017101597,0.01721766,0.09241644,-0.5856106,0.024398154,0.3481086,6.5465963e-07,0.0012651575,-0.009721434,0.001466237,0.7843513676198601,-0.5531250730143535,-0.28079456140694964,0.4317043396502104,0.8117924764498675,-0.39322301344983257,0.44544842040356475,0.18720477766942115,0.8755170335166025,left_images/camera_left_7.png,right_images/camera_right_7.png
2025-06-28 11:30:07,0.49635887145996094,8,-0.026681153,-0.00020501763,0.11362281,-0.00013222585,0.00014532897,-0.016128184,1.047179,0.058972623,2.1004016e-05,0.0018554004,0.8437267527223553,-8.148321049180872e-05,0.5367729129725863,0.00013302047826975932,0.9999999895119168,-5.728628586830918e-05,-0.5367729026749969,0.0001197357615570584,0.8437267547122146,0.05075765,0.00053573365,0.11225074,0.00077855214,4.627025e-06,-0.015325228,1.047179,-0.05759454,-6.181876e-05,0.0043460103,0.8476634194481212,0.0009470474758092052,-0.5305335337474886,-0.000786654965194022,0.9999995510886646,0.0005282011317309632,0.5305337958165199,-3.0389938955043623e-05,0.8476637839220025,-0.020736557,0.019185942,0.09250039,-0.702282,0.055132948,0.36700672,4.699619e-07,0.0012169186,-0.00988227,0.0014121095,0.7067928725796726,-0.6462867620070912,-0.28767560988892443,0.5176400184074043,0.7496609483213199,-0.4123800115247609,0.48217491288302977,0.14255484494176016,0.8643989065066394,left_images/camera_left_8.png,right_images/camera_right_8.png
2025-06-28 11:30:07,0.5632016658782959,9,-0.026681153,-0.00020502461,0.11362281,-0.00013229468,0.0001453754,-0.016128184,1.047179,0.058972623,2.1004016e-05,0.0018554004,0.8437267527223553,-8.148321049180872e-05,0.5367729129725863,0.00013302047826975932,0.9999999895119168,-5.728628586830918e-05,-0.5367729026749969,0.0001197357615570584,0.8437267547122146,0.05075765,0.0005357476,0.11225074,0.0007785731,4.538345e-06,-0.015325224,1.047179,-0.05759454,-6.181876e-05,0.0043460103,0.8476634194481212,0.0009470474758092052,-0.5305335337474886,-0.000786654965194022,0.9999995510886646,0.0005282011317309632,0.5305337958165199,-3.0389938955043623e-05,0.8476637839220025,-0.024053155,0.020953096,0.092565484,-0.8189534,0.0827882,0.37695745,2.7603033e-07,0.0011322995,-0.009954587,0.0013847845,0.6210901942942556,-0.7300505230242085,-0.285084556550514,0.5960766712772536,0.6761870006308662,-0.4329708328939279,0.5088610542285119,0.098981685224653,0.855139201229563,left_images/camera_left_9.png,right_images/camera_right_9.png
2025-06-28 11:30:07,0.6269543170928955,10,-0.026681153,-0.0002050316,0.11362281,-0.00013236351,0.00014542181,-0.016128184,1.047179,0.058972623,2.1004016e-05,0.0018554004,0.8437267527223553,-8.148321049180872e-05,0.5367729129725863,0.00013302047826975932,0.9999999895119168,-5.728628586830918e-05,-0.5367729026749969,0.0001197357615570584,0.8437267547122146,0.05075765,0.0005357555,0.11225074,0.00077855744,4.5538336e-06,-0.015325222,1.047179,-0.05759454,-6.181876e-05,0.0043460103,0.8476634194481212,0.0009470474758092052,-0.5305335337474886,-0.000786654965194022,0.9999995510886646,0.0005282011317309632,0.5305337958165199,-3.0389938955043623e-05,0.8476637839220025,-0.026682906,0.022637732,0.092613064,-0.93562245,0.10546828,0.38023522,1.3623196e-07,0.0010239972,-0.009939773,0.0013805712,0.5286847330158337,-0.8033749127278175,-0.27400949376900824,0.664911697666181,0.592626226444774,-0.45462796882341544,0.5276219170795065,0.05816274864033605,0.8474858153904096,left_images/camera_left_10.png,right_images/camera_right_10.png
2025-06-28 11:30:07,0.6855247020721436,11,-0.026681153,-0.00020503858,0.11362281,-0.00013243234,0.00014546824,-0.016128184,1.047179,0.058972623,2.1004016e-05,0.0018554004,0.8437267527223553,-8.148321049180872e-05,0.5367729129725863,0.00013302047826975932,0.9999999895119168,-5.728628586830918e-05,-0.5367729026749969,0.0001197357615570584,0.8437267547122146,0.05075765,0.0005357685,0.11225074,0.0007785784,4.4651733e-06,-0.015325218,1.047179,-0.057594553,-6.1811166e-05,0.004346012,0.8476634324665215,0.0009468357579632813,-0.5305335133251456,-0.0007866642748249546,0.9999995512998983,0.0005277871928695004,0.530533775002491,-3.0034141989369553e-05,0.847663796961718,-0.0285884,0.024091855,0.092647254,-1.0522894,0.124322295,0.37994772,1.0966551e-07,0.0009121607,-0.009844189,0.0014006002,0.4300705809273978,-0.8653862988027884,-0.2571883536732985,0.7225760449179183,0.5007399887633706,-0.4765955549142671,0.541223756621556,0.019131583773191574,0.840660946976116,left_images/camera_left_11.png,right_images/camera_right_11.png
2025-06-28 11:30:07,0.7468092441558838,12,-0.026681153,-0.00020504557,0.11362281,-0.00013250117,0.00014551466,-0.016128184,1.047179,0.058972623,2.1004016e-05,0.0018554004,0.8437267527223553,-8.148321049180872e-05,0.5367729129725863,0.00013302047826975932,0.9999999895119168,-5.728628586830918e-05,-0.5367729026749969,0.0001197357615570584,0.8437267547122146,0.05075765,0.000535766,0.11225074,0.0007785591,4.42382e-06,-0.015325218,1.047179,-0.057594553,-6.1811166e-05,0.004346012,0.8476634324665215,0.0009468357579632813,-0.5305335133251456,-0.0007866642748249546,0.9999995512998983,0.0005277871928695004,0.530533775002491,-3.0034141989369553e-05,0.847663796961718,-0.029739078,0.025295738,0.092670344,-1.1689559,0.13895334,0.37751007,1.8180334e-07,0.00078640983,-0.009675067,0.0014410233,0.32663884028829465,-0.9154771934071786,-0.2349650535003736,0.7680757633205271,0.4019824741834485,-0.49846736327360774,0.5507873362875255,-0.017652161359692692,0.8344589333122534,left_images/camera_left_12.png,right_images/camera_right_12.png
2025-06-28 11:30:07,0.8115718364715576,13,-0.026681153,-0.00020505255,0.11362281,-0.00013257,0.00014556108,-0.016128184,1.047179,0.058972623,2.1004016e-05,0.0018554004,0.8437267527223553,-8.148321049180872e-05,0.5367729129725863,0.00013302047826975932,0.9999999895119168,-5.728628586830918e-05,-0.5367729026749969,0.0001197357615570584,0.8437267547122146,0.05075765,0.00053575664,0.11225074,0.00077850296,4.48663e-06,-0.015325218,1.047179,-0.057594553,-6.1811166e-05,0.004346012,0.8476634324665215,0.0009468357579632813,-0.5305335133251456,-0.0007866642748249546,0.9999995512998983,0.0005277871928695004,0.530533775002491,-3.0034141989369553e-05,0.847663796961718,-0.030206835,0.026210047,0.0926842,-1.2821131,0.14946862,0.37434795,5.60364e-07,0.00064187753,-0.009454932,0.0014969292,0.2228773157299626,-0.9522175441184288,-0.20882397086080515,0.7999620539841235,0.3010702605957034,-0.5190543424058194,0.5571233385153675,-0.05136581409754051,0.8288396339603867,left_images/camera_left_13.png,right_images/camera_right_13.png
2025-06-28 11:30:07,0.886476993560791,14,-0.026681153,-0.00020503906,0.11362281,-0.00013257128,0.0001455654,-0.016128184,1.047179,0.058972623,2.1004016e-05,0.0018554004,0.8437267527223553,-8.148321049180872e-05,0.5367729129725863,0.00013302047826975932,0.9999999895119168,-5.728628586830918e-05,-0.5367729026749969,0.0001197357615570584,0.8437267547122146,0.05075765,0.00053575233,0.11225074,0.00077848363,4.4452895e-06,-0.015325218,1.047179,-0.057594553,-6.1811166e-05,0.004346012,0.8476634324665215,0.0009468357579632813,-0.5305335133251456,-0.0007866642748249546,0.9999995512998983,0.0005277871928695004,0.530533775002491,-3.0034141989369553e-05,0.847663796961718,-0.030217646,0.026818166,0.092691876,-1.3703316,0.1570757,0.37061322,6.3482184e-07,0.0005325258,-0.009278001,0.0015415968,0.14007897609084619,-0.9723515198622269,-0.1868432559097535,0.8170776436792387,0.22010208302923195,-0.5328594535576677,0.5592512893654545,-0.07802304062141249,0.825318363103152,left_images/camera_left_14.png,right_images/camera_right_14.png
2025-06-28 11:30:08,0.9636945724487305,15,-0.026681153,-0.00020502222,0.11362281,-0.00013257255,0.0001455697,-0.016128184,1.047179,0.058972623,2.1004016e-05,0.0018554004,0.8437267527223553,-8.148321049180872e-05,0.5367729129725863,0.00013302047826975932,0.9999999895119168,-5.728628586830918e-05,-0.5367729026749969,0.0001197357615570584,0.8437267547122146,0.05075765,0.00053574296,0.11225074,0.0007784275,4.5080997e-06,-0.015325218,1.047179,-0.05759454,-6.181876e-05,0.0043460103,0.8476634194481212,0.0009470474758092052,-0.5305335337474886,-0.000786654965194022,0.9999995510886646,0.0005282011317309632,0.5305337958165199,-3.0389938955043623e-05,0.8476637839220025,-0.029926721,0.027195524,0.09269447,-1.4352621,0.16142578,0.36721775,4.9380907e-07,0.00044789258,-0.009143012,0.0015747542,0.07874589351751221,-0.9824257759541228,-0.16922966346083737,0.8252216009422253,0.15947862924089523,-0.5418264262231918,0.5592927619704008,-0.09698536774372063,0.8232772587962915,left_images/camera_left_15.png,right_images/camera_right_15.png
2025-06-28 11:30:08,1.0295319557189941,16,-0.026681153,-0.00020500539,0.11362281,-0.00013257381,0.00014557401,-0.016128184,1.047179,0.058972623,2.1004016e-05,0.0018554004,0.8437267527223553,-8.148321049180872e-05,0.5367729129725863,0.00013302047826975932,0.9999999895119168,-5.728628586830918e-05,-0.5367729026749969,0.0001197357615570584,0.8437267547122146,0.05075765,0.0005357492,0.11225074,0.00077841186,4.5236e-06,-0.0153252175,1.047179,-0.05759454,-6.181876e-05,0.0043460103,0.8476634194481212,0.0009470474758092052,-0.5305335337474886,-0.000786654965194022,0.9999995510886646,0.0005282011317309632,0.5305337958165199,-3.0389938955043623e-05,0.8476637839220025,-0.02959914,0.027391955,0.09269535,-1.4836664,0.16463251,0.364737,3.792172e-07,0.00038929598,-0.009036327,0.0016026809,0.03269862980899951,-0.9872240738467937,-0.1559468743705834,0.828653693495853,0.11401558005675372,-0.5480269188279011,0.5588057407223864,-0.11130622409219756,0.8217950283459025,left_images/camera_left_16.png,right_images/camera_right_16.png
2025-06-28 11:30:08,1.0999534130096436,17,-0.026681153,-0.00020498855,0.11362281,-0.00013257508,0.00014557832,-0.016128184,1.047179,0.058972623,2.1004016e-05,0.0018554004,0.8437267527223553,-8.148321049180872e-05,0.5367729129725863,0.00013302047826975932,0.9999999895119168,-5.728628586830918e-05,-0.5367729026749969,0.0001197357615570584,0.8437267547122146,0.05075765,0.0005357561,0.11225074,0.0007783962,4.539109e-06,-0.015325216,1.047179,-0.05759454,-6.181876e-05,0.0043460103,0.8476634194481212,0.0009470474758092052,-0.5305335337474886,-0.000786654965194022,0.9999995510886646,0.0005282011317309632,0.5305337958165199,-3.0389938955043623e-05,0.8476637839220025,-0.029276026,0.02748666,0.09269521,-1.5196916,0.16674028,0.3623766,2.9676278e-07,0.0003448876,-0.008957379,0.0016221618,-0.001513618510975645,-0.9893183844112986,-0.1457629693194445,0.8300309457081593,0.08005148889323999,-0.5519423776924492,0.557715284106346,-0.1218232054733151,0.8210437068039584,left_images/camera_left_17.png,right_images/camera_right_17.png
2025-06-28 11:30:08,1.1772358417510986,18,-0.026681153,-0.00020497171,0.11362281,-0.00013257634,0.00014558263,-0.016128184,1.047179,0.058972612,2.1018743e-05,0.0018553687,0.8437268448386052,-8.18608761275305e-05,0.5367727681221259,0.0001333861669332919,0.9999999894705728,-5.715754659740691e-05,-0.5367727577912491,0.00011982341850332875,0.8437268468737531,0.05075765,0.00053576916,0.11225074,0.00077841716,4.4504486e-06,-0.015325212,1.047179,-0.057594553,-6.1811166e-05,0.004346012,0.8476634324665215,0.0009468357579632813,-0.5305335133251456,-0.0007866642748249546,0.9999995512998983,0.0005277871928695004,0.530533775002491,-3.0034141989369553e-05,0.847663796961718,-0.0289604,0.027504338,0.09269432,-1.5459065,0.16778585,0.3605845,2.0891119e-07,0.000310325,-0.008896145,0.0016370043,-0.026277477626743928,-0.9900916516450666,-0.13794207303183403,0.830279226477127,0.055232865535699616,-0.5546041260622379,0.5567278511536128,-0.12910403520982286,0.8206011502809519,left_images/camera_left_18.png,right_images/camera_right_18.png
2025-06-28 11:30:08,1.2375710010528564,19,-0.026681153,-0.00020499538,0.11362281,-0.00013263056,0.00014566844,-0.016128184,1.047179,0.058972612,2.1018743e-05,0.0018553687,0.8437268448386052,-8.18608761275305e-05,0.5367727681221259,0.0001333861669332919,0.9999999894705728,-5.715754659740691e-05,-0.5367727577912491,0.00011982341850332875,0.8437268468737531,0.05075765,0.0005357605,0.11225074,0.00077836105,4.5132656e-06,-0.015325212,1.047179,-0.05759454,-6.181876e-05,0.0043460103,0.8476634194481212,0.0009470474758092052,-0.5305335337474886,-0.000786654965194022,0.9999995510886646,0.0005282011317309632,0.5305337958165199,-3.0389938955043623e-05,0.8476637839220025,-0.028754385,0.027456444,0.09269046,-1.5657394,0.16911767,0.35892558,1.5129729e-07,0.00028998172,-0.008848513,0.0016522119,-0.04515234984741129,-0.9901546935041581,-0.13249508758796982,0.8301906251808202,0.0365792109476652,-0.5562782461936878,0.5556480821213513,-0.13511344958268598,0.8203655066960892,left_images/camera_left_19.png,right_images/camera_right_19.png
2025-06-28 11:30:08,1.300274133682251,20,-0.026681153,-0.00020500414,0.11362281,-0.000132601,0.00014564439,-0.016128184,1.047179,0.058972612,2.1018743e-05,0.0018553687,0.8437268448386052,-8.18608761275305e-05,0.5367727681221259,0.0001333861669332919,0.9999999894705728,-5.715754659740691e-05,-0.5367727577912491,0.00011982341850332875,0.8437268468737531,0.05075765,0.0005357667,0.11225074,0.0007783454,4.528766e-06,-0.015325211,1.047179,-0.05759454,-6.181876e-05,0.0043460103,0.8476634194481212,0.0009470474758092052,-0.5305335337474886,-0.000786654965194022,0.9999995510886646,0.0005282011317309632,0.5305337958165199,-3.0389938955043623e-05,0.8476637839220025,-0.028623395,0.027367001,0.09268338,-1.5806363,0.17039098,0.357384,1.0284748e-07,0.00027706957,-0.008811598,0.0016683652,-0.05937621333955484,-0.9899106434453612,-0.12865217947258753,0.8300203027661427,0.022639404854389145,-0.5572735004859282,0.5545635782175534,-0.13987271121069417,0.820301689851431,left_images/camera_left_20.png,right_images/camera_right_20.png
2025-06-28 11:30:08,1.3757884502410889,21,-0.026681153,-0.00020501036,0.11362281,-0.00013258768,0.00014568806,-0.016128184,1.047179,0.05897261,2.1011138e-05,0.0018553706,0.8437267833834411,-8.209234092036953e-05,0.5367728646851289,0.00013343907770639807,0.9999999894833482,-5.680947335466927e-05,-0.5367728543764527,0.0001195581502206472,0.8437267854645865,0.05075765,0.00053577364,0.11225074,0.00077832973,4.544275e-06,-0.015325209,1.047179,-0.05759454,-6.181876e-05,0.0043460103,0.8476634194481212,0.0009470474758092052,-0.5305335337474886,-0.000786654965194022,0.9999995510886646,0.0005282011317309632,0.5305337958165199,-3.0389938955043623e-05,0.8476637839220025,-0.028525958,0.027286794,0.09267718,-1.5916798,0.17133617,0.35588804,6.324823e-08,0.00026765937,-0.008785583,0.0016797511,-0.06987360650520252,-0.9895873679781014,-0.12583529016984765,0.8299488591372436,0.012315501435680665,-0.5577035230668491,0.5534460862005837,-0.1434056120330072,0.820446378568822,left_images/camera_left_21.png,right_images/camera_right_21.png
2025-06-28 11:30:08,1.4479742050170898,22,-0.026681153,-0.00020500737,0.11362281,-0.00013263809,0.00014572324,-0.01612824,1.047179,0.05897261,2.1011138e-05,0.0018553706,0.8437267833834411,-8.209234092036953e-05,0.5367728646851289,0.00013343907770639807,0.9999999894833482,-5.680947335466927e-05,-0.5367728543764527,0.0001195581502206472,0.8437267854645865,0.05075765,0.0005357867,0.11225074,0.0007783507,4.4556145e-06,-0.015325205,1.047179,-0.057594553,-6.1811166e-05,0.004346012,0.8476634324665215,0.0009468357579632813,-0.5305335133251456,-0.0007866642748249546,0.9999995512998983,0.0005277871928695004,0.530533775002491,-3.0034141989369553e-05,0.847663796961718,-0.02833648,0.02722243,0.09266769,-1.5988278,0.17063482,0.3543301,2.8501251e-08,0.0002508869,-0.008773595,0.0016863937,-0.07618361825658254,-0.9894825671469499,-0.12296465191922831,0.8301637227965083,0.005363575709234458,-0.5574938792563138,0.5522900050353775,-0.14455269408728774,0.8210239149806353,left_images/camera_left_22.png,right_images/camera_right_22.png
2025-06-28 11:30:08,1.5281567573547363,23,-0.026681153,-0.00020500281,0.11362281,-0.00013267226,0.00014569069,-0.01612824,1.047179,0.05897261,2.1011138e-05,0.0018553706,0.8437267833834411,-8.209234092036953e-05,0.5367728646851289,0.00013343907770639807,0.9999999894833482,-5.680947335466927e-05,-0.5367728543764527,0.0001195581502206472,0.8437267854645865,0.05075765,0.000535778,0.11225074,0.0007782946,4.5184315e-06,-0.015325205,1.047179,-0.05759454,-6.181876e-05,0.0043460103,0.8476634194481212,0.0009470474758092052,-0.5305335337474886,-0.000786654965194022,0.9999995510886646,0.0005282011317309632,0.5305337958165199,-3.0389938955043623e-05,0.8476637839220025,-0.02811038,0.027152963,0.092658445,-1.6035138,0.1692557,0.3528987,2.3459684e-08,0.00023390737,-0.00876728,0.0016897554,-0.07999092575789446,-0.989501887132426,-0.1203638947432446,0.8304976384824366,0.0006195427127899666,-0.5570218026629866,0.5512486954828022,-0.1445186200051567,0.8217294227422516,left_images/camera_left_23.png,right_images/camera_right_23.png
2025-06-28 11:30:08,1.5867295265197754,24,-0.026681153,-0.00020499899,0.11362281,-0.00013272266,0.00014572586,-0.016128296,1.047179,0.05897261,2.1011138e-05,0.0018553706,0.8437267833834411,-8.209234092036953e-05,0.5367728646851289,0.00013343907770639807,0.9999999894833482,-5.680947335466927e-05,-0.5367728543764527,0.0001195581502206472,0.8437267854645865,0.05075765,0.00053578423,0.11225074,0.0007782789,4.533932e-06,-0.0153252045,1.047179,-0.05759454,-6.181876e-05,0.0043460103,0.8476634194481212,0.0009470474758092052,-0.5305335337474886,-0.000786654965194022,0.9999995510886646,0.0005282011317309632,0.5305337958165199,-3.0389938955043623e-05,0.8476637839220025,-0.027874406,0.02704047,0.09264704,-1.6062546,0.1675452,0.35165694,2.9404376e-08,0.00021810882,-0.008761696,0.0016952236,-0.08189494898815852,-0.9896142871567019,-0.11813881659115949,0.8308747189944116,-0.002329745368661429,-0.556454646509915,0.5504002349801318,-0.14372938092766527,0.8224362871323017,left_images/camera_left_24.png,right_images/camera_right_24.png
2025-06-28 11:30:08,1.6488683223724365,25,-0.026681153,-0.00020499443,0.11362281,-0.00013275683,0.00014569331,-0.016128296,1.047179,0.05897261,2.1011138e-05,0.0018553706,0.8437267833834411,-8.209234092036953e-05,0.5367728646851289,0.00013343907770639807,0.9999999894833482,-5.680947335466927e-05,-0.5367728543764527,0.0001195581502206472,0.8437267854645865,0.05075765,0.0005357918,0.11225074,0.00077826343,4.5487527e-06,-0.0153252585,1.047179,-0.05759454,-6.181876e-05,0.0043460103,0.8476634194481212,0.0009470474758092052,-0.5305335337474886,-0.000786654965194022,0.9999995510886646,0.0005282011317309632,0.5305337958165199,-3.0389938955043623e-05,0.8476637839220025,-0.027699541,0.026956161,0.09263771,-1.6085935,0.16640952,0.35036343,3.3932416e-08,0.00020838616,-0.008759866,0.0016984777,-0.08359855129731802,-0.9896615971987519,-0.11653842821578356,0.8313292641656109,-0.004779981572426595,-0.5557596659690512,0.549456947142225,-0.1433425087201382,0.8231342469068842,left_images/camera_left_25.png,right_images/camera_right_25.png
2025-06-28 11:30:08,1.7102077007293701,26,-0.026681153,-0.0002049906,0.11362281,-0.00013280724,0.00014572848,-0.016128352,1.047179,0.05897261,2.1011138e-05,0.0018553706,0.8437267833834411,-8.209234092036953e-05,0.5367728646851289,0.00013343907770639807,0.9999999894833482,-5.680947335466927e-05,-0.5367728543764527,0.0001195581502206472,0.8437267854645865,0.05075765,0.0005358049,0.11225074,0.0007782844,4.460093e-06,-0.015325256,1.047179,-0.057594553,-6.1811166e-05,0.004346012,0.8476634324665215,0.0009468357579632813,-0.5305335133251456,-0.0007866642748249546,0.9999995512998983,0.0005277871928695004,0.530533775002491,-3.0034141989369553e-05,0.847663796961718,-0.02760479,0.026891137,0.092631556,-1.610418,0.16601187,0.34940672,2.7799949e-08,0.00020503253,-0.008757957,0.0017016092,-0.08508878213236881,-0.9896325849663254,-0.11570326671316969,0.8316509407918182,-0.006587096924338509,-0.5552596895455252,0.5487409332602352,-0.14347110136532018,0.8235893583805635,left_images/camera_left_26.png,right_images/camera_right_26.png
2025-06-28 11:30:08,1.7857983112335205,27,-0.026681153,-0.00020498605,0.11362281,-0.00013284141,0.00014569593,-0.016128352,1.047179,0.05897261,2.1011138e-05,0.0018553706,0.8437267833834411,-8.209234092036953e-05,0.5367728646851289,0.00013343907770639807,0.9999999894833482,-5.680947335466927e-05,-0.5367728543764527,0.0001195581502206472,0.8437267854645865,0.05075765,0.0005357962,0.11225074,0.0007782283,4.52291e-06,-0.015325256,1.047179,-0.05759454,-6.181876e-05,0.0043460103,0.8476634194481212,0.0009470474758092052,-0.5305335337474886,-0.000786654965194022,0.9999995510886646,0.0005282011317309632,0.5305337958165199,-3.0389938955043623e-05,0.8476637839220025,-0.027592927,0.026851775,0.092628084,-1.6124963,0.16639407,0.34893516,1.443146e-08,0.00020660006,-0.00875292,0.0017062146,-0.08711201231403853,-0.9894934729719157,-0.11538701944575677,0.83168489014539,-0.008477884543940939,-0.5551831850637321,0.5483719000955914,-0.14432876504576714,0.8236852959510169,left_images/camera_left_27.png,right_images/camera_right_27.png
2025-06-28 11:30:08,1.8510291576385498,28,-0.026681153,-0.00020498222,0.11362281,-0.00013289182,0.0001457311,-0.016128408,1.047179,0.05897261,2.1011138e-05,0.0018553706,0.8437267833834411,-8.209234092036953e-05,0.5367728646851289,0.00013343907770639807,0.9999999894833482,-5.680947335466927e-05,-0.5367728543764527,0.0001195581502206472,0.8437267854645865,0.05075765,0.00053580245,0.11225074,0.0007782126,4.5384104e-06,-0.015325255,1.047179,-0.057594497,-6.182525e-05,0.004346043,0.8476634023537841,0.0009466561964690358,-0.5305335617583988,-0.0007862189921220199,0.9999995514531554,0.000528160188515417,0.530533823775359,-3.058650017220057e-05,0.8476637664161202,-0.027591452,0.02682476,0.0926257,-1.6140323,0.16669676,0.34825712,1.6543062e-08,0.0002075996,-0.008752182,0.0017076912,-0.08857373334203011,-0.989386037984646,-0.1151953193619398,0.8318910657104694,-0.009872225921119082,-0.5548511457557436,0.54782474255272,-0.14497519441755116,0.8239358254443359,left_images/camera_left_28.png,right_images/camera_right_28.png
2025-06-28 11:30:09,1.9331974983215332,29,-0.026681153,-0.00020497767,0.11362281,-0.00013292598,0.00014569855,-0.016128408,1.047179,0.05897261,2.1011138e-05,0.0018553706,0.8437267833834411,-8.209234092036953e-05,0.5367728646851289,0.00013343907770639807,0.9999999894833482,-5.680947335466927e-05,-0.5367728543764527,0.0001195581502206472,0.8437267854645865,0.050757732,0.0005358232,0.11225074,0.0007781873,4.437974e-06,-0.015325311,1.047179,-0.057594493,-6.181016e-05,0.0043461053,0.8476631722638337,0.0009464467380129449,-0.5305339297596209,-0.0007861317114626265,0.9999995516566215,0.0005279048098791858,0.5305341915320317,-3.041591960460297e-05,0.8476635362514571,-0.02764024,0.02681207,0.09262469,-1.6155764,0.16749716,0.34771085,1.3176441e-08,0.00021240662,-0.008751031,0.0017094896,-0.09021088903961227,-0.9892135179272054,-0.11540628860146696,0.8320256923259762,-0.011171106998265734,-0.5546246060876788,0.5473529417187436,-0.14605417597082127,0.824058817605468,left_images/camera_left_29.png,right_images/camera_right_29.png
2025-06-28 11:30:09,2.0139591693878174,30,-0.026681153,-0.00020497384,0.11362281,-0.00013297639,0.00014573372,-0.016128464,1.047179,0.058972593,2.1003965e-05,0.0018553985,0.8437267833367813,-8.252901126218547e-05,0.5367728646915104,0.00013386378498177776,0.9999999894348652,-5.666353930761133e-05,-0.5367728543440469,0.0001196629930956054,0.8437267854703399,0.050757732,0.00053582207,0.11225074,0.0007781838,4.465007e-06,-0.0153253665,1.047179,-0.057594493,-6.181016e-05,0.0043461053,0.8476631722638337,0.0009464467380129449,-0.5305339297596209,-0.0007861317114626265,0.9999995516566215,0.0005279048098791858,0.5305341915320317,-3.041591960460297e-05,0.8476635362514571,-0.027681647,0.0267981,0.09262424,-1.6167285,0.16807431,0.34762812,1.3860516e-08,0.00021504227,-0.008747194,0.0017121304,-0.09146110449109962,-0.9890864141968844,-0.11551160814575123,0.8319415013219963,-0.012145031766206293,-0.5547304179342437,0.5472734277702244,-0.14683515741996966,0.8239728343835626,left_images/camera_left_30.png,right_images/camera_right_30.png
2025-06-28 11:30:09,2.0824458599090576,31,-0.026681153,-0.00020496368,0.11362281,-0.00013299518,0.00014566179,-0.016128464,1.047179,0.058972593,2.101381e-05,0.0018553967,0.8437268012462069,-8.221083093376815e-05,0.5367728365893928,0.0001338266921338741,0.9999999894094023,-5.719800764779405e-05,-0.5367728262023518,0.00012009402517840432,0.8437268033126393,0.050757732,0.0005358186,0.11225074,0.0007781803,4.49205e-06,-0.015325422,1.047179,-0.057594493,-6.181016e-05,0.0043461053,0.8476631722638337,0.0009464467380129449,-0.5305339297596209,-0.0007861317114626265,0.9999995516566215,0.0005279048098791858,0.5305341915320317,-3.041591960460297e-05,0.8476635362514571,-0.02771474,0.02678643,0.09262379,-1.617584,0.16850485,0.34756508,7.819635e-09,0.00021680113,-0.00874437,0.0017143772,-0.09238917193890328,-0.9889911371615002,-0.11558880362927168,0.8318780377907512,-0.012868449553138706,-0.554809276461297,0.5472140085467964,-0.14741415678998027,0.8239089119727045,left_images/camera_left_31.png,right_images/camera_right_31.png
2025-06-28 11:30:09,2.145461320877075,32,-0.026681153,-0.0002049529,0.11362281,-0.00013299474,0.0001455892,-0.016128484,1.047179,0.058972593,2.101381e-05,0.0018553967,0.8437268012462069,-8.221083093376815e-05,0.5367728365893928,0.0001338266921338741,0.9999999894094023,-5.719800764779405e-05,-0.5367728262023518,0.00012009402517840432,0.8437268033126393,0.050757732,0.00053581817,0.11225074,0.00077819685,4.4333665e-06,-0.015325506,1.047179,-0.057594493,-6.181016e-05,0.0043461053,0.8476631722638337,0.0009464467380129449,-0.5305339297596209,-0.0007861317114626265,0.9999995516566215,0.0005279048098791858,0.5305341915320317,-3.041591960460297e-05,0.8476635362514571,-0.027731929,0.02677383,0.092623346,-1.6178983,0.16872016,0.34723806,1.0457082e-08,0.00021807308,-0.008744863,0.0017141611,-0.09271226897046592,-0.9889485855841423,-0.11569412367735996,0.8320182092809233,-0.013120123467302347,-0.5545931497820437,0.5469461898645182,-0.14767720687813343,0.8240396276644464,left_images/camera_left_32.png,right_images/camera_right_32.png
2025-06-28 11:30:09,2.229358673095703,33,-0.026681153,-0.0002049421,0.11362281,-0.0001329943,0.00014551662,-0.016128503,1.047179,0.058972593,2.101381e-05,0.0018553967,0.8437268012462069,-8.221083093376815e-05,0.5367728365893928,0.0001338266921338741,0.9999999894094023,-5.719800764779405e-05,-0.5367728262023518,0.00012009402517840432,0.8437268033126393,0.050757732,0.000535815,0.11225074,0.00077819335,4.4603926e-06,-0.015325562,1.047179,-0.057594493,-6.181016e-05,0.0043461053,0.8476631722638337,0.0009464467380129449,-0.5305339297596209,-0.0007861317114626265,0.9999995516566215,0.0005279048098791858,0.5305341915320317,-3.041591960460297e-05,0.8476635362514571,-0.027754758,0.026770134,0.09262323,-1.6184447,0.16900375,0.34694833,9.349317e-09,0.00021950918,-0.00874506,0.0017139772,-0.09327834119426309,-0.9888860395972026,-0.11577370925131028,0.8321173401971342,-0.013580658975243354,-0.5544333123514902,0.5466990792083828,-0.14805393068594438,0.8241360023692377,left_images/camera_left_33.png,right_images/camera_right_33.png
2025-06-28 11:30:09,2.3143105506896973,34,-0.026681153,-0.0002049313,0.11362281,-0.00013299387,0.00014544404,-0.016128521,1.047179,0.05897259,2.101599e-05,0.0018554004,0.8437265811628886,-8.216109023991023e-05,0.5367731825349872,0.00013384362799334648,0.9999999894003107,-5.731720266451679e-05,-0.5367731721361143,0.00012020371760597065,0.8437265832163874,0.050757732,0.0005358099,0.11225074,0.00077819003,4.4889075e-06,-0.01532559,1.047179,-0.057594497,-6.181123e-05,0.0043461034,0.8476633416922369,0.0009464431372526798,-0.5305336590608911,-0.0007861282024430053,0.9999995516599935,0.000527903647694601,0.5305339208322115,-3.0417098363278274e-05,0.8476637056764911,-0.027715258,0.026749484,0.09262235,-1.6181297,0.16851659,0.34681928,8.041122e-09,0.00021584798,-0.008745456,0.0017132848,-0.09281647919190028,-0.9889638581950776,-0.11547981803902385,0.832214237697727,-0.01338125196390788,-0.5542927066713665,0.5466301892171807,-0.14755144621380342,0.824271804052889,left_images/camera_left_34.png,right_images/camera_right_34.png
2025-06-28 11:30:09,2.3987979888916016,35,-0.026681153,-0.00020492566,0.11362281,-0.00013294393,0.00014540875,-0.016128521,1.047179,0.05897261,2.1019452e-05,0.0018553706,0.8437266426296772,-8.191572479491533e-05,0.5367730859559438,0.00013353160824855414,0.9999999894439326,-5.728389218234798e-05,-0.5367730755972794,0.00012000811946000944,0.8437266446615804,0.050757732,0.000535811,0.11225074,0.0007781997,4.4776034e-06,-0.015325655,1.047179,-0.057594497,-6.181123e-05,0.0043461034,0.8476633416922369,0.0009464431372526798,-0.5305336590608911,-0.0007861282024430053,0.9999995516599935,0.000527903647694601,0.5305339208322115,-3.0417098363278274e-05,0.8476637056764911,-0.02772998,0.026803086,0.09262261,-1.6182917,0.16873372,0.34674695,5.25292e-09,0.00021774333,-0.008750282,0.0017121611,-0.09302942956933208,-0.9889277330413058,-0.11561774974366434,0.8322650245140322,-0.013497657946592134,-0.5542136250586177,0.5465166550112284,-0.14778278672342293,0.8243056434015221,left_images/camera_left_35.png,right_images/camera_right_35.png
2025-06-28 11:30:09,2.4847586154937744,36,-0.026681153,-0.00020492157,0.11362281,-0.00013296134,0.00014537665,-0.016128521,1.047179,0.05897259,2.101599e-05,0.0018554004,0.8437265811628886,-8.216109023991023e-05,0.5367731825349872,0.00013384362799334648,0.9999999894003107,-5.731720266451679e-05,-0.5367731721361143,0.00012020371760597065,0.8437265832163874,0.050757732,0.0005358123,0.11225074,0.00077820936,4.4662956e-06,-0.01532572,1.047179,-0.057594497,-6.181123e-05,0.0043461034,0.8476633416922369,0.0009464431372526798,-0.5305336590608911,-0.0007861282024430053,0.9999995516599935,0.000527903647694601,0.5305339208322115,-3.0417098363278274e-05,0.8476637056764911,-0.027798014,0.0268436,0.09261711,-1.61879,0.16948988,0.3468489,1.2001867e-08,0.00022306811,-0.008753069,0.0017192955,-0.09374214213468107,-0.9888069795761495,-0.11607397610788339,0.8321728233469791,-0.013819416658204797,-0.5543441312090753,0.5465352713876012,-0.14855901475413458,0.8241537576596748,left_images/camera_left_36.png,right_images/camera_right_36.png
2025-06-28 11:30:09,2.57330060005188,37,-0.026681196,-0.0002049126,0.11362281,-0.00013297917,0.0001453388,-0.016128466,1.047179,0.058972593,2.101381e-05,0.0018553967,0.8437268012462069,-8.221083093376815e-05,0.5367728365893928,0.0001338266921338741,0.9999999894094023,-5.719800764779405e-05,-0.5367728262023518,0.00012009402517840432,0.8437268033126393,0.050757732,0.00053581357,0.11225074,0.000778219,4.454988e-06,-0.015325786,1.047179,-0.057594497,-6.181123e-05,0.0043461034,0.8476633416922369,0.0009464431372526798,-0.5305336590608911,-0.0007861282024430053,0.9999995516599935,0.000527903647694601,0.5305339208322115,-3.0417098363278274e-05,0.8476637056764911,-0.027888484,0.026987175,0.092605785,-1.6193057,0.17038898,0.34690407,1.0627788e-08,0.0002289018,-0.008766653,0.0017296816,-0.09450911859776989,-0.9886674346724227,-0.11663931635654945,0.8321586200294997,-0.014147056730489216,-0.554357188008294,0.5464247959348765,-0.14945422176745254,0.82406515396746,left_images/camera_left_37.png,right_images/camera_right_37.png
2025-06-28 11:30:09,2.6353609561920166,38,-0.026681198,-0.00020490208,0.11362281,-0.00013297812,0.00014533302,-0.016128477,1.047179,0.058972593,2.101381e-05,0.0018553967,0.8437268012462069,-8.221083093376815e-05,0.5367728365893928,0.0001338266921338741,0.9999999894094023,-5.719800764779405e-05,-0.5367728262023518,0.00012009402517840432,0.8437268033126393,0.050757732,0.00053581485,0.11225074,0.0007782287,4.44368e-06,-0.015325851,1.047179,-0.05759451,-6.182272e-05,0.0043461034,0.847663371763635,0.0009467552380689523,-0.5305336104572683,-0.0007865508255396296,0.9999995513735753,0.0005278166792256345,0.5305338721590772,-3.011921670380166e-05,0.8476637361505613,-0.02795683,0.027167901,0.09257936,-1.6193659,0.17091805,0.34592807,5.4782472e-08,0.00023309357,-0.008796407,0.0017473046,-0.09461249814980094,-0.9885986961709571,-0.117137069806863,0.8327866879681859,-0.014127844233001063,-0.5534137117566819,0.545449179609644,-0.14991004618240908,0.8246285045502335,left_images/camera_left_38.png,right_images/camera_right_38.png
2025-06-28 11:30:09,2.714148998260498,39,-0.026681198,-0.00020489185,0.11362281,-0.00013297709,0.00014532726,-0.016128486,1.047179,0.058972593,2.101381e-05,0.0018553967,0.8437268012462069,-8.221083093376815e-05,0.5367728365893928,0.0001338266921338741,0.9999999894094023,-5.719800764779405e-05,-0.5367728262023518,0.00012009402517840432,0.8437268033126393,0.050757732,0.00053582794,0.11225074,0.0007782778,4.3566615e-06,-0.015325903,1.047179,-0.05759451,-6.182272e-05,0.0043461034,0.847663371763635,0.0009467552380689523,-0.5305336104572683,-0.0007865508255396296,0.9999995513735753,0.0005278166792256345,0.5305338721590772,-3.011921670380166e-05,0.8476637361505613,-0.027984684,0.027447388,0.09253582,-1.618857,0.17089596,0.3444011,9.172717e-08,0.00023431994,-0.008845575,0.0017744671,-0.09394810172049267,-0.9886299518260995,-0.11740771923276613,0.8338360105182863,-0.01370258239484523,-0.551842139382868,0.5439588787271187,-0.14974330565349678,0.8256425865142247,left_images/camera_left_39.png,right_images/camera_right_39.png
2025-06-28 11:30:09,2.778292655944824,40,-0.026681198,-0.00020488162,0.11362281,-0.00013297606,0.0001453215,-0.016128495,1.047179,0.058972593,2.101381e-05,0.0018553967,0.8437268012462069,-8.221083093376815e-05,0.5367728365893928,0.0001338266921338741,0.9999999894094023,-5.719800764779405e-05,-0.5367728262023518,0.00012009402517840432,0.8437268033126393,0.050757732,0.0005358419,0.11225074,0.00077832694,4.2696356e-06,-0.015325955,1.047179,-0.057594515,-6.182348e-05,0.0043460988,0.8476635586808293,0.0009467364598960807,-0.5305333118425531,-0.0007864874339076099,0.9999995513886437,0.0005278825887913118,0.530533573604978,-3.0209050746936826e-05,0.8476639230056595,-0.028004322,0.027782341,0.09246572,-1.6177461,0.17070258,0.34223625,1.3025831e-07,0.0002365309,-0.0089120595,0.0018218681,-0.09259049236135325,-0.9887125506314627,-0.1177900375588268,0.8353268006954149,-0.012749130637841721,-0.5496058548705081,0.5419004860343317,-0.1492814519349504,0.82707854000932,left_images/camera_left_40.png,right_images/camera_right_40.png
2025-06-28 11:30:09,2.8418307304382324,41,-0.026681198,-0.0002048714,0.11362281,-0.00013297502,0.00014531573,-0.016128505,1.047179,0.058972593,2.101381e-05,0.0018553967,0.8437268012462069,-8.221083093376815e-05,0.5367728365893928,0.0001338266921338741,0.9999999894094023,-5.719800764779405e-05,-0.5367728262023518,0.00012009402517840432,0.8437268033126393,0.050757732,0.0005358394,0.11225074,0.0007783536,4.298281e-06,-0.015326011,1.047179,-0.057594515,-6.182348e-05,0.0043460988,0.8476635586808293,0.0009467364598960807,-0.5305333118425531,-0.0007864874339076099,0.9999995513886437,0.0005278825887913118,0.530533573604978,-3.0209050746936826e-05,0.8476639230056595,-0.028053634,0.027999155,0.092334755,-1.6166922,0.17067547,0.3411508,1.0297984e-07,0.00023941539,-0.008973635,0.0019373908,-0.09145487953831288,-0.9887720808085761,-0.11817688954322439,0.8361488534026807,-0.011797012193335843,-0.548375715597156,0.5408244631689799,-0.14896510570193633,0.8278395359737271,left_images/camera_left_41.png,right_images/camera_right_41.png
2025-06-28 11:30:09,2.910987615585327,42,-0.026681198,-0.00020486116,0.11362281,-0.00013297399,0.00014530997,-0.016128514,1.047179,0.058972593,2.101381e-05,0.0018553967,0.8437268012462069,-8.221083093376815e-05,0.5367728365893928,0.0001338266921338741,0.9999999894094023,-5.719800764779405e-05,-0.5367728262023518,0.00012009402517840432,0.8437268033126393,0.050757732,0.0005358359,0.11225074,0.00077838026,4.3269365e-06,-0.015326067,1.047179,-0.057594515,-6.182348e-05,0.0043460988,0.8476635586808293,0.0009467364598960807,-0.5305333118425531,-0.0007864874339076099,0.9999995513886437,0.0005278825887913118,0.530533573604978,-3.0209050746936826e-05,0.8476639230056595,-0.028169401,0.027870713,0.09214213,-1.6157646,0.17131184,0.3390686,1.0122637e-07,0.00024984317,-0.0090251295,0.0021184725,-0.09050867656008699,-0.988740257154925,-0.11916745926868749,0.8373106949565795,-0.010765623430542381,-0.5466213510863637,0.5391836232478426,-0.14925416320278806,0.8288571741789801,left_images/camera_left_42.png,right_images/camera_right_42.png
2025-06-28 11:30:10,2.9787120819091797,43,-0.026681198,-0.00020485275,0.11362281,-0.00013295625,0.00014532235,-0.016128467,1.047179,0.058972653,2.0921127e-05,0.0018554311,0.843726765466922,-8.231420061711653e-05,0.5367728928132436,0.0001338061840996739,0.9999999894249808,-5.697318097225001e-05,-0.536772882447158,0.0001198933302155615,0.8437267675586444,0.050757732,0.0005358324,0.11225074,0.0007784069,4.355592e-06,-0.015326123,1.047179,-0.057594515,-6.182348e-05,0.0043460988,0.8476635586808293,0.0009467364598960807,-0.5305333118425531,-0.0007864874339076099,0.9999995513886437,0.0005278825887913118,0.530533573604978,-3.0209050746936826e-05,0.8476639230056595,-0.028305614,0.027242044,0.09191382,-1.6151706,0.17214294,0.3368658,8.142173e-08,0.00026210834,-0.00903979,0.0023467238,-0.089901066718925,-0.9886682623622711,-0.12022006987340725,0.8382316951807469,-0.009923513566396203,-0.5452239439651463,0.5378526037839836,-0.14978848712790002,0.8296252079865487,left_images/camera_left_43.png,right_images/camera_right_43.png
2025-06-28 11:30:10,3.0392343997955322,44,-0.026681198,-0.00020484351,0.11362281,-0.0001329848,0.00014531818,-0.016128467,1.047179,0.058972653,2.0921127e-05,0.0018554311,0.843726765466922,-8.231420061711653e-05,0.5367728928132436,0.0001338061840996739,0.9999999894249808,-5.697318097225001e-05,-0.536772882447158,0.0001198933302155615,0.8437267675586444,0.050757732,0.00053582893,0.11225074,0.0007784336,4.3842474e-06,-0.015326179,1.047179,-0.057594515,-6.182348e-05,0.0043460988,0.8476635586808293,0.0009467364598960807,-0.5305333118425531,-0.0007864874339076099,0.9999995513886437,0.0005278825887913118,0.530533573604978,-3.0209050746936826e-05,0.8476639230056595,-0.028466374,0.026289446,0.09167034,-1.6147333,0.1732478,0.3351158,4.0715445e-08,0.00027633517,-0.009025032,0.0026010168,-0.08956441057749542,-0.9885531578998286,-0.12141198608120485,0.8387135156523922,-0.009114802460617744,-0.5444966106764196,0.5371571976804466,-0.15059739168518416,0.8299292563813551,left_images/camera_left_44.png,right_images/camera_right_44.png
2025-06-28 11:30:10,3.1019253730773926,45,-0.026681198,-0.00020483414,0.11362281,-0.00013301335,0.00014531398,-0.016128467,1.047179,0.058972653,2.0921127e-05,0.0018554311,0.843726765466922,-8.231420061711653e-05,0.5367728928132436,0.0001338061840996739,0.9999999894249808,-5.697318097225001e-05,-0.536772882447158,0.0001198933302155615,0.8437267675586444,0.050757732,0.00053582544,0.11225074,0.00077846023,4.412903e-06,-0.0153262345,1.047179,-0.057594515,-6.182348e-05,0.0043460988,0.8476635586808293,0.0009467364598960807,-0.5305333118425531,-0.0007864874339076099,0.9999995513886437,0.0005278825887913118,0.530533573604978,-3.0209050746936826e-05,0.8476639230056595,-0.028666863,0.024807567,0.091398425,-1.6142541,0.17477922,0.33362,3.3264307e-08,0.0002951554,-0.00896772,0.002898668,-0.08932659019985956,-0.9883832472660868,-0.12296063112643726,0.8387758706467588,-0.008076966402853658,-0.5444169371304486,0.5370994313011679,-0.15176731906926672,0.8297535066262084,left_images/camera_left_45.png,right_images/camera_right_45.png
2025-06-28 11:30:10,3.1629703044891357,46,-0.026681198,-0.00020482477,0.11362281,-0.0001330419,0.0001453098,-0.016128467,1.047179,0.058972653,2.0921127e-05,0.0018554311,0.843726765466922,-8.231420061711653e-05,0.5367728928132436,0.0001338061840996739,0.9999999894249808,-5.697318097225001e-05,-0.536772882447158,0.0001198933302155615,0.8437267675586444,0.050757732,0.00053582195,0.11225074,0.0007784869,4.4415583e-06,-0.01532629,1.047179,-0.057594515,-6.182348e-05,0.0043460988,0.8476635586808293,0.0009467364598960807,-0.5305333118425531,-0.0007864874339076099,0.9999995513886437,0.0005278825887913118,0.530533573604978,-3.0209050746936826e-05,0.8476639230056595,-0.028823044,0.02327843,0.09113291,-1.6135745,0.17576323,0.33242303,5.128741e-08,0.0003087038,-0.008903947,0.0031909002,-0.08876835884902928,-0.9882937398436717,-0.1240792579485328,0.8386735126435374,-0.006956777621751009,-0.5445900682488356,0.5373517634263424,-0.1524043537138296,0.8294733240506713,left_images/camera_left_46.png,right_images/camera_right_46.png
2025-06-28 11:30:10,3.2253081798553467,47,-0.026681198,-0.0002048154,0.11362281,-0.00013307045,0.0001453056,-0.016128467,1.047179,0.058972653,2.092857e-05,0.0018554274,0.8437268140832136,-8.212805921817782e-05,0.5367728164242037,0.0001338438809949998,0.9999999893967193,-5.737923383354143e-05,-0.5367728060202058,0.00012025615511974166,0.8437268161292797,0.050757732,0.00053581846,0.11225074,0.00077851355,4.4702138e-06,-0.015326346,1.047179,-0.05759452,-6.182302e-05,0.0043461006,0.8476636931207695,0.0009468061935649131,-0.5305330969156302,-0.0007865901386554105,0.999999551325093,0.0005278499465533695,0.530533358650341,-3.0127132844880134e-05,0.8476640575437561,-0.028975645,0.02141725,0.09085189,-1.6128501,0.17673865,0.33093786,5.8685714e-08,0.00032348937,-0.008817234,0.0035051429,-0.08811768260228742,-0.9882060814006325,-0.12523583630738122,0.838555030716171,-0.005732308389752028,-0.5447867482796607,0.5376436872812738,-0.15302248633234078,0.829170298674081,left_images/camera_left_47.png,right_images/camera_right_47.png
2025-06-28 11:30:10,3.3008174896240234,48,-0.026681198,-0.0002048156,0.11362281,-0.00013306784,0.00014531084,-0.016128467,1.047179,0.058972653,2.0921127e-05,0.0018554311,0.843726765466922,-8.231420061711653e-05,0.5367728928132436,0.0001338061840996739,0.9999999894249808,-5.697318097225001e-05,-0.536772882447158,0.0001198933302155615,0.8437267675586444,0.050757732,0.0005358248,0.11225074,0.00077853614,4.4206645e-06,-0.015326402,1.047179,-0.05759452,-6.182302e-05,0.0043461006,0.8476636931207695,0.0009468061935649131,-0.5305330969156302,-0.0007865901386554105,0.999999551325093,0.0005278499465533695,0.530533358650341,-3.0127132844880134e-05,0.8476640575437561,-0.029310072,0.018479295,0.09046136,-1.6126308,0.17961867,0.32986036,1.8524399e-07,0.00035641645,-0.0086574,0.003960837,-0.08851530042635669,-0.9878413086957096,-0.127806848113783,0.8375790323243337,-0.004370991474691888,-0.5462986903189142,0.5390977705398758,-0.1554041288636694,0.8277820670508993,left_images/camera_left_48.png,right_images/camera_right_48.png
2025-06-28 11:30:10,3.3731765747070312,49,-0.026681198,-0.00020480683,0.11362281,-0.00013309639,0.00014530665,-0.016128467,1.047179,0.058972653,2.092857e-05,0.0018554274,0.8437268140832136,-8.212805921817782e-05,0.5367728164242037,0.0001338438809949998,0.9999999893967193,-5.737923383354143e-05,-0.5367728060202058,0.00012025615511974166,0.8437268161292797,0.050757732,0.0005358318,0.11225074,0.0007785587,4.3711098e-06,-0.015326458,1.047179,-0.05759452,-6.182302e-05,0.0043461006,0.8476636931207695,0.0009468061935649131,-0.5305330969156302,-0.0007865901386554105,0.999999551325093,0.0005278499465533695,0.530533358650341,-3.0127132844880134e-05,0.8476640575437561,-0.029865928,0.014437315,0.08993204,-1.6134863,0.18453161,0.32986498,3.8893415e-07,0.00040527544,-0.008424526,0.004591067,-0.09061034472521551,-0.9871492282154699,-0.1316288975201854,0.8352955032766665,-0.003361226976594467,-0.5497909824278605,0.5422833093822433,-0.15976577664447944,0.8248658733264629,left_images/camera_left_49.png,right_images/camera_right_49.png
2025-06-28 11:30:10,3.4340038299560547,50,-0.026681198,-0.00020480585,0.11362281,-0.00013307712,0.00014524387,-0.016128423,1.047179,0.058972653,2.092857e-05,0.0018554274,0.8437268140832136,-8.212805921817782e-05,0.5367728164242037,0.0001338438809949998,0.9999999893967193,-5.737923383354143e-05,-0.5367728060202058,0.00012025615511974166,0.8437268161292797,0.050757732,0.0005358388,0.11225074,0.0007785813,4.321555e-06,-0.015326514,1.047179,-0.05759452,-6.182302e-05,0.0043461006,0.8476636931207695,0.0009468061935649131,-0.5305330969156302,-0.0007865901386554105,0.999999551325093,0.0005278499465533695,0.530533358650341,-3.0127132844880134e-05,0.8476640575437561,-0.030521417,0.009103045,0.089244835,-1.6138622,0.18992716,0.3275667,3.4545454e-07,0.00046218146,-0.008141809,0.0053979196,-0.09202053774762031,-0.9863997062262408,-0.136190455573892,0.8336191183060866,-0.0015074636381017248,-0.5523376622573934,0.5446204056287475,-0.16435737619640098,0.8224203710163149,left_images/camera_left_50.png,right_images/camera_right_50.png
2025-06-28 11:30:10,3.4965462684631348,51,-0.026681198,-0.00020480657,0.11362281,-0.00013307449,0.0001452491,-0.016128423,1.047179,0.058972653,2.092857e-05,0.0018554274,0.8437268140832136,-8.212805921817782e-05,0.5367728164242037,0.0001338438809949998,0.9999999893967193,-5.737923383354143e-05,-0.5367728060202058,0.00012025615511974166,0.8437268161292797,0.050757732,0.00053584576,0.11225074,0.0007786039,4.2720003e-06,-0.01532657,1.047179,-0.05759447,-6.1803476e-05,0.0043461267,0.8476637278405408,0.0009469642760388205,-0.5305330411596788,-0.0007868587492349808,0.9999995511830171,0.0005277187444399652,0.5305333027782387,-2.9873472968575143e-05,0.8476640925217898,-0.031224879,0.0035219898,0.08852133,-1.615274,0.19560097,0.3228793,2.8880055e-07,0.0005207865,-0.007869827,0.006236903,-0.09410933354284196,-0.9855461646445742,-0.1408623111215052,0.8330168437289778,-0.0004697380754293823,-0.5532474287422873,0.5451847131055068,-0.16940642461403316,0.8210207621586412,left_images/camera_left_51.png,right_images/camera_right_51.png
2025-06-28 11:30:10,3.5853378772735596,52,-0.026681198,-0.00020480744,0.11362281,-0.00013307187,0.00014525434,-0.016128423,1.047179,0.058972653,2.092857e-05,0.0018554274,0.8437268140832136,-8.212805921817782e-05,0.5367728164242037,0.0001338438809949998,0.9999999893967193,-5.737923383354143e-05,-0.5367728060202058,0.00012025615511974166,0.8437268161292797,0.05075782,0.0005358322,0.11225074,0.0007786512,4.231932e-06,-0.015326681,1.047179,-0.05759447,-6.1803476e-05,0.0043461267,0.8476637278405408,0.0009469642760388205,-0.5305330411596788,-0.0007868587492349808,0.9999995511830171,0.0005277187444399652,0.5305333027782387,-2.9873472968575143e-05,0.8476640925217898,-0.032034494,-0.0024550082,0.08782431,-1.6186082,0.20187551,0.31716537,2.1524707e-07,0.0005759241,-0.0075673587,0.0070600887,-0.09795606523884826,-0.9844962787807116,-0.14550493582643076,0.8325521297933932,-0.0009666606448425763,-0.5539458608417273,0.5452169847495647,-0.17540280110114814,0.8197391639457418,left_images/camera_left_52.png,right_images/camera_right_52.png
2025-06-28 11:30:10,3.659698247909546,53,-0.026681198,-0.00020480831,0.11362281,-0.00013306925,0.00014525958,-0.016128423,1.047179,0.058972653,2.092857e-05,0.0018554274,0.8437268140832136,-8.212805921817782e-05,0.5367728164242037,0.0001338438809949998,0.9999999893967193,-5.737923383354143e-05,-0.5367728060202058,0.00012025615511974166,0.8437268161292797,0.050757825,0.00053583225,0.11225074,0.0007786311,4.2187867e-06,-0.015326681,1.047179,-0.05759447,-6.1803476e-05,0.0043461267,0.8476637278405408,0.0009469642760388205,-0.5305330411596788,-0.0007868587492349808,0.9999995511830171,0.0005277187444399652,0.5305333027782387,-2.9873472968575143e-05,0.8476640925217898,-0.03323082,-0.008503524,0.08709237,-1.626403,0.21215989,0.30950078,1.6268972e-07,0.0006586391,-0.0072759977,0.007928079,-0.10674980519372845,-0.982539838143537,-0.15238092253288527,0.8325783419143674,-0.004555055425985222,-0.5538885772835445,0.5435234895257277,-0.1859965535458611,0.8185276405857275,left_images/camera_left_53.png,right_images/camera_right_53.png
2025-06-28 11:30:10,3.7219111919403076,54,-0.026681198,-0.00020480918,0.11362281,-0.00013306663,0.00014526481,-0.016128423,1.047179,0.058972653,2.092857e-05,0.0018554274,0.8437268140832136,-8.212805921817782e-05,0.5367728164242037,0.0001338438809949998,0.9999999893967193,-5.737923383354143e-05,-0.5367728060202058,0.00012025615511974166,0.8437268161292797,0.050757825,0.00053583574,0.11225074,0.00077861093,4.2056545e-06,-0.015326681,1.047179,-0.05759447,-6.1803476e-05,0.0043461267,0.8476637278405408,0.0009469642760388205,-0.5305330411596788,-0.0007868587492349808,0.9999995511830171,0.0005277187444399652,0.5305333027782387,-2.9873472968575143e-05,0.8476640925217898,-0.034579467,-0.014544424,0.086327925,-1.6357905,0.22340062,0.30022874,8.8934364e-08,0.0007452369,-0.0070082275,0.008827404,-0.11690220349279773,-0.9801995871031277,-0.15982066281112298,0.833213974001159,-0.009226596568136514,-0.5528737138307128,0.5404519852380271,-0.19779696498841182,0.8177946027540464,left_images/camera_left_54.png,right_images/camera_right_54.png
2025-06-28 11:30:10,3.789584159851074,55,-0.026681198,-0.00020481006,0.11362281,-0.00013306401,0.00014527005,-0.016128423,1.047179,0.058972653,2.092857e-05,0.0018554274,0.8437268140832136,-8.212805921817782e-05,0.5367728164242037,0.0001338438809949998,0.9999999893967193,-5.737923383354143e-05,-0.5367728060202058,0.00012025615511974166,0.8437268161292797,0.050757825,0.00053583924,0.11225074,0.0007785908,4.1925223e-06,-0.015326681,1.047179,-0.05759452,-6.182302e-05,0.0043461006,0.8476636931207695,0.0009468061935649131,-0.5305330969156302,-0.0007865901386554105,0.999999551325093,0.0005278499465533695,0.530533358650341,-3.0127132844880134e-05,0.8476640575437561,-0.036019877,-0.020903436,0.08559041,-1.6440734,0.23420104,0.29092008,7.574872e-08,0.00082193536,-0.0067187296,0.009709633,-0.1256713625548151,-0.9778695168135474,-0.16726600587225,0.8337545393549628,-0.012731926761093193,-0.5519884655913962,0.5376430755981241,-0.20882793426117474,0.8169031871241539,left_images/camera_left_55.png,right_images/camera_right_55.png
2025-06-28 11:30:10,3.853450298309326,56,-0.026681198,-0.00020481093,0.11362281,-0.00013306139,0.00014527529,-0.016128423,1.047179,0.058972653,2.092857e-05,0.0018554274,0.8437268140832136,-8.212805921817782e-05,0.5367728164242037,0.0001338438809949998,0.9999999893967193,-5.737923383354143e-05,-0.5367728060202058,0.00012025615511974166,0.8437268161292797,0.05075774,0.00053586386,0.11225074,0.0007785464,4.152273e-06,-0.01532657,1.047179,-0.05759452,-6.182302e-05,0.0043461006,0.8476636931207695,0.0009468061935649131,-0.5305330969156302,-0.0007865901386554105,0.999999551325093,0.0005278499465533695,0.530533358650341,-3.0127132844880134e-05,0.8476640575437561,-0.038033314,-0.026996814,0.0849111,-1.6527534,0.24606852,0.28079224,9.45361e-09,0.0008682781,-0.006446918,0.010532526,-0.1346367517116538,-0.9752637138673275,-0.1753101066745503,0.8347312176752701,-0.01629501145435147,-0.5504164485551493,0.5339445095952343,-0.22044310153735877,0.8162769748422986,left_images/camera_left_56.png,right_images/camera_right_56.png
2025-06-28 11:30:11,3.934016466140747,57,-0.026681198,-0.0002048118,0.11362281,-0.00013305877,0.00014528053,-0.016128423,1.047179,0.058972653,2.092857e-05,0.0018554274,0.8437268140832136,-8.212805921817782e-05,0.5367728164242037,0.0001338438809949998,0.9999999893967193,-5.737923383354143e-05,-0.5367728060202058,0.00012025615511974166,0.8437268161292797,0.05075774,0.000535874,0.11225074,0.00077856897,4.1027283e-06,-0.015326626,1.047179,-0.057594515,-6.181608e-05,0.0043461053,0.847663662856695,0.0009465534077143487,-0.5305331457213748,-0.0007865254530465335,0.9999995515728572,0.0005274768203486213,0.5305334071008939,-2.9845110814008275e-05,0.8476640272296486,-0.040774215,-0.032902442,0.08432797,-1.6625485,0.258043,0.26864654,1.7394729e-07,0.0008534696,-0.0061802384,0.011253551,-0.1439213806810677,-0.9725393606034614,-0.18290387710452044,0.8366244234468685,-0.02086322985654193,-0.5473794842083028,0.528532127949711,-0.23180146185251593,0.8166528466906771,left_images/camera_left_57.png,right_images/camera_right_57.png
2025-06-28 11:30:11,4.019233703613281,58,-0.026681198,-0.00020481268,0.11362281,-0.00013305615,0.00014528577,-0.016128423,1.047179,0.058972653,2.092857e-05,0.0018554274,0.8437268140832136,-8.212805921817782e-05,0.5367728164242037,0.0001338438809949998,0.9999999893967193,-5.737923383354143e-05,-0.5367728060202058,0.00012025615511974166,0.8437268161292797,0.05075774,0.0005358774,0.11225074,0.000778555,4.0899367e-06,-0.01532657,1.047179,-0.057594515,-6.181608e-05,0.0043461053,0.847663662856695,0.0009465534077143487,-0.5305331457213748,-0.0007865254530465335,0.9999995515728572,0.0005274768203486213,0.5305334071008939,-2.9845110814008275e-05,0.8476640272296486,-0.04619066,-0.037586484,0.08386932,-1.6792132,0.27274904,0.2549773,2.3561708e-07,0.00063898426,-0.0059610405,0.011839112,-0.15920283428835702,-0.9689690453312048,-0.18908581846475875,0.8385511567626169,-0.031637001751170624,-0.5439035370470332,0.5210435826748383,-0.24514911647837967,0.8175668141768224,left_images/camera_left_58.png,right_images/camera_right_58.png
2025-06-28 11:30:11,4.091834783554077,59,-0.026681198,-0.00020481355,0.11362281,-0.00013305353,0.00014529101,-0.016128423,1.047179,0.058972653,2.092857e-05,0.0018554274,0.8437268140832136,-8.212805921817782e-05,0.5367728164242037,0.0001338438809949998,0.9999999893967193,-5.737923383354143e-05,-0.5367728060202058,0.00012025615511974166,0.8437268161292797,0.05075774,0.0005358809,0.11225074,0.000778541,4.0771483e-06,-0.015326514,1.047179,-0.057594515,-6.181608e-05,0.0043461053,0.847663662856695,0.0009465534077143487,-0.5305331457213748,-0.0007865254530465335,0.9999995515728572,0.0005274768203486213,0.5305334071008939,-2.9845110814008275e-05,0.8476640272296486,-0.053481046,-0.041787397,0.083528094,-1.6971444,0.28613406,0.24092813,3.2498798e-07,0.00023959181,-0.005742669,0.01230004,-0.17455217477989338,-0.9656786892559897,-0.1923439819605582,0.8402763700852274,-0.04425822736591145,-0.5403488051127915,0.5132905221762855,-0.2559411620417108,0.819162353515306,left_images/camera_left_59.png,right_images/camera_right_59.png
2025-06-28 11:30:11,4.151527166366577,60,-0.026681198,-0.00020481442,0.11362281,-0.00013305091,0.00014529625,-0.016128423,1.047179,0.058972653,2.092857e-05,0.0018554274,0.8437268140832136,-8.212805921817782e-05,0.5367728164242037,0.0001338438809949998,0.9999999893967193,-5.737923383354143e-05,-0.5367728060202058,0.00012025615511974166,0.8437268161292797,0.05075774,0.0005358844,0.11225074,0.00077852706,4.06436e-06,-0.015326458,1.047179,-0.057594515,-6.181608e-05,0.0043461053,0.847663662856695,0.0009465534077143487,-0.5305331457213748,-0.0007865254530465335,0.9999995515728572,0.0005274768203486213,0.5305334071008939,-2.9845110814008275e-05,0.8476640272296486,-0.062127564,-0.04678079,0.08328891,-1.7153804,0.29801527,0.22719805,2.7159555e-07,-0.00030110416,-0.005425679,0.012690477,-0.18930299707966147,-0.9627325064806473,-0.19315925103951948,0.8409451883385319,-0.05739991511788084,-0.538067319166228,0.5069275742223232,-0.2642940988935442,0.8204712449459278,left_images/camera_left_60.png,right_images/camera_right_60.png
2025-06-28 11:30:11,4.21547269821167,61,-0.026681198,-0.0002048153,0.11362281,-0.00013304829,0.00014530148,-0.016128423,1.047179,0.058972653,2.092857e-05,0.0018554274,0.8437268140832136,-8.212805921817782e-05,0.5367728164242037,0.0001338438809949998,0.9999999893967193,-5.737923383354143e-05,-0.5367728060202058,0.00012025615511974166,0.8437268161292797,0.05075774,0.0005358879,0.11225074,0.0007785131,4.0515715e-06,-0.015326402,1.047179,-0.057594515,-6.181608e-05,0.0043461053,0.847663662856695,0.0009465534077143487,-0.5305331457213748,-0.0007865254530465335,0.9999995515728572,0.0005274768203486213,0.5305334071008939,-2.9845110814008275e-05,0.8476640272296486,-0.071101196,-0.05276033,0.08313164,-1.7332164,0.30862284,0.21491724,2.977666e-07,-0.0008917637,-0.004995535,0.013041729,-0.20336527931744924,-0.9599635652095109,-0.19264609167689042,0.8400860031988902,-0.07002045446241151,-0.5379150891973488,0.5028897199162558,-0.27123253755241533,0.8206916839930982,left_images/camera_left_61.png,right_images/camera_right_61.png
2025-06-28 11:30:11,4.275343418121338,62,-0.026681198,-0.00020481617,0.11362281,-0.00013304567,0.00014530672,-0.016128423,1.047179,0.058972653,2.092857e-05,0.0018554274,0.8437268140832136,-8.212805921817782e-05,0.5367728164242037,0.0001338438809949998,0.9999999893967193,-5.737923383354143e-05,-0.5367728060202058,0.00012025615511974166,0.8437268161292797,0.05075774,0.0005358914,0.11225074,0.0007784991,4.038783e-06,-0.015326346,1.047179,-0.057594515,-6.181608e-05,0.0043461053,0.847663662856695,0.0009465534077143487,-0.5305331457213748,-0.0007865254530465335,0.9999995515728572,0.0005274768203486213,0.5305334071008939,-2.9845110814008275e-05,0.8476640272296486,-0.0807139,-0.057553742,0.08304283,-1.7524107,0.32057723,0.2045606,5.387433e-07,-0.0015217104,-0.0046143406,0.013323411,-0.21909855845100218,-0.9565655554651367,-0.19229706129415236,0.8380553294107169,-0.08357019131230992,-0.5391468148568797,0.4996589702296831,-0.2792818669761754,0.8199649701342824,left_images/camera_left_62.png,right_images/camera_right_62.png
2025-06-28 11:30:11,4.333468437194824,63,-0.026681198,-0.00020481585,0.11362281,-0.0001330264,0.00014524395,-0.016128378,1.047179,0.058972653,2.092857e-05,0.0018554274,0.8437268140832136,-8.212805921817782e-05,0.5367728164242037,0.0001338438809949998,0.9999999893967193,-5.737923383354143e-05,-0.5367728060202058,0.00012025615511974166,0.8437268161292797,0.05075774,0.00053590036,0.11225074,0.00077853666,3.9718348e-06,-0.015326397,1.047179,-0.057594515,-6.181608e-05,0.0043461053,0.847663662856695,0.0009465534077143487,-0.5305331457213748,-0.0007865254530465335,0.9999995515728572,0.0005274768203486213,0.5305334071008939,-2.9845110814008275e-05,0.8476640272296486,-0.09180695,-0.06070265,0.083016105,-1.774944,0.3351458,0.19484462,7.077125e-07,-0.002246072,-0.0043153805,0.013535904,-0.23815190442813333,-0.9520202210390486,-0.1922008562676408,0.8350446385638032,-0.09965231932061275,-0.5410821257996516,0.4959678639015844,-0.2893560332648754,0.8187117710098687,left_images/camera_left_63.png,right_images/camera_right_63.png
2025-06-28 11:30:11,4.394050598144531,64,-0.026681198,-0.00020481656,0.11362281,-0.00013302377,0.00014524917,-0.016128378,1.047179,0.058972653,2.092857e-05,0.0018554274,0.8437268140832136,-8.212805921817782e-05,0.5367728164242037,0.0001338438809949998,0.9999999893967193,-5.737923383354143e-05,-0.5367728060202058,0.00012025615511974166,0.8437268161292797,0.05075774,0.00053590396,0.11225074,0.0007785227,3.959038e-06,-0.015326341,1.047179,-0.057594515,-6.181608e-05,0.0043461053,0.847663662856695,0.0009465534077143487,-0.5305331457213748,-0.0007865254530465335,0.9999995515728572,0.0005274768203486213,0.5305334071008939,-2.9845110814008275e-05,0.8476640272296486,-0.10274215,-0.062932655,0.08302922,-1.797288,0.34945416,0.18599144,8.0889936e-07,-0.0029670782,-0.0040652435,0.01369983,-0.25702536174072943,-0.94714252628067,-0.19198697438294457,0.8315171341346231,-0.11550902485890369,-0.543357084077026,0.49246037308862756,-0.29929700981936896,0.8172539879686083,left_images/camera_left_64.png,right_images/camera_right_64.png
2025-06-28 11:30:11,4.465939521789551,65,-0.026681198,-0.00020481744,0.11362281,-0.00013302115,0.00014525441,-0.016128378,1.047179,0.058972653,2.092857e-05,0.0018554274,0.8437268140832136,-8.212805921817782e-05,0.5367728164242037,0.0001338438809949998,0.9999999893967193,-5.737923383354143e-05,-0.5367728060202058,0.00012025615511974166,0.8437268161292797,0.05075774,0.0005359129,0.11225074,0.00077856024,3.89209e-06,-0.015326391,1.047179,-0.057594515,-6.181608e-05,0.0043461053,0.847663662856695,0.0009465534077143487,-0.5305331457213748,-0.0007865254530465335,0.9999995515728572,0.0005274768203486213,0.5305334071008939,-2.9845110814008275e-05,0.8476640272296486,-0.11615012,-0.06480512,0.08310338,-1.8158443,0.36387843,0.1787518,1.0737396e-06,-0.0038941693,-0.003828683,0.013817591,-0.27183907108192185,-0.9433568972640891,-0.19021378450992685,0.8277462111854581,-0.1283881132737017,-0.5462167172818295,0.49085611873688284,-0.3059317844786484,0.8157610029563027,left_images/camera_left_65.png,right_images/camera_right_65.png
2025-06-28 11:30:11,4.534402847290039,66,-0.026681198,-0.00020481831,0.11362281,-0.00013301853,0.00014525965,-0.016128378,1.047179,0.058972653,2.092857e-05,0.0018554274,0.8437268140832136,-8.212805921817782e-05,0.5367728164242037,0.0001338438809949998,0.9999999893967193,-5.737923383354143e-05,-0.5367728060202058,0.00012025615511974166,0.8437268161292797,0.05075774,0.00053591654,0.11225074,0.00077854627,3.879293e-06,-0.015326335,1.047179,-0.057594515,-6.181608e-05,0.0043461053,0.847663662856695,0.0009465534077143487,-0.5305331457213748,-0.0007865254530465335,0.9999995515728572,0.0005274768203486213,0.5305334071008939,-2.9845110814008275e-05,0.8476640272296486,-0.12855951,-0.06687946,0.08319124,-1.8252105,0.3727809,0.1743571,1.0928658e-06,-0.004813506,-0.003610977,0.013900858,-0.27776281951450843,-0.9424989336762392,-0.18585902214986244,0.8251398514631875,-0.13500088681094058,-0.5485608317110953,0.4919268661322124,-0.30572948922112836,0.8151916570953903,left_images/camera_left_66.png,right_images/camera_right_66.png
2025-06-28 11:30:11,4.608724355697632,67,-0.026681198,-0.00020481918,0.11362281,-0.00013301591,0.00014526489,-0.016128378,1.047179,0.058972653,2.092857e-05,0.0018554274,0.8437268140832136,-8.212805921817782e-05,0.5367728164242037,0.0001338438809949998,0.9999999893967193,-5.737923383354143e-05,-0.5367728060202058,0.00012025615511974166,0.8437268161292797,0.05075774,0.0005359255,0.11225074,0.0007785838,3.812345e-06,-0.015326385,1.047179,-0.05759456,-6.182908e-05,0.0043461006,0.8476636803351041,0.000946592691079016,-0.530533117725014,-0.0007864424399009535,0.9999995515291045,0.0005276835021761799,0.530533379297698,-3.0064379954857726e-05,0.8476640446232798,-0.1385051,-0.06886592,0.083287,-1.8287084,0.3789282,0.17164928,9.747008e-07,-0.005560069,-0.003422393,0.013951279,-0.27866309548678725,-0.9429327954562566,-0.1822762257310887,0.823726564699213,-0.13708291951124552,-0.550166174702795,0.4937827718972734,-0.30345677852261344,0.8149187430327778,left_images/camera_left_67.png,right_images/camera_right_67.png
2025-06-28 11:30:11,4.671507358551025,68,-0.026681198,-0.00020482005,0.11362281,-0.0001330133,0.00014527013,-0.016128378,1.047179,0.058972653,2.092857e-05,0.0018554274,0.8437268140832136,-8.212805921817782e-05,0.5367728164242037,0.0001338438809949998,0.9999999893967193,-5.737923383354143e-05,-0.5367728060202058,0.00012025615511974166,0.8437268161292797,0.05075774,0.0005359332,0.11225074,0.00077860465,3.7626123e-06,-0.015326441,1.047179,-0.057594564,-6.182001e-05,0.0043460988,0.8476637104247806,0.0009469015486685818,-0.5305330690978186,-0.0007868289196043865,0.9999995512437301,0.0005276481685773772,0.5305333306486454,-2.98294428025038e-05,0.8476640750798983,-0.14621162,-0.07020148,0.08340081,-1.8281819,0.38201225,0.17015798,7.317283e-07,-0.006165548,-0.0032984992,0.013938146,-0.276184445890986,-0.9443671887381052,-0.17858545484662808,0.8234927195389766,-0.13671078703702644,-0.5506086646376148,0.49556219863321854,-0.29913337082747027,0.815436897462462,left_images/camera_left_68.png,right_images/camera_right_68.png
2025-06-28 11:30:11,4.737953424453735,69,-0.026681198,-0.00020482093,0.11362281,-0.00013301068,0.00014527536,-0.016128378,1.047179,0.058972653,2.092857e-05,0.0018554274,0.8437268140832136,-8.212805921817782e-05,0.5367728164242037,0.0001338438809949998,0.9999999893967193,-5.737923383354143e-05,-0.5367728060202058,0.00012025615511974166,0.8437268161292797,0.05075774,0.0005359258,0.11225074,0.0007786678,3.7476507e-06,-0.015326469,1.047179,-0.057594564,-6.182001e-05,0.0043460988,0.8476637104247806,0.0009469015486685818,-0.5305330690978186,-0.0007868289196043865,0.9999995512437301,0.0005276481685773772,0.5305333306486454,-2.98294428025038e-05,0.8476640750798983,-0.1527052,-0.0710026,0.08350547,-1.8283288,0.38513002,0.16917668,4.5895678e-07,-0.006671847,-0.0032109828,0.013918029,-0.2748052864464082,-0.9453066923136298,-0.1757194127242979,0.8230880534883244,-0.13681772947523585,-0.5511868694971269,0.496999105377373,-0.2961016149370108,0.8156688806653011,left_images/camera_left_69.png,right_images/camera_right_69.png
2025-06-28 11:30:11,4.8003411293029785,70,-0.026681198,-0.0002048218,0.11362281,-0.00013300806,0.0001452806,-0.016128378,1.047179,0.058972653,2.092857e-05,0.0018554274,0.8437268140832136,-8.212805921817782e-05,0.5367728164242037,0.0001338438809949998,0.9999999893967193,-5.737923383354143e-05,-0.5367728060202058,0.00012025615511974166,0.8437268161292797,0.05075774,0.00053592154,0.11225074,0.00077864685,3.7734887e-06,-0.015326469,1.047179,-0.057594564,-6.182001e-05,0.0043460988,0.8476637104247806,0.0009469015486685818,-0.5305330690978186,-0.0007868289196043865,0.9999995512437301,0.0005276481685773772,0.5305333306486454,-2.98294428025038e-05,0.8476640750798983,-0.15850973,-0.07137487,0.08359837,-1.8283017,0.38823503,0.16879174,4.2992616e-07,-0.0071206,-0.0031571146,0.013896163,-0.27359960378393355,-0.9460948030315353,-0.17334324470828116,0.8226582820963839,-0.13679642844434448,-0.551833387956091,0.4983739637134959,-0.29358365220425986,0.8157401739836694,left_images/camera_left_70.png,right_images/camera_right_70.png
2025-06-28 11:30:11,4.865180492401123,71,-0.026681198,-0.00020482267,0.11362281,-0.00013300544,0.00014528584,-0.016128378,1.047179,0.058972653,2.092857e-05,0.0018554274,0.8437268140832136,-8.212805921817782e-05,0.5367728164242037,0.0001338438809949998,0.9999999893967193,-5.737923383354143e-05,-0.5367728060202058,0.00012025615511974166,0.8437268161292797,0.05075774,0.00053591805,0.11225074,0.0007786259,3.799337e-06,-0.015326469,1.047179,-0.05759447,-6.179654e-05,0.004346135,0.8476636019195445,0.000946664917996406,-0.5305332428852287,-0.0007867474415396174,0.9999995514744456,0.0005273323152665538,0.5305335041345149,-2.9604738275749586e-05,0.8476639665069597,-0.16342823,-0.07141398,0.083692186,-1.8270539,0.3893295,0.1687225,0.026667474,-0.0075278287,-0.0031380318,0.013847141,-0.27127343634101064,-0.9473492438244662,-0.17011799716947118,0.822723721252967,-0.13649694883618302,-0.551809986721954,0.49953618610007655,-0.2896515029887209,0.8164346915663034,left_images/camera_left_71.png,right_images/camera_right_71.png
2025-06-28 11:30:12,4.925685405731201,72,-0.026681198,-0.00020482355,0.11362281,-0.00013300282,0.00014529108,-0.016128378,1.047179,0.058972653,2.092857e-05,0.0018554274,0.8437268140832136,-8.212805921817782e-05,0.5367728164242037,0.0001338438809949998,0.9999999893967193,-5.737923383354143e-05,-0.5367728060202058,0.00012025615511974166,0.8437268161292797,0.05075774,0.00053591834,0.11225074,0.00077863986,3.7881675e-06,-0.015326518,1.047179,-0.05759447,-6.179654e-05,0.004346135,0.8476636019195445,0.000946664917996406,-0.5305332428852287,-0.0007867474415396174,0.9999995514744456,0.0005273323152665538,0.5305335041345149,-2.9604738275749586e-05,0.8476639665069597,-0.16683665,-0.071386985,0.083777234,-1.8251557,0.38747516,0.16849607,0.053334955,-0.007855224,-0.0031369077,0.013776729,-0.2682618391496803,-0.9489812880169585,-0.16574106506748906,0.8232977622921286,-0.13650879910613717,-0.5509502176888346,0.5002163334606388,-0.2842531666671013,0.8179142723897903,left_images/camera_left_72.png,right_images/camera_right_72.png
2025-06-28 11:30:12,4.997328042984009,73,-0.026681198,-0.00020482442,0.11362281,-0.0001330002,0.00014529632,-0.016128378,1.047179,0.058972653,2.092857e-05,0.0018554274,0.8437268140832136,-8.212805921817782e-05,0.5367728164242037,0.0001338438809949998,0.9999999893967193,-5.737923383354143e-05,-0.5367728060202058,0.00012025615511974166,0.8437268161292797,0.05075774,0.00053591834,0.11225074,0.00077865383,3.7769948e-06,-0.015326566,1.047179,-0.05759447,-6.179654e-05,0.004346135,0.8476636019195445,0.000946664917996406,-0.5305332428852287,-0.0007867474415396174,0.9999995514744456,0.0005273323152665538,0.5305335041345149,-2.9604738275749586e-05,0.8476639665069597,-0.16912714,-0.071240336,0.08385827,-1.8223228,0.38458544,0.16938919,0.080001615,-0.008106131,-0.0031436556,0.013696253,-0.26471772924004405,-0.9507307117294563,-0.1613556246320427,0.8237199520476153,-0.13593033003026683,-0.5504619750505365,0.5014079820113253,-0.27862889145288694,0.8191190245764448,left_images/camera_left_73.png,right_images/camera_right_73.png
2025-06-28 11:30:12,5.068174362182617,74,-0.026681198,-0.0002048253,0.11362281,-0.00013299758,0.00014530156,-0.016128378,1.047179,0.058972653,2.092857e-05,0.0018554274,0.8437268140832136,-8.212805921817782e-05,0.5367728164242037,0.0001338438809949998,0.9999999893967193,-5.737923383354143e-05,-0.5367728060202058,0.00012025615511974166,0.8437268161292797,0.05075774,0.00053591834,0.11225074,0.0007786678,3.7658222e-06,-0.0153266145,1.047179,-0.05759447,-6.179654e-05,0.004346135,0.8476636019195445,0.000946664917996406,-0.5305332428852287,-0.0007867474415396174,0.9999995514744456,0.0005273323152665538,0.5305335041345149,-2.9604738275749586e-05,0.8476639665069597,-0.17081943,-0.070976034,0.08393712,-1.8206698,0.38347444,0.17046928,0.106668204,-0.008279886,-0.0031468077,0.01362337,-0.26275766991499766,-0.9516969307973393,-0.1588438189284222,0.8237006004760594,-0.13552167879042132,-0.5505916775190167,0.5024696286107451,-0.27551193529273843,0.819522693910931,left_images/camera_left_74.png,right_images/camera_right_74.png
2025-06-28 11:30:12,5.130527019500732,75,-0.026681198,-0.00020482617,0.11362281,-0.00013299496,0.0001453068,-0.016128378,1.047179,0.058972653,2.092857e-05,0.0018554274,0.8437268140832136,-8.212805921817782e-05,0.5367728164242037,0.0001338438809949998,0.9999999893967193,-5.737923383354143e-05,-0.5367728060202058,0.00012025615511974166,0.8437268161292797,0.05075774,0.00053591834,0.11225074,0.0007786818,3.7546495e-06,-0.015326663,1.047179,-0.05759447,-6.179654e-05,0.004346135,0.8476636019195445,0.000946664917996406,-0.5305332428852287,-0.0007867474415396174,0.9999995514744456,0.0005273323152665538,0.5305335041345149,-2.9604738275749586e-05,0.8476639665069597,-0.17198272,-0.070745386,0.083995625,-1.8188488,0.38173857,0.17145543,0.13333525,-0.00841568,-0.00315605,0.013562402,-0.260658418783904,-0.9526932930491246,-0.15630955855701825,0.8238229992356528,-0.13507508713661476,-0.5505182892197222,0.5033615545981326,-0.2722686361192764,0.8200591046615486,left_images/camera_left_75.png,right_images/camera_right_75.png
2025-06-28 11:30:12,5.190946102142334,76,-0.026681198,-0.00020482585,0.11362281,-0.00013297569,0.00014524402,-0.016128333,1.047179,0.058972653,2.092857e-05,0.0018554274,0.8437268140832136,-8.212805921817782e-05,0.5367728164242037,0.0001338438809949998,0.9999999893967193,-5.737923383354143e-05,-0.5367728060202058,0.00012025615511974166,0.8437268161292797,0.05075774,0.00053591834,0.11225074,0.00077869574,3.7434768e-06,-0.015326711,1.047179,-0.057594474,-6.179304e-05,0.0043461295,0.8476638494752553,0.0009467338696628686,-0.5305328472279278,-0.0007869270236625983,0.999999551415889,0.0005271753790562111,0.5305331083341087,-2.9376876735047583e-05,0.8476642142371872,-0.17269565,-0.07044104,0.084033005,-1.8166608,0.37920123,0.17287472,0.16000211,-0.008523919,-0.003177626,0.013512466,-0.2582834795582067,-0.953809550629609,-0.15341768253708155,0.8239072657406811,-0.13455757396866413,-0.5505189158851695,0.5044466886074487,-0.26859188449283194,0.8206046173021262,left_images/camera_left_76.png,right_images/camera_right_76.png
2025-06-28 11:30:12,5.265196084976196,77,-0.026681198,-0.00020482656,0.11362281,-0.00013297306,0.00014524924,-0.016128333,1.047179,0.058972653,2.092857e-05,0.0018554274,0.8437268140832136,-8.212805921817782e-05,0.5367728164242037,0.0001338438809949998,0.9999999893967193,-5.737923383354143e-05,-0.5367728060202058,0.00012025615511974166,0.8437268161292797,0.05075774,0.0005359208,0.11225074,0.00077869574,3.7315501e-06,-0.015326767,1.047179,-0.057594568,-6.181533e-05,0.0043461006,0.8476639231334491,0.0009468564375101002,-0.5305327293211012,-0.0007869720257751747,0.9999995512965709,0.0005273345119452182,0.5305329905793236,-2.9488024465286933e-05,0.8476642879332688,-0.17303628,-0.0701566,0.08405332,-1.8138459,0.37552154,0.17396094,0.18666926,-0.008614702,-0.003211258,0.013467882,-0.2551764782984586,-0.955181860254162,-0.15004192335675695,0.8244182910654898,-0.13385990805106684,-0.5499236368562612,0.5051924843857571,-0.26402488302801785,0.8216272968093186,left_images/camera_left_77.png,right_images/camera_right_77.png
2025-06-28 11:30:12,5.341008424758911,78,-0.026681198,-0.00020482743,0.11362281,-0.00013297044,0.00014525448,-0.016128333,1.047179,0.058972653,2.092857e-05,0.0018554274,0.8437268140832136,-8.212805921817782e-05,0.5367728164242037,0.0001338438809949998,0.9999999893967193,-5.737923383354143e-05,-0.5367728060202058,0.00012025615511974166,0.8437268161292797,0.05075764,0.00053594663,0.11225074,0.00077870424,3.7080763e-06,-0.015326683,1.047179,-0.057594594,-6.173905e-05,0.004346038,0.8476638927070147,0.0009469181709051938,-0.5305327778250545,-0.0007869890371577947,0.9999995512361529,0.000527423689738358,0.5305330391681996,-2.955453794832347e-05,0.8476642575203246,-0.17317082,-0.0699645,0.084065706,-1.8114501,0.3724489,0.1744952,0.21333648,-0.0086762,-0.003239743,0.013433264,-0.2525113475009063,-0.9562901038567262,-0.14746951091316723,0.8250488089142762,-0.13317314067332303,-0.5491442228707661,0.5055022079995406,-0.26033469201951465,0.8226137403658499,left_images/camera_left_78.png,right_images/camera_right_78.png
2025-06-28 11:30:12,5.40200400352478,79,-0.026681198,-0.0002048283,0.11362281,-0.00013296782,0.00014525972,-0.016128333,1.047179,0.058972653,2.092857e-05,0.0018554274,0.8437268140832136,-8.212805921817782e-05,0.5367728164242037,0.0001338438809949998,0.9999999893967193,-5.737923383354143e-05,-0.5367728060202058,0.00012025615511974166,0.8437268161292797,0.050757628,0.0005359481,0.11225074,0.0007786655,3.7328714e-06,-0.015326683,1.047179,-0.057594594,-6.173905e-05,0.004346038,0.8476638927070147,0.0009469181709051938,-0.5305327778250545,-0.0007869890371577947,0.9999995512361529,0.000527423689738358,0.5305330391681996,-2.955453794832347e-05,0.8476642575203246,-0.17326784,-0.06980591,0.084075175,-1.809859,0.3704591,0.1748621,0.24000336,-0.008717148,-0.0032604919,0.013408907,-0.25075121514752746,-0.95700972791443,-0.14579509175273062,0.8254704464728276,-0.13270619785102455,-0.5486233745037441,0.5056899940694783,-0.2579175172978243,0.8232594877491164,left_images/camera_left_79.png,right_images/camera_right_79.png
2025-06-28 11:30:12,5.479597568511963,80,-0.026681198,-0.00020482918,0.11362281,-0.0001329652,0.00014526496,-0.016128333,1.047179,0.058972653,2.092857e-05,0.0018554274,0.8437268140832136,-8.212805921817782e-05,0.5367728164242037,0.0001338438809949998,0.9999999893967193,-5.737923383354143e-05,-0.5367728060202058,0.00012025615511974166,0.8437268161292797,0.050757628,0.0005359446,0.11225074,0.00077864435,3.7090576e-06,-0.015326683,1.047179,-0.057594594,-6.173905e-05,0.004346038,0.8476638927070147,0.0009469181709051938,-0.5305327778250545,-0.0007869890371577947,0.9999995512361529,0.000527423689738358,0.5305330391681996,-2.955453794832347e-05,0.8476642575203246,-0.17321679,-0.069460966,0.08407842,-1.8079947,0.36814827,0.17488669,0.26667055,-0.008748755,-0.0033024615,0.013379481,-0.24870247119080557,-0.9578012233603052,-0.14409683325142678,0.8262665659577898,-0.13217135178638567,-0.5475530072488699,0.5054014669586031,-0.25524018158679973,0.8242704695059927,left_images/camera_left_80.png,right_images/camera_right_80.png
2025-06-28 11:30:12,5.5501275062561035,81,-0.026681198,-0.00020483005,0.11362281,-0.00013296258,0.0001452702,-0.016128333,1.047179,0.058972653,2.092857e-05,0.0018554274,0.8437268140832136,-8.212805921817782e-05,0.5367728164242037,0.0001338438809949998,0.9999999893967193,-5.737923383354143e-05,-0.5367728060202058,0.00012025615511974166,0.8437268161292797,0.050757628,0.0005359411,0.11225074,0.0007786056,3.7338377e-06,-0.015326683,1.047179,-0.057594594,-6.173905e-05,0.004346038,0.8476638927070147,0.0009469181709051938,-0.5305327778250545,-0.0007869890371577947,0.9999995512361529,0.000527423689738358,0.5305330391681996,-2.955453794832347e-05,0.8476642575203246,-0.17279382,-0.06838828,0.08406815,-1.8045224,0.3639088,0.17461583,0.29333854,-0.008775858,-0.003422209,0.01332345,-0.24500661832097764,-0.9591623859800613,-0.1413480608284223,0.8281275636994097,-0.1312262732918395,-0.5449627541761144,0.5041591963062853,-0.25057370675905327,0.8264601153478787,left_images/camera_left_81.png,right_images/camera_right_81.png
2025-06-28 11:30:12,5.6126463413238525,82,-0.026681198,-0.00020483093,0.11362281,-0.00013295996,0.00014527544,-0.016128333,1.047179,0.058972653,2.092857e-05,0.0018554274,0.8437268140832136,-8.212805921817782e-05,0.5367728164242037,0.0001338438809949998,0.9999999893967193,-5.737923383354143e-05,-0.5367728060202058,0.00012025615511974166,0.8437268161292797,0.050757628,0.00053593604,0.11225074,0.0007786503,3.7147959e-06,-0.015326683,1.047179,-0.057594594,-6.173905e-05,0.004346038,0.8476638927070147,0.0009469181709051938,-0.5305327778250545,-0.0007869890371577947,0.9999995512361529,0.000527423689738358,0.5305330391681996,-2.955453794832347e-05,0.8476642575203246,-0.1718459,-0.06564372,0.08404051,-1.7988418,0.35797316,0.1698995,0.32000995,-0.008771736,-0.0037299963,0.013195404,-0.23875453403201702,-0.9610829067787257,-0.13898172101722545,0.8338815954354839,-0.12956903574815187,-0.536519663916679,0.4976321505621663,-0.24399080161565434,0.8323645424054438,left_images/camera_left_82.png,right_images/camera_right_82.png
2025-06-28 11:30:12,5.673223495483398,83,-0.026681198,-0.0002048318,0.11362281,-0.00013295734,0.00014528068,-0.016128333,1.047179,0.058972653,2.092857e-05,0.0018554274,0.8437268140832136,-8.212805921817782e-05,0.5367728164242037,0.0001338438809949998,0.9999999893967193,-5.737923383354143e-05,-0.5367728060202058,0.00012025615511974166,0.8437268161292797,0.050757628,0.0005359323,0.11225074,0.0007786115,3.7395769e-06,-0.015326683,1.047179,-0.057594594,-6.173905e-05,0.004346038,0.8476638927070147,0.0009469181709051938,-0.5305327778250545,-0.0007869890371577947,0.9999995512361529,0.000527423689738358,0.5305330391681996,-2.955453794832347e-05,0.8476642575203246,-0.17097616,-0.062556714,0.08404445,-1.7948724,0.3552055,0.15965277,0.3466801,-0.008717853,-0.0040820963,0.013023092,-0.23388253923207925,-0.9620803216878959,-0.14035815780805025,0.8420106116080888,-0.1282477347921897,-0.523994893543863,0.48612455994500736,-0.24073631454682273,0.8400767459444917,left_images/camera_left_83.png,right_images/camera_right_83.png
2025-06-28 11:30:12,5.734376430511475,84,-0.026681198,-0.00020483267,0.11362281,-0.00013295472,0.00014528591,-0.016128333,1.047179,0.058972653,2.092857e-05,0.0018554274,0.8437268140832136,-8.212805921817782e-05,0.5367728164242037,0.0001338438809949998,0.9999999893967193,-5.737923383354143e-05,-0.5367728060202058,0.00012025615511974166,0.8437268161292797,0.050757628,0.00053592725,0.11225074,0.0007786562,3.720535e-06,-0.015326683,1.047179,-0.057594594,-6.173905e-05,0.004346038,0.8476638927070147,0.0009469181709051938,-0.5305327778250545,-0.0007869890371577947,0.9999995512361529,0.000527423689738358,0.5305330391681996,-2.955453794832347e-05,0.8476642575203246,-0.16982666,-0.058606394,0.08407195,-1.7898759,0.35162404,0.14491987,0.37335056,-0.008648232,-0.0045401664,0.012778026,-0.2274816908497691,-0.96332348116547,-0.1423374545345344,0.8529325267902704,-0.12658362886071928,-0.5064412005826703,0.4698491088331389,-0.23661034537756856,0.8504453888339998,left_images/camera_left_84.png,right_images/camera_right_84.png
2025-06-28 11:30:12,5.801685571670532,85,-0.026681198,-0.00020483354,0.11362281,-0.0001329521,0.00014529115,-0.016128333,1.047179,0.058972653,2.092857e-05,0.0018554274,0.8437268140832136,-8.212805921817782e-05,0.5367728164242037,0.0001338438809949998,0.9999999893967193,-5.737923383354143e-05,-0.5367728060202058,0.00012025615511974166,0.8437268161292797,0.050757628,0.0005359235,0.11225074,0.00077861745,3.745316e-06,-0.015326683,1.047179,-0.057594597,-6.1745326e-05,0.004346038,0.8476639230625368,0.000947065384794797,-0.530532729061447,-0.0007869481509308556,0.9999995510874626,0.0005277665023150419,0.530532990728039,-2.9866873670155564e-05,0.8476642878269276,-0.16846365,-0.053877905,0.08408525,-1.7831211,0.34701875,0.12362891,0.40002218,-0.008560622,-0.0051320493,0.01249077,-0.21848629678008696,-0.9649891809260385,-0.14511932612514952,0.8675043369090512,-0.12396912156152201,-0.4817342445199969,0.4468780186620409,-0.23114397590021316,0.8642178538087086,left_images/camera_left_85.png,right_images/camera_right_85.png
2025-06-28 11:30:12,5.865854740142822,86,-0.026681198,-0.00020483442,0.11362281,-0.00013294948,0.00014529639,-0.016128333,1.047179,0.058972653,2.093399e-05,0.0018554302,0.8437267655113041,-8.183026190660328e-05,0.5367728928174756,0.00013351277176648283,0.9999999894390119,-5.741355133048425e-05,-0.5367728824504575,0.00012010738668976107,0.8437267675261009,0.050757628,0.0005359257,0.11225074,0.00077860005,3.782084e-06,-0.015326722,1.047179,-0.057594582,-6.174589e-05,0.0043460354,0.8476641535148015,0.0009468138159189426,-0.5305323613029019,-0.0007866519956326325,0.9999995513209906,0.0005277655305081976,0.5305326229598636,-3.0023580905900863e-05,0.8476645179986666,-0.16723296,-0.049880996,0.084106155,-1.7781432,0.3430099,0.09943552,0.4266898,-0.008475511,-0.005679244,0.012221549,-0.21063944202845525,-0.9662400584835255,-0.14836163534989205,0.8818989034699162,-0.12234604295455404,-0.4552864700734273,0.42176456645918053,-0.22674125155144503,0.8778969502876655,left_images/camera_left_86.png,right_images/camera_right_86.png
2025-06-28 11:30:13,5.927990436553955,87,-0.026681198,-0.00020482956,0.11362281,-0.00013291306,0.00014526157,-0.016128333,1.047179,0.058972653,2.093399e-05,0.0018554302,0.8437267655113041,-8.183026190660328e-05,0.5367728928174756,0.00013351277176648283,0.9999999894390119,-5.741355133048425e-05,-0.5367728824504575,0.00012010738668976107,0.8437267675261009,0.050757628,0.00053592597,0.11225074,0.00077857997,3.770357e-06,-0.015326805,1.047179,-0.057594582,-6.174589e-05,0.0043460354,0.8476641535148015,0.0009468138159189426,-0.5305323613029019,-0.0007866519956326325,0.9999995513209906,0.0005277655305081976,0.5305326229598636,-3.0023580905900863e-05,0.8476645179986666,-0.16632843,-0.046981096,0.084130846,-1.7733538,0.34044096,0.077826746,0.45335448,-0.0083998665,-0.0061154,0.012006444,-0.2032041259493657,-0.9672887914569718,-0.1518567651402648,0.8938959892888648,-0.11997793777851012,-0.43192042644415196,0.39957232578149904,-0.223512166040525,0.8890355831469496,left_images/camera_left_87.png,right_images/camera_right_87.png
2025-06-28 11:30:13,5.999116659164429,88,-0.026681198,-0.00020482432,0.11362281,-0.00013287662,0.00014522673,-0.016128333,1.047179,0.058972653,2.093399e-05,0.0018554302,0.8437267655113041,-8.183026190660328e-05,0.5367728928174756,0.00013351277176648283,0.9999999894390119,-5.741355133048425e-05,-0.5367728824504575,0.00012010738668976107,0.8437267675261009,0.050757628,0.00053592597,0.11225074,0.0007785599,3.758619e-06,-0.015326889,1.047179,-0.057594582,-6.174589e-05,0.0043460354,0.8476641535148015,0.0009468138159189426,-0.5305323613029019,-0.0007866519956326325,0.9999995513209906,0.0005277655305081976,0.5305326229598636,-3.0023580905900863e-05,0.8476645179986666,-0.16552794,-0.044749767,0.08415067,-1.7690425,0.33755282,0.059757043,0.480019,-0.008346949,-0.006470263,0.011833322,-0.1965764237104456,-0.968326837157943,-0.15395079110191792,0.9034625897633934,-0.11788405380072098,-0.4121391740147146,0.3809370795016336,-0.22010562532385153,0.8980202977447462,left_images/camera_left_88.png,right_images/camera_right_88.png
2025-06-28 11:30:13,6.0679333209991455,89,-0.026681198,-0.00020481908,0.11362281,-0.00013284018,0.0001451919,-0.016128333,1.047179,0.058972653,2.093399e-05,0.0018554302,0.8437267655113041,-8.183026190660328e-05,0.5367728928174756,0.00013351277176648283,0.9999999894390119,-5.741355133048425e-05,-0.5367728824504575,0.00012010738668976107,0.8437267675261009,0.050757628,0.00053592597,0.11225074,0.00077862124,3.7503482e-06,-0.015327001,1.047179,-0.057594597,-6.17468e-05,0.0043460354,0.847664153230784,0.0009471414413296912,-0.5305323611718968,-0.0007869796210680008,0.9999995510135566,0.000527859603804256,0.5305326229277649,-2.99295075241007e-05,0.8476645180220832,-0.16474755,-0.04296565,0.084167875,-1.764928,0.3340597,0.04459272,0.50668395,-0.008312929,-0.006766963,0.011687062,-0.19047504798908915,-0.969429478023079,-0.1546794854964771,0.9112472342087232,-0.115987852662981,-0.39519020253744047,0.3651680903919547,-0.2162251261406299,0.9054827224110695,left_images/camera_left_89.png,right_images/camera_right_89.png
2025-06-28 11:30:13,6.141053199768066,90,-0.026681198,-0.00020481384,0.11362281,-0.00013280375,0.00014515706,-0.016128333,1.047179,0.058972653,2.093399e-05,0.0018554302,0.8437267655113041,-8.183026190660328e-05,0.5367728928174756,0.00013351277176648283,0.9999999894390119,-5.741355133048425e-05,-0.5367728824504575,0.00012010738668976107,0.8437267675261009,0.050757628,0.0005359258,0.11225074,0.00077859143,3.823072e-06,-0.015327029,1.047179,-0.057594582,-6.174589e-05,0.0043460354,0.8476641535148015,0.0009468138159189426,-0.5305323613029019,-0.0007866519956326325,0.9999995513209906,0.0005277655305081976,0.5305326229598636,-3.0023580905900863e-05,0.8476645179986666,-0.16392133,-0.041218612,0.084192656,-1.7612859,0.33094782,0.031957995,0.5333495,-0.008275897,-0.007034499,0.011548241,-0.1852505864479395,-0.9703651998036477,-0.15515669251025394,0.9176258214759055,-0.11431816616166418,-0.3806497190936883,0.3516320121680678,-0.21289137111555542,0.9116096709245545,left_images/camera_left_90.png,right_images/camera_right_90.png
2025-06-28 11:30:13,6.202237367630005,91,-0.026681198,-0.0002048086,0.11362281,-0.00013276731,0.00014512222,-0.016128333,1.047179,0.058972653,2.093399e-05,0.0018554302,0.8437267655113041,-8.183026190660328e-05,0.5367728928174756,0.00013351277176648283,0.9999999894390119,-5.741355133048425e-05,-0.5367728824504575,0.00012010738668976107,0.8437267675261009,0.050757628,0.0005359273,0.11225074,0.0007785872,3.8106439e-06,-0.015327057,1.047179,-0.057594582,-6.174589e-05,0.0043460354,0.8476641535148015,0.0009468138159189426,-0.5305323613029019,-0.0007866519956326325,0.9999995513209906,0.0005277655305081976,0.5305326229598636,-3.0023580905900863e-05,0.8476645179986666,-0.1630569,-0.039440718,0.08426005,-1.7554948,0.32826337,0.019804524,0.56001675,-0.0082341125,-0.0072995573,0.011369589,-0.17804726075934302,-0.971569948245304,-0.15604809708135559,0.9240804122859145,-0.11058359370716103,-0.36585059851297774,0.338193087696347,-0.2093396867997733,0.9174978642836091,left_images/camera_left_91.png,right_images/camera_right_91.png
2025-06-28 11:30:13,6.265476226806641,92,-0.026681198,-0.00020480336,0.11362281,-0.00013273087,0.00014508738,-0.016128333,1.047179,0.058972653,2.093399e-05,0.0018554302,0.8437267655113041,-8.183026190660328e-05,0.5367728928174756,0.00013351277176648283,0.9999999894390119,-5.741355133048425e-05,-0.5367728824504575,0.00012010738668976107,0.8437267675261009,0.050757628,0.00053592934,0.11225074,0.00077858294,3.7981977e-06,-0.015327085,1.047179,-0.057594586,-6.1745326e-05,0.0043460317,0.8476643404690658,0.0009467157416569497,-0.5305320627694882,-0.0007865751400313661,0.9999995514141886,0.0005277034873409554,0.5305323243655308,-3.0012096996057233e-05,0.8476647048819369,-0.1620573,-0.0379623,0.08435358,-1.7462193,0.32482758,0.0071142577,0.58668375,-0.00819518,-0.0075582773,0.0111644035,-0.16732572500809573,-0.973403888634612,-0.1564831343676723,0.9311192409547892,-0.10385326253327043,-0.3496161595020644,0.3240664451532934,-0.20420423465788223,0.9237324123757357,left_images/camera_left_92.png,right_images/camera_right_92.png
2025-06-28 11:30:13,6.328646421432495,93,-0.026681198,-0.00020479813,0.11362281,-0.00013269443,0.00014505255,-0.016128333,1.047179,0.058972653,2.093399e-05,0.0018554302,0.8437267655113041,-8.183026190660328e-05,0.5367728928174756,0.00013351277176648283,0.9999999894390119,-5.741355133048425e-05,-0.5367728824504575,0.00012010738668976107,0.8437267675261009,0.050757628,0.00053593615,0.11225074,0.0007785934,3.747882e-06,-0.015327085,1.047179,-0.057594586,-6.1745326e-05,0.0043460317,0.8476643404690658,0.0009467157416569497,-0.5305320627694882,-0.0007865751400313661,0.9999995514141886,0.0005277034873409554,0.5305323243655308,-3.0012096996057233e-05,0.8476647048819369,-0.16105588,-0.03713112,0.08443746,-1.7351499,0.32063317,-0.008104458,0.6133516,-0.008165284,-0.007800362,0.010974856,-0.15436256197511983,-0.9755606758101705,-0.15637636417720222,0.9388187950866742,-0.09550698197325919,-0.33090434627904936,0.3078822330899962,-0.19788831245721222,0.9306174006219496,left_images/camera_left_93.png,right_images/camera_right_93.png
2025-06-28 11:30:13,6.388059616088867,94,-0.026681198,-0.00020479289,0.11362281,-0.000132658,0.00014501771,-0.016128333,1.047179,0.058972653,2.093399e-05,0.0018554302,0.8437267655113041,-8.183026190660328e-05,0.5367728928174756,0.00013351277176648283,0.9999999894390119,-5.741355133048425e-05,-0.5367728824504575,0.00012010738668976107,0.8437267675261009,0.050757628,0.00053594203,0.11225074,0.0007786183,3.7659272e-06,-0.015327113,1.047179,-0.0575946,-6.174568e-05,0.0043460336,0.847664353089963,0.0009470769197601986,-0.5305320419596564,-0.0007869481057646136,0.999999551075961,0.0005277883623616506,0.5305323036472458,-2.9886195282115312e-05,0.8476647178534458,-0.16026258,-0.037269086,0.08453497,-1.7264755,0.31688482,-0.022695856,0.64001733,-0.008153227,-0.007940238,0.010810378,-0.14368801268150216,-0.9772571538071451,-0.1559557961231281,0.945149854522348,-0.08880423107918572,-0.31433351879622884,0.29333514536793065,-0.1925675566527052,0.9364145602332241,left_images/camera_left_94.png,right_images/camera_right_94.png
2025-06-28 11:30:13,6.453458547592163,95,-0.026681198,-0.00020478765,0.11362281,-0.00013262156,0.00014498287,-0.016128333,1.047179,0.058972653,2.093399e-05,0.0018554302,0.8437267655113041,-8.183026190660328e-05,0.5367728928174756,0.00013351277176648283,0.9999999894390119,-5.741355133048425e-05,-0.5367728824504575,0.00012010738668976107,0.8437267675261009,0.050757628,0.00053594384,0.11225074,0.0007786253,3.7543807e-06,-0.015327057,1.047179,-0.057594597,-6.17468e-05,0.0043460354,0.847664153230784,0.0009471414413296912,-0.5305323611718968,-0.0007869796210680008,0.9999995510135566,0.000527859603804256,0.5305326229277649,-2.99295075241007e-05,0.8476645180220832,-0.15962242,-0.038824946,0.08472232,-1.7207602,0.31474215,-0.038554274,0.6666837,-0.008141683,-0.007929865,0.010609362,-0.13545946563308908,-0.9782960228287712,-0.1568044160341371,0.9506355266017323,-0.08373718141824493,-0.2987978915768572,0.2791824291266293,-0.18953885133538373,0.9413459486827456,left_images/camera_left_95.png,right_images/camera_right_95.png
