jiaqis7/OS_Teleop_Extension/demo_2/teleop_log.csv
Epoch Time (Seconds),Time (Seconds),Frame Number,PSM1_joint_1,PSM1_joint_2,PSM1_joint_3,PSM1_joint_4,PSM1_joint_5,PSM1_joint_6,PSM1_jaw_angle,PSM1_ee_x,PSM1_ee_y,PSM1_ee_z,"PSM1_Orientation_Matrix_[1,1]","PSM1_Orientation_Matrix_[1,2]","PSM1_Orientation_Matrix_[1,3]","PSM1_Orientation_Matrix_[2,1]","PSM1_Orientation_Matrix_[2,2]","PSM1_Orientation_Matrix_[2,3]","PSM1_Orientation_Matrix_[3,1]","PSM1_Orientation_Matrix_[3,2]","PSM1_Orientation_Matrix_[3,3]",PSM2_joint_1,PSM2_joint_2,PSM2_joint_3,PSM2_joint_4,PSM2_joint_5,PSM2_joint_6,PSM2_jaw_angle,PSM2_ee_x,PSM2_ee_y,PSM2_ee_z,"PSM2_Orientation_Matrix_[1,1]","PSM2_Orientation_Matrix_[1,2]","PSM2_Orientation_Matrix_[1,3]","PSM2_Orientation_Matrix_[2,1]","PSM2_Orientation_Matrix_[2,2]","PSM2_Orientation_Matrix_[2,3]","PSM2_Orientation_Matrix_[3,1]","PSM2_Orientation_Matrix_[3,2]","PSM2_Orientation_Matrix_[3,3]",PSM3_joint_1,PSM3_joint_2,PSM3_joint_3,PSM3_joint_4,PSM3_joint_5,PSM3_joint_6,PSM3_jaw_angle,PSM3_ee_x,PSM3_ee_y,PSM3_ee_z,"PSM3_Orientation_Matrix_[1,1]","PSM3_Orientation_Matrix_[1,2]","PSM3_Orientation_Matrix_[1,3]","PSM3_Orientation_Matrix_[2,1]","PSM3_Orientation_Matrix_[2,2]","PSM3_Orientation_Matrix_[2,3]","PSM3_Orientation_Matrix_[3,1]","PSM3_Orientation_Matrix_[3,2]","PSM3_Orientation_Matrix_[3,3]",Camera Left,Camera Right
2025-05-30 17:00:06,0.002691030502319336,1,-0.034323208,-0.00027712272,0.11403818,-0.00067212066,0.00029475868,-0.027664801,1.0471791,0.05790698,2.6526597e-05,0.002031107,0.8332778614552727,-0.0005796234734343184,0.5528541124430176,0.00067120037870476,0.9999997740690851,3.676725169785212e-05,-0.5528540088473443,0.00034043855277386334,0.8332780622355378,0.07067476,0.00053157663,0.11086674,0.00077396823,1.4535664e-05,-0.015299722,1.047179,-0.056456827,-6.066444e-05,0.0067548915,0.8369146583139265,0.0009467660869864273,-0.5473325847537858,-0.0007819614408625928,0.9999995516363183,0.0005341006154936299,0.5473328450180828,-1.90036575159916e-05,0.8369150234063626,0.002665709,0.019344743,0.09063903,-0.00016367043,-0.012030425,-0.0062265513,0.5235896,0.00019110431,-0.011352374,0.0023486894,0.9999936414139469,-0.0001440688112632351,0.00356319741986064,0.0010364511291876127,0.9677931489503793,-0.2517446059278458,-0.0034121695051808378,0.25174669826809487,0.9677871444746419,left_images/camera_left_1.png,right_images/camera_right_1.png
2025-05-30 17:00:06,0.05698680877685547,2,-0.034323208,-0.00027712272,0.11403818,-0.000672091,0.00029476217,-0.027664801,1.0471791,0.05790698,2.6526597e-05,0.002031107,0.8332778614552727,-0.0005796234734343184,0.5528541124430176,0.00067120037870476,0.9999997740690851,3.676725169785212e-05,-0.5528540088473443,0.00034043855277386334,0.8332780622355378,0.07067476,0.0005315816,0.11086674,0.00077397743,1.4519719e-05,-0.01529975,1.047179,-0.05645683,-6.066277e-05,0.0067548887,0.83691489580697,0.0009467296651887445,-0.5473322216710339,-0.0007819810203383219,0.9999995516725265,0.0005340041477770336,0.5473324818445298,-1.891261653095015e-05,0.8369152609196587,0.0026657046,0.019344743,0.09063903,-0.00016365157,-0.012030425,-0.0062265373,0.5235896,0.0001911261,-0.011352374,0.0023486866,0.9999936417245097,-0.0001436554685474258,0.0035631269496268487,0.0010360330040493685,0.9677931753288873,-0.2517445062408394,-0.003412205469681032,0.251746597097033,0.9677871706650676,left_images/camera_left_2.png,right_images/camera_right_2.png
2025-05-30 17:00:06,0.13189697265625,3,-0.034323208,-0.00027712272,0.11403818,-0.0006720613,0.00029476566,-0.027664801,1.0471791,0.05790698,2.6526597e-05,0.002031107,0.8332778614552727,-0.0005796234734343184,0.5528541124430176,0.00067120037870476,0.9999997740690851,3.676725169785212e-05,-0.5528540088473443,0.00034043855277386334,0.8332780622355378,0.07067476,0.00053158856,0.11086674,0.00077402074,1.4469837e-05,-0.015299805,1.047179,-0.05645683,-6.066277e-05,0.0067548887,0.83691489580697,0.0009467296651887445,-0.5473322216710339,-0.0007819810203383219,0.9999995516725265,0.0005340041477770336,0.5473324818445298,-1.891261653095015e-05,0.8369152609196587,0.0026657046,0.019344743,0.09063903,-0.00016366415,-0.012030425,-0.0062265373,0.5235896,0.00019110431,-0.011352374,0.0023486894,0.9999936414139469,-0.0001440688112632351,0.00356319741986064,0.0010364511291876127,0.9677931489503793,-0.2517446059278458,-0.0034121695051808378,0.25174669826809487,0.9677871444746419,left_images/camera_left_3.png,right_images/camera_right_3.png
2025-05-30 17:00:06,0.18719267845153809,4,-0.034323208,-0.00027712272,0.11403818,-0.0006720316,0.00029476915,-0.027664801,1.0471791,0.05790698,2.6526597e-05,0.002031107,0.8332778614552727,-0.0005796234734343184,0.5528541124430176,0.00067120037870476,0.9999997740690851,3.676725169785212e-05,-0.5528540088473443,0.00034043855277386334,0.8332780622355378,0.07067476,0.00053159555,0.11086674,0.00077406404,1.4419951e-05,-0.015299861,1.047179,-0.05645683,-6.066277e-05,0.0067548887,0.83691489580697,0.0009467296651887445,-0.5473322216710339,-0.0007819810203383219,0.9999995516725265,0.0005340041477770336,0.5473324818445298,-1.891261653095015e-05,0.8369152609196587,0.002665675,0.019344743,0.09063903,-0.000163695,-0.0120304525,-0.0062265233,0.5235896,0.00019110431,-0.011352374,0.0023486894,0.9999936414139469,-0.0001440688112632351,0.00356319741986064,0.0010364511291876127,0.9677931489503793,-0.2517446059278458,-0.0034121695051808378,0.25174669826809487,0.9677871444746419,left_images/camera_left_4.png,right_images/camera_right_4.png
2025-05-30 17:00:06,0.23857688903808594,5,-0.034323208,-0.00027712272,0.11403818,-0.0006720019,0.00029477265,-0.027664801,1.0471791,0.05790698,2.6526597e-05,0.002031107,0.8332778614552727,-0.0005796234734343184,0.5528541124430176,0.00067120037870476,0.9999997740690851,3.676725169785212e-05,-0.5528540088473443,0.00034043855277386334,0.8332780622355378,0.07067476,0.00053160253,0.11086674,0.00077410735,1.4370065e-05,-0.015299917,1.047179,-0.05645689,-6.06423e-05,0.006754858,0.8369149140673657,0.0009470898528029096,-0.5473321931262805,-0.0007824677667215662,0.9999995513378059,0.0005339179529419925,0.5473324532272934,-1.8574098895133824e-05,0.8369152796425663,0.0026656706,0.019344743,0.09063903,-0.00016367639,-0.0120304525,-0.0062265513,0.5235896,0.00019110431,-0.011352374,0.0023486894,0.9999936414139469,-0.0001440688112632351,0.00356319741986064,0.0010364511291876127,0.9677931489503793,-0.2517446059278458,-0.0034121695051808378,0.25174669826809487,0.9677871444746419,left_images/camera_left_5.png,right_images/camera_right_5.png
2025-05-30 17:00:06,0.28814101219177246,6,-0.034323208,-0.00027712272,0.11403818,-0.00067197223,0.00029477614,-0.027664801,1.0471791,0.05790698,2.6526597e-05,0.002031107,0.8332778614552727,-0.0005796234734343184,0.5528541124430176,0.00067120037870476,0.9999997740690851,3.676725169785212e-05,-0.5528540088473443,0.00034043855277386334,0.8332780622355378,0.07067476,0.00053160446,0.11086674,0.00077414553,1.4358945e-05,-0.015299994,1.047179,-0.05645689,-6.06423e-05,0.006754858,0.8369149140673657,0.0009470898528029096,-0.5473321931262805,-0.0007824677667215662,0.9999995513378059,0.0005339179529419925,0.5473324532272934,-1.8574098895133824e-05,0.8369152796425663,0.0026656706,0.019344743,0.09063903,-0.00016365752,-0.0120304525,-0.0062265373,0.5235896,0.0001911261,-0.011352374,0.0023486866,0.9999936417245097,-0.0001436554685474258,0.0035631269496268487,0.0010360330040493685,0.9677931753288873,-0.2517445062408394,-0.003412205469681032,0.251746597097033,0.9677871706650676,left_images/camera_left_6.png,right_images/camera_right_6.png
2025-05-30 17:00:06,0.34615325927734375,7,-0.034323208,-0.00027712272,0.11403818,-0.00067194254,0.00029477963,-0.027664801,1.0471791,0.05790698,2.6526597e-05,0.002031107,0.8332778614552727,-0.0005796234734343184,0.5528541124430176,0.00067120037870476,0.9999997740690851,3.676725169785212e-05,-0.5528540088473443,0.00034043855277386334,0.8332780622355378,0.07067476,0.0005316061,0.11086674,0.0007741837,1.4347827e-05,-0.01530007,1.047179,-0.05645689,-6.06423e-05,0.006754858,0.8369149140673657,0.0009470898528029096,-0.5473321931262805,-0.0007824677667215662,0.9999995513378059,0.0005339179529419925,0.5473324532272934,-1.8574098895133824e-05,0.8369152796425663,0.0026657,0.019344743,0.09063903,-0.0001636039,-0.0120304525,-0.0062265513,0.5235896,0.0001911261,-0.011352374,0.0023486866,0.9999936417245097,-0.0001436554685474258,0.0035631269496268487,0.0010360330040493685,0.9677931753288873,-0.2517445062408394,-0.003412205469681032,0.251746597097033,0.9677871706650676,left_images/camera_left_7.png,right_images/camera_right_7.png
2025-05-30 17:00:06,0.3993251323699951,8,-0.034323208,-0.00027712272,0.11403818,-0.00067191286,0.00029478312,-0.027664801,1.0471791,0.05790698,2.6526597e-05,0.002031107,0.8332778614552727,-0.0005796234734343184,0.5528541124430176,0.00067120037870476,0.9999997740690851,3.676725169785212e-05,-0.5528540088473443,0.00034043855277386334,0.8332780622355378,0.07067476,0.0005316077,0.11086674,0.0007742219,1.433671e-05,-0.015300146,1.047179,-0.056456894,-6.064044e-05,0.006754859,0.8369150831659946,0.00094691675643133,-0.5473319348602939,-0.000782316578521089,0.9999995515015089,0.00053383288778876,0.5473321948780534,-1.858594908524052e-05,0.8369154485995196,0.0026657046,0.019344743,0.09063903,-0.00016361647,-0.0120304525,-0.0062265513,0.5235896,0.0001911261,-0.011352374,0.0023486866,0.9999936417245097,-0.0001436554685474258,0.0035631269496268487,0.0010360330040493685,0.9677931753288873,-0.2517445062408394,-0.003412205469681032,0.251746597097033,0.9677871706650676,left_images/camera_left_8.png,right_images/camera_right_8.png
2025-05-30 17:00:06,0.4538421630859375,9,-0.034323208,-0.00027712272,0.11403818,-0.0006718832,0.00029478662,-0.027664801,1.0471791,0.05790698,2.6526597e-05,0.002031107,0.8332778614552727,-0.0005796234734343184,0.5528541124430176,0.00067120037870476,0.9999997740690851,3.676725169785212e-05,-0.5528540088473443,0.00034043855277386334,0.8332780622355378,0.07067476,0.00053160446,0.11086674,0.0007742289,1.4362104e-05,-0.015300146,1.047179,-0.056456894,-6.064044e-05,0.006754859,0.8369150831659946,0.00094691675643133,-0.5473319348602939,-0.000782316578521089,0.9999995515015089,0.00053383288778876,0.5473321948780534,-1.858594908524052e-05,0.8369154485995196,0.0026657046,0.019344743,0.09063903,-0.00016362907,-0.0120304525,-0.0062265513,0.5235896,0.0001911261,-0.011352374,0.0023486866,0.9999936417245097,-0.0001436554685474258,0.0035631269496268487,0.0010360330040493685,0.9677931753288873,-0.2517445062408394,-0.003412205469681032,0.251746597097033,0.9677871706650676,left_images/camera_left_9.png,right_images/camera_right_9.png
2025-05-30 17:00:06,0.5030417442321777,10,-0.034323208,-0.00027712272,0.11403818,-0.0006718535,0.0002947901,-0.027664801,1.0471791,0.05790695,2.6539847e-05,0.002031108,0.8332777986075227,-0.0005792221970982313,0.55285420758953,0.0006707991181346179,0.9999997743427709,3.6646286936673926e-05,-0.5528541040603243,0.0003403175776023385,0.8332779991141026,0.07067476,0.00053160096,0.11086674,0.0007742359,1.4387499e-05,-0.015300146,1.047179,-0.056456894,-6.064044e-05,0.006754859,0.8369150831659946,0.00094691675643133,-0.5473319348602939,-0.000782316578521089,0.9999995515015089,0.00053383288778876,0.5473321948780534,-1.858594908524052e-05,0.8369154485995196,0.0026657046,0.019344743,0.09063903,-0.00016364167,-0.0120304525,-0.0062265513,0.5235896,0.0001911261,-0.011352374,0.0023486866,0.9999936417245097,-0.0001436554685474258,0.0035631269496268487,0.0010360330040493685,0.9677931753288873,-0.2517445062408394,-0.003412205469681032,0.251746597097033,0.9677871706650676,left_images/camera_left_10.png,right_images/camera_right_10.png
2025-05-30 17:00:06,0.5777885913848877,11,-0.034323208,-0.0002771367,0.11403818,-0.0006718132,0.0002947925,-0.027664801,1.0471791,0.057906937,2.663819e-05,0.002030959,0.8332778617723349,-0.0005790467901858353,0.5528541125694377,0.0006707737216594424,0.9999997743699944,3.636721977993439e-05,-0.5528540088872831,0.0003405360114861017,0.8332780621692167,0.07067476,0.00053159747,0.11086674,0.00077424286,1.44128935e-05,-0.015300146,1.047179,-0.056456894,-6.064044e-05,0.006754859,0.8369150831659946,0.00094691675643133,-0.5473319348602939,-0.000782316578521089,0.9999995515015089,0.00053383288778876,0.5473321948780534,-1.858594908524052e-05,0.8369154485995196,0.0026657046,0.019344743,0.09063897,-0.0001636399,-0.0120304525,-0.0062265373,0.4969216,0.0001911275,-0.011352389,0.0023487462,0.9999936417245097,-0.0001436554685474258,0.0035631269496268487,0.0010360330040493685,0.9677931753288873,-0.2517445062408394,-0.003412205469681032,0.251746597097033,0.9677871706650676,left_images/camera_left_11.png,right_images/camera_right_11.png
2025-05-30 17:00:06,0.6301078796386719,12,-0.034323208,-0.00027715042,0.11403818,-0.00067183416,0.0002948763,-0.027664801,1.0471791,0.057906937,2.663819e-05,0.002030959,0.8332778617723349,-0.0005790467901858353,0.5528541125694377,0.0006707737216594424,0.9999997743699944,3.636721977993439e-05,-0.5528540088872831,0.0003405360114861017,0.8332780621692167,0.07067476,0.000531594,0.11086674,0.00077424984,1.4438288e-05,-0.015300146,1.047179,-0.056456894,-6.064044e-05,0.006754859,0.8369150831659946,0.00094691675643133,-0.5473319348602939,-0.000782316578521089,0.9999995515015089,0.00053383288778876,0.5473321948780534,-1.858594908524052e-05,0.8369154485995196,0.0026657046,0.019344743,0.09063897,-0.00016365247,-0.0120304525,-0.0062265373,0.47025508,0.0001911275,-0.011352389,0.0023487462,0.9999936417245097,-0.0001436554685474258,0.0035631269496268487,0.0010360330040493685,0.9677931753288873,-0.2517445062408394,-0.003412205469681032,0.251746597097033,0.9677871706650676,left_images/camera_left_12.png,right_images/camera_right_12.png
2025-05-30 17:00:06,0.68312668800354,13,-0.034323208,-0.00027716265,0.11403818,-0.0006718551,0.00029496013,-0.027664801,1.0471791,0.057906937,2.663819e-05,0.002030959,0.8332778617723349,-0.0005790467901858353,0.5528541125694377,0.0006707737216594424,0.9999997743699944,3.636721977993439e-05,-0.5528540088872831,0.0003405360114861017,0.8332780621692167,0.07067476,0.0005315905,0.11086674,0.0007742568,1.4463683e-05,-0.015300146,1.047179,-0.056456894,-6.064044e-05,0.006754859,0.8369150831659946,0.00094691675643133,-0.5473319348602939,-0.000782316578521089,0.9999995515015089,0.00053383288778876,0.5473321948780534,-1.858594908524052e-05,0.8369154485995196,0.00010329316,0.016506532,0.09063613,-0.03136107,0.004698432,0.025288153,0.4435888,0.00024743428,-0.011387582,0.0023446977,0.9991824637137133,-0.0313528773198931,-0.025522564345250527,0.024355561663003844,0.9707204681867442,-0.23897401377427557,0.03226779854705521,0.23815702745682682,0.9706904859170377,left_images/camera_left_13.png,right_images/camera_right_13.png
2025-05-30 17:00:06,0.7309787273406982,14,-0.034323208,-0.00027717487,0.11403818,-0.00067187607,0.00029504395,-0.027664801,1.0471791,0.057906944,2.6630416e-05,0.002030985,0.8332778805887909,-0.0005793482355770099,0.5528540838929155,0.0006711563374173046,0.9999997741144162,3.633576183848788e-05,-0.5528539800622074,0.00034077373545741415,0.8332780811965702,0.07067476,0.000531587,0.11086674,0.0007742638,1.4489078e-05,-0.015300146,1.047179,-0.056456894,-6.064044e-05,0.006754859,0.8369150831659946,0.00094691675643133,-0.5473319348602939,-0.000782316578521089,0.9999995515015089,0.00053383288778876,0.5473321948780534,-1.858594908524052e-05,0.8369154485995196,-0.0021997523,0.0140205445,0.090639345,-0.056309618,0.018213779,0.049747087,0.41692215,0.0002751742,-0.0113865305,0.0023519518,0.9972341102101284,-0.05634077305077906,-0.048475217642153776,0.04374404856339045,0.9721972928137044,-0.23004104429642178,0.060088165629325924,0.2272842738460916,0.9719728757602023,left_images/camera_left_14.png,right_images/camera_right_14.png
2025-05-30 17:00:06,0.7867190837860107,15,-0.034323208,-0.00027718217,0.11403818,-0.00067189004,0.0002950885,-0.027664801,1.0471791,0.057906944,2.6630416e-05,0.002030985,0.8332778805887909,-0.0005793482355770099,0.5528540838929155,0.0006711563374173046,0.9999997741144162,3.633576183848788e-05,-0.5528539800622074,0.00034077373545741415,0.8332780811965702,0.07067476,0.0005315835,0.11086674,0.0007742708,1.4514473e-05,-0.015300146,1.047179,-0.056456894,-6.064044e-05,0.006754859,0.8369150831659946,0.00094691675643133,-0.5473319348602939,-0.000782316578521089,0.9999995515015089,0.00053383288778876,0.5473321948780534,-1.858594908524052e-05,0.8369154485995196,-0.0040673134,0.012089553,0.09065026,-0.07712917,0.029567612,0.068796314,0.39025557,0.00029947067,-0.011390682,0.0023537064,0.9947793019505101,-0.07718722783902815,-0.06675531641286493,0.06051596738651546,0.9729058286025453,-0.2231413595962634,0.08217029939175073,0.21793664338454122,0.9724976408033849,left_images/camera_left_15.png,right_images/camera_right_15.png
2025-05-30 17:00:06,0.8400266170501709,16,-0.034323208,-0.00027718916,0.11403818,-0.000671904,0.00029513304,-0.027664801,1.0471791,0.05790694,2.6622032e-05,0.0020309878,0.8332778929867309,-0.0005796520212522803,0.5528540648879491,0.0006712289186451231,0.9999997740496128,3.6775837477892766e-05,-0.5528539612875475,0.0003404471437768978,0.8332780937864678,0.07067476,0.00053158,0.11086674,0.0007742778,1.4539868e-05,-0.015300146,1.047179,-0.056456894,-6.064044e-05,0.006754859,0.8369150831659946,0.00094691675643133,-0.5473319348602939,-0.000782316578521089,0.9999995515015089,0.00053383288778876,0.5473321948780534,-1.858594908524052e-05,0.8369154485995196,-0.0055290135,0.010634293,0.09066488,-0.0940224,0.039393935,0.08423485,0.363589,0.0003304538,-0.011408564,0.002349536,0.9921861048450172,-0.09408538221149668,-0.08194311567538297,0.07433618811352502,0.9732508203035994,-0.2173866875296684,0.10020411413321924,0.20959671188376894,0.9726398891050527,left_images/camera_left_16.png,right_images/camera_right_16.png
2025-05-30 17:00:07,0.8910601139068604,17,-0.034323208,-0.00027719614,0.11403818,-0.000671897,0.0002951768,-0.027664801,1.0471791,0.05790694,2.6622032e-05,0.0020309878,0.8332778929867309,-0.0005796520212522803,0.5528540648879491,0.0006712289186451231,0.9999997740496128,3.6775837477892766e-05,-0.5528539612875475,0.0003404471437768978,0.8332780937864678,0.07067476,0.0005315765,0.11086674,0.00077428477,1.4565263e-05,-0.015300146,1.047179,-0.056456894,-6.064044e-05,0.006754859,0.8369150831659946,0.00094691675643133,-0.5473319348602939,-0.000782316578521089,0.9999995515015089,0.00053383288778876,0.5473321948780534,-1.858594908524052e-05,0.8369154485995196,-0.0065903994,0.009864876,0.09069628,-0.10300925,0.047159024,0.09934005,0.33692217,0.00039075635,-0.011450623,0.002324,0.9899389240965873,-0.10308555029061188,-0.09692417593032689,0.08058662330767645,0.9738034745942141,-0.2126325210594623,0.11630443973622799,0.20268241707044482,0.9723132803310488,left_images/camera_left_17.png,right_images/camera_right_17.png
2025-05-30 17:00:07,0.9434502124786377,18,-0.034323208,-0.00027720313,0.11403818,-0.00067189004,0.00029522058,-0.027664801,1.0471791,0.05790694,2.6622032e-05,0.0020309878,0.8332778929867309,-0.0005796520212522803,0.5528540648879491,0.0006712289186451231,0.9999997740496128,3.6775837477892766e-05,-0.5528539612875475,0.0003404471437768978,0.8332780937864678,0.07067476,0.000531573,0.11086674,0.00077429216,1.4590661e-05,-0.015300146,1.0456979,-0.056456894,-6.064044e-05,0.006754859,0.8369150831659946,0.00094691675643133,-0.5473319348602939,-0.000782316578521089,0.9999995515015089,0.00053383288778876,0.5473321948780534,-1.858594908524052e-05,0.8369154485995196,-0.0074013374,0.009385871,0.09072531,-0.112734534,0.051887278,0.11441539,0.31025532,0.00047054817,-0.011462221,0.0023090672,0.9872979344897219,-0.11279390416442343,-0.1118942524693541,0.08733270725719632,0.9736079740871147,-0.21085661250506943,0.13272447700201176,0.19840627000508582,0.971091738831719,left_images/camera_left_18.png,right_images/camera_right_18.png
2025-05-30 17:00:07,1.0058462619781494,19,-0.034323208,-0.00027720543,0.11403807,-0.00067187083,0.00029525938,-0.027664801,1.0205142,0.057907,2.6625758e-05,0.0020310772,0.8332778929867309,-0.0005796520212522803,0.5528540648879491,0.0006712289186451231,0.9999997740496128,3.6775837477892766e-05,-0.5528539612875475,0.0003404471437768978,0.8332780937864678,0.07067476,0.00053156953,0.110866636,0.0007743113,1.4616284e-05,-0.015300174,1.0190332,-0.056456953,-6.064664e-05,0.0067549143,0.8369151515996536,0.0009471330813565058,-0.5473318298453463,-0.0007823383005279818,0.9999995512911888,0.0005341949125516247,0.5473320902064053,-1.8877162635827917e-05,0.836915517046936,-0.008168604,0.008722051,0.09074785,-0.13872172,0.058486875,0.12917016,0.2835884,0.00057134585,-0.01146922,0.0023056688,0.9821090083421549,-0.1385835815721772,-0.12750092804296523,0.10985471549765231,0.9715501323139402,-0.2098148752679266,0.1529504403920419,0.19205450090896967,0.9693921969277901,left_images/camera_left_19.png,right_images/camera_right_19.png
2025-05-30 17:00:07,1.072143793106079,20,-0.034323208,-0.00027721157,0.11403807,-0.00067186385,0.00029530315,-0.027664801,0.99384874,0.057906996,2.6635507e-05,0.0020310446,0.8332778491908619,-0.000579234870077707,0.5528541313355781,0.0006707650019929375,0.9999997743629303,3.672057430162637e-05,-0.552854027861029,0.0003402367613320003,0.8332780497029685,0.07067476,0.0005315721,0.110866636,0.0007743258,1.4603292e-05,-0.01530023,0.9923674,-0.056456953,-6.064044e-05,0.0067549185,0.8369150831659946,0.00094691675643133,-0.5473319348602939,-0.000782316578521089,0.9999995515015089,0.00053383288778876,0.5473321948780534,-1.858594908524052e-05,0.8369154485995196,-0.009240525,0.007100944,0.09076997,-0.19813624,0.07557277,0.13996083,0.2569218,0.0006807925,-0.011522779,0.0023001758,0.9700052840050764,-0.1970335682103588,-0.14236404742955747,0.16589270552922455,0.9646499877582839,-0.20476818935112157,0.1776776836139682,0.17500906866855975,0.968402017051461,left_images/camera_left_20.png,right_images/camera_right_20.png
2025-05-30 17:00:07,1.140714406967163,21,-0.034323208,-0.00027723223,0.11403807,-0.0006718185,0.00029537806,-0.027664857,0.96718043,0.057906993,2.6636793e-05,0.0020310474,0.833277672439247,-0.0005791757720118396,0.5528543978025824,0.0006707527245564955,0.9999997743744002,3.66323797273484e-05,-0.5528542942810641,0.00034030364949400727,0.8332778729141994,0.07067476,0.00053156883,0.110866636,0.0007743189,1.4577754e-05,-0.015300244,0.9656991,-0.056456953,-6.064044e-05,0.0067549185,0.8369150831659946,0.00094691675643133,-0.5473319348602939,-0.000782316578521089,0.9999995515015089,0.00053383288778876,0.5473321948780534,-1.858594908524052e-05,0.8369154485995196,-0.01112601,0.004193206,0.090795524,-0.29572842,0.107320845,0.14186265,0.2302558,0.0007903197,-0.011645283,0.0022906354,0.9440585077916492,-0.2909778019472237,-0.15519488599875766,0.25990095990119516,0.9461564182842273,-0.19297544709625694,0.20299020889846506,0.14184481278328495,0.9688524264189221,left_images/camera_left_21.png,right_images/camera_right_21.png
2025-05-30 17:00:07,1.200082540512085,22,-0.034323208,-0.0002772408,0.11403807,-0.000671829,0.00029542245,-0.027664857,0.9405121,0.057906993,2.6636793e-05,0.0020310474,0.833277672439247,-0.0005791757720118396,0.5528543978025824,0.0006707527245564955,0.9999997743744002,3.66323797273484e-05,-0.5528542942810641,0.00034030364949400727,0.8332778729141994,0.07067476,0.00053156534,0.110866636,0.00077432586,1.4603142e-05,-0.015300244,0.93903077,-0.056456953,-6.064044e-05,0.0067549185,0.8369150831659946,0.00094691675643133,-0.5473319348602939,-0.000782316578521089,0.9999995515015089,0.00053383288778876,0.5473321948780534,-1.858594908524052e-05,0.8369154485995196,-0.013763537,0.001092166,0.090825126,-0.4015325,0.14340304,0.1352009,0.20358995,0.0008918613,-0.011786446,0.0022872062,0.906279198377416,-0.38876160169915586,-0.16589885964856735,0.36014641603337527,0.9156860239068572,-0.17836385463418747,0.2212522849751005,0.10189957147092193,0.9698782932550555,left_images/camera_left_22.png,right_images/camera_right_22.png
2025-05-30 17:00:07,1.2547457218170166,23,-0.034323208,-0.00027724777,0.11403807,-0.00067183946,0.00029546686,-0.027664857,0.9138438,0.057906993,2.6636793e-05,0.0020310474,0.833277672439247,-0.0005791757720118396,0.5528543978025824,0.0006707527245564955,0.9999997743744002,3.66323797273484e-05,-0.5528542942810641,0.00034030364949400727,0.8332778729141994,0.07067476,0.00053156185,0.110866636,0.00077431893,1.4577605e-05,-0.015300259,0.91236246,-0.056456953,-6.064044e-05,0.0067549185,0.8369150831659946,0.00094691675643133,-0.5473319348602939,-0.000782316578521089,0.9999995515015089,0.00053383288778876,0.5473321948780534,-1.858594908524052e-05,0.8369154485995196,-0.017101606,-0.0012233346,0.09086325,-0.50948113,0.17638052,0.121489786,0.17692408,0.0009566571,-0.011912443,0.0022825534,0.8581173615758276,-0.48306958122259125,-0.17400682015246072,0.4581785128044896,0.8733854485606468,-0.16513724185290257,0.2317478029376041,0.06198094820142932,0.9707993190632374,left_images/camera_left_23.png,right_images/camera_right_23.png
2025-05-30 17:00:07,1.30545973777771,24,-0.034323208,-0.0002772563,0.11403807,-0.0006718672,0.00029544774,-0.027664857,0.8871755,0.057906996,2.6627202e-05,0.00203108,0.8332776531721913,-0.000579535827521127,0.5528544264651143,0.0006711595613293823,0.9999997741000346,3.667047140239863e-05,-0.5528543228271703,0.0003404968499944247,0.8332778538958098,0.07067476,0.00053155835,0.110866636,0.0007743259,1.4602992e-05,-0.015300259,0.88569415,-0.056456953,-6.064044e-05,0.0067549185,0.8369150831659946,0.00094691675643133,-0.5473319348602939,-0.000782316578521089,0.9999995515015089,0.00053383288778876,0.5473321948780534,-1.858594908524052e-05,0.8369154485995196,-0.020740576,-0.002583177,0.09090619,-0.6129113,0.20384279,0.10616921,0.15025729,0.0010075287,-0.012001313,0.0022815308,0.8030425303572777,-0.5673752289989676,-0.1822307437172718,0.546262075206089,0.8230721947088013,-0.15540240502892538,0.23816053331506884,0.02524899632868892,0.9708975479191797,left_images/camera_left_24.png,right_images/camera_right_24.png
2025-05-30 17:00:07,1.3579885959625244,25,-0.034322623,-0.00027732673,0.11403228,-0.00067153503,0.0002951636,-0.027656307,0.86050844,0.057910144,2.668861e-05,0.0020359126,0.8332827478394939,-0.0005791437372788221,0.5528467479741505,0.0006706814368433038,0.9999997744206066,3.667623277608405e-05,-0.552846644504127,0.00034022237925739496,0.833282948289031,0.07067476,0.00053155486,0.110866636,0.000774319,1.4577457e-05,-0.015300273,0.85902584,-0.056456953,-6.064044e-05,0.0067549185,0.8369150831659946,0.00094691675643133,-0.5473319348602939,-0.000782316578521089,0.9999995515015089,0.00053383288778876,0.5473321948780534,-1.858594908524052e-05,0.8369154485995196,-0.023975713,-0.0031117029,0.090945415,-0.69694334,0.22373733,0.093214184,0.123590335,0.0010419906,-0.012050962,0.0022829846,0.7522321579112126,-0.6309612003738331,-0.18982819660696532,0.6129786014448783,0.7758049953685554,-0.14961231009471504,0.24166922595755141,-0.003817431598312007,0.9703511799555203,left_images/camera_left_25.png,right_images/camera_right_25.png
2025-05-30 17:00:07,1.4118232727050781,26,-0.034322303,-0.00027773905,0.114027575,-0.00067098055,0.00029502454,-0.027641475,0.8338411,0.05791285,2.6584537e-05,0.002039766,0.8332913080444743,-0.0005780455125009766,0.5528338464682807,0.0006699136922570633,0.9999997749656377,3.5837396081389274e-05,-0.5528337427773147,0.0003404879726346716,0.8332915077658997,0.07067476,0.00053155137,0.110866636,0.000774326,1.4602846e-05,-0.015300273,0.8323575,-0.056456953,-6.064044e-05,0.0067549185,0.8369150831659946,0.00094691675643133,-0.5473319348602939,-0.000782316578521089,0.9999995515015089,0.00053383288778876,0.5473321948780534,-1.858594908524052e-05,0.8369154485995196,-0.026484247,-0.0029696375,0.09097903,-0.7603273,0.23547126,0.08437358,0.09692326,0.0010504953,-0.012060643,0.002280376,0.7104599764171495,-0.6760286816839308,-0.1955296485191685,0.6599465348270034,0.7364984549958522,-0.1484607589855087,0.24437101521901888,-0.023563686668450518,0.9693954608885977,left_images/camera_left_26.png,right_images/camera_right_26.png
2025-05-30 17:00:07,1.467580795288086,27,-0.034321845,-0.00027776658,0.11402498,-0.0006704371,0.0002946707,-0.027628435,0.8071741,0.05791445,2.65766e-05,0.0020419261,0.8332988261408341,-0.0005776024588458195,0.5528225146714878,0.0006695948860356552,0.9999997751909051,3.550813498213136e-05,-0.5528224109015447,0.00034057824151033887,0.8332990255673318,0.07067476,0.0005315479,0.110866636,0.00077431905,1.457731e-05,-0.015300286,0.8056892,-0.056456953,-6.064044e-05,0.0067549185,0.8369150831659946,0.00094691675643133,-0.5473319348602939,-0.000782316578521089,0.9999995515015089,0.00053383288778876,0.5473321948780534,-1.858594908524052e-05,0.8369154485995196,-0.028052492,-0.002546628,0.09099745,-0.8005268,0.23968476,0.0793341,0.07025674,0.0010263339,-0.012041708,0.0022773752,0.6825790920706886,-0.7035413782547072,-0.19777591398201597,0.68809309854287,0.7098672425591799,-0.15038745186716473,0.2461984378618737,-0.03343691111471981,0.968642504833171,left_images/camera_left_27.png,right_images/camera_right_27.png
2025-05-30 17:00:07,1.5337777137756348,28,-0.034321725,-0.0002777935,0.11402448,-0.00067044905,0.00029465562,-0.027627766,0.78050655,0.057914723,2.6579348e-05,0.0020423396,0.8332990535291023,-0.0005775222944492178,0.5528221720006367,0.0006695146615663477,0.9999997752454836,3.5483799013322735e-05,-0.5528220682440418,0.0003405539332599608,0.8332992529010201,0.07067476,0.0005315444,0.110866636,0.00077432604,1.4602699e-05,-0.015300286,0.7790209,-0.056456953,-6.064044e-05,0.0067549185,0.8369150831659946,0.00094691675643133,-0.5473319348602939,-0.000782316578521089,0.9999995515015089,0.00053383288778876,0.5473321948780534,-1.858594908524052e-05,0.8369154485995196,-0.029257193,-0.0019846756,0.09100868,-0.83900976,0.24235342,0.07356357,0.043590385,0.001008139,-0.012023363,0.0022761095,0.6551213785739965,-0.7289131026216784,-0.19875026581553284,0.7140343977952477,0.6833136581918435,-0.152437932594412,0.2469227776056402,-0.042049177815018275,0.9681224140286169,left_images/camera_left_28.png,right_images/camera_right_28.png
2025-05-30 17:00:07,1.595874547958374,29,-0.034321744,-0.00027779368,0.1140246,-0.000670521,0.00029470335,-0.027627774,0.7538383,0.057914663,2.6579348e-05,0.0020422502,0.8332990535291023,-0.0005775222944492178,0.5528221720006367,0.0006695146615663477,0.9999997752454836,3.5483799013322735e-05,-0.5528220682440418,0.0003405539332599608,0.8332992529010201,0.07067476,0.0005315409,0.110866636,0.0007743191,1.4577163e-05,-0.015300299,0.7523526,-0.056456953,-6.064044e-05,0.0067549185,0.8369150831659946,0.00094691675643133,-0.5473319348602939,-0.000782316578521089,0.9999995515015089,0.00053383288778876,0.5473321948780534,-1.858594908524052e-05,0.8369154485995196,-0.031152297,-0.00082759315,0.09102208,-0.9077057,0.24748455,0.060919918,0.016923888,0.0009912706,-0.012018444,0.0022750748,0.6042268083705284,-0.7713254757932699,-0.19991741904759253,0.7580660702816058,0.6337444304451679,-0.15396048183716937,0.2454501927768002,-0.05852356168258797,0.9676410468731761,left_images/camera_left_29.png,right_images/camera_right_29.png
2025-05-30 17:00:07,1.6490914821624756,30,-0.034321744,-0.00027780066,0.1140246,-0.00067059294,0.00029475073,-0.027627774,0.72717,0.057914663,2.6572745e-05,0.0020422502,0.8332990534396423,-0.0005777626226626735,0.5528221718843663,0.0006695458453689796,0.999999775210772,3.587152363995942e-05,-0.5528220683411228,0.00034024808171841754,0.833299252961555,0.07067476,0.0005315374,0.110866636,0.0007743261,1.4602551e-05,-0.015300299,0.7256843,-0.056456953,-6.064044e-05,0.0067549185,0.8369150831659946,0.00094691675643133,-0.5473319348602939,-0.000782316578521089,0.9999995515015089,0.00053383288778876,0.5473321948780534,-1.858594908524052e-05,0.8369154485995196,-0.033477068,0.00073243404,0.09103857,-0.9914514,0.25425947,0.045275968,0.0013396135,0.000978535,-0.012018825,0.002276672,0.5385329493791153,-0.8178953214292257,-0.20255741313813805,0.8070136764807347,0.5697897101812066,-0.15514062055008168,0.24230391743857324,-0.07991826672169416,0.9669032434727484,left_images/camera_left_30.png,right_images/camera_right_30.png
2025-05-30 17:00:07,1.7225048542022705,31,-0.034321744,-0.00027780578,0.1140246,-0.00067060365,0.00029479398,-0.027627774,0.7005017,0.057914663,2.6572745e-05,0.0020422502,0.8332990534396423,-0.0005777626226626735,0.5528221718843663,0.0006695458453689796,0.999999775210772,3.587152363995942e-05,-0.5528220683411228,0.00034024808171841754,0.833299252961555,0.07067476,0.0005315339,0.110866636,0.00077431917,1.45770155e-05,-0.015300313,0.699016,-0.056456953,-6.064044e-05,0.0067549185,0.8369150831659946,0.00094691675643133,-0.5473319348602939,-0.000782316578521089,0.9999995515015089,0.00053383288778876,0.5473321948780534,-1.858594908524052e-05,0.8369154485995196,-0.035689414,0.002508018,0.09104895,-1.0798819,0.2600501,0.027013134,8.872902e-05,0.00096105086,-0.012014291,0.002283847,0.46569176194823675,-0.8609229510367417,-0.2047995489051054,0.8528828239532357,0.49836582373200655,-0.15563545335646484,0.23605522967962514,-0.10219186911935035,0.9663512562349121,left_images/camera_left_31.png,right_images/camera_right_31.png
2025-05-30 17:00:07,1.7767837047576904,32,-0.03664919,-0.0030175322,0.11401964,0.08370915,0.020241773,0.008508288,0.67383486,0.057945218,-2.5284084e-05,0.0020294357,0.8484209420046547,0.061644639260949236,0.525720309307451,-0.08346183356593914,0.9963508550155901,0.017863259711321768,-0.5227007054766102,-0.05903314458920593,0.8504699056016997,0.07245774,-0.0025782855,0.11087203,-0.11242928,0.019840932,-0.043500155,0.6723493,-0.056472912,-0.00011509377,0.0067497035,0.8457760271983307,-0.08311240741683756,-0.5270248946207252,0.11134087166502593,0.9935387523744714,0.02199904150301085,0.5217912629715844,-0.07728567308082768,0.8495650667388358,-0.037642747,0.00348772,0.09101635,-1.1550374,0.2628891,0.011218194,5.9190193e-06,0.00090668316,-0.011945505,0.0023421524,0.40119551556542343,-0.8925852512782615,-0.20575161600997616,0.8866837375748946,0.43480044088699554,-0.1572912143912987,0.22985671147566972,-0.1193320820441716,0.965880813757367,left_images/camera_left_32.png,right_images/camera_right_32.png
2025-05-30 17:00:07,1.8442189693450928,33,-0.038713425,-0.0057341787,0.11395278,0.18641546,0.04045251,0.035139244,0.64716834,0.05789896,-0.00012246615,0.0021542227,0.8491306912956895,0.1380872593004606,0.5098126890521572,-0.18402528223611528,0.9820867459296801,0.04050085143758993,-0.49508763325054106,-0.1282089399696409,0.8593315443495826,0.07256024,-0.005007555,0.11093441,-0.22112307,0.039898217,-0.054549497,0.6698675,-0.056413688,-0.0002576625,0.006731488,0.8364217987160653,-0.16166195674347075,-0.5237021924476296,0.2171469547848827,0.9750629506928616,0.0458196705987954,0.503235307445964,-0.1520449076029914,0.8506683086913276,-0.03877788,0.004434934,0.090970546,-1.2191741,0.26211712,-0.0029905112,4.453458e-07,0.0008527313,-0.011879246,0.0024014693,0.3446146939356494,-0.9161696646879919,-0.20463102948754208,0.9118294606228704,0.37850801641666215,-0.15905570171650343,0.22317649397695127,-0.1317756692785754,0.9658299154211054,left_images/camera_left_33.png,right_images/camera_right_33.png
2025-05-30 17:00:08,1.894604206085205,34,-0.04068051,-0.006432372,0.11363854,0.26264474,0.048906833,0.054400444,0.620502,0.05794081,-0.00025066148,0.0025153486,0.8434401941141194,0.1962614263600848,0.5000900833608297,-0.25702836486258596,0.9648465075164281,0.054841923648034294,-0.47174681621480186,-0.1747932191375181,0.8642350790929176,0.07251283,-0.0064556007,0.11106979,-0.315805,0.061896082,-0.06161381,0.661358,-0.056236144,-0.0005241397,0.0067142835,0.8193833857718744,-0.22518913559626916,-0.5271628973385974,0.30676232642316636,0.9491059574288876,0.07137756412515905,0.4842599944332241,-0.22019930695258688,0.8467611959750718,-0.03919221,0.0051248204,0.0909123,-1.2738758,0.25835642,-0.016058892,1.1469021e-07,0.0008004698,-0.011807006,0.002464681,0.29543451076383737,-0.9338629976372258,-0.20153995011844839,0.930578685054119,0.32903351518561214,-0.16050002120730714,0.21619842916330018,-0.14013153652413216,0.9662408559457145,left_images/camera_left_34.png,right_images/camera_right_34.png
2025-05-30 17:00:08,1.9475772380828857,35,-0.0423217,-0.0052173473,0.11313525,0.3286524,0.045481417,0.068347335,0.59383553,0.058116555,-0.00039141628,0.0030054199,0.8334966291393183,0.2503905162271191,0.4925321904169414,-0.31942679648339306,0.9457238106837915,0.05977453968107939,-0.4508324421575608,-0.20714985708236627,0.8682390487699828,0.07267902,-0.0068502016,0.11122861,-0.39474252,0.07704423,-0.067824416,0.6346904,-0.056016,-0.0007679495,0.006696795,0.8000974227629062,-0.2775258486293791,-0.5318115431529274,0.3793246737981002,0.9208631670325192,0.09013223313999931,0.4647116374012167,-0.2738438075717274,0.8420526486618866,-0.038951207,0.0043707006,0.0907938,-1.3169566,0.25312513,-0.02594785,2.476416e-07,0.0007742371,-0.011640368,0.0026088636,0.255989907727861,-0.9461934462879102,-0.197957392747249,0.943148777182389,0.2893734736643573,-0.16350344595386251,0.21198950738384514,-0.14484804086086522,0.9664778806666625,left_images/camera_left_35.png,right_images/camera_right_35.png
2025-05-30 17:00:08,1.9994568824768066,36,-0.043899667,-0.0025622942,0.112548664,0.38643762,0.032929927,0.079532444,0.56716895,0.058383025,-0.0005435128,0.0035308814,0.8215098152465556,0.3011727509949811,0.484165878095189,-0.37347904909918217,0.9258367714998175,0.05778989896829474,-0.43085383059402055,-0.22830078098182266,0.8730657077594728,0.07325338,-0.0065411306,0.11141637,-0.4819716,0.08026218,-0.075527,0.6080228,-0.055779953,-0.00088423694,0.006641795,0.7736218198636859,-0.3402745794867678,-0.5345301585372918,0.4573270185318225,0.8837358812021875,0.09931208585357312,0.4385901024323201,-0.3212850803117019,0.8392941196133274,-0.038155876,0.002257697,0.090607785,-1.3495877,0.24871135,-0.035034787,2.1491779e-07,0.00080173765,-0.011417026,0.002841779,0.2261420497108022,-0.9543331416010816,-0.19521277671916662,0.9515037123222037,0.25932567470312007,-0.1655019029402286,0.20856763600727304,-0.14831874217907093,0.9666959666455406,left_images/camera_left_36.png,right_images/camera_right_36.png
2025-05-30 17:00:08,2.047762870788574,37,-0.04559434,0.0004946921,0.11195732,0.45473844,0.015776046,0.09203528,0.5405021,0.05869433,-0.0006925272,0.004038104,0.8036298901150727,0.3611397717524698,0.47302966605933977,-0.43602074540600433,0.8982560927571144,0.05497182369464271,-0.40504926773076483,-0.2504277482294975,0.8793298775928604,0.074160896,-0.0062473654,0.11167292,-0.58864546,0.07379038,-0.084300816,0.58135504,-0.055516124,-0.0008465112,0.006508677,0.7331350976093617,-0.4190600133495437,-0.5356319948106086,0.5486141503696275,0.829874735614422,0.10163875837053887,0.4019147206404903,-0.3683702327826901,0.8383125484758672,-0.036870092,-0.0026000428,0.09027533,-1.3774458,0.24628969,-0.046543915,1.9692763e-07,0.00090382376,-0.011041059,0.0032751858,0.20136521121475187,-0.9600743304599937,-0.19418890726360483,0.9578553155112925,0.2344654320526704,-0.16594925645846192,0.20485420732608872,-0.15258846995808412,0.9668254819648944,left_images/camera_left_37.png,right_images/camera_right_37.png
2025-05-30 17:00:08,2.0990872383117676,38,-0.048099604,0.003910366,0.111408696,0.522293,-0.0060979114,0.10614477,0.5138353,0.05898183,-0.00084113074,0.004518722,0.7827856321932727,0.4209444410478627,0.4583147734719892,-0.49620257652885574,0.8666788553167891,0.051485578494418774,-0.3755391551861182,-0.2677191425686299,0.8872974718911433,0.07568406,-0.005901344,0.112013616,-0.7053115,0.05661106,-0.093333095,0.5546887,-0.055245332,-0.00067579496,0.006266987,0.6790900327370266,-0.5049811718012389,-0.5327576780896466,0.6419723118015122,0.7605106414094658,0.09744288164450321,0.35596106292324425,-0.40818816791917223,0.8406391266490894,-0.035390265,-0.008572511,0.08986271,-1.400946,0.244955,-0.05811343,1.7662248e-07,0.0010413906,-0.010616563,0.0038125878,0.1808220798530027,-0.9641198224971687,-0.19436137297740572,0.9626212208111914,0.21400858326233352,-0.16601419076097135,0.2016525742002954,-0.15707735087553765,0.9667796776723834,left_images/camera_left_38.png,right_images/camera_right_38.png
2025-05-30 17:00:08,2.1535470485687256,39,-0.05158584,0.007024071,0.11093073,0.5856339,-0.028863939,0.12270708,0.4871686,0.059198454,-0.0009870412,0.004974989,0.7609648484464484,0.4760555995677703,0.4407987812472316,-0.5506420338909012,0.8331972632941004,0.05075106847854047,-0.3431120078653116,-0.2813421165758738,0.89617005277974,0.07829334,-0.0055022375,0.112436645,-0.8219778,0.031282187,-0.09917385,0.52802205,-0.054932494,-0.00043160626,0.005952321,0.61395829375352,-0.5877977614179665,-0.5268291992698332,0.7273193371836552,0.6806030325377137,0.08823884552279848,0.3066949547840572,-0.4373480350618887,0.8453785548128778,-0.03373508,-0.016491123,0.08934639,-1.4219646,0.24408792,-0.07134959,1.8218395e-07,0.0012021896,-0.010082142,0.004494706,0.16306443420953987,-0.9671549100272427,-0.19499069287050244,0.966456739832444,0.19632938673698386,-0.16557820489401204,0.1984221770074259,-0.16145015303082183,0.966727721624842,left_images/camera_left_39.png,right_images/camera_right_39.png
2025-05-30 17:00:08,2.2018823623657227,40,-0.05618891,0.010019076,0.1105223,0.65152574,-0.052573804,0.13995974,0.4605019,0.05931579,-0.0011561529,0.0054264264,0.7345736177119899,0.5309711069481293,0.4224586177932668,-0.6048735763728557,0.794547595764387,0.05312320275494829,-0.30745659330616143,-0.2945569582462965,0.9048240942753786,0.08285936,-0.005230315,0.11288081,-0.938644,-0.0002955853,-0.09835212,0.5013553,-0.054518607,-0.00012896478,0.0056863,0.5366670935921516,-0.6647286093109471,-0.5197348426061956,0.8033784355350672,0.590873023119603,0.07383874231546081,0.25801457317868814,-0.4571705879789679,0.8511307382032351,-0.032193676,-0.024457587,0.08883086,-1.4388138,0.24285671,-0.08486245,9.17193e-08,0.0013412136,-0.009572582,0.005174704,0.14938114458521434,-0.9693521412731929,-0.1950428154316046,0.969452878302566,0.18239360235580693,-0.16399295890538096,0.1945414875888469,-0.16458736290720338,0.9669873885309834,left_images/camera_left_40.png,right_images/camera_right_40.png
2025-05-30 17:00:08,2.2534964084625244,41,-0.061746933,0.012406678,0.110217065,0.7227297,-0.07836313,0.15894307,0.43383515,0.05934971,-0.0013003296,0.005827722,0.7020898214442058,0.587687993054348,0.40211031501839867,-0.6603808283602536,0.7486153858873039,0.05892508419195129,-0.2663964041774375,-0.30691664476296443,0.9136931262786077,0.088691935,-0.0053679664,0.11322558,-1.0553099,-0.028792638,-0.091245316,0.4746888,-0.054040313,0.00014557032,0.005598359,0.44948702334155843,-0.7296699032623,-0.5153088861263035,0.8682030132995784,0.49259247373154047,0.059801191631723066,0.21020214923991082,-0.47427258733372724,0.8549155334643854,-0.030505307,-0.03291729,0.08832428,-1.4527138,0.2405183,-0.1005885,2.4064008e-07,0.0014677426,-0.009056333,0.005852014,0.13891739003301495,-0.9711493557927525,-0.1938321116062475,0.972155491375018,0.17103387521080482,-0.16019086777894662,0.18872111523571575,-0.16618165444385383,0.9678677587307529,left_images/camera_left_41.png,right_images/camera_right_41.png
2025-05-30 17:00:08,2.3039982318878174,42,-0.068706244,0.013783237,0.11007124,0.8218152,-0.11149985,0.17902227,0.40716863,0.05928834,-0.0013824317,0.006132258,0.6482308464831503,0.6606945027312862,0.37852284439435996,-0.7316599936623224,0.6781344338109012,0.06933500814176755,-0.21088011604176632,-0.32189511294927575,0.9229913937397165,0.09725427,-0.006210343,0.11338687,-1.1719729,-0.061640125,-0.09073969,0.44802147,-0.05354837,0.00038366253,0.0057718093,0.35963988977639755,-0.7852618932675212,-0.5040068537862642,0.9204388616042677,0.38720716226796686,0.053506219610695904,0.15313866830510267,-0.4831504656629201,0.8620407042590525,-0.028587202,-0.041222595,0.08787082,-1.4622948,0.23637117,-0.11677401,3.5865827e-07,0.0015749044,-0.008565332,0.006467968,0.13254468746745451,-0.9726460984970013,-0.1907654919075155,0.9743336222550407,0.1631869018811447,-0.15506136719958696,0.18195026344450918,-0.16531667227776875,0.9693113532294348,left_images/camera_left_42.png,right_images/camera_right_42.png
2025-05-30 17:00:08,2.3780112266540527,43,-0.077926226,0.013289946,0.11021354,0.92723393,-0.15170534,0.20751472,0.38050282,0.059024982,-0.0013791509,0.0062835105,0.5848170108879858,0.7329605352867596,0.34750239925529786,-0.7987063828322853,0.5951135153640733,0.08892703668728633,-0.14162336600649134,-0.3295584281173246,0.9334527650919621,0.10971059,-0.008216537,0.11328955,-1.2886277,-0.1055392,-0.10063,0.42135364,-0.053072855,0.0005934116,0.006304793,0.26955745443987383,-0.8334814212840376,-0.48233546327243665,0.9593300656776129,0.276015318948544,0.059172365110077396,0.08381290976265005,-0.47866926377204777,0.8739857733836653,-0.025593784,-0.05114668,0.087435365,-1.4695586,0.23029391,-0.13425773,4.3963277e-07,0.0017386004,-0.007956091,0.007104165,0.1284659783645165,-0.9740022647345409,-0.18659067687007388,0.9760820998360017,0.157457378695036,-0.14990299621498232,0.1753859366727805,-0.16287038462063252,0.9709340920118822,left_images/camera_left_43.png,right_images/camera_right_43.png
2025-05-30 17:00:08,2.444331407546997,44,-0.08911633,0.009514029,0.110863596,1.0325724,-0.2000397,0.24090171,0.3538366,0.05844128,-0.0011338431,0.0061123576,0.5130967690095185,0.799877336406816,0.3113325430062367,-0.8558643828922617,0.504257659271393,0.11497987285861773,-0.06502202494878968,-0.32545423605919327,0.94331949863378,0.12555876,-0.011658531,0.11291851,-1.3984164,-0.15856265,-0.11460332,0.3946861,-0.052622322,0.00079453416,0.007231038,0.18290605652921993,-0.8714902235471575,-0.4550276527274524,0.9830635041716056,0.1675239811362798,0.07430923569849765,0.011468271481497316,-0.4609126880505423,0.887371383775277,-0.021328943,-0.06278076,0.08703061,-1.4766876,0.22257443,-0.1505185,2.2892276e-07,0.0019860622,-0.0071891197,0.0077628745,0.1240331486166441,-0.9753717231207383,-0.18238908898484987,0.97730521093981,0.15189077292606673,-0.14766082002283273,0.17172740816228158,-0.15993497064871096,0.9720753584210748,left_images/camera_left_44.png,right_images/camera_right_44.png
2025-05-30 17:00:08,2.4975154399871826,45,-0.09869439,0.0025405823,0.111820295,1.1222088,-0.24128391,0.26405558,0.32716787,0.057680815,-0.000603061,0.005684428,0.4435755965235221,0.8495386168995794,0.28552553049622564,-0.896229768905105,0.4217360515305949,0.13751692320469383,-0.0035904731030553805,-0.31689563145574123,0.948453618933031,0.14234835,-0.016240178,0.11242966,-1.4882823,-0.21345031,-0.1266473,0.36801952,-0.05221423,0.0010125506,0.008341596,0.1096456464157124,-0.8974480037615089,-0.42727615515795286,0.9926950932583478,0.07709956179538802,0.09280145145286928,-0.05034167302425174,-0.4343302178244585,0.8993458610799727,-0.017136203,-0.07520282,0.08673967,-1.4828812,0.21555127,-0.16649795,1.2163308e-07,0.002234165,-0.006334978,0.008346559,0.12037454059971076,-0.9764874360961642,-0.17883583847134274,0.978236951428586,0.1473451585027914,-0.14608857287787191,0.1690042509380004,-0.1573584805853402,0.9729726983593929,left_images/camera_left_45.png,right_images/camera_right_45.png
2025-05-30 17:00:08,2.557039260864258,46,-0.10724408,-0.0048481245,0.112827264,1.1960415,-0.27731782,0.27814192,0.30049938,0.056864504,-1.2825127e-05,0.0052215606,0.3808718483692968,0.8851985340225721,0.26713328224697985,-0.9236172379514036,0.3507276134619498,0.15466524792048625,0.0432184321647114,-0.30563654316781935,0.9511668994459647,0.15937842,-0.022002952,0.11200651,-1.5610144,-0.27210584,-0.1416849,0.34135178,-0.051836867,0.001244136,0.009440105,0.050164575951122226,-0.9167475215083796,-0.3963048033116521,0.9930561440527721,0.003507091593052958,0.11758909416947641,-0.10640963339230217,-0.3994517268917498,0.9105576905416344,-0.013252404,-0.088154756,0.08662464,-1.4873185,0.20895115,-0.18214014,1.0840556e-07,0.002455343,-0.0053923144,0.008790064,0.11823432413785662,-0.9774001240954382,-0.17524166745921577,0.9788491370506367,0.14439456294798791,-0.14492955904950297,0.16695811298313146,-0.15439950650595244,0.9737996615833415,left_images/camera_left_46.png,right_images/camera_right_46.png
2025-05-30 17:00:08,2.6114237308502197,47,-0.114300884,-0.007504352,0.11354545,1.2063934,-0.29449588,0.27245736,0.27382684,0.05601373,0.00039401348,0.0049993023,0.3663277871272803,0.8925945134364434,0.26282881684014214,-0.9296146522698158,0.3388607369733929,0.14487925739428198,0.04025606368858688,-0.2974028169352268,0.9539030421459471,0.17517862,-0.029271273,0.111764245,-1.6190506,-0.33027026,-0.16075963,0.3146841,-0.05147398,0.0015482133,0.01038274,0.0027267510634701453,-0.9310027427901848,-0.3650019969065801,0.9874632545858759,-0.05510024235146882,0.14791985713716443,-0.15782549119615497,-0.3608294004234725,0.9191807537795436,-0.009572045,-0.101791196,0.08665127,-1.4897649,0.20253682,-0.19680227,2.1715522e-07,0.0026572023,-0.0043484457,0.009133671,0.1177025346518964,-0.978138944710897,-0.17143604689904582,0.9790112903024557,0.1432210746745678,-0.14499868009531272,0.1663821108077431,-0.15077111331058937,0.9744665538612629,left_images/camera_left_47.png,right_images/camera_right_47.png
2025-05-30 17:00:08,2.665677309036255,48,-0.12121214,-0.005614965,0.11383393,1.2058536,-0.3017389,0.24396229,0.24715568,0.05519883,0.0004722405,0.005166605,0.35867548560165874,0.8925588346391987,0.2732958520284009,-0.9333823794802029,0.33909779350926617,0.11751604193905457,0.012215961046468132,-0.2972396560768136,0.9547247546549994,0.18823533,-0.036960002,0.111697085,-1.6639154,-0.3795521,-0.17478108,0.3289517,-0.05111362,0.0019397243,0.011105877,-0.035951535486354436,-0.939938650046142,-0.3394448721745693,0.9798100602703574,-0.09999840247310415,0.17312586547314518,-0.196671637226042,-0.3263673599676649,0.9245564414672394,-0.006239531,-0.11494001,0.086752504,-1.4907448,0.19664936,-0.20955539,2.905417e-07,0.0028360276,-0.0033110285,0.00941029,0.11815991512022334,-0.9787220784357978,-0.16775377086996793,0.9788387125289105,0.14322511692100587,-0.14615519401550214,0.16707186870783033,-0.14693419978097777,0.9749345268381859,left_images/camera_left_48.png,right_images/camera_right_48.png
2025-05-30 17:00:08,2.732948064804077,49,-0.12761733,-0.0035605114,0.113829024,1.2090229,-0.29781985,0.22525032,0.22049215,0.054463275,0.000355265,0.0056083323,0.3530423514981406,0.889654409321002,0.28961376007427997,-0.9355947131007923,0.3373062445193333,0.10434093264922441,-0.0048611589677304,-0.307797870986729,0.95143935158765,0.19914462,-0.044825435,0.1118011,-1.6942731,-0.4216837,-0.1878547,0.3162058,-0.050736368,0.0024159928,0.01162261,-0.06361767527815093,-0.9461513397778394,-0.31741208803195176,0.9721787663392165,-0.1306019117814609,0.1944520170072468,-0.225435661933428,-0.2962107068889091,0.9281368322898353,-0.0030521145,-0.12836865,0.08692312,-1.4910383,0.19098866,-0.22087893,4.0445227e-07,0.0030059437,-0.002216531,0.009648197,0.11892222070481828,-0.9792353642103532,-0.1641816277859725,0.9783506213781367,0.1437731294846043,-0.14886016554880352,0.1693740448582618,-0.14292441610172954,0.9751333468866354,left_images/camera_left_49.png,right_images/camera_right_49.png
2025-05-30 17:00:08,2.7806308269500732,50,-0.13238364,-0.0010696818,0.113552615,1.2247616,-0.277976,0.19942978,0.193825,0.053773724,8.534844e-05,0.006260501,0.3385002350055341,0.8843790035290731,0.3213897462865326,-0.9407211344025255,0.3258571946229529,0.09413201368760966,-0.02147878464027883,-0.3342018354668069,0.9422567563997584,0.2084865,-0.05234745,0.11202255,-1.7146086,-0.45958734,-0.20329125,0.2895396,-0.050366472,0.0028871489,0.011993056,-0.08294345151743338,-0.9512683310013299,-0.29699990956954725,0.9646194368847028,-0.1514790119737432,0.21578565966184465,-0.2502593171784301,-0.2685938781234648,0.9301761138623068,-4.0764826e-05,-0.14109258,0.08716583,-1.4905567,0.18560661,-0.22969669,4.996729e-07,0.0031664346,-0.0011330901,0.009816087,0.11992705172295481,-0.9796692985798009,-0.16082775781935296,0.9775269365146965,0.1448146865240535,-0.15319854749681017,0.17337413490262035,-0.13884081527814812,0.975020326639228,left_images/camera_left_50.png,right_images/camera_right_50.png
2025-05-30 17:00:08,2.8369216918945312,51,-0.13474745,0.0030360343,0.11310573,1.2273985,-0.24912284,0.16075037,0.16715428,0.053241298,-0.00023430266,0.006969572,0.3301381190969262,0.8719945898235174,0.3614336144268534,-0.9422876658932989,0.3270419786471683,0.07167634831591008,-0.055702576461976294,-0.36423753173040896,0.9296387704127,0.21567221,-0.058502033,0.11221938,-1.7290857,-0.48826241,-0.21444337,0.26287764,-0.050058454,0.0032945245,0.012280906,-0.09758801791860128,-0.9544298394885844,-0.2820288287613767,0.9585091738666227,-0.1663989091516067,0.23145532321957962,-0.26783715644444017,-0.24773995343293032,0.9310682966897789,0.0026697144,-0.1520303,0.08743356,-1.4906266,0.18021712,-0.2358183,5.3284026e-07,0.003305186,-0.00016094174,0.009920448,0.11982641639407998,-0.9802004727977541,-0.15763458713496895,0.9766636232680085,0.14489027060375592,-0.15854014150799844,0.1782408396500599,-0.13495867001208156,0.974687827188486,left_images/camera_left_51.png,right_images/camera_right_51.png
2025-05-30 17:00:09,2.8886616230010986,52,-0.1370039,0.0076154675,0.11260599,1.2130171,-0.2264484,0.12705198,0.14048788,0.052871536,-0.0005378681,0.007697479,0.3333825043974594,0.8568259604002403,0.3933260471236092,-0.9381221005054098,0.3429542450978833,0.04805528392027733,-0.09371782277131399,-0.3850086484139631,0.9181423148627111,0.22155502,-0.06290129,0.11230114,-1.7392306,-0.5099887,-0.21958598,0.23621702,-0.049836174,0.0035978125,0.012582025,-0.10884481847140776,-0.9564612572882067,-0.2708037459094483,0.954432535896278,-0.17670349637629773,0.24048785580771387,-0.27786928566238905,-0.23228804892859733,0.9321110032664668,0.0047700247,-0.16050526,0.08765042,-1.4911486,0.17622668,-0.23935595,5.1006884e-07,0.003419059,0.0006088852,0.010004173,0.11908883149199778,-0.9806142659513871,-0.15560691381327701,0.9758342054227315,0.1445162227247314,-0.1638983370762564,0.1832087709168338,-0.13232808765336967,0.9741272111367925,left_images/camera_left_52.png,right_images/camera_right_52.png
2025-05-30 17:00:09,2.937471628189087,53,-0.13989833,0.011390429,0.11220357,1.1961963,-0.21525869,0.10461785,0.113823876,0.05260037,-0.00077452074,0.008318059,0.33969272616572194,0.845244230126259,0.41251793079618665,-0.9325048161211342,0.3598654971708744,0.030521989726247617,-0.1226524345497863,-0.39504305510188,0.910438007178294,0.22699748,-0.06572251,0.11228599,-1.7454056,-0.5288544,-0.21938433,0.20955619,-0.04968347,0.0038016671,0.012917268,-0.11733498826682942,-0.9584099302162373,-0.26015938612959977,0.9524214808485444,-0.18280235326059546,0.24387829436145864,-0.2812931270875433,-0.21916593098676557,0.9342593169714797,0.0063898414,-0.16732849,0.08781101,-1.4929445,0.17367813,-0.24178334,4.3829542e-07,0.0035203071,0.0012293038,0.010093569,0.11721839235577325,-0.9809452201091255,-0.15493974195985732,0.9752098571295249,0.14318150107807437,-0.16871512174799602,0.18768479706928776,-0.13132224828294925,0.9734109533259689,left_images/camera_left_53.png,right_images/camera_right_53.png
2025-05-30 17:00:09,2.9901411533355713,54,-0.14333282,0.012774831,0.11197118,1.1861044,-0.21381587,0.10451907,0.08716297,0.052399844,-0.0008986716,0.008747224,0.3475149238884415,0.839982053544141,0.4167295614647207,-0.9287851276666844,0.36940867098121843,0.029923576475253594,-0.12880824624219983,-0.39745110834875974,0.9085378650184873,0.2320957,-0.06755628,0.11219499,-1.749246,-0.5446083,-0.21730395,0.18289167,-0.049567647,0.0039333003,0.013288683,-0.12348750752132365,-0.96003802068812,-0.2511530097757299,0.9514506801537392,-0.18645136976050625,0.24490302151957613,-0.2819440347323526,-0.2087172382618834,0.936453242682823,0.0075945216,-0.17309238,0.087938055,-1.4949465,0.17223085,-0.24383245,3.685886e-07,0.0036051287,0.0017495682,0.010182293,0.11530664273104957,-0.9811595394532477,-0.15501721285710474,0.974698788581339,0.14184117596474227,-0.17275228606015408,0.191485377196705,-0.1311756034513653,0.9726902443116234,left_images/camera_left_54.png,right_images/camera_right_54.png
2025-05-30 17:00:09,3.0517165660858154,55,-0.1458134,0.0063235876,0.1118954,1.2495538,-0.19823816,0.16004966,0.06051389,0.05215473,-0.0009919257,0.009037841,0.3217435809846469,0.8504035968138559,0.41628690901976817,-0.9456199525493736,0.310801444538439,0.0959446059627112,-0.04779093466020792,-0.42451876825280216,0.9041569786079336,0.23680696,-0.069508225,0.11210153,-1.7525345,-0.56084347,-0.21842982,0.15622175,-0.049496815,0.0040503712,0.013643795,-0.1287223552678074,-0.9617982159679147,-0.24160866502516984,0.9498054702343325,-0.18962285202717943,0.24882271339653989,-0.28513176597364,-0.19745218598439157,0.9379299069134849,0.008617029,-0.17931953,0.088110775,-1.4971079,0.17153549,-0.24642985,3.5221782e-07,0.0036872677,0.0023215953,0.010250357,0.11347686353306707,-0.9812776755410461,-0.15561852372856838,0.9741749850548337,0.14066594848463798,-0.17662443044588028,0.19520783779375284,-0.13155688663722054,0.9718984955447811,left_images/camera_left_55.png,right_images/camera_right_55.png
2025-05-30 17:00:09,3.1043498516082764,56,-0.14517444,-0.0031367405,0.111946814,1.3001099,-0.1629229,0.24516812,0.033853665,0.051850796,-0.0010310515,0.009258387,0.3204242728008154,0.8469929812325169,0.4241829500851276,-0.9460465575280051,0.26334227891331785,0.18880348282314832,0.048209920031869025,-0.4617940383759772,0.8856760523639143,0.24083747,-0.07208768,0.112076215,-1.7535889,-0.5780848,-0.22474854,0.12955132,-0.049460866,0.0042118877,0.013913392,-0.1321076789864738,-0.96400758693936,-0.23073130146592455,0.9474843303360173,-0.1911999831494101,0.2563513413488883,-0.29124045893473616,-0.18474831194632838,0.9386410689462009,0.00975236,-0.18629177,0.088369414,-1.4985161,0.1700849,-0.24776381,0.026666807,0.0037666042,0.0030041814,0.010272579,0.11198426202192524,-0.9814567236795944,-0.15557064184325137,0.973203339575319,0.13996179864773106,-0.18244438812618605,0.20083521827321826,-0.13097096801737543,0.9708304798664597,left_images/camera_left_56.png,right_images/camera_right_56.png
2025-05-30 17:00:09,3.1544792652130127,57,-0.14456472,-0.008660467,0.11197195,1.3052442,-0.1418591,0.29078954,0.054661628,0.051699772,-0.0009158632,0.009405292,0.3374928413195688,0.8387259433661114,0.4273609411056082,-0.9374982667394143,0.25857208759963046,0.23288940588820928,0.08482677595334168,-0.47924864886507057,0.8735703467050413,0.24381898,-0.07518856,0.112123825,-1.7524688,-0.59433997,-0.23360658,0.10288419,-0.04945523,0.0044374997,0.014068236,-0.13409627087149334,-0.9663067248552295,-0.21970321717698857,0.9451777596924895,-0.1913322846257498,0.2646336324857024,-0.297753577175902,-0.17217221134506858,0.9389885712400888,0.010681089,-0.19287944,0.08866769,-1.4992207,0.16815363,-0.24796565,0.053333722,0.0038189497,0.003683491,0.010249771,0.11085495317971222,-0.9817050268912445,-0.15481091541614467,0.9720158911874422,0.13956000681071906,-0.18896590109878156,0.2071141874295584,-0.12953086379490006,0.9697038046176476,left_images/camera_left_57.png,right_images/camera_right_57.png
2025-05-30 17:00:09,3.208836078643799,58,-0.14890178,-0.010965782,0.11200102,1.3056079,-0.16055752,0.31754386,0.0813254,0.051650744,-0.00079965754,0.009542787,0.34275315935470435,0.8464686828926659,0.4074445246095767,-0.9332023499761372,0.256952004189886,0.25121513000178913,0.10795205302069824,-0.466332967336383,0.8779976752952481,0.24559595,-0.078852996,0.11218562,-1.7504572,-0.6069087,-0.24471743,0.076216504,-0.0494832,0.004729181,0.0141498,-0.13513627722240956,-0.9680544094617299,-0.211208065424047,0.9426843925678877,-0.19125290473226925,0.27343822417573804,-0.30509723464394045,-0.1621511231942906,0.9384149885095876,0.011673658,-0.19872172,0.088955335,-1.4978335,0.16498053,-0.24697442,0.08000061,0.0038513532,0.0043067886,0.010210146,0.11125995731577443,-0.9820163722895324,-0.15252890366549796,0.9705418815081596,0.14037433108008235,-0.1958149723908293,0.21370465164963973,-0.12624932367789599,0.9687060597179002,left_images/camera_left_58.png,right_images/camera_right_58.png
2025-05-30 17:00:09,3.2624785900115967,59,-0.15674007,-0.013090743,0.11210154,1.3447521,-0.21021104,0.3334142,0.107990965,0.051618777,-0.00063747563,0.009666476,0.30653829259277776,0.8738769235253959,0.3773239956643286,-0.9403070562852188,0.21644047736495442,0.26263312749586143,0.14784084372909712,-0.43530752610978407,0.888059931895167,0.24736184,-0.08333778,0.112227626,-1.7474346,-0.61966974,-0.25493377,0.049553193,-0.049537763,0.0051282807,0.014246271,-0.1365172684328973,-0.9697598133142515,-0.20230902080809035,0.9407589826189655,-0.19089645214780854,0.28023397577579406,-0.31037972234240613,-0.15206725169505608,0.9383709175590234,0.012086816,-0.20389614,0.08922766,-1.4966222,0.16211581,-0.24678445,0.106667824,0.0038370471,0.0048628575,0.0101600615,0.11166819408201162,-0.9823711325001233,-0.1499238888932902,0.9693546648112342,0.1409010277696779,-0.2012422276316493,0.2188189850976425,-0.12285706493268464,0.9680002031802287,left_images/camera_left_59.png,right_images/camera_right_59.png
2025-05-30 17:00:09,3.3138668537139893,60,-0.16426231,-0.015502005,0.11225886,1.3688205,-0.25797457,0.33963218,0.13465524,0.051563926,-0.00035455683,0.009740987,0.27706330888286673,0.8956365292891029,0.34795277017699844,-0.9456405975083291,0.1899891866949624,0.2639469061820521,0.17029322715530248,-0.40216826869105005,0.8995892954249044,0.24969417,-0.088087454,0.11231752,-1.7427293,-0.6322372,-0.26342872,0.022890575,-0.04951755,0.005593855,0.01434494,-0.13732019216030067,-0.9714466701922276,-0.19348005529638423,0.939834092011932,-0.18946998751388078,0.2842762799172623,-0.3128179092014489,-0.1428022787070417,0.9390167543121426,0.011595157,-0.20795822,0.08946338,-1.4959667,0.15977016,-0.2467175,0.13333493,0.0037513352,0.005311275,0.01010089,0.11166102216165397,-0.9828067369093866,-0.14704670691769595,0.9684773306625286,0.1407805479780585,-0.2055054678196691,0.2226734742231281,-0.11946445160181218,0.9675457450068603,left_images/camera_left_60.png,right_images/camera_right_60.png
2025-05-30 17:00:09,3.3631348609924316,61,-0.17041732,-0.018804751,0.11246428,1.3907948,-0.29954422,0.3389803,0.16132016,0.051504202,4.4301152e-05,0.009742882,0.24743230342916156,0.9132830073668937,0.3235605100666976,-0.9512311499316358,0.16548038712544721,0.2603373597402991,0.18421876836923298,-0.3721967086524199,0.9096884386694317,0.25243878,-0.09250541,0.11243264,-1.7376536,-0.6418635,-0.27037957,0.002459968,-0.04939649,0.006053651,0.014459283,-0.13725839876280604,-0.9726450752763066,-0.18740781603182574,0.9395402597009607,-0.1877643344883742,0.2863715333185016,-0.31372636543670074,-0.1367702900299843,0.9396114385185994,0.007909783,-0.21055733,0.08969906,-1.4959319,0.15702423,-0.248107,0.16000235,0.0033697835,0.0056317374,0.009972244,0.111078327790267,-0.9838121838602801,-0.14062429371692683,0.968383945115845,0.138950876995607,-0.20718394876057297,0.22336996202979045,-0.11316466175541814,0.9681423549213162,left_images/camera_left_61.png,right_images/camera_right_61.png
2025-05-30 17:00:09,3.414921760559082,62,-0.17548689,-0.02313801,0.11271653,1.4114301,-0.3337419,0.33761072,0.18798645,0.051404964,0.0005256457,0.009701502,0.21986310855545388,0.9269431197934372,0.30403398850119073,-0.9557976084806932,0.14231799736544404,0.25728684235397115,0.19522075995887436,-0.34716284405664577,0.9172604944003533,0.25545424,-0.0959782,0.1125704,-1.7295208,-0.6483522,-0.27640676,0.00016267449,-0.049191285,0.006461844,0.014573281,-0.13401030333199404,-0.9738789470135983,-0.1833058514192944,0.9404946322694073,-0.1832756701727366,0.2861465977347397,-0.31226765005888724,-0.1340515769635693,0.9404887502996944,0.0031655182,-0.21235174,0.08992733,-1.4936794,0.15230289,-0.24988711,0.18666956,0.0028493558,0.005879398,0.009810352,0.11216742076324332,-0.9850631516028409,-0.13064860149882954,0.9684257651697162,0.13782537337971973,-0.2077395095021416,0.22264322822572233,-0.10322186690338081,0.9694200529792074,left_images/camera_left_62.png,right_images/camera_right_62.png
2025-05-30 17:00:09,3.470341205596924,63,-0.18037759,-0.02782001,0.11301475,1.4273129,-0.36266196,0.33641055,0.21465287,0.051220566,0.0010439344,0.009656072,0.1971416920893601,0.9372448118543505,0.2875887965346483,-0.9592078415226358,0.12377155045113414,0.2541671105009624,0.20262149442156918,-0.3259643630077156,0.9234131058455605,0.25767216,-0.0986171,0.1126956,-1.7202774,-0.6493477,-0.27830818,1.0362974e-05,-0.04897348,0.00684347,0.014636948,-0.1291099833921347,-0.9746848286200444,-0.18253793317115657,0.9431044293965528,-0.17757246102357999,0.28110862017844973,-0.3064060173056094,-0.13585840402398414,0.9421559566308386,-0.00031749284,-0.21473667,0.09017091,-1.4862688,0.14454201,-0.25262123,0.21333666,0.0023734279,0.006170183,0.009652724,0.11760863824803192,-0.9860778868664948,-0.11755258075581185,0.9680772914575155,0.14022870453045322,-0.20775530845201304,0.22134716165725685,-0.0893661650660861,0.971091716866979,left_images/camera_left_63.png,right_images/camera_right_63.png
2025-05-30 17:00:09,3.5224461555480957,64,-0.1859394,-0.03227608,0.113333955,1.439815,-0.38710663,0.33541876,0.24131945,0.050896633,0.0015358799,0.009676057,0.17859117482281578,0.9448029575757391,0.27468630040746955,-0.9617538889849546,0.10869768715576728,0.25142448136429013,0.20768882805226135,-0.3090828111738391,0.9280803664226256,0.25834525,-0.10111163,0.11284252,-1.7089136,-0.64653,-0.27898657,6.0465923e-06,-0.048815757,0.0072566345,0.014578147,-0.1224476182940612,-0.9754400344320648,-0.18309374648328117,0.9467803718008749,-0.17013807686648946,0.2732397525485075,-0.2976802115470711,-0.1398920084470327,0.9443604807624821,-0.0026787177,-0.21768767,0.09043655,-1.4789896,0.13774154,-0.25609776,0.24000359,0.0020143166,0.0065110154,0.009505753,0.12322095002549394,-0.9866603384845621,-0.10638596682055393,0.9676875463770492,0.1432277366996465,-0.20752500578644228,0.21999411369757346,-0.07737694683448045,0.9724275798418066,left_images/camera_left_64.png,right_images/camera_right_64.png
2025-05-30 17:00:09,3.5732407569885254,65,-0.1922454,-0.03658049,0.11366419,1.4470541,-0.40609875,0.3346529,0.26798558,0.050417613,0.0020292872,0.009773729,0.1658556277440305,0.9495996122692303,0.26599339676721506,-0.963713185266599,0.09886523722217089,0.24795677327370902,0.2091621554893218,-0.2974663699431104,0.9315390230494529,0.2572361,-0.103910066,0.112998515,-1.697682,-0.63918793,-0.27993387,6.12657e-06,-0.04872687,0.0077144327,0.014402406,-0.11530654882041674,-0.9756929053851564,-0.1863538413346949,0.9504609086184954,-0.1628903186007335,0.26474668136589613,-0.2886666953204485,-0.14659501521956103,0.9461402858591044,-0.0041779294,-0.22074786,0.09071645,-1.4715674,0.13087961,-0.25983915,0.26667032,0.0017305827,0.006866918,0.009355606,0.12894345464207613,-0.9870040090614713,-0.09589927842038272,0.9672693499735388,0.1464965389660179,-0.20719258836344961,0.21854882774047252,-0.06604430458079817,0.9735884960935519,left_images/camera_left_65.png,right_images/camera_right_65.png
2025-05-30 17:00:09,3.624990940093994,66,-0.19868635,-0.040402353,0.1140154,1.451228,-0.4196772,0.32993615,0.29465142,0.049821433,0.0025150871,0.009890856,0.15630712995963736,0.952301520294412,0.2620875723279012,-0.9662262377171785,0.09238545395420905,0.24056555332088023,0.20487786281267087,-0.2908380001695558,0.9345792202840195,0.25491628,-0.10714071,0.11317565,-1.6861889,-0.63028616,-0.282908,5.13633e-06,-0.048702914,0.008211193,0.014139817,-0.10776560961520293,-0.9758207585686157,-0.19015893492243496,0.9536735702277109,-0.15550593914209393,0.25753567585999887,-0.2808795023375588,-0.15359606127146147,0.9473726590568774,-0.0052711237,-0.22297022,0.090961196,-1.463712,0.124460734,-0.2629746,0.29333693,0.0014905375,0.0071420753,0.009207577,0.13507843176234424,-0.9870818787213542,-0.08615788978699299,0.9668063215219398,0.1503371261917963,-0.20660175496255495,0.21688557798489363,-0.05539055143536535,0.9746243034492035,left_images/camera_left_66.png,right_images/camera_right_66.png
2025-05-30 17:00:09,3.6759471893310547,67,-0.20420915,-0.044321388,0.11439232,1.4566725,-0.42550406,0.318107,0.32131684,0.049149096,0.0030558154,0.009960456,0.14610910982052233,0.952958819386669,0.26555906420346564,-0.9700333513003138,0.08533153263512999,0.2274946744502421,0.19413249442722474,-0.2908401933902974,0.9368695514937807,0.25189084,-0.11064581,0.11335924,-1.6751368,-0.620427,-0.2863611,4.704529e-06,-0.04872034,0.008732192,0.013831709,-0.10043880328394161,-0.9757706474789901,-0.19438027243864603,0.9566047175639737,-0.14841863167745517,0.2507575005963771,-0.2735314627775749,-0.16075930234180688,0.9483337943895788,-0.0061366716,-0.22467367,0.09119461,-1.4557041,0.118435375,-0.26617503,0.32000372,0.0012771124,0.0073685814,0.009051367,0.14140963171376575,-0.9869576775609282,-0.07692762028112037,0.9663983906299337,0.1544777687339559,-0.2054525968559478,0.21465662497684834,-0.04528975237862899,0.975638955599371,left_images/camera_left_67.png,right_images/camera_right_67.png
2025-05-30 17:00:09,3.7365732192993164,68,-0.20924476,-0.04908479,0.1148307,1.4712256,-0.4290843,0.30255654,0.3479833,0.04842504,0.0036592782,0.009974587,0.12834613941087758,0.9534444071753406,0.27289380887881426,-0.9743079020811899,0.06987313704761244,0.21410711492445983,0.18507128475393975,-0.29336241604061825,0.9379163674946381,0.24878724,-0.11443192,0.113510504,-1.6659888,-0.61119604,-0.2893736,0.02666903,-0.04877635,0.009263166,0.013546121,-0.09471619643622603,-0.9755265616307419,-0.19843580746820058,0.9590650185111947,-0.14285530409765151,0.24451309240874888,-0.26687662393093947,-0.1671534912709575,0.9491241109334194,-0.006534798,-0.22600521,0.09141049,-1.4469553,0.11173684,-0.26885504,0.3466704,0.0010928727,0.0075626317,0.008898008,0.1481902761052607,-0.9866625364734101,-0.06735488985740626,0.9658468160210927,0.15902907187408044,-0.20457194890987834,0.21255486362293366,-0.034738932319881066,0.9765314314099218,left_images/camera_left_68.png,right_images/camera_right_68.png
2025-05-30 17:00:09,3.8006365299224854,69,-0.21364997,-0.05445503,0.11535886,1.4864584,-0.42852345,0.28352067,0.3746493,0.047627244,0.0043634716,0.009903464,0.10959494172484785,0.9526580374236701,0.2836046764078623,-0.9788720711271507,0.05389144427251569,0.1972439621419746,0.17262218025378306,-0.29922963751323733,0.9384365758633489,0.24606639,-0.11831636,0.113590606,-1.6578037,-0.60380685,-0.29289,0.053334028,-0.04887985,0.009777765,0.0133396145,-0.08991624195481096,-0.9753685013625837,-0.20142332531867171,0.9610327140788115,-0.1380526599314882,0.23949443742215465,-0.26140235634561015,-0.17203996522770065,0.9497742144643717,-0.006447703,-0.22742565,0.09163751,-1.4359589,0.103737116,-0.27196273,0.37333712,0.0009227171,0.007768717,0.008738578,0.15675266556471973,-0.9860317657512212,-0.056302386875549185,0.9650564133639004,0.1650401797783893,-0.20353834548782573,0.20998743025133598,-0.022429801342094685,0.9774467674242902,left_images/camera_left_69.png,right_images/camera_right_69.png
2025-05-30 17:00:09,3.8565783500671387,70,-0.21776363,-0.060393326,0.11605368,1.4914262,-0.43189353,0.2702385,0.40131605,0.046840157,0.0051808483,0.00967733,0.09813583545641558,0.9527464718691703,0.2874778567822568,-0.9823991383970405,0.04661064789705749,0.18088499213414275,0.15893800890920862,-0.3001692986357281,0.9405514879476355,0.2432619,-0.121411964,0.11355297,-1.6438936,-0.5955524,-0.29968673,0.079999216,-0.049069688,0.010217067,0.0132096205,-0.07985977449239928,-0.9757891876847729,-0.20361207630077877,0.9634569982141108,-0.12795452498933285,0.23532584245468896,-0.25568149915525373,-0.17737841112222547,0.950349341167487,-0.0060234736,-0.22872071,0.09188418,-1.4274889,0.09507867,-0.27497974,0.4000038,0.00077881943,0.007982102,0.008561364,0.16267241201408472,-0.9856237064400998,-0.04564642015317036,0.9645874016378276,0.16859477129407935,-0.2028471042284834,0.20762666247643627,-0.011032334094695326,0.9781459280870718,left_images/camera_left_70.png,right_images/camera_right_70.png
2025-05-30 17:00:10,3.9254980087280273,71,-0.219735,-0.06627396,0.11685046,1.463627,-0.42752528,0.2797114,0.42798427,0.046125315,0.0060432176,0.009273855,0.11819589643947964,0.9503880157929017,0.28773659743261565,-0.9823780142513721,0.06966528280792966,0.1734364018504253,0.14478662638655143,-0.3031655782052482,0.9418744422751255,0.23968661,-0.12338999,0.11340671,-1.6212153,-0.5845545,-0.31125128,0.10666435,-0.04937256,0.010561891,0.013105035,-0.06152521993031357,-0.9767914587587015,-0.20516601426302106,0.966494586365141,-0.10962698629085343,0.23209941491451455,-0.24920445790435108,-0.18401187454301057,0.9508084813398363,-0.0058542513,-0.22938056,0.09212996,-1.4250827,0.08674031,-0.27778286,0.42667037,0.0006338629,0.008151282,0.008364801,0.1628391502067169,-0.985967215483416,-0.03677038416760396,0.965049961652287,0.16691901973587198,-0.20203121631405113,0.2053338322704606,-0.0025866662510765775,0.9786885748198104,left_images/camera_left_71.png,right_images/camera_right_71.png
2025-05-30 17:00:10,3.978701114654541,72,-0.21799737,-0.07382381,0.11776942,1.4345188,-0.4148391,0.306304,0.45465308,0.04556304,0.0069587114,0.008588127,0.14477014893052875,0.9462226041091338,0.289317105355978,-0.9788616212215512,0.09426724962345634,0.18150375243488903,0.14446982549359247,-0.3094777360673276,0.9398680760620038,0.23573785,-0.12423113,0.11323728,-1.5954825,-0.5723297,-0.32430238,0.13332921,-0.04970385,0.010787002,0.012990057,-0.039532661458477725,-0.9776978323300516,-0.2062622537817521,0.969246655865073,-0.08769952543573845,0.22993414999238174,-0.24289522179817005,-0.19082909079976454,0.9510973500815535,-0.0066640708,-0.22951588,0.09237809,-1.4301903,0.077894084,-0.28099358,0.45333695,0.00040913874,0.008281913,0.008147736,0.15565285711632804,-0.9874002288889231,-0.028512735077974666,0.9668095663134643,0.15820043421587937,-0.20062872451042202,0.20261157557330126,0.0036620491545044515,0.9792523366526602,left_images/camera_left_72.png,right_images/camera_right_72.png
2025-05-30 17:00:10,4.047662973403931,73,-0.21360318,-0.08153346,0.11867079,1.416918,-0.39827538,0.32906064,0.48132002,0.0451867,0.007838494,0.007748196,0.1630391381010421,0.9418538404110867,0.2938189625435307,-0.9754618853704361,0.1092206251787744,0.19116737489726615,0.14796063542991278,-0.31777696319658705,0.9365497595027887,0.23176749,-0.124056645,0.11310782,-1.5656947,-0.55868703,-0.33924454,0.15999435,-0.049989935,0.010917241,0.01284599,-0.012976625451589063,-0.9782477414786365,-0.20703372547446466,0.9715561989775979,-0.061297406884932626,0.22873823497042492,-0.23645329225893955,-0.19817664898047357,0.9512180908597032,-0.007757275,-0.22943969,0.09260502,-1.4355167,0.0706109,-0.2836564,0.4800035,0.00018695179,0.008383214,0.007942381,0.14860266171350628,-0.9886604363785038,-0.021628464382098825,0.9684198954149487,0.1499185386312249,-0.199216811386935,0.200200287452743,0.008658713215278002,0.9797167302793673,left_images/camera_left_73.png,right_images/camera_right_73.png
2025-05-30 17:00:10,4.108169794082642,74,-0.20745178,-0.08833469,0.11951658,1.4048584,-0.3813588,0.34643894,0.5079868,0.04500181,0.008619196,0.0068143522,0.17662995848083307,0.9379832158785759,0.29831081860560116,-0.9726467326818806,0.11987957302709795,0.19896537732505853,0.15086481090804918,-0.3252942893764435,0.9335006342412163,0.2279108,-0.123482324,0.11305258,-1.539799,-0.5460182,-0.35217908,0.18665984,-0.050218944,0.01098227,0.012654322,0.01085696291224203,-0.9781480095453889,-0.20762610090909994,0.9728468149332004,-0.03767523256776634,0.22836298195042903,-0.23119515788755063,-0.20446771939198194,0.951179137016783,-0.008679392,-0.2288904,0.09284059,-1.4411765,0.063761555,-0.28625718,0.5066701,-1.1019976e-05,0.008446534,0.007709793,0.1413193307858186,-0.98984342892409,-0.01545422149602381,0.9700750896097801,0.1415767509648017,-0.19725705083678963,0.19744155404783886,0.012884479114434619,0.980229984714365,left_images/camera_left_74.png,right_images/camera_right_74.png
2025-05-30 17:00:10,4.184422016143799,75,-0.202029,-0.0933847,0.12020022,1.3939849,-0.37303036,0.35778704,0.5346533,0.044992644,0.009244709,0.0059880177,0.186315025155537,0.9366351107648454,0.2966502666167982,-0.9708141591214856,0.1290977325663082,0.20212284357657578,0.15101847519603218,-0.32565080182422984,0.9333514747514473,0.22432014,-0.12306636,0.11308938,-1.516234,-0.53416955,-0.36434156,0.21332595,-0.050372574,0.011053018,0.012417423,0.03289190692126959,-0.9775616286225741,-0.20806581820150818,0.9733793588366095,-0.015914371656695236,0.2286467943479718,-0.22682756942204726,-0.21004760179433873,0.9510148572606704,-0.009230567,-0.22763072,0.09315384,-1.4502318,0.056496035,-0.28910393,0.5333369,-0.00017388363,0.008484498,0.0073797405,0.13067550336909256,-0.991372401912041,-0.010231009059981838,0.972251049685905,0.1301611397487295,-0.1943861468417128,0.19404074109292227,0.015454398288605828,0.9808717308443786,left_images/camera_left_75.png,right_images/camera_right_75.png
2025-05-30 17:00:10,4.2379467487335205,76,-0.19819231,-0.097038336,0.120568305,1.3830032,-0.37202832,0.3639497,0.5613201,0.04515447,0.009740195,0.0054566674,0.19332611303508368,0.9370996027811336,0.29063611008645807,-0.9699219301320283,0.13788298168189989,0.20059843671242697,0.14790694191858197,-0.3206752529116498,0.9355698363576835,0.22137499,-0.12305795,0.11319079,-1.4960519,-0.5235095,-0.37438694,0.23999366,-0.05044073,0.011158285,0.012178422,0.05184466399654225,-0.9765754337027712,-0.2088361872457215,0.9735407098068558,0.0028206813896062832,0.22849623652319018,-0.22255475093524507,-0.2151568405715764,0.9508821781858194,-0.0094832275,-0.22591126,0.09356968,-1.4582247,0.049719673,-0.2914367,0.56000364,-0.00030354757,0.008530531,0.006939563,0.12114763110549626,-0.9926189029369935,-0.005564621252690374,0.9741591055634241,0.11996745178405438,-0.19136835569213112,0.19062342071580823,0.017762996498335612,0.98150251524385,left_images/camera_left_76.png,right_images/camera_right_76.png
2025-05-30 17:00:10,4.287839412689209,77,-0.19537526,-0.10020815,0.120636,1.37465,-0.37208533,0.3675898,0.58798707,0.045424335,0.01015619,0.0052172225,0.19785358846736872,0.9376913886911156,0.2856375624897967,-0.9695364794492518,0.14427393782735437,0.19794960439702636,0.14440558350609456,-0.3161010763004709,0.9376711241229242,0.21924359,-0.123218015,0.11331209,-1.4775616,-0.5144814,-0.3825776,0.26666194,-0.0504487,0.011281603,0.011976223,0.06888238766600263,-0.9754243805028564,-0.20929045508586688,0.9735889429963511,0.019953647954179754,0.22743443452689463,-0.2176689843424602,-0.21942909983395406,0.9510368465003773,-0.009587615,-0.22319704,0.0940547,-1.4660083,0.04338158,-0.29200262,0.5866705,-0.00041103657,0.00853482,0.0063983668,0.11190897540884004,-0.9937171230755192,-0.0016311129504051336,0.9757844193327255,0.1101995983378865,-0.18894659434259248,0.18793921413701653,0.019553205176692096,0.9819860100616906,left_images/camera_left_77.png,right_images/camera_right_77.png
2025-05-30 17:00:10,4.339651107788086,78,-0.19369957,-0.10309382,0.12048601,1.3673545,-0.37459195,0.3690938,0.6146537,0.045761712,0.010534381,0.005209679,0.20054588535773882,0.9387661561515964,0.2801775364486541,-0.9696520402119307,0.1493789590127919,0.19354804963392103,0.13984372985200594,-0.31048998481208834,0.9402338541833453,0.217671,-0.12355192,0.11342919,-1.4607427,-0.5056435,-0.38899946,0.29333004,-0.05040949,0.011420586,0.011815404,0.08444559152848352,-0.9739224354291831,-0.21058022660993755,0.9735937638320658,0.0356630998821571,0.22548464766832046,-0.21209461355422451,-0.2240607798667215,0.9512164011552788,-0.009647447,-0.21998814,0.094504066,-1.4724164,0.03788074,-0.29169247,0.6133374,-0.0005020908,0.00848092,0.005867812,0.10420432829877402,-0.9945543333202252,0.001770886152125506,0.9770999871942861,0.10204308790768668,-0.18671588908068384,0.18551838989363678,0.021186936640925413,0.982412357784167,left_images/camera_left_78.png,right_images/camera_right_78.png
2025-05-30 17:00:10,4.394678115844727,79,-0.19300914,-0.10594304,0.12017645,1.3610902,-0.37763008,0.36968213,0.6413203,0.046114266,0.010893117,0.005393156,0.20223220861213437,0.9397609905828708,0.27559284166784803,-0.9699948341368199,0.15343052081232694,0.18859771215775997,0.13495241956979256,-0.3054641646117585,0.9425918992810722,0.21623829,-0.12425408,0.113502614,-1.4497702,-0.49590972,-0.3897457,0.32000113,-0.05035534,0.011591299,0.011698589,0.0949821393520992,-0.9719985118115824,-0.2149355397326544,0.9742361737181111,0.04639660045677285,0.22070621487658382,-0.20455383404667,-0.2303611262824603,0.9513629593770632,-0.009742604,-0.21624222,0.09489984,-1.4786986,0.033519182,-0.29109654,0.64000404,-0.0005760242,0.008351614,0.0053615794,0.09693422632833126,-0.995282168894511,0.004142468680143854,0.9783579687214692,0.09451979781304498,-0.18406980431505274,0.18280984876457984,0.021895481315084814,0.9829044445380499,left_images/camera_left_79.png,right_images/camera_right_79.png
2025-05-30 17:00:10,4.443378925323486,80,-0.19324116,-0.108800285,0.11975654,1.3551365,-0.38108313,0.36986646,0.667987,0.046456616,0.011242484,0.0057263533,0.20356332893146545,0.9406168399207782,0.27166510922786746,-0.9704296019152632,0.157080685056733,0.1832813304968386,0.12972416444488646,-0.30094122156919045,0.9447782926800973,0.21434377,-0.12515496,0.11351927,-1.4414592,-0.48203108,-0.38478583,0.34667423,-0.050298482,0.0117995255,0.011603862,0.10375014901286306,-0.9690676162272918,-0.2239282513649478,0.9757323070291246,0.055519144508358154,0.21181144825689288,-0.19282731030492303,-0.24046949863260117,0.9513107003644785,-0.009826926,-0.21271753,0.09523032,-1.4842954,0.029972177,-0.2900076,0.6666709,-0.000635402,0.0082108285,0.0049229246,0.0905521079170874,-0.9958742844798181,0.005892814572203503,0.9793536193261392,0.08797294109018611,-0.18200892821159653,0.18073960292244642,0.022252441388595223,0.9832792201545213,left_images/camera_left_80.png,right_images/camera_right_80.png
2025-05-30 17:00:10,4.495570182800293,81,-0.19404335,-0.11169715,0.119260274,1.3511984,-0.3823602,0.3702111,0.69465345,0.046756003,0.011563642,0.006172967,0.2042832018815262,0.9407579860690332,0.2706340427151916,-0.9708341419164233,0.15925833617968493,0.17921453971896417,0.1254967821038983,-0.29935128863028965,0.9458537749974629,0.21245237,-0.12621039,0.11351984,-1.4367443,-0.46917439,-0.37947,0.37333935,-0.050261363,0.011993601,0.011523707,0.109396563769937,-0.9662786285991689,-0.233105134537701,0.9770022647609193,0.06134610646617433,0.20421368679272126,-0.18302722881408917,-0.25008451998064646,0.9507674617795272,-0.00996926,-0.20878336,0.095525056,-1.4904538,0.026494019,-0.2884157,0.6933379,-0.000697266,0.008019004,0.0044995584,0.08364762514114188,-0.9964675473579819,0.007449957759293607,0.9803298002837574,0.0809471879324366,-0.1800028762032409,0.17876397143679565,0.0223602287152668,0.9836378717230978,left_images/camera_left_81.png,right_images/camera_right_81.png
2025-05-30 17:00:10,4.550690412521362,82,-0.19517636,-0.11447662,0.118740164,1.3494483,-0.38140854,0.37072453,0.7213203,0.046998903,0.011841748,0.0066740457,0.20435749681440363,0.9402491116077909,0.27234100245190984,-0.9711955412452911,0.15991672540766255,0.1766518089354212,0.1225448251090894,-0.30059648876134665,0.9458459265563988,0.2108813,-0.12716076,0.11353089,-1.4322743,-0.45806542,-0.37577778,0.40000367,-0.050219074,0.012160382,0.011454958,0.11468256388226689,-0.9637453722487535,-0.2409206653869726,0.9778451317814423,0.06676433381192598,0.1983971319903176,-0.17511941009700654,-0.2583357915577351,0.9500504255077806,-0.0100596845,-0.20453951,0.09579188,-1.4969237,0.022734901,-0.28759602,0.72000456,-0.000759029,0.0077771014,0.0040872665,0.07636101677162715,-0.9970376080863733,0.009219716861523009,0.9814739052558029,0.07353299569696031,-0.17692335019932814,0.17572128049706037,0.022558958425295136,0.9841814492131211,left_images/camera_left_82.png,right_images/camera_right_82.png
2025-05-30 17:00:10,4.614755868911743,83,-0.19645955,-0.11694066,0.11826693,1.3489057,-0.37923324,0.37147477,0.7479867,0.047173418,0.012070801,0.007155492,0.20426925415138375,0.9393589777220609,0.27546103677544415,-0.971454874861622,0.1598482039922633,0.17528256555641386,0.1206212995951715,-0.30340280594189134,0.9451969315600635,0.20954095,-0.12791252,0.113583,-1.4296054,-0.44917098,-0.37335965,0.4266674,-0.05016237,0.012284949,0.011365206,0.11836517205999281,-0.9616848838157903,-0.24728904198006435,0.9783292416752791,0.07033747970885423,0.19474222405857353,-0.16988696514530316,-0.2649807977730013,0.9491699510020859,-0.010002073,-0.19957514,0.09605865,-1.5053669,0.018036341,-0.2879003,0.7466711,-0.00081912027,0.007458391,0.0036438964,0.06691206445536996,-0.9976952067388556,0.01127164941936061,0.983008016792597,0.06398327089549644,-0.17205051574174207,0.17093277787424604,0.022592376940598194,0.985023639286067,left_images/camera_left_83.png,right_images/camera_right_83.png
2025-05-30 17:00:10,4.667681694030762,84,-0.19723843,-0.11893746,0.11792959,1.3484466,-0.37732962,0.37240022,0.7746532,0.04730846,0.012256998,0.0074931486,0.20431441684513452,0.9386621220335017,0.2777931599748209,-0.9715978087148743,0.1598427421245603,0.17449354111415163,0.11938725714952761,-0.30555477160349687,0.9446602375355109,0.20817094,-0.12843432,0.11369844,-1.4283954,-0.4420056,-0.37093085,0.45333308,-0.050090898,0.012381565,0.011218587,0.1205375985954627,-0.9600750953711704,-0.2524410794083984,0.9787476916905168,0.0724375791222091,0.19184825550783324,-0.16590251154013397,-0.27020105177247533,0.9484027352795457,-0.009775935,-0.19460188,0.096302055,-1.5129943,0.013128865,-0.28795558,0.7733377,-0.0008682768,0.0071265358,0.0032222783,0.05819598323615821,-0.9982129133850574,0.01357229112907854,0.9843535181156909,0.055112395826444505,-0.16736419927670082,0.16631710347537534,0.023099856657238765,0.985801713182715,left_images/camera_left_84.png,right_images/camera_right_84.png
2025-05-30 17:00:10,4.733541011810303,85,-0.1970442,-0.120668404,0.1177377,1.3488342,-0.37451917,0.37374073,0.80132,0.047421534,0.01241575,0.007655276,0.2042410873845386,0.9379968134749977,0.28008490879505005,-0.9716174790913578,0.1593587208095223,0.17482640654691622,0.11935263946866098,-0.307842128391653,0.9439216977266498,0.20644079,-0.1286977,0.11391589,-1.4288673,-0.43555012,-0.36785117,0.4799996,-0.049990166,0.012455451,0.010966297,0.12120159632289224,-0.9587525979309613,-0.2571062601521319,0.9792091901425525,0.07303741183926887,0.18924824546660438,-0.16266387118579773,-0.2746980022360084,0.9476716058732564,-0.009469627,-0.18991342,0.096463546,-1.5198488,0.0093836,-0.2874253,0.80000436,-0.0008895516,0.0067843674,0.0028871484,0.05056677021803058,-0.9986099133728409,0.014874228154905286,0.9854134429032851,0.0474643452451724,-0.16342424078434925,0.16249107143228142,0.022921100408452494,0.9864437514936444,left_images/camera_left_85.png,right_images/camera_right_85.png
2025-05-30 17:00:10,4.78930401802063,86,-0.19591372,-0.12191712,0.11766876,1.3449606,-0.37057376,0.37635538,0.8279875,0.047529213,0.01254707,0.0076584825,0.20814663469004363,0.9368288795816142,0.2811167530565675,-0.9709136078285392,0.16312932293767218,0.175258637822124,0.11832896771534568,-0.3094195765942328,0.9435347269812948,0.20404501,-0.12858073,0.11424003,-1.431637,-0.42804703,-0.36296636,0.506667,-0.049851414,0.012496889,0.010589396,0.1202411911312461,-0.9573158455765731,-0.26284677620878294,0.9798612664883914,0.07192819763650504,0.18627461668335185,-0.15941754731241145,-0.2799512568158513,0.9466854490358032,-0.0091942,-0.18566744,0.09653581,-1.5242511,0.006030813,-0.2864116,0.826671,-0.0009122747,0.006444781,0.002652309,0.045406787782647284,-0.998832080499449,0.016513587993028003,0.986157559989487,0.04217945045822169,-0.16035635576622326,0.1594725383846472,0.023566266657751772,0.9869210407003048,left_images/camera_left_86.png,right_images/camera_right_86.png
2025-05-30 17:00:10,4.845444917678833,87,-0.19418448,-0.12294678,0.117712945,1.3401272,-0.36737433,0.37921068,0.85465443,0.047632553,0.012672396,0.007527912,0.21262581786817852,0.9359783002572677,0.2805973681690627,-0.9700641169932265,0.16771597130488197,0.17563303189153254,0.11732804651079921,-0.30954155523415006,0.9436197089321438,0.20074287,-0.12781714,0.11466408,-1.4336412,-0.41770056,-0.35629532,0.53333545,-0.049676917,0.0124959545,0.010079847,0.12050739054693455,-0.9552302639527961,-0.27020938483376183,0.9806483602093112,0.0722419997553449,0.18196122413892962,-0.15429440185035115,-0.28690806245210354,0.945450686846026,-0.008923293,-0.18161066,0.09653044,-1.5283757,0.004087633,-0.28499466,0.8533378,-0.000909993,0.0060901484,0.00249621,0.04092178567578014,-0.9990197670300646,0.016879352484650417,0.9867492936185082,0.037753003951764785,-0.15779905651173382,0.15700713041286005,0.023113108311380096,0.9873269697641738,left_images/camera_left_87.png,right_images/camera_right_87.png
2025-05-30 17:00:11,4.897192478179932,88,-0.19239305,-0.1237167,0.11784047,1.3341988,-0.3654687,0.38118953,0.8813213,0.0477076,0.012796531,0.0073195323,0.2173571002471842,0.9354403987868376,0.27876002455455784,-0.9692693478274435,0.17314089050116493,0.17475458047967116,0.11520773556622733,-0.3081776960683329,0.9443271071571102,0.19667695,-0.12671576,0.11513977,-1.4384253,-0.40608874,-0.34799007,0.5600023,-0.049508926,0.012455028,0.009481424,0.11874517003540452,-0.9529667639403755,-0.278843919457232,0.9815921722773034,0.07035770128109409,0.17755731805353714,-0.14958740561018996,-0.2947950825496395,0.9437793531262293,-0.008400208,-0.17758085,0.09647313,-1.5307285,0.0023382658,-0.28398955,0.8800045,-0.000883836,0.005711111,0.002388982,0.03821253371663158,-0.9991192924428662,0.01733325518826194,0.9873139335328855,0.03507446529915559,-0.15485793016761873,0.15411359096061594,0.023030878238670116,0.9877846828781965,left_images/camera_left_88.png,right_images/camera_right_88.png
2025-05-30 17:00:11,4.949603080749512,89,-0.19066496,-0.124300614,0.11801589,1.3293157,-0.36456934,0.38205385,0.9079881,0.047756925,0.012910374,0.0070718536,0.2208180488602861,0.9352773526859057,0.27657849310888283,-0.9687555163105837,0.17749537260294457,0.17322858402225833,0.11292536878554363,-0.30618893882272413,0.945249276554742,0.1916643,-0.12511578,0.11565326,-1.4415594,-0.3937118,-0.33976492,0.5866689,-0.04939471,0.012371548,0.00878622,0.11844595658923818,-0.9506458477012588,-0.2867804519419256,0.9824157987054726,0.0702156225636511,0.17299989827132023,-0.14432516697218328,-0.30222878518823065,0.942246256337534,-0.0070696827,-0.17351082,0.09637002,-1.5340958,0.0004484445,-0.2831262,0.90667117,-0.0007784026,0.0053075426,0.0023224335,0.03458190800157368,-0.9992598544395643,0.016847401710397947,0.9879159357671996,0.03163119684188809,-0.15172861049771752,0.15108340576049062,0.02189088147541239,0.9882786013124236,left_images/camera_left_89.png,right_images/camera_right_89.png
2025-05-30 17:00:11,5.003006219863892,90,-0.1890877,-0.124396116,0.11820051,1.319443,-0.36196944,0.3846393,0.9346546,0.047767807,0.012981045,0.006831548,0.22923580821556067,0.93391255863425,0.27433242071798125,-0.9672005145233924,0.1868646709793007,0.1720603366423623,0.10942627169671827,-0.30477684880093253,0.9461167811097793,0.18638438,-0.12349868,0.11614038,-1.4440594,-0.38228732,-0.33261085,0.61333513,-0.049346812,0.012277516,0.008087305,0.11843910171949906,-0.9486460502913894,-0.2933306162854894,0.9830674132987165,0.07042769837418755,0.16916973787260237,-0.13982360349400486,-0.3084000819848486,0.9409244121276108,-0.0050807493,-0.17004064,0.09626691,-1.5380368,-0.0016756342,-0.28258812,0.9333379,-0.0006115426,0.0049554803,0.0022800202,0.030416348558765238,-0.999412588185181,0.015790006882509117,0.9884688137960864,0.027731344149483028,-0.14886361779904772,0.14833829543617427,0.020135817059680483,0.9887316617659361,left_images/camera_left_90.png,right_images/camera_right_90.png
2025-05-30 17:00:11,5.06476616859436,91,-0.1879651,-0.124205105,0.11835773,1.3091891,-0.3589817,0.38739187,0.9613211,0.047746424,0.013013503,0.0066440003,0.23834218471519303,0.9321201553989257,0.2726628300378903,-0.9653833072431467,0.19675816418574293,0.17123461952111285,0.1059626022777511,-0.3040365779397915,0.9467490090795914,0.18109232,-0.12212942,0.1165551,-1.4474076,-0.3721677,-0.32572806,0.64000136,-0.04937534,0.012195664,0.007438074,0.11721973096225247,-0.9470573076412101,-0.29890130597994957,0.9837419042110904,0.06949634406415395,0.16559626825763493,-0.1360566079698998,-0.31345288992941034,0.9398063019700527,-0.0025943103,-0.16687006,0.096200734,-1.543447,-0.0034736379,-0.2832284,0.96000457,-0.0003870318,0.004634856,0.0022153687,0.02498446902708018,-0.9995959645497925,0.013553005688948405,0.9891558561383851,0.0227562414276421,-0.14509598803283708,0.14472894864046104,0.017031181164460188,0.9893247547158466,left_images/camera_left_91.png,right_images/camera_right_91.png
2025-05-30 17:00:11,5.116051435470581,92,-0.18706122,-0.12417461,0.118474446,1.3015904,-0.35664067,0.389517,0.9879877,0.047736585,0.01304902,0.0065014344,0.24508210159286498,0.9307283089180818,0.27143982474447637,-0.9639698719543064,0.2040698893891651,0.17063870079525323,0.10342557441572493,-0.303480304506209,0.9472079261353316,0.17622319,-0.12117819,0.11686058,-1.45094,-0.36334828,-0.31902635,0.6666684,-0.049464285,0.012147961,0.006898336,0.11521968040268282,-0.9457548326351674,-0.30376343064156053,0.9844849486164508,0.06798141494400667,0.16176499364780725,-0.13233975667035194,-0.3176890362751559,0.9389141947137634,-0.00050113694,-0.16393112,0.09617752,-1.5512383,-0.0044456036,-0.28463924,0.98667115,-0.00018002509,0.00434497,0.002120749,0.017462079086969118,-0.9997949278805787,0.01025563153730702,0.9899193473747983,0.015845891084321717,-0.14074300490183284,0.14055163281518276,0.012609913560860844,0.9899930447194938,left_images/camera_left_92.png,right_images/camera_right_92.png
2025-05-30 17:00:11,5.171932220458984,93,-0.18630071,-0.124327086,0.118566185,1.2952061,-0.3560231,0.3910484,1.0146536,0.047755677,0.01310624,0.006380602,0.250087038434922,0.9300119495304164,0.2693218278147618,-0.9629308124893827,0.2098598211738622,0.16947892439891174,0.1010975942611263,-0.30172276875885407,0.948020383350012,0.1717592,-0.12058992,0.11707005,-1.4545478,-0.35554057,-0.31248263,0.6933353,-0.049599886,0.0121311275,0.0064584874,0.11265366805058463,-0.9446538407421042,-0.30812054823711477,0.9852781910465499,0.06606851050862472,0.15767637161987902,-0.128592524365871,-0.32134727801922214,0.9381896874229911,0.0010701381,-0.16150396,0.096181355,-1.5594981,-0.0055083693,-0.28600118,1.0133369,-2.425614e-05,0.004112581,0.0020224098,0.009418514173615056,-0.999928186650975,0.007410339510058109,0.9905446772180957,0.00831529692919819,-0.13693830096754578,0.1368668477961712,0.008630027686640604,0.9905518606294511,left_images/camera_left_93.png,right_images/camera_right_93.png
2025-05-30 17:00:11,5.227810621261597,94,-0.18555716,-0.12450159,0.118653245,1.2900568,-0.35592127,0.39230022,1.0406177,0.04778233,0.013161579,0.0062624477,0.2539413951976454,0.9295946357217103,0.267147114980668,-0.962109838217775,0.21442033648978004,0.16842974352582907,0.09928961179116536,-0.2997961516381264,0.9488223439892893,0.16734402,-0.120221235,0.11724158,-1.458813,-0.34769064,-0.3064188,0.72000086,-0.049758274,0.012127265,0.006055317,0.10955502044485449,-0.9435245221151688,-0.31266463449304605,0.9860242535540725,0.06344072085033753,0.15405014229504593,-0.1255144170940608,-0.3251718793274291,0.9372883120983673,0.0022849226,-0.15983687,0.096198,-1.5690328,-0.0066624917,-0.2872032,1.039676,9.883493e-05,0.0039556436,0.001941978,9.454025876598493e-05,-0.9999893082196625,0.004623257347394702,0.9909766794676245,-0.0005259891914787262,-0.1340333693029148,0.13403436803096647,0.004594211763862682,0.9909660344354938,left_images/camera_left_94.png,right_images/camera_right_94.png
2025-05-30 17:00:11,5.3019633293151855,95,-0.18478267,-0.12453607,0.1187582,1.2861737,-0.3563116,0.3931571,1.0467457,0.047803633,0.013199176,0.0061247256,0.2566976995372053,0.9294768959659353,0.26491317618766375,-0.9615073522716197,0.21779210546579258,0.16754166742752724,0.09803011057795334,-0.29772352722333945,0.9496056016882837,0.16311994,-0.11949976,0.11747959,-1.4625366,-0.34247887,-0.30138767,0.7466668,-0.049903315,0.012087339,0.00559723,0.10661507089621813,-0.9431767194238065,-0.3147235335889905,0.9865923508470094,0.061012752561197314,0.15137033155502283,-0.12356682365410956,-0.3266421895007627,0.937035815820389,0.003334539,-0.159122,0.09624479,-1.5779984,-0.008487246,-0.28857282,1.0466835,0.00019250071,0.003895669,0.0018702634,-0.00888877496264806,-0.9999566284736234,0.002780440851238533,0.9912198988953778,-0.009177882196639509,-0.13190480852577643,0.13192460617148166,0.0015835561399724085,0.9912584883048674,left_images/camera_left_95.png,right_images/camera_right_95.png
2025-05-30 17:00:11,5.362860202789307,96,-0.18373793,-0.12464789,0.1189133,1.2826782,-0.35725144,0.39412442,1.0471513,0.04782807,0.013250658,0.0059279846,0.2589361116120003,0.929675228231332,0.2620230144782679,-0.9609925334782835,0.22066616013871126,0.1667327093543044,0.09718765714970194,-0.294975279951825,0.950549390360698,0.15876946,-0.118102126,0.1178537,-1.4659039,-0.34034583,-0.29645118,0.7733331,-0.050025813,0.011988092,0.005000931,0.1034873293559872,-0.9438598732257011,-0.3137178866069469,0.9870824949604551,0.05867489767073536,0.14908187188914757,-0.12230503180739902,-0.32509351900290556,0.9377396670168641,0.0042626257,-0.15887642,0.09634061,-1.5842618,-0.011828966,-0.29000276,1.047147,0.00024023461,0.0038975165,0.0017717052,-0.015727341136202555,-0.9998710093526672,0.0032581278158371474,0.9913630624907858,-0.016017662725958615,-0.13016417636849234,0.13019957399959514,0.001182851164034604,0.9914871011735089,left_images/camera_left_96.png,right_images/camera_right_96.png
2025-05-30 17:00:11,5.432241678237915,97,-0.18230484,-0.124836996,0.11910546,1.2793584,-0.35889226,0.39421204,1.047178,0.047875423,0.013325721,0.0056716576,0.2604838479715162,0.9302454710349416,0.2584405706636087,-0.9607193796158592,0.22319647628399247,0.16492909568941388,0.09574151960602414,-0.29125023020315166,0.9518439288192894,0.15411882,-0.11636338,0.118312724,-1.4693189,-0.33894444,-0.29232594,0.79999876,-0.05013941,0.011850406,0.0043113166,0.10053843106934418,-0.9448644756556027,-0.3116458671668494,0.9874030485767583,0.05629154776725681,0.14787319334920218,-0.12217709907932262,-0.3225870181734371,0.9386215276492076,0.0050353017,-0.15864366,0.09644806,-1.5889409,-0.015193621,-0.29139662,1.0471778,0.00026866034,0.0039052293,0.0016629938,-0.02107593106509703,-0.9997684267148768,0.004347191484081983,0.9914832653618162,-0.02145981628103938,-0.12845392478493745,0.1285174682181749,0.0016028815439821792,0.9917059499335206,left_images/camera_left_97.png,right_images/camera_right_97.png
2025-05-30 17:00:11,5.497492790222168,98,-0.1803604,-0.12497147,0.119328976,1.2753963,-0.3623322,0.39418054,1.0471796,0.047982264,0.013411201,0.0053450484,0.2618063406537344,0.9314523418921605,0.2526934403127858,-0.9605139177511766,0.22591649473525244,0.16240305173494593,0.09418308659089276,-0.28523371503058215,0.9538193088893021,0.14880556,-0.11429593,0.11880465,-1.4732783,-0.33666125,-0.28831136,0.82666576,-0.050283898,0.011670435,0.0035516322,0.09755837997893246,-0.9457793676295827,-0.30981244368500344,0.9876370840746451,0.05362430344575875,0.14730045566966193,-0.12270025532336555,-0.3203526523163877,0.9393182769953095,0.0057628728,-0.15811615,0.09658469,-1.5955786,-0.019698491,-0.29301533,1.0471792,0.0002779615,0.0038940483,0.0015161047,-0.028635305191081428,-0.9995720075000678,0.005985074677714204,0.9915822796598397,-0.029161767726082866,-0.1261513930469474,0.12627193655444208,0.0023223103526828284,0.9919929459998276,left_images/camera_left_98.png,right_images/camera_right_98.png
