jiaqis7/OS_Teleop_Extension/demo_2/teleop_log.csv
Epoch Time (Seconds),Time (Seconds),Frame Number,PSM1_joint_1,PSM1_joint_2,PSM1_joint_3,PSM1_joint_4,PSM1_joint_5,PSM1_joint_6,PSM1_jaw_angle,PSM1_ee_x,PSM1_ee_y,PSM1_ee_z,"PSM1_Orientation_Matrix_[1,1]","PSM1_Orientation_Matrix_[1,2]","PSM1_Orientation_Matrix_[1,3]","PSM1_Orientation_Matrix_[2,1]","PSM1_Orientation_Matrix_[2,2]","PSM1_Orientation_Matrix_[2,3]","PSM1_Orientation_Matrix_[3,1]","PSM1_Orientation_Matrix_[3,2]","PSM1_Orientation_Matrix_[3,3]",PSM2_joint_1,PSM2_joint_2,PSM2_joint_3,PSM2_joint_4,PSM2_joint_5,PSM2_joint_6,PSM2_jaw_angle,PSM2_ee_x,PSM2_ee_y,PSM2_ee_z,"PSM2_Orientation_Matrix_[1,1]","PSM2_Orientation_Matrix_[1,2]","PSM2_Orientation_Matrix_[1,3]","PSM2_Orientation_Matrix_[2,1]","PSM2_Orientation_Matrix_[2,2]","PSM2_Orientation_Matrix_[2,3]","PSM2_Orientation_Matrix_[3,1]","PSM2_Orientation_Matrix_[3,2]","PSM2_Orientation_Matrix_[3,3]",Camera Left,Camera Right
2025-05-15 15:17:08,0.002418041229248047,1,-0.06551398,-0.0006017475,0.114032656,3.9336686e-05,-0.0002164943,0.01256841,9.060974e-12,0.035163384,7.398534e-05,0.0028098603,0.8382426697009768,0.0004874512693764457,0.5452971566805013,-4.986859844878844e-05,0.9999996648002041,-0.0008172592015660088,-0.5452973722710407,0.0006578683300166139,0.8382424130307166,0.00012210457,-0.0019084145,0.1070903,-0.0065430356,0.013058832,-0.028299019,0.82668394,-0.045253236,-3.2462834e-05,0.0047233393,0.8796497035782246,-8.661513547335254e-05,-0.4756221099702578,0.0062250193165333395,0.9999164263815011,0.011330904066173915,0.47558137908169873,-0.012927983225018381,0.8795767272503765,left_images/camera_left_1.png,right_images/camera_right_1.png
2025-05-15 15:17:08,0.05783796310424805,2,-0.06551398,-0.00060174614,0.114032656,3.937091e-05,-0.000216525,0.01256841,5.6825026e-12,0.035163384,7.398534e-05,0.0028098603,0.8382426697009768,0.0004874512693764457,0.5452971566805013,-4.986859844878844e-05,0.9999996648002041,-0.0008172592015660088,-0.5452973722710407,0.0006578683300166139,0.8382424130307166,0.0009786023,-0.0035050963,0.10709581,-0.013565138,0.022519078,-0.039048128,0.8533505,-0.045254674,-3.4150915e-05,0.0047225375,0.8842383075188318,-0.0022106017223182768,-0.46703075782678044,0.012812216515971045,0.9997272619137175,0.019525595879477976,0.4668602174357754,-0.023248979042661037,0.8840254647629185,left_images/camera_left_2.png,right_images/camera_right_2.png
2025-05-15 15:17:08,0.10314655303955078,3,-0.06551398,-0.0006017549,0.114032656,3.9323553e-05,-0.00021645406,0.012568465,1.3931312e-12,0.035163388,7.39754e-05,0.002809864,0.8382428878703698,0.0004870649691360369,0.5452968216507946,-4.971031391362533e-05,0.9999996651876926,-0.0008167945810144844,-0.545297036910735,0.0006575653722060868,0.8382426314284868,0.0016223871,-0.0046906318,0.107100435,-0.018830372,0.029478597,-0.047087472,0.88001704,-0.04525473,-3.501393e-05,0.0047238646,0.8875812672213538,-0.0038498405195838206,-0.46063507552693955,0.017641529091870625,0.9995155865917101,0.02563920068040464,0.4603132308863566,-0.03088318131610068,0.8872192280280903,left_images/camera_left_3.png,right_images/camera_right_3.png
2025-05-15 15:17:09,0.15365099906921387,4,-0.06551398,-0.0006017645,0.114032656,3.930684e-05,-0.00021646908,0.0125684375,8.509769e-12,0.035163384,7.399155e-05,0.002809891,0.8382426697937604,0.0004871475230987817,0.5452971568093121,-4.95187664489949e-05,0.9999996648333283,-0.0008172399420485266,-0.5452973721602925,0.0006580429483315138,0.838242412965699,0.002102607,-0.0055754334,0.1071041,-0.022773704,0.0346159,-0.053087115,0.90668356,-0.045254268,-3.4889817e-05,0.0047258744,0.8900276501295326,-0.005105919789398252,-0.4558779569007549,0.02119869894094052,0.9993192234326288,0.030194450503678548,0.4554134354277591,-0.03653791539089166,0.889529979017444,left_images/camera_left_4.png,right_images/camera_right_4.png
2025-05-15 15:17:09,0.19899225234985352,5,-0.06524426,0.014574755,0.1140467,-0.044991013,-0.105050504,0.012718675,1.13588094e-07,0.03515823,0.00023082586,0.0028994973,0.8372872035274118,0.013014833239374229,0.5466084091239336,0.04381921145696689,0.9949036807270542,-0.09081047727574915,-0.545004601371893,0.09998640003275949,0.8324498208852908,0.0024645817,-0.006259628,0.10710763,-0.025728285,0.03843407,-0.057565924,0.9333501,-0.04525296,-3.2342243e-05,0.0047272267,0.8918256145805122,-0.006068570799236126,-0.4523386404305367,0.023832232320838614,0.9991517522920071,0.03358274250887335,0.45175114596500726,-0.040730189543707905,0.8912137531361578,left_images/camera_left_5.png,right_images/camera_right_5.png
2025-05-15 15:17:09,0.24207758903503418,6,-0.064296626,0.02658952,0.11416557,-0.077863105,-0.17984223,0.018007696,9.480455e-08,0.03517594,0.00019099168,0.0029436597,0.8382774537809677,0.02105999332128387,0.5448370280770249,0.07500519138847649,0.9852998867843709,-0.1534873101187324,-0.5400603038062282,0.16953055708046677,0.8243750714745752,0.0027401145,-0.006777733,0.10711063,-0.027931016,0.04126673,-0.06090603,0.9600166,-0.04525109,-2.9393937e-05,0.004728901,0.8931487621591737,-0.006793568861610866,-0.44971005778796874,0.025776500759039055,0.9990156294661582,0.03610185716767222,0.4490221160056093,-0.04383628068687281,0.8924446872682849,left_images/camera_left_6.png,right_images/camera_right_6.png
2025-05-15 15:17:09,0.28899478912353516,7,-0.063004375,0.035190232,0.114301406,-0.10251152,-0.23462379,0.024439635,1.2494394e-07,0.03522194,0.00017279119,0.0029619206,0.8398496862069789,0.026916920210769933,0.5421512556329703,0.097426161474604,0.9750763806513763,-0.19933437976459784,-0.5340043517035827,0.2202306320705173,0.8162951801030415,0.0029404925,-0.0071849604,0.10711302,-0.029585427,0.043378882,-0.06339011,0.98668313,-0.045250062,-2.4906592e-05,0.00472996,0.8941260371320459,-0.0073542268191750595,-0.44775500563414783,0.027229517935347176,0.9989078904101774,0.03796814229453541,0.4469867817682669,-0.04614045756363507,0.893349805563457,left_images/camera_left_7.png,right_images/camera_right_7.png
2025-05-15 15:17:09,0.3356330394744873,8,-0.06154638,0.041441694,0.114409715,-0.12206041,-0.2738034,0.031162499,2.5126343e-07,0.03530089,0.0001404048,0.0029655634,0.8417380729360195,0.02968207312739283,0.5390695605437357,0.11448104983702698,0.9659685094809467,-0.23194595904945237,-0.5276088568230903,0.2569509938218146,0.8096944367944079,0.0030732127,-0.007567915,0.10712252,-0.030882025,0.04504406,-0.06523656,1.0133488,-0.0452469,-1.4634454e-05,0.0047230134,0.8948523677753046,-0.007820650810189013,-0.44629371192952766,0.028369001122081516,0.9988215497669412,0.03937907434795088,0.4454598070109878,-0.04789936473557029,0.8940196928455562,left_images/camera_left_8.png,right_images/camera_right_8.png
2025-05-15 15:17:09,0.38985180854797363,9,-0.060770966,0.045840655,0.11443156,-0.13951997,-0.29956007,0.041049372,6.446721e-07,0.035379276,8.7711494e-05,0.0030267886,0.8449595686569524,0.02793964239502665,0.5340999005035432,0.12862087620028978,0.9587110378816097,-0.25363323135866134,-0.5191338917278725,0.28300622294713684,0.8064784437495331,0.0031168186,-0.007959708,0.10714665,-0.032007556,0.04641808,-0.06659101,1.0324072,-0.045240756,2.3686152e-06,0.0047007734,0.8953996903229565,-0.00829420520383661,-0.44518602935131535,0.0293727475481922,0.9987489422112747,0.0404696445910997,0.4442934123650988,-0.049312844086469056,0.894523117161921,left_images/camera_left_9.png,right_images/camera_right_9.png
2025-05-15 15:17:09,0.44048237800598145,10,-0.06259377,0.04845518,0.114256814,-0.1541619,-0.3157473,0.05576868,1.2184727e-06,0.035355072,8.907658e-05,0.0033518039,0.8496327619072768,0.02487874287486453,0.5267876403701776,0.13861613857012559,0.9532297404031944,-0.26858635136351705,-0.5088317364529465,0.3012210320741652,0.8064466218011297,0.0031293735,-0.008200902,0.107165396,-0.032791965,0.04739923,-0.067564495,1.0436027,-0.04523766,1.026399e-05,0.004682649,0.8958012401595499,-0.008597293702134965,-0.44437171902542555,0.030065631032194527,0.9986948707891278,0.04128695786956618,0.4434368004115676,-0.050345224207332936,0.8948905868542059,left_images/camera_left_10.png,right_images/camera_right_10.png
2025-05-15 15:17:09,0.4896657466888428,11,-0.06723063,0.049406257,0.11388225,-0.162994,-0.3278785,0.07190743,1.4171092e-06,0.03520675,0.00022714888,0.003984596,0.8543909681755503,0.025948455089515328,0.5189824189493446,0.14221323751110662,0.9489437946644641,-0.2815689429685324,-0.49979142507315505,0.3143761318011825,0.8070787936608607,0.00316455,-0.008306379,0.107176065,-0.034846812,0.047965985,-0.068372265,1.0301423,-0.045233823,1.0148069e-05,0.004673457,0.8960804563266308,-0.010135868697093802,-0.4437759344029513,0.03205005896636115,0.9986072946344844,0.041907813389020596,0.44273311318412817,-0.05177581741075146,0.8951573354565882,left_images/camera_left_11.png,right_images/camera_right_11.png
2025-05-15 15:17:09,0.5407412052154541,12,-0.074052855,0.04904743,0.11334163,-0.16735919,-0.33816636,0.08815921,1.3927853e-06,0.03497037,0.000494523,0.004875182,0.8587656056608082,0.03095378367479036,0.5114327891426594,0.1410379906898654,0.9453309205387573,-0.294036963417036,-0.49257478591193754,0.32464028392909006,0.8074520210726139,0.0031847137,-0.008375296,0.10718505,-0.037908778,0.048285663,-0.0690396,1.029679,-0.04523054,9.864598e-06,0.0046657166,0.8962663525752509,-0.012649435597725009,-0.4433357836003258,0.03505753892577183,0.9984861116887597,0.0423845930631591,0.4421284815592905,-0.05353014612085988,0.8953529635011857,left_images/camera_left_12.png,right_images/camera_right_12.png
2025-05-15 15:17:09,0.6039547920227051,13,-0.08419575,0.04560482,0.11268152,-0.17186296,-0.34458354,0.105638884,1.2742026e-06,0.03450778,0.0010545584,0.0060573677,0.8623120590884766,0.03649154503772084,0.5050606695154071,0.13935462381396116,0.9417863027953817,-0.3059719736980411,-0.4868246106887578,0.33422586226647,0.8070284204536874,0.0032202164,-0.008342641,0.10718612,-0.040182743,0.04839146,-0.06955885,1.0259428,-0.045229055,2.8276409e-06,0.0046656625,0.8964020116961883,-0.01453937976224638,-0.44300343098350375,0.03729317774152077,0.9983919188184674,0.042694207240772976,0.44167029821006315,-0.05479217895017419,0.8955027441638166,left_images/camera_left_13.png,right_images/camera_right_13.png
2025-05-15 15:17:09,0.6605262756347656,14,-0.09690099,0.04073528,0.112207755,-0.16646254,-0.34674525,0.120826855,1.0213928e-06,0.033749662,0.0016877451,0.0072116256,0.8648362466086982,0.048754112198655046,0.49968120146299316,0.12860441881773613,0.9405537760947279,-0.314355686658443,-0.4853031732971996,0.3361274026580841,0.8071550031871194,0.0032131972,-0.008204414,0.107182555,-0.043334097,0.04792051,-0.06927835,1.019829,-0.045226797,-5.6888093e-06,0.004670509,0.8961654947886272,-0.017425128518494364,-0.44337768419978996,0.04046930275437385,0.9982737599914726,0.042564488098206205,0.44187061622700097,-0.05608801127336806,0.8953236808588103,left_images/camera_left_14.png,right_images/camera_right_14.png
2025-05-15 15:17:09,0.7174675464630127,15,-0.109165564,0.03655771,0.11202662,-0.15429914,-0.34463304,0.13372551,8.007228e-07,0.032891724,0.002146565,0.00806651,0.8670176800541727,0.06298223688019117,0.49428087188464787,0.11232008460525222,0.9417445674975075,-0.31701950757516717,-0.4854529236370394,0.3303791873385792,0.8094350199402981,0.0032109914,-0.0081541445,0.107178904,-0.047214963,0.047497805,-0.06915668,1.0142102,-0.04522497,-5.7219295e-06,0.0046753893,0.8959567893978008,-0.020960101576562702,-0.4436463745753872,0.04436859135949101,0.9981130279962436,0.04244774958633347,0.44191951714396943,-0.05771531413818821,0.8951961142013357,left_images/camera_left_15.png,right_images/camera_right_15.png
2025-05-15 15:17:09,0.7771642208099365,16,-0.121501334,0.03289695,0.11213354,-0.14164601,-0.3377984,0.14783876,1.0115937e-06,0.03187175,0.0024505635,0.008670259,0.8695308388226097,0.07432663935471204,0.4882536953456503,0.09582597568585921,0.9444326560281879,-0.314427003629452,-0.4844930368130192,0.32019136295312034,0.8140908968720393,0.0032278665,-0.00817514,0.10716889,-0.05007791,0.047170095,-0.06908898,0.9875437,-0.045225672,8.9782407e-07,0.004686082,0.8957945753650522,-0.02360259392538057,-0.44384118365304903,0.04724800964162526,0.9979876259061147,0.04228858147516797,0.44194988893702747,-0.05885249440992813,0.8951070771534982,left_images/camera_left_16.png,right_images/camera_right_16.png
2025-05-15 15:17:09,0.8333499431610107,17,-0.13372901,0.029869763,0.11247691,-0.13075349,-0.33030543,0.16400795,1.1526987e-06,0.030727606,0.0026621856,0.009087253,0.8726446600032547,0.08339359586998159,0.4811827153334567,0.08070673592656162,0.9471368184617168,-0.31051291420856786,-0.4816406545796196,0.30980212278499863,0.8197834620032441,0.003269414,-0.008311162,0.1071454,-0.058323126,0.046450183,-0.06937285,0.9608754,-0.045229927,2.377102e-05,0.004710363,0.895501227733679,-0.031138527856826297,-0.44396840339193444,0.055510440045636454,0.9975743538834523,0.041999994285150985,0.4415836751663421,-0.06225592788580511,0.8950575720419688,left_images/camera_left_17.png,right_images/camera_right_17.png
2025-05-15 15:17:09,0.8903162479400635,18,-0.1453398,0.027429152,0.1129559,-0.11777001,-0.3227148,0.18099618,1.3498252e-06,0.029570486,0.0027968185,0.009360548,0.8763170063608285,0.09322767067054841,0.47262787241564497,0.06354477417582274,0.9501523110187082,-0.30524194918253195,-0.47752546114080563,0.2975217425452323,0.8267104974990394,0.0032719332,-0.008319202,0.1071404,-0.058323808,0.046450086,-0.069372825,0.9342072,-0.045232255,2.4677865e-05,0.0047148876,0.8954998532624718,-0.031143046704485578,-0.4439708587833817,0.055511503643220564,0.9975746497162823,0.041991561136795925,0.4415863287853916,-0.062248926781100326,0.8950567497898896,left_images/camera_left_18.png,right_images/camera_right_18.png
2025-05-15 15:17:09,0.9526264667510986,19,-0.15690199,0.02488353,0.11348474,-0.10402246,-0.3149121,0.19983076,1.6191925e-06,0.028401181,0.002934705,0.009599832,0.8806207665029897,0.1033327878026545,0.46241691207028557,0.045301474942652506,0.9530977856723217,-0.29925304896447935,-0.47165118675956585,0.2844766175126673,0.8346365748736658,0.0032718515,-0.008318996,0.10714059,-0.058323808,0.046450086,-0.069372825,0.9075389,-0.045232136,2.467414e-05,0.004714709,0.8954998532624718,-0.031143046704485578,-0.4439708587833817,0.055511503643220564,0.9975746497162823,0.041991561136795925,0.4415863287853916,-0.062248926781100326,0.8950567497898896,left_images/camera_left_19.png,right_images/camera_right_19.png
2025-05-15 15:17:09,1.0043935775756836,20,-0.168762,0.02113632,0.11403322,-0.0915564,-0.30807105,0.21944784,1.5822543e-06,0.027193533,0.003225874,0.009876041,0.8847620189687125,0.11370927389993588,0.451958372883562,0.02788257712440325,0.955125621689866,-0.2948857553094902,-0.46520826699802875,0.27350548042168404,0.8418883658157977,0.0032718473,-0.008318996,0.10714059,-0.058323808,0.046450086,-0.069372825,0.8808706,-0.045232136,2.467414e-05,0.004714709,0.8954998532624718,-0.031143046704485578,-0.4439708587833817,0.055511503643220564,0.9975746497162823,0.041991561136795925,0.4415863287853916,-0.062248926781100326,0.8950567497898896,left_images/camera_left_20.png,right_images/camera_right_20.png
2025-05-15 15:17:09,1.054163932800293,21,-0.17908853,0.017391548,0.11457757,-0.07956735,-0.30223006,0.23602858,1.187993e-06,0.026098263,0.0035321608,0.010083242,0.8878987096049207,0.12378514004491287,0.4430723649540538,0.011777276949612885,0.9566871938581714,-0.2908795435492672,-0.45988822253844364,0.2634897573186465,0.8479834730456673,0.0032718473,-0.008318996,0.10714059,-0.058323808,0.046450086,-0.069372825,0.8542023,-0.045232136,2.467414e-05,0.004714709,0.8954998532624718,-0.031143046704485578,-0.4439708587833817,0.055511503643220564,0.9975746497162823,0.041991561136795925,0.4415863287853916,-0.062248926781100326,0.8950567497898896,left_images/camera_left_21.png,right_images/camera_right_21.png
2025-05-15 15:17:09,1.106142520904541,22,-0.18845782,0.0143626565,0.115173325,-0.065628156,-0.29760206,0.25038147,1.078781e-06,0.025042728,0.003770492,0.010203967,0.8901964800197952,0.13520757878333634,0.43505072991539084,-0.005558704524483621,0.9580973443094863,-0.28638886087122734,-0.45554289344075594,0.25252403740368484,0.8536464624005459,0.0032718473,-0.008318996,0.10714059,-0.058323808,0.046450086,-0.069372825,0.82753396,-0.045232136,2.467414e-05,0.004714709,0.8954998532624718,-0.031143046704485578,-0.4439708587833817,0.055511503643220564,0.9975746497162823,0.041991561136795925,0.4415863287853916,-0.062248926781100326,0.8950567497898896,left_images/camera_left_22.png,right_images/camera_right_22.png
2025-05-15 15:17:10,1.1626167297363281,23,-0.19725733,0.011743342,0.115753435,-0.056546826,-0.2936558,0.26376858,8.351211e-07,0.024017023,0.003981517,0.0103321085,0.8920799630263766,0.14303534033835066,0.4286423112353129,-0.017851656427157442,0.9589954952100577,-0.28285854862390686,-0.45152481430112495,0.24468046832779386,0.8580540836621117,0.0032718473,-0.008318996,0.10714059,-0.058323808,0.046450086,-0.069372825,0.80086565,-0.045232136,2.467414e-05,0.004714709,0.8954998532624718,-0.031143046704485578,-0.4439708587833817,0.055511503643220564,0.9975746497162823,0.041991561136795925,0.4415863287853916,-0.062248926781100326,0.8950567497898896,left_images/camera_left_23.png,right_images/camera_right_23.png
2025-05-15 15:17:10,1.2128090858459473,24,-0.20845068,0.0078101647,0.11636401,-0.055755645,-0.2916981,0.27698088,8.2209294e-07,0.022728158,0.004400774,0.010678878,0.8926925105274979,0.14756815939496878,0.4258212300730134,-0.022867783577709494,0.9584855432155124,-0.2842226731299023,-0.45008570975132745,0.24398586389306517,0.8590074226093735,0.0032718473,-0.008318996,0.10714059,-0.058323808,0.046450086,-0.069372825,0.77419734,-0.045232136,2.467414e-05,0.004714709,0.8954998532624718,-0.031143046704485578,-0.4439708587833817,0.055511503643220564,0.9975746497162823,0.041991561136795925,0.4415863287853916,-0.062248926781100326,0.8950567497898896,left_images/camera_left_24.png,right_images/camera_right_24.png
2025-05-15 15:17:10,1.2624826431274414,25,-0.21993436,0.0034731824,0.116982214,-0.05796496,-0.2908479,0.28796408,7.526131e-07,0.02138276,0.0048987656,0.0110897785,0.8921941117945927,0.15105604412419438,0.4256427356511645,-0.024812389373308985,0.957382496063599,-0.2877552806893729,-0.4509700790658344,0.24617235377796168,0.8579190871071543,0.0032718473,-0.008318996,0.10714059,-0.058323808,0.046450086,-0.069372825,0.74752903,-0.045232136,2.467414e-05,0.004714709,0.8954998532624718,-0.031143046704485578,-0.4439708587833817,0.055511503643220564,0.9975746497162823,0.041991561136795925,0.4415863287853916,-0.062248926781100326,0.8950567497898896,left_images/camera_left_25.png,right_images/camera_right_25.png
2025-05-15 15:17:10,1.3102953433990479,26,-0.23215264,-0.00010498208,0.117639735,-0.05676677,-0.2919539,0.2967068,1.1289176e-06,0.019943826,0.0053371117,0.011555036,0.8902518262065455,0.15797444670115746,0.4271952248391523,-0.02978812080256836,0.956110676618429,-0.2914876359561441,-0.45449351347952405,0.24677205726279697,0.8558850378171853,0.0023448323,-0.008018276,0.107136175,-0.16978996,0.0407441,-0.067813925,0.72086203,-0.045234405,3.6749e-05,0.004713076,0.8840928685468716,-0.12951085523789693,-0.4490063898878417,0.16640426688645568,0.9850972255405386,0.04350949545001169,0.4366799969617857,-0.11318301377804828,0.8924685908453994,left_images/camera_left_26.png,right_images/camera_right_26.png
2025-05-15 15:17:10,1.3532135486602783,27,-0.24289091,-0.0029693767,0.11825115,-0.052997187,-0.29413137,0.30322155,1.0862344e-06,0.018659886,0.0057068244,0.011958425,0.8878740892328838,0.1665803152075696,0.4288713096655267,-0.03673702208429573,0.9548457640159819,-0.29482190920810847,-0.4586174799080987,0.24600927934954597,0.8539024778021563,0.0031099028,-0.0069916723,0.10713813,-0.28646338,0.032737937,-0.07876926,0.6941959,-0.04519403,-1.5359721e-05,0.004736797,0.8657659496531751,-0.23101694899293737,-0.4439374839987387,0.27975743270020637,0.9589407069648171,0.04656714909467888,0.4149519240467808,-0.16451106286147174,0.8948469203869808,left_images/camera_left_27.png,right_images/camera_right_27.png
2025-05-15 15:17:10,1.400913953781128,28,-0.25230968,-0.005915806,0.118805885,-0.049384262,-0.29649532,0.3091195,9.3358574e-07,0.017527638,0.006092038,0.012316575,0.8857553408436113,0.17493047470147904,0.4299265113804137,-0.04347182685328538,0.9534555170954822,-0.29838360744220627,-0.462112190314274,0.2456051830497514,0.8521328638317163,0.005727416,-0.005480504,0.10716287,-0.40313378,0.022429625,-0.096950665,0.6675297,-0.045053564,-0.00012958591,0.0047998065,0.8386756406208052,-0.32970745672571705,-0.43349297896129907,0.3889880125759812,0.9197139079256912,0.05305330941837036,0.3811974500196324,-0.21311809061530293,0.8995938992406614,left_images/camera_left_28.png,right_images/camera_right_28.png
2025-05-15 15:17:10,1.4555234909057617,29,-0.26063088,-0.008936185,0.11936934,-0.048912045,-0.2975979,0.31541038,7.790474e-07,0.016473312,0.0064755552,0.01259619,0.8844343454439454,0.18007480948670163,0.4305217202272932,-0.047019134113346045,0.9522420016311204,-0.30170245500623344,-0.46428987672182853,0.24659325481019395,0.8506624930345429,0.009706741,-0.0032956747,0.10722971,-0.51980036,0.00860327,-0.11316631,0.6408632,-0.044790983,-0.00029635473,0.0048878966,0.7995397822528836,-0.4247423338113176,-0.4246529011599084,0.49305511324910495,0.867910375176162,0.060234840088491115,0.34297637220940447,-0.25753743520134903,0.9033502518823954,left_images/camera_left_29.png,right_images/camera_right_29.png
2025-05-15 15:17:10,1.5112972259521484,30,-0.26828557,-0.01221619,0.12002108,-0.05161272,-0.29654518,0.3215014,8.141048e-07,0.015394637,0.0068664653,0.012775015,0.8835528391577021,0.1816418276119124,0.43167189725318955,-0.046957069185683056,0.9514374208393188,-0.30423981968196756,-0.4659714734507413,0.24854190931999667,0.849174602329648,0.014188261,-0.0010598706,0.107331574,-0.63285667,-0.0045357225,-0.12590568,0.61419666,-0.044456076,-0.00050721946,0.0049805418,0.7506939755507832,-0.5106601289701223,-0.4191476920513563,0.5873606963496174,0.8063278416758686,0.06959040251376938,0.30243340995242746,-0.2984319761998603,0.9052471420148165,left_images/camera_left_30.png,right_images/camera_right_30.png
2025-05-15 15:17:10,1.5704405307769775,31,-0.27481458,-0.015486969,0.12070831,-0.055025928,-0.29412514,0.32629913,8.291289e-07,0.014369952,0.0072404416,0.012847216,0.8827444106059964,0.18153553697875685,0.4333672280614979,-0.045434648752227996,0.9510035978485039,-0.3058232325575722,-0.4676515778190357,0.2502738613859538,0.8477411138256364,0.018376317,0.0006810265,0.10743694,-0.7332048,-0.012388483,-0.13230303,0.58753026,-0.04407163,-0.00072754396,0.005094805,0.6982725475804921,-0.5793625864102634,-0.42042174392324144,0.6645295040283374,0.7429849700751094,0.07983653623711842,0.2661127347033612,-0.33513031452033526,0.9038095400681494,left_images/camera_left_31.png,right_images/camera_right_31.png
2025-05-15 15:17:10,1.6263275146484375,32,-0.27972654,-0.018410427,0.121353894,-0.05675126,-0.29180658,0.32856944,8.4123207e-07,0.013498709,0.0075736856,0.01282216,0.8815368220142855,0.1820022475675928,0.435623706096556,-0.04467919619392745,0.950725829378989,-0.30679662119896,-0.4699963838801512,0.250989201425038,0.846231540364458,0.022650726,0.0017945069,0.10750629,-0.8348178,-0.015274188,-0.14087245,0.56086355,-0.04365441,-0.0009781014,0.005275773,0.640153654556369,-0.6404782481337847,-0.4242533585319072,0.735018644412806,0.6712607028872264,0.09569044427166054,0.22349695954013776,-0.3730907160823287,0.9004734458325183,left_images/camera_left_32.png,right_images/camera_right_32.png
2025-05-15 15:17:10,1.6818428039550781,33,-0.28322998,-0.02080963,0.12188283,-0.056938898,-0.29022178,0.32938156,7.2688874e-07,0.012825929,0.007852374,0.012762879,0.8802642081244004,0.18329532892480366,0.437650255671661,-0.045004052323488294,0.9504661618927652,-0.3075527765624959,-0.4723447461013904,0.25103166631161067,0.844910375921156,0.026645651,0.0027052797,0.10755905,-0.9306362,-0.014859472,-0.14866038,0.534197,-0.043218303,-0.0012406937,0.0054891156,0.5805636130269948,-0.6903902767293838,-0.43163312781408136,0.7940653416478863,0.5972960792614522,0.11268374724210689,0.18001701148132596,-0.40816499053253247,0.8949833607843836,left_images/camera_left_33.png,right_images/camera_right_33.png
2025-05-15 15:17:10,1.7270607948303223,34,-0.2856898,-0.022923483,0.12233017,-0.054042414,-0.28893086,0.3300363,5.246049e-07,0.012311494,0.008093098,0.012660947,0.8792701153917052,0.18637742222038772,0.43834634784099763,-0.04821253891287887,0.9503674495754016,-0.3073715371974455,-0.4738772153951187,0.24912881662712125,0.8446154257739664,0.029456226,0.0029191452,0.10759514,-1.0266889,-0.0043453583,-0.15043159,0.50753003,-0.042721257,-0.0014733708,0.0057517104,0.5150274763155003,-0.7294342764581403,-0.4501914425753519,0.8458228609761884,0.51766062783891,0.1288842978623899,0.13903376025319342,-0.44716116861084343,0.8835816333516914,left_images/camera_left_34.png,right_images/camera_right_34.png
2025-05-15 15:17:10,1.771195411682129,35,-0.287636,-0.024736991,0.12273871,-0.04917861,-0.28784865,0.3304922,2.533419e-07,0.01187369,0.008295542,0.012535233,0.8783212225473295,0.19056398683088913,0.4384486252071976,-0.0531972819680856,0.9503829986396132,-0.3064999267340619,-0.4751019671756505,0.24588111521606135,0.8448790433937472,0.030588392,0.0028550986,0.10764336,-1.1085461,0.014067474,-0.14634298,0.4808637,-0.042234093,-0.0016437387,0.0059909755,0.4547618118826089,-0.7528432809372577,-0.4758347284518779,0.8841492436142991,0.4458773502105714,0.13954749580505846,0.1071065332718317,-0.48416978728213234,0.8683938090599594,left_images/camera_left_35.png,right_images/camera_right_35.png
2025-05-15 15:17:10,1.8150746822357178,36,-0.2890384,-0.026431067,0.123141326,-0.043419857,-0.28678986,0.3309067,1.279698e-07,0.011489223,0.008482103,0.012363439,0.8775411787564934,0.19513416787567692,0.43800015538140075,-0.05898642534994045,0.9504426668761944,-0.3052529092501875,-0.4758593082110509,0.2420359343335911,0.8455628452576222,0.030259961,0.0023793199,0.107723914,-1.2012757,0.040179648,-0.14092095,0.45419675,-0.041725,-0.0017466303,0.006217637,0.38355863727284467,-0.7707690799895499,-0.5087217285564489,0.9208824637098125,0.36078081133240547,0.14769121235224952,0.06970121810373475,-0.5251211588827802,0.848168325680971,left_images/camera_left_36.png,right_images/camera_right_36.png
2025-05-15 15:17:10,1.8615474700927734,37,-0.28981593,-0.028281333,0.12357541,-0.032795247,-0.28691232,0.32930806,4.5685375e-08,0.011141781,0.0086979065,0.012112209,0.8757701496245304,0.2036878334713549,0.43765044444439133,-0.06918625481756954,0.950221122977895,-0.3037977610038401,-0.47774460454404505,0.23577761543957815,0.8462676933965283,0.027522337,0.00066397106,0.10779981,-1.3136563,0.083590925,-0.14379364,0.42753026,-0.04118053,-0.001750922,0.0065212087,0.29938724153603885,-0.7771270899327227,-0.5535709220128346,0.9540021777169239,0.2533727223777961,0.16025638354284547,0.015720194553784816,-0.5760865817284435,0.8172374965917981,left_images/camera_left_37.png,right_images/camera_right_37.png
2025-05-15 15:17:10,1.9069945812225342,38,-0.28988945,-0.030261785,0.12398252,-0.022347515,-0.28748164,0.32719845,0.026666874,0.010873492,0.008939014,0.011823149,0.8739885544335435,0.21235385015254088,0.43709249483897256,-0.07923690955659969,0.9497038214316917,-0.3029590132707074,-0.47944292557413365,0.23014885157965412,0.846856532851629,0.02305439,-0.0011092038,0.107912846,-1.4222792,0.1339499,-0.15608522,0.40086412,-0.040691804,-0.001668934,0.006812626,0.22194356996748166,-0.7678341370973789,-0.6009756980594247,0.9740669906461132,0.1467943669428785,0.17217697746058827,-0.04398351377179793,-0.6236041627040048,0.780501953088218,left_images/camera_left_38.png,right_images/camera_right_38.png
2025-05-15 15:17:10,1.9616918563842773,39,-0.28909376,-0.032520317,0.12433086,-0.013180264,-0.28715652,0.3255241,0.05333424,0.01072247,0.009202612,0.011498537,0.8728602121839311,0.21954835933282346,0.43579073865846246,-0.08801253182056208,0.9492541312545617,-0.30194434675728204,-0.4799675449744049,0.2252001603250155,0.8478891693852622,0.015673127,-0.0022011898,0.1080791,-1.5333298,0.19784027,-0.16973345,0.42042473,-0.04026542,-0.0014617546,0.0070979646,0.1441088338423639,-0.7397302975497577,-0.6572912070730452,0.9840565695289918,0.037159849206011175,0.1739304848892775,-0.10423680720084744,-0.6718766497609017,0.7332915215183113,left_images/camera_left_39.png,right_images/camera_right_39.png
2025-05-15 15:17:10,2.010509490966797,40,-0.28716782,-0.034666263,0.124675706,-0.0070912563,-0.28640458,0.32636783,0.08000213,0.010682657,0.009452953,0.011073591,0.8735796996964401,0.22409635067484923,0.43201774719621455,-0.09446222392816411,0.9488741400706239,-0.3011889017805591,-0.4774258021188452,0.22230315319277164,0.8500858259915456,0.00713456,-0.0014779349,0.10829054,-1.6484299,0.26772466,-0.18850219,0.4470907,-0.039898146,-0.0012006809,0.0074069593,0.06768960181974126,-0.6951088472342771,-0.7157107015422635,0.9834378910677629,-0.0744016870327745,0.16527039474409128,-0.16813099719467417,-0.7150441101521718,0.6785601582166558,left_images/camera_left_40.png,right_images/camera_right_40.png
2025-05-15 15:17:10,2.0563066005706787,41,-0.28496408,-0.036199566,0.12499957,-0.0024530902,-0.28601453,0.32762808,0.10666914,0.010679856,0.009636449,0.010639065,0.8747025948435003,0.2274623195763969,0.4279675966086365,-0.09958139789484007,0.9485340027175957,-0.3006106965526108,-0.47431942377195246,0.22032734478829769,0.852336169226193,0.0006232801,0.00069867884,0.108520605,-1.7595154,0.32300186,-0.21560287,0.47375846,-0.039608642,-0.00094850437,0.007665992,0.0010279202750994587,-0.64740535690016,-0.7621451615256012,0.9721014105347158,-0.1781210632083977,0.15261629820542127,-0.23455871549853807,-0.7410392639384815,0.6291605663780824,left_images/camera_left_41.png,right_images/camera_right_41.png
2025-05-15 15:17:10,2.1077253818511963,42,-0.28243342,-0.037084654,0.1252864,0.0018258916,-0.28476393,0.3292175,0.13333622,0.010728018,0.009723438,0.010193105,0.8762270315716268,0.22949587190807616,0.42374265057972105,-0.10399345239592842,0.9486510082440522,-0.2987417386578571,-0.47054388849707895,0.21769912570953404,0.8550997249814513,-0.004386536,0.0034669887,0.10871752,-1.8544986,0.37011984,-0.24097872,0.50042504,-0.039384548,-0.0006766,0.007924807,-0.051943594838915585,-0.5978744091864647,-0.7999050279846641,0.9556724725119958,-0.2622100464783848,0.13392541509591038,-0.2898137129916719,-0.7574906483685055,0.5849922472958439,left_images/camera_left_42.png,right_images/camera_right_42.png
2025-05-15 15:17:11,2.15238881111145,43,-0.2792707,-0.037425842,0.12554581,0.006447003,-0.28256476,0.33100063,0.16000357,0.01084953,0.0097231,0.009700439,0.8781768772430707,0.2306199304518902,0.41907018499766185,-0.1083183242623352,0.949218714576967,-0.2953827559724,-0.4659104129600548,0.2140053260440406,0.8585622909959274,-0.007903079,0.006813765,0.10888037,-1.9351807,0.409676,-0.26263735,0.5270914,-0.039200325,-0.00043831253,0.008177914,-0.09468061306861264,-0.5500963571317179,-0.8297165656893718,0.937512647287688,-0.3295906605406683,0.111534894360453,-0.33482177002785096,-0.7673095818213009,0.5469281378395496,left_images/camera_left_43.png,right_images/camera_right_43.png
2025-05-15 15:17:11,2.2002487182617188,44,-0.2763499,-0.03755584,0.12575924,0.010455466,-0.28069222,0.33274755,0.18667032,0.010981595,0.009701563,0.009263312,0.8800135068526941,0.23149110483061663,0.41471447544198903,-0.11207647982581703,0.9497329623472558,-0.2923117563509198,-0.46153557872246087,0.2107585552602948,0.8617225429092108,-0.009515578,0.010546506,0.10897392,-1.9983495,0.43920416,-0.27588245,0.55375767,-0.039036445,-0.00028047943,0.008431386,-0.12952850783735526,-0.5098682264584538,-0.8504450348526583,0.9209482812740286,-0.3797552231997047,0.08740843020530387,-0.36752772531584765,-0.7718940096286883,0.5187513942376497,left_images/camera_left_44.png,right_images/camera_right_44.png
2025-05-15 15:17:11,2.2458834648132324,45,-0.27372697,-0.037697233,0.12591077,0.013908832,-0.27907738,0.33430368,0.21333694,0.011130211,0.009685551,0.008900324,0.8816387701903191,0.23225687107104773,0.4108160473223853,-0.11532799718024064,0.9501524745663641,-0.289671759310101,-0.4576161404099467,0.20800726168982991,0.8644769789419511,-0.009734646,0.014201546,0.10896158,-2.0484185,0.46082565,-0.28180796,0.5676266,-0.038909335,-0.00016627432,0.008719507,-0.16001799073087095,-0.4768768781642633,-0.8642816009349971,0.9062746923702586,-0.4179921639412624,0.06283894376017374,-0.3912293759569293,-0.7732211804884858,0.4990677122719366,left_images/camera_left_45.png,right_images/camera_right_45.png
2025-05-15 15:17:11,2.293536424636841,46,-0.27123585,-0.037757263,0.12602837,0.014811737,-0.2771641,0.3378894,0.24000391,0.01129848,0.009658405,0.008571798,0.8842887152799191,0.2310930412806737,0.40574557828796914,-0.116631714159817,0.9507155667728734,-0.2872924543872959,-0.4521399244489834,0.20672667309126463,0.8676598246731748,-0.008706042,0.01702199,0.10887635,-2.0970151,0.47394392,-0.2887406,0.56470597,-0.038802043,-2.1266605e-05,0.00902119,-0.18891938947837902,-0.44851919543239566,-0.8735788433838085,0.8897474419753242,-0.45460873567928795,0.04099252300659467,-0.4155225069445496,-0.7695202588449219,0.4849532116088735,left_images/camera_left_46.png,right_images/camera_right_46.png
2025-05-15 15:17:11,2.337636947631836,47,-0.26890045,-0.03766823,0.12615559,0.01744271,-0.27487004,0.34135723,0.26667067,0.011448756,0.009600699,0.008242871,0.8866586992364041,0.23077771854115792,0.400721843294506,-0.1193420055277883,0.9514101901206502,-0.2838593592806024,-0.4467592604356555,0.20386342182825948,0.8711175973744646,-0.006192825,0.018972628,0.10879569,-2.148605,0.47862732,-0.2994571,0.53962076,-0.03864383,0.00015471886,0.009293856,-0.21686667761484119,-0.42284071902892584,-0.8798719057177593,0.8694664275695643,-0.49346364045082525,0.02284221710864459,-0.4438434132323248,-0.7600653668495361,0.47466162963332104,left_images/camera_left_47.png,right_images/camera_right_47.png
2025-05-15 15:17:11,2.381457567214966,48,-0.26669288,-0.037293494,0.1263031,0.023397295,-0.27370924,0.34495568,0.2933378,0.011588631,0.009515358,0.007901713,0.8885826069743532,0.23332157572910942,0.3949455568580912,-0.12545609048961773,0.9517640328798962,-0.2800107052868818,-0.4412275149418077,0.19926431696488361,0.8749925782786935,-0.0012747367,0.020112805,0.108729824,-2.2087672,0.47205794,-0.31155542,0.5137485,-0.038373448,0.00037643217,0.00953608,-0.24948522491363417,-0.3984172613948673,-0.8826215544458493,0.8419866718334579,-0.5394700991557775,0.005518747291944459,-0.47834670167631566,-0.7417787392069616,0.47005184294492486,left_images/camera_left_48.png,right_images/camera_right_48.png
2025-05-15 15:17:11,2.4408020973205566,49,-0.26460096,-0.03682903,0.12646708,0.032105587,-0.27287924,0.34913275,0.32000458,0.011721605,0.009414291,0.0075485706,0.8903067732016805,0.2379373486023751,0.38825206725951017,-0.13435531418869828,0.9519268120657027,-0.27528892825481466,-0.43508907035280436,0.1929278689316299,0.8794750356030763,0.00469583,0.020527128,0.10868805,-2.2664354,0.46111655,-0.32326406,0.4888381,-0.03803247,0.0006006758,0.009764817,-0.2791875464197634,-0.3753056413162763,-0.8838551858309659,0.8124550555787249,-0.5829528266112608,-0.009098604866272064,-0.511831121160763,-0.7206328312962991,0.46767213501468785,left_images/camera_left_49.png,right_images/camera_right_49.png
2025-05-15 15:17:11,2.4871256351470947,50,-0.26248655,-0.03618284,0.12664124,0.045964513,-0.27346906,0.3544231,0.34667182,0.011880834,0.0092940675,0.0071686236,0.8916633544795437,0.24689425414834418,0.37944655690468543,-0.1487204149467675,0.9514236825309251,-0.2695834091656143,-0.42757303523064816,0.18394619753565597,0.8850678482217195,0.01251055,0.020592919,0.10870574,-2.336525,0.44387472,-0.337705,0.4621716,-0.037564557,0.00084830064,0.009973874,-0.31288775909925187,-0.3468199107702604,-0.8842042748704381,0.7724457883718227,-0.6346110002360725,-0.02442094195572414,-0.5526560903785299,-0.6906408819876508,0.4664615931615786,left_images/camera_left_50.png,right_images/camera_right_50.png
2025-05-15 15:17:11,2.534252882003784,51,-0.26059195,-0.035474084,0.12677816,0.061888956,-0.27502647,0.35962668,0.37333846,0.012056559,0.009171362,0.006831104,0.8923501484322627,0.2579146198148828,0.3703933874661686,-0.1651987921792182,0.9503395402036992,-0.2637501040529638,-0.4200244893520452,0.17416890426010673,0.8906428134406,0.021841438,0.02030778,0.108774245,-2.412423,0.42079788,-0.353931,0.4355049,-0.036978938,0.0010587245,0.0101757515,-0.34546465555870143,-0.31505226766930744,-0.8839661986728535,0.7239581035392748,-0.6888278470015313,-0.037428084576310305,-0.5971087305336644,-0.6528845731303979,0.4660503171212458,left_images/camera_left_51.png,right_images/camera_right_51.png
2025-05-15 15:17:11,2.5829379558563232,52,-0.25857717,-0.034722578,0.12686028,0.08208117,-0.2772475,0.36500573,0.40000555,0.012301163,0.009033241,0.006509791,0.8922335648977344,0.27222790464102453,0.3602932605595584,-0.18577398242616794,0.9484946396734478,-0.25660464914778613,-0.41159117230985703,0.16201816702300342,0.8968516156149265,0.031949386,0.019493707,0.10894965,-2.4825711,0.39687824,-0.36655578,0.41499656,-0.036260303,0.0012530163,0.010339285,-0.37357041035945976,-0.28336325378324007,-0.8832612382014959,0.6746174097274811,-0.7365372030397405,-0.049033652025725016,-0.6366604267554632,-0.6141809301368539,0.4663102894637649,left_images/camera_left_52.png,right_images/camera_right_52.png
2025-05-15 15:17:11,2.6288397312164307,53,-0.2566908,-0.033982154,0.12691155,0.10005026,-0.27943474,0.3700611,0.42667216,0.012546135,0.008900106,0.006230889,0.8919461579522101,0.28504148649164984,0.35097493114597467,-0.20407654674784825,0.9464817801937341,-0.250050000657415,-0.403466001519043,0.1514053854389946,0.9023810696586587,0.04122134,0.01811187,0.109215565,-2.538851,0.3773867,-0.37280622,0.41638124,-0.03552015,0.0014760792,0.010432132,-0.3962375199792119,-0.2552582116021803,-0.8819518542246964,0.6322898572872577,-0.7723636583448364,-0.06053028696313795,-0.665736707815021,-0.5816335828318695,0.4674366386899726,left_images/camera_left_53.png,right_images/camera_right_53.png
2025-05-15 15:17:11,2.674485445022583,54,-0.2547596,-0.03313825,0.12695943,0.117820986,-0.28134483,0.3744437,0.45333868,0.012790427,0.008747617,0.0059535895,0.8912328814990472,0.2974643187766981,0.34237250180121076,-0.22177632145100187,0.9443001388609384,-0.24313064593110026,-0.3956250929586836,0.14075591213845004,0.9075618761382089,0.049735714,0.016510366,0.10956695,-2.5882218,0.3622027,-0.37786645,0.41602686,-0.03475882,0.0017196531,0.010471431,-0.41395621938728977,-0.22771028746543104,-0.8813559289032965,0.593921775632736,-0.8013011047491266,-0.07192679582107633,-0.6898530081545197,-0.5532310227294196,0.46694567417411675,left_images/camera_left_54.png,right_images/camera_right_54.png
2025-05-15 15:17:11,2.7237389087677,55,-0.25285196,-0.032253888,0.12700588,0.13566856,-0.283197,0.3774087,0.4800054,0.013021906,0.008589046,0.005684983,0.889763883012249,0.30987731437095417,0.33510637493967455,-0.23905158136461874,0.9418385861394802,-0.23620842302055994,-0.38881174613691905,0.1300620148122793,0.9120906196036281,0.05644033,0.015246706,0.10995486,-2.6204362,0.35673255,-0.37837365,0.42488897,-0.034062896,0.0019701945,0.010472525,-0.4257354605533015,-0.20554843501786138,-0.881191896518106,0.5691992149531475,-0.8178746651830681,-0.0842216465548194,-0.703392899682808,-0.5374298772057544,0.46519625510360546,left_images/camera_left_55.png,right_images/camera_right_55.png
2025-05-15 15:17:11,2.771277666091919,56,-0.2509379,-0.03160163,0.1270113,0.15139101,-0.28401393,0.3822104,0.50667197,0.013287509,0.008443391,0.00544523,0.8891452158973452,0.3203456161845168,0.3268018837739858,-0.25443702496893655,0.9396317867129063,-0.22880975880339596,-0.3803716411245983,0.12029460332896788,0.9169768934046846,0.06187608,0.014768247,0.11031315,-2.6447017,0.35594332,-0.37694782,0.43568808,-0.033462383,0.002159715,0.010465719,-0.4349502699192772,-0.1864723462723759,-0.8809349163092713,0.5508278288200892,-0.8290236948471522,-0.09648013463569655,-0.712325042164386,-0.5272075278840873,0.4632982374754461,left_images/camera_left_56.png,right_images/camera_right_56.png
2025-05-15 15:17:11,2.8195114135742188,57,-0.24927765,-0.031232793,0.12697992,0.1646832,-0.28404695,0.38809294,0.53333867,0.013553241,0.008325116,0.005259689,0.8890928413179902,0.328899847857938,0.3183375717632593,-0.26758217883549973,0.9377287470192194,-0.22150524730446342,-0.37136733443687486,0.11175726863515432,0.921735653981368,0.06704571,0.015433223,0.11064772,-2.6655958,0.3574387,-0.37287742,0.43624216,-0.03289168,0.002246598,0.010471806,-0.44419661927313914,-0.16877010953156707,-0.8798897735256481,0.5346953591411281,-0.8379590517616038,-0.10920393987276092,-0.71888123938468,-0.51898099936269,0.4624591722100987,left_images/camera_left_57.png,right_images/camera_right_57.png
2025-05-15 15:17:11,2.8703813552856445,58,-0.24763091,-0.031030674,0.12691489,0.17720044,-0.2837013,0.39402574,0.56000555,0.013837859,0.008222162,0.0051034605,0.88904741268103,0.33681066992447345,0.3100859084676273,-0.27984959604832066,0.935853860902951,-0.21415357719317232,-0.3623243044521828,0.10361526749503505,0.9262747836064492,0.07171259,0.016362054,0.110945426,-2.6776655,0.35995057,-0.36308002,0.43727374,-0.03237961,0.0022937777,0.010466887,-0.45446163560043895,-0.15683082323585668,-0.8768515921468906,0.5246556983524366,-0.8426413086635949,-0.12121065596729058,-0.7198618061501044,-0.5151307773923699,0.4652303324477477,left_images/camera_left_58.png,right_images/camera_right_58.png
2025-05-15 15:17:11,2.917886734008789,59,-0.2456239,-0.030917054,0.12680663,0.19050835,-0.2823949,0.40192243,0.5866723,0.01419941,0.008102448,0.0049391333,0.8894872980281068,0.3446846041948306,0.30000811701970803,-0.292781362242309,0.9339514838446461,-0.20497243655653197,-0.35084386922133276,0.09448359357812701,0.931655209814429,0.07499288,0.017190646,0.111176975,-2.675215,0.3659978,-0.3512674,0.43168136,-0.031980038,0.0023312275,0.010479238,-0.4607838525768658,-0.15321563042034467,-0.8741871720628929,0.5265862592375492,-0.8400724844783808,-0.130327021006871,-0.714412452849631,-0.5203875396444626,0.4677730815215396,left_images/camera_left_59.png,right_images/camera_right_59.png
2025-05-15 15:17:11,2.9652552604675293,60,-0.24371585,-0.030889697,0.12668222,0.20160991,-0.28131482,0.40947503,0.6133389,0.0145548135,0.008005877,0.004806227,0.8900325457736894,0.35129740505540785,0.2905721952715745,-0.30365483618164646,0.9322098712558493,-0.1969225644679909,-0.3400526546391055,0.08703383901959805,0.9363702808923443,0.07656008,0.017830962,0.11137189,-2.6608639,0.37591338,-0.33733788,0.42904693,-0.031711135,0.0023904527,0.010461769,-0.46463665255727854,-0.15585915929880478,-0.8716769490832235,0.5385234934165877,-0.83116013516385,-0.1384387111786467,-0.7029261896805106,-0.5337422150974008,0.4701212818881513,left_images/camera_left_60.png,right_images/camera_right_60.png
2025-05-15 15:17:11,3.0192110538482666,61,-0.24193399,-0.030975876,0.12655796,0.20976576,-0.28017107,0.41683352,0.64000577,0.014887783,0.007935247,0.004696016,0.8909882587168838,0.3559849388881807,0.28180604342957877,-0.3118066920795908,0.9309278311761728,-0.19013142800707758,-0.3300250136020581,0.08153585975756614,0.9404442535156222,0.076731704,0.018391853,0.11151283,-2.6379077,0.3878788,-0.32172468,0.4198155,-0.031565733,0.0024476757,0.0104313735,-0.46665086385463317,-0.16336219037663977,-0.8692236570751345,0.5571568733324908,-0.817567947249553,-0.14546088865573076,-0.6868865916307344,-0.5521733843508745,0.47253715605485885,left_images/camera_left_61.png,right_images/camera_right_61.png
2025-05-15 15:17:11,3.066178560256958,62,-0.24028988,-0.031101096,0.12643327,0.21635152,-0.27932033,0.42391872,0.6666727,0.015202922,0.007881567,0.0046055084,0.8920238999318515,0.35984416303105093,0.2735060150761815,-0.3185746542066752,0.9298068292990151,-0.18430802990105766,-0.32062992943184104,0.07727508344475753,0.9440471438604844,0.07553565,0.018862009,0.11159569,-2.6064808,0.40169773,-0.30337262,0.4073822,-0.03154634,0.0025052507,0.010388531,-0.4673483561126877,-0.17545741228072845,-0.8664872823732144,0.5818342885601185,-0.7989712804084657,-0.1520320812795684,-0.6656232978904126,-0.5752039547484067,0.4754850531271027,left_images/camera_left_62.png,right_images/camera_right_62.png
2025-05-15 15:17:11,3.1141648292541504,63,-0.2387925,-0.031274498,0.12631534,0.22232555,-0.27859703,0.4296368,0.6933392,0.015487239,0.007842307,0.004530605,0.8926656954581704,0.36342095770809724,0.26659550568362966,-0.3245604995123641,0.9287209798073095,-0.17927025358947718,-0.31274340649878696,0.07350203510298309,0.9469894468932872,0.07345699,0.019277064,0.11163019,-2.567755,0.4161027,-0.28293437,0.40808958,-0.031606928,0.0025411337,0.010351017,-0.4659174037497088,-0.19163666920292605,-0.863826579760046,0.6110055269286652,-0.7758116340402276,-0.1574438139478842,-0.6399947022794445,-0.601158627572324,0.47855520637603016,left_images/camera_left_63.png,right_images/camera_right_63.png
2025-05-15 15:17:12,3.1623005867004395,64,-0.23756692,-0.031425573,0.12620643,0.23031752,-0.27886266,0.43482786,0.72000563,0.015746355,0.007807565,0.004470079,0.8923599591657917,0.3689727740591988,0.25990920584059035,-0.3325023688681039,0.9268726018062114,-0.17421066189554513,-0.30518171304114255,0.06903819250273026,0.949788318522201,0.06952769,0.019517116,0.11160915,-2.5089633,0.43597838,-0.25686434,0.39156264,-0.03178268,0.0025707744,0.010333578,-0.4581913206795254,-0.21626213337908112,-0.8621434934628232,0.6537709210047711,-0.739138400595583,-0.1620432276078731,-0.6021995487398888,-0.6378911462242849,0.48005269405154083,left_images/camera_left_64.png,right_images/camera_right_64.png
2025-05-15 15:17:12,3.2141964435577393,65,-0.23678446,-0.031557806,0.12612955,0.237026,-0.2788926,0.4401578,0.74667203,0.015936777,0.0077727437,0.0044275466,0.8922348964665945,0.37353412936829544,0.253750160047861,-0.3392099316328069,0.9253307754965365,-0.16940949855496562,-0.2980830619289061,0.06507849196199869,0.9523188951580454,0.06540616,0.019912295,0.111572295,-2.4496255,0.45512873,-0.23207676,0.36489654,-0.031966288,0.0025420175,0.010339728,-0.44685633483373,-0.23989506991693607,-0.8618409200360084,0.6945434866000249,-0.7002261654911297,-0.16520491028740614,-0.5638517191961432,-0.6724088582039481,0.47951805614430865,left_images/camera_left_65.png,right_images/camera_right_65.png
2025-05-15 15:17:12,3.27386474609375,66,-0.23718645,-0.031922523,0.12610915,0.24138786,-0.27810282,0.44643602,0.7733392,0.015972655,0.0077637252,0.0044482416,0.8926145523147716,0.3762401610672277,0.2483598240376377,-0.34379693684658685,0.9244615159493221,-0.16484711627318582,-0.2916212050088329,0.06175958815267371,0.9545380170849186,0.061449114,0.019760145,0.111534655,-2.3689396,0.47257054,-0.20039435,0.33823067,-0.03207875,0.0024271607,0.0103832595,-0.4261624166200954,-0.2736618229974979,-0.8622614460209886,0.7452989349096062,-0.6464516433780089,-0.16318630578721421,-0.5127524668718103,-0.7121864077666449,0.47945325977546077,left_images/camera_left_66.png,right_images/camera_right_66.png
2025-05-15 15:17:12,3.335033655166626,67,-0.238674,-0.032313373,0.12616512,0.24745059,-0.27812046,0.45142972,0.80000603,0.015851123,0.007768835,0.004505637,0.8917415855380173,0.38065088246459705,0.24474854504381938,-0.3498975368077673,0.9229272647711054,-0.16055210268938522,-0.286999404804261,0.05753407356557768,0.9562014285813165,0.05749885,0.018937357,0.11149605,-2.2810938,0.48854938,-0.16736738,0.3115648,-0.03217128,0.0022942254,0.010443212,-0.39873960396194297,-0.307824998804739,-0.8638579155990497,0.795627603560602,-0.5845626061935837,-0.1589442540407744,-0.4560520197134158,-0.7506865721131738,0.4780023281996506,left_images/camera_left_67.png,right_images/camera_right_67.png
2025-05-15 15:17:12,3.3827311992645264,68,-0.24052839,-0.03267649,0.1262787,0.2552153,-0.2785233,0.45560187,0.8266726,0.015654314,0.0077714697,0.0045506554,0.8900170585601423,0.38641243248889906,0.24198154369696137,-0.357393987208707,0.9208410676762581,-0.15595276845222097,-0.2830886316668597,0.05231787551938169,0.957665738408827,0.054450866,0.018223317,0.11148055,-2.2151277,0.49931425,-0.14202216,0.28489792,-0.03224909,0.0021716917,0.010462901,-0.3763733121725614,-0.3313691960410282,-0.8651806665658788,0.8297595003024208,-0.5359674894152744,-0.15568565106574478,-0.41211928072116777,-0.7764878017103749,0.4766805977306575,left_images/camera_left_68.png,right_images/camera_right_68.png
2025-05-15 15:17:12,3.4312379360198975,69,-0.24278711,-0.033203002,0.12647611,0.26488683,-0.27988815,0.4588306,0.8533392,0.015364654,0.0078058355,0.004569634,0.8871785192658788,0.39411350506096027,0.2399767073733764,-0.3667408552058647,0.9178843089412682,-0.15162302108282083,-0.2800275344962949,0.0465074244392765,0.9588647659581362,0.05243132,0.01791932,0.11148755,-2.1656308,0.5061192,-0.12228942,0.2583333,-0.03228411,0.0020338774,0.010463329,-0.3588325994559795,-0.3481160271350006,-0.866056809464257,0.8531452249682139,-0.49872744304309763,-0.15301687053926388,-0.37865867305741274,-0.79377967296186,0.4759531910923196,left_images/camera_left_69.png,right_images/camera_right_69.png
2025-05-15 15:17:12,3.4972445964813232,70,-0.24485205,-0.033766136,0.12671845,0.27437827,-0.281376,0.46125537,0.8800057,0.015055817,0.007851107,0.004544026,0.8841517914858823,0.40173539959040055,0.23850425222256694,-0.375824795488433,0.9148380078270074,-0.14774011821840968,-0.2775451903895691,0.040988878382475114,0.9598377879311506,0.051248662,0.01787842,0.11150745,-2.1289356,0.5099012,-0.10709827,0.25516436,-0.03228528,0.0018977195,0.010454195,-0.3455435001376552,-0.3603458293011922,-0.866458638838493,0.8692066217359794,-0.4708907379907459,-0.15080371880314003,-0.35366585676729384,-0.8052408311677735,0.4759282147312651,left_images/camera_left_70.png,right_images/camera_right_70.png
2025-05-15 15:17:12,3.5483245849609375,71,-0.24675009,-0.03435742,0.12701058,0.28281948,-0.28280488,0.46358162,0.90667224,0.014724171,0.007906222,0.004472255,0.8813847529868682,0.4085965521915288,0.23708600705118107,-0.38396345402017307,0.9119976764939755,-0.14433400169914495,-0.2751962630181883,0.0361814262679845,0.9607069903014336,0.048915096,0.017503973,0.11158028,-2.0844786,0.52199054,-0.09051362,0.250426,-0.03228642,0.0018073504,0.01046207,-0.3274077526996778,-0.36837092922887094,-0.8701189700099663,0.8880144241183886,-0.4346108465243891,-0.15014591116990395,-0.32285375331538785,-0.8218371314210694,0.4694136591405863,left_images/camera_left_71.png,right_images/camera_right_71.png
2025-05-15 15:17:12,3.604419708251953,72,-0.24864061,-0.03487852,0.12733825,0.2903403,-0.283568,0.46623263,0.93333864,0.014363029,0.007946522,0.004376446,0.8790527810623728,0.41436986330746406,0.23571980079972377,-0.39104853806812057,0.9095658754939763,-0.14060924226971044,-0.27266691948473243,0.03142506196382132,0.9615951416782826,0.044083167,0.017933102,0.11173354,-2.0323691,0.5519047,-0.064773284,0.24952918,-0.03235002,0.0017475297,0.010503942,-0.3106468206751196,-0.364455282385026,-0.8778786362283177,0.9074555500811623,-0.3885745148431301,-0.15979446498962696,-0.2828833283022086,-0.8462754832535779,0.4514364063880846,left_images/camera_left_72.png,right_images/camera_right_72.png
2025-05-15 15:17:12,3.6695399284362793,73,-0.25066933,-0.035254538,0.12768005,0.29656684,-0.2835358,0.46972162,0.9600049,0.013975163,0.007959641,0.004283728,0.8774119076793964,0.4186999653881728,0.2341766069579653,-0.3967651592859178,0.9077302655639959,-0.13639345056100563,-0.26967712665189586,0.02676011889099452,0.9625789024270774,0.03800093,0.018411972,0.11192473,-1.969686,0.5874434,-0.028277736,0.25410154,-0.032465823,0.0016615546,0.010539423,-0.29471745026682106,-0.35709784701956304,-0.8863536270373221,0.9266204061177638,-0.3334339948890279,-0.1737710966141781,-0.2334871462722824,-0.8725267323734764,0.42916296883502114,left_images/camera_left_73.png,right_images/camera_right_73.png
2025-05-15 15:17:12,3.7263617515563965,74,-0.25276822,-0.035618313,0.12802288,0.3030429,-0.28350943,0.47390726,0.9866711,0.013585048,0.00796728,0.004195256,0.8758197504881314,0.4231626353971761,0.23210589966354542,-0.40273454368294687,0.9057893426090983,-0.13172150219408446,-0.2659786682788598,0.021887229598427108,0.963730406909064,0.032090466,0.017641705,0.112134114,-1.8945605,0.62015265,0.016508117,0.2502188,-0.032564953,0.0015794067,0.0105677815,-0.27621651707811756,-0.3511257246592708,-0.8946592430505236,0.9449534219407028,-0.26910886226201547,-0.18612751170796749,-0.17540657358203543,-0.8968228062078625,0.4061297676970558,left_images/camera_left_74.png,right_images/camera_right_74.png
2025-05-15 15:17:12,3.778637409210205,75,-0.25441775,-0.036120936,0.12833719,0.30893257,-0.28352612,0.47750902,1.0133381,0.013252193,0.007997712,0.0040936954,0.8743131902736394,0.4273246159175601,0.23015237983657882,-0.40818456730151076,0.9039250491214131,-0.12769050312270486,-0.2626057964524195,0.017696841575851316,0.9647409069111923,0.027839929,0.016272591,0.112386696,-1.8357427,0.6431606,0.052746583,0.25085407,-0.032589264,0.0015457347,0.010515213,-0.2626532450236462,-0.34524937390860744,-0.9010084032317697,0.9560446908789976,-0.21927058545456612,-0.19467655071038725,-0.13035268282866552,-0.9125367281211899,0.38766596176249857,left_images/camera_left_75.png,right_images/camera_right_75.png
2025-05-15 15:17:12,3.8365559577941895,76,-0.2555312,-0.036802392,0.12861827,0.31287903,-0.28361055,0.48107263,1.023828,0.01299011,0.008061577,0.0039759204,0.8734365607946376,0.4303644218072024,0.22780482591417528,-0.412137600320646,0.9025279880970042,-0.1248432180917865,-0.25932831058173106,0.015155696754894171,0.9656703020113536,0.0251438,0.0146751525,0.11266463,-1.7948533,0.65502167,0.07998003,0.26063806,-0.03256619,0.0015720539,0.010345734,-0.25511501044582396,-0.34313423451691044,-0.9039774491367143,0.9618998370325136,-0.18512276965951116,-0.20119210638197405,-0.09831090967970496,-0.9208628873269274,0.3772883615775384,left_images/camera_left_76.png,right_images/camera_right_76.png
2025-05-15 15:17:12,3.8862574100494385,77,-0.25630772,-0.037893936,0.12892278,0.31466419,-0.2832255,0.48466966,1.0245295,0.012738081,0.0081846565,0.0038204612,0.87327017744721,0.4319798153419743,0.22537221727274165,-0.4143231683664829,0.901773389197373,-0.12304904180952399,-0.25638937055985206,0.014078127453490477,0.9664710533644171,0.023745451,0.013451162,0.112956814,-1.7753407,0.65969235,0.09354872,0.25445974,-0.032491826,0.0016309798,0.010106217,-0.252206285045569,-0.3426929431502818,-0.9049605165411975,0.9641494282313108,-0.16873158003354188,-0.2048060886317123,-0.08250981653566747,-0.924170547363625,0.3729623701673781,left_images/camera_left_77.png,right_images/camera_right_77.png
2025-05-15 15:17:12,3.9368093013763428,78,-0.25700295,-0.038973268,0.1292256,0.31555662,-0.28285712,0.4878137,1.024576,0.012489204,0.008313699,0.003662819,0.8732854931241074,0.43302244796686623,0.22330250123043244,-0.41573405433309635,0.9012802752865786,-0.12189774996740252,-0.2540426018736833,0.013617082511753344,0.9670971675571786,0.023447394,0.012590771,0.1132787,-1.7744405,0.66035897,0.09548596,0.25384492,-0.03234996,0.0017328728,0.009823946,-0.25369449569036295,-0.34239535995921816,-0.9046571286044286,0.9639193937893491,-0.16743327696709842,-0.20694322902871753,-0.0806133061794746,-0.92451690911657,0.3725184285701285,left_images/camera_left_78.png,right_images/camera_right_78.png
2025-05-15 15:17:12,4.000765562057495,79,-0.25758675,-0.04001634,0.12951413,0.31640694,-0.28237396,0.4905675,1.0245783,0.012256595,0.008437834,0.00350679,0.8732832483274141,0.43394288144952803,0.22151736688124604,-0.41699576846383474,0.9008448094825254,-0.12080214531062028,-0.251974001186582,0.01312268523104837,0.967645026783247,0.024419323,0.012215721,0.11363333,-1.7989393,0.657754,0.07953178,0.27757302,-0.03212129,0.0018839999,0.009512888,-0.2594452283877531,-0.34044869824278934,-0.9037603981872724,0.96072050060117,-0.18643754251231223,-0.20556547002501968,-0.09851037098429877,-0.921594122489266,0.3754463746019875,left_images/camera_left_79.png,right_images/camera_right_79.png
2025-05-15 15:17:12,4.056280851364136,80,-0.2578748,-0.040914606,0.12976001,0.3175228,-0.2822324,0.49286553,1.0245786,0.0120810475,0.008547566,0.00335492,0.8731406630266048,0.43514397516299097,0.21971596084219955,-0.41849287112919387,0.9002707277247619,-0.11990134951688931,-0.2499781978163387,0.0127411805291998,0.9681676316295734,0.026180098,0.0113213025,0.11397934,-1.8280723,0.6525778,0.056906264,0.30424416,-0.031839736,0.0020727105,0.009221344,-0.26300518057859157,-0.3388970031443338,-0.9033145057224596,0.9571836498306462,-0.20902556519828544,-0.20026925273346352,-0.12094517553712097,-0.9173097265118944,0.3793614769068787,left_images/camera_left_80.png,right_images/camera_right_80.png
2025-05-15 15:17:12,4.106110095977783,81,-0.25794867,-0.04168655,0.12996168,0.3189767,-0.28210157,0.49494487,1.0245793,0.011955431,0.008638159,0.0032147327,0.8729289493961951,0.4364837251506408,0.2178921911971025,-0.4201787596764184,0.899629995023598,-0.11880943552861266,-0.24788073588490395,0.012158525093971292,0.9687142566539927,0.02838672,0.009572952,0.11429687,-1.8499984,0.64724463,0.03955697,0.33090913,-0.03152732,0.002324335,0.008995102,-0.2657206309563414,-0.33770718767980124,-0.9029653380244247,0.954210291056488,-0.2256126881362523,-0.19642208479146833,-0.13738728735242,-0.9138122183147552,0.3821936196911323,left_images/camera_left_81.png,right_images/camera_right_81.png
2025-05-15 15:17:13,4.158188343048096,82,-0.25746942,-0.04238105,0.13016418,0.31951934,-0.2814386,0.49740863,1.0245793,0.011879967,0.008714471,0.0030260244,0.8733457796753711,0.436862049143757,0.2154499922050032,-0.4209212758463082,0.8994488605164577,-0.11754585001420545,-0.2451375708926203,0.011970686428253392,0.9694143974602926,0.030708434,0.0071184346,0.11457996,-1.8609178,0.6420059,0.029228097,0.35757488,-0.031208398,0.0026019665,0.008824024,-0.266107358113824,-0.33801806466891715,-0.9027351006331595,0.952936476630239,-0.23336785081262182,-0.1935239461013647,-0.14525476055960118,-0.9117473521566035,0.38421064583141806,left_images/camera_left_82.png,right_images/camera_right_82.png
2025-05-15 15:17:13,4.217748641967773,83,-0.25666898,-0.042981148,0.13037455,0.31939128,-0.28032807,0.5005686,1.0245792,0.011830462,0.008773331,0.002802914,0.8743100504402825,0.436478178227985,0.21229398397008373,-0.42097665108712773,0.8996352069172848,-0.11591011049240343,-0.24157937606214966,0.01197056413348175,0.9703072248807328,0.033405095,0.0045171794,0.114817336,-1.865117,0.6359766,0.02032817,0.3842445,-0.03086851,0.002835784,0.008717645,-0.2623354988811741,-0.33990664020171585,-0.9031298699376225,0.9533636164979882,-0.2360555623506408,-0.18808398714722985,-0.1492578331768289,-0.9103522655709183,0.3859803774873198,left_images/camera_left_83.png,right_images/camera_right_83.png
2025-05-15 15:17:13,4.2704689502716064,84,-0.25581825,-0.043392118,0.13060917,0.31899148,-0.27893817,0.50425464,1.0245792,0.011769569,0.008803605,0.0025562607,0.8755838347686729,0.43563009434458305,0.20875672250999608,-0.4206646588802538,0.9000478718742513,-0.11382035452321915,-0.2374746156138494,0.011842687024542768,0.9713215521664768,0.03620236,0.0029918063,0.1149957,-1.8668927,0.6319624,0.015106852,0.3583371,-0.030538354,0.0029636915,0.00870076,-0.25938062549052887,-0.3404637914068299,-0.903773255778809,0.9538022893181496,-0.2372015127041048,-0.18438176499410458,-0.1516010686360713,-0.9098460579195642,0.38626062040626175,left_images/camera_left_84.png,right_images/camera_right_84.png
2025-05-15 15:17:13,4.3345046043396,85,-0.2552131,-0.043578606,0.13086024,0.31824487,-0.27772152,0.50845194,1.024579,0.011677128,0.00880796,0.0023180582,0.8770265225338492,0.43452599551367266,0.2049674071530293,-0.42010226139256635,0.900581779612546,-0.1116536976671692,-0.23310634642805372,0.01181598293632466,0.9723794597800866,0.038415562,0.0025604025,0.11511005,-1.8592491,0.6325256,0.023332875,0.33166343,-0.030271452,0.0030089177,0.00877091,-0.26053248566857834,-0.3393774887909261,-0.9038505097710111,0.9545457191691108,-0.23094805066509896,-0.188428946581771,-0.14479397061782995,-0.9118584966955978,0.38412079880783245,left_images/camera_left_85.png,right_images/camera_right_85.png
2025-05-15 15:17:13,4.395420789718628,86,-0.2547273,-0.043698486,0.13110729,0.3189572,-0.27673283,0.5116749,1.0245795,0.011572334,0.008802611,0.0020913677,0.8777490081418962,0.43445371240606434,0.20200656049372848,-0.42063760511495496,0.9006280500046632,-0.10923882417873862,-0.22939198736894204,0.010912713749883583,0.9732729467161514,0.04024997,0.003637487,0.11517176,-1.8545485,0.63549227,0.037140824,0.30499056,-0.030071858,0.0029718634,0.008884323,-0.26843341546386024,-0.33603028462405055,-0.902788540732483,0.9532817305614534,-0.2274636422820391,-0.19878187446935164,-0.13855483982945904,-0.913971519936627,0.38139037363909023,left_images/camera_left_86.png,right_images/camera_right_86.png
2025-05-15 15:17:13,4.442396640777588,87,-0.25405768,-0.043787844,0.13133444,0.32246295,-0.27722302,0.5145422,1.024579,0.0115132565,0.008800381,0.0018569613,0.8772558618569364,0.43704660929054,0.1985256007301976,-0.4239518008799437,0.8993903281300056,-0.1065922520488865,-0.22513778751754737,0.009343391988077779,0.9742821345266784,0.041162755,0.004934487,0.115208395,-1.8491786,0.63888884,0.049827628,0.27832538,-0.029962778,0.0028940572,0.008965199,-0.27481993894736845,-0.33325128814614424,-0.9018966571098377,0.9523322544357926,-0.2235381553125224,-0.20759087234441537,-0.13242838939670537,-0.9159553875972399,0.3787986927292442,left_images/camera_left_87.png,right_images/camera_right_87.png
2025-05-15 15:17:13,4.496108293533325,88,-0.2532103,-0.043877363,0.13153338,0.3261471,-0.27737525,0.5170125,1.0245795,0.011486081,0.008791729,0.001627408,0.876719361508516,0.4395467183845382,0.19535056568508694,-0.4271962065495045,0.8981884745163622,-0.10373459093129536,-0.22105782561541001,0.007493103719663392,0.9752319165874511,0.041420728,0.0061777136,0.11524083,-1.8456222,0.64165795,0.05982115,0.25614727,-0.02991857,0.0028141644,0.008994268,-0.28035096023501666,-0.33127776128708375,-0.9009208533339219,0.9513177627291979,-0.221096805292392,-0.21473406112075427,-0.12805410345325852,-0.9172629108200747,0.37713512037818236,left_images/camera_left_88.png,right_images/camera_right_88.png
2025-05-15 15:17:13,4.545913457870483,89,-0.25225616,-0.04412942,0.13167073,0.32979265,-0.27750838,0.5188047,1.0245802,0.011508115,0.008804723,0.0014345413,0.8760225114492791,0.44211186646797856,0.19266981331360097,-0.4303908839262655,0.8969410893354117,-0.10129348100925756,-0.21759652218559325,0.005812038369220382,0.976021502705104,0.041382838,0.0074521303,0.115270354,-1.8409572,0.64383274,0.068467304,0.25303066,-0.029899942,0.0027048192,0.008999482,-0.28378797702555936,-0.3303039033068744,-0.9002020415195598,0.9508913366489007,-0.217923415791024,-0.219806848701398,-0.12357204369034036,-0.9183728634439365,0.37592716542965765,left_images/camera_left_89.png,right_images/camera_right_89.png
2025-05-15 15:17:13,4.594249963760376,90,-0.25141633,-0.04447715,0.13178496,0.33247316,-0.27750728,0.52034056,1.024581,0.011530827,0.008833883,0.001271869,0.8755423931540469,0.4440398913735417,0.1904050751924896,-0.4327841376904451,0.8959948361289274,-0.09945422964275741,-0.2147636094724201,0.004672097951645998,0.9766548845662464,0.04116234,0.008493011,0.11529889,-1.8318802,0.64521015,0.07817599,0.25748998,-0.029893752,0.0025818408,0.008988064,-0.2847541062933714,-0.33094004308163594,-0.899663151870848,0.9515329702455385,-0.211337251875755,-0.22343135971771483,-0.11618995431949602,-0.9196821482744615,0.3750795124510332,left_images/camera_left_90.png,right_images/camera_right_90.png
2025-05-15 15:17:13,4.648937225341797,91,-0.25062957,-0.04496979,0.13184611,0.33437294,-0.27724695,0.5217309,1.0245807,0.0115817515,0.008881016,0.0011546966,0.875275751016439,0.4454040428972575,0.1884345994062311,-0.43450256730424347,0.8953211091515385,-0.09801852127878777,-0.21236732019929563,0.003917917614857672,0.9771820563400317,0.04096783,0.009492794,0.11533247,-1.8231316,0.64609915,0.086555965,0.253325,-0.029883243,0.0024528047,0.008967372,-0.28478529330408486,-0.33187913255083024,-0.8993072767942084,0.9523247425847646,-0.20504954798502495,-0.22590322603273938,-0.1094299839101166,-0.9207664873617227,0.3744518051405097,left_images/camera_left_91.png,right_images/camera_right_91.png
2025-05-15 15:17:13,4.69738507270813,92,-0.24983522,-0.045332715,0.13196403,0.33638296,-0.2769768,0.52293724,1.0245804,0.011591844,0.008913646,0.0009958511,0.8749751776200189,0.44675162050982986,0.18663179825704262,-0.4362192306618905,0.8946529751924418,-0.09648231330176799,-0.21007432339428073,0.0030072497656724664,0.9776807940730359,0.040815134,0.01043611,0.11537666,-1.8166656,0.64671934,0.09287788,0.2616604,-0.029866144,0.002334756,0.008934343,-0.28481378673756197,-0.3325990359531307,-0.8990322509049709,0.9528640100284337,-0.20052646816137576,-0.22768248496372706,-0.10455278703479681,-0.9215025864585367,0.3740343538680419,left_images/camera_left_92.png,right_images/camera_right_92.png
2025-05-15 15:17:13,4.759985685348511,93,-0.24855605,-0.045645133,0.13205028,0.3386139,-0.27618647,0.5235989,1.02458,0.011663797,0.008930822,0.0008168146,0.8747285343105844,0.4478979219273763,0.18503362612237492,-0.43779410656794127,0.894082976818454,-0.09461474947295564,-0.20781316492762195,0.001755590097370023,0.9781669624282836,0.04056422,0.0109571805,0.11542067,-1.8103739,0.6466817,0.09684119,0.2548701,-0.029857326,0.0022434534,0.008886626,-0.28306186071745465,-0.33391221685923494,-0.8990987790222625,0.9538504941860215,-0.1959707516120811,-0.22751856903048173,-0.1002258337368882,-0.9220076441899747,0.3739741786634452,left_images/camera_left_93.png,right_images/camera_right_93.png
2025-05-15 15:17:13,4.822278022766113,94,-0.24655603,-0.04590239,0.13216121,0.3412969,-0.27509508,0.523601,1.0245805,0.011783605,0.008937405,0.00055646617,0.8744397326957409,0.44912294503313965,0.1834222836183234,-0.43949260544714996,0.8934699221768747,-0.09250809652416989,-0.2054298022203132,0.0002800178723038685,0.9786718131987424,0.04034021,0.011163139,0.1154624,-1.8060033,0.64623517,0.09800219,0.2540775,-0.029848518,0.0021822152,0.008835269,-0.28047916548606566,-0.33522494586336343,-0.8994196314285926,0.9548813210234439,-0.19276294798493054,-0.22592943288708933,-0.0976375977211803,-0.9222075046078644,0.37416602993346804,left_images/camera_left_94.png,right_images/camera_right_94.png
2025-05-15 15:17:13,4.884200096130371,95,-0.24429426,-0.04609503,0.13228737,0.34277746,-0.27422038,0.5235988,1.0245796,0.011918241,0.008946578,0.00026466697,0.8745576802831375,0.4496708588854262,0.18150752746655047,-0.4403297119699687,0.8931943157458693,-0.09117926889218189,-0.20312215195350275,-0.00018162739746830497,0.9791533885950998,0.040166788,0.011005957,0.115497425,-1.799164,0.6455374,0.10078437,0.26191568,-0.029837772,0.002149879,0.008792608,-0.2775255478700428,-0.33704190361509206,-0.8996567820491033,0.9562175503505508,-0.18744377399754206,-0.2247505906358212,-0.09288469562325463,-0.9226416350875748,0.37430581951380604,left_images/camera_left_95.png,right_images/camera_right_95.png
2025-05-15 15:17:13,4.944271802902222,96,-0.24205643,-0.046142176,0.13230292,0.34189853,-0.27313527,0.52359575,1.0245783,0.012121163,0.008942071,5.8744103e-05,0.875525135280573,0.44849056709685214,0.17975524670250556,-0.4391903519438955,0.8937873597536443,-0.09086248017750322,-0.2014139326147323,0.0006056151863017001,0.9795060290671591,0.040009357,0.010794149,0.11552462,-1.7942379,0.6448382,0.10196336,0.25474948,-0.02983124,0.0021299762,0.008755649,-0.27469691599213375,-0.33853405971349815,-0.8999646075031552,0.9573415519420204,-0.18356913582287812,-0.22315807244750407,-0.08965911704703744,-0.9228743483200404,0.3745185975932387,left_images/camera_left_96.png,right_images/camera_right_96.png
2025-05-15 15:17:13,5.006282806396484,97,-0.24029632,-0.046085354,0.13218127,0.33877793,-0.27176997,0.52359086,1.024574,0.012364748,0.008926513,-1.6828999e-06,0.8772138234404143,0.4456305750867828,0.17863173993686773,-0.43614783598211987,0.8952139180397924,-0.0914718870252367,-0.2006762894144781,0.0023305569435318335,0.979654834812328,0.039829828,0.010664105,0.115548745,-1.7912681,0.64476144,0.10156178,0.25437814,-0.02982615,0.002109447,0.008727392,-0.2720081521823016,-0.33918671018502067,-0.9005353634256862,0.9582501800637856,-0.18118593292966167,-0.22119731037273194,-0.08813715195133298,-0.9231056458186523,0.3743097769276628,left_images/camera_left_97.png,right_images/camera_right_97.png
2025-05-15 15:17:13,5.068537473678589,98,-0.23885143,-0.04596365,0.13200472,0.33598563,-0.27049723,0.5235905,1.024574,0.012615617,0.008899202,4.2719766e-06,0.8787243961173475,0.44299020188340626,0.1777726545436667,-0.43336600815857956,0.8965187100049767,-0.09191357671046463,-0.2000933248284431,0.003726076530545519,0.9797697575006016,0.03971213,0.01060223,0.11556646,-1.7890061,0.6446998,0.10128991,0.2619012,-0.029821113,0.0020899125,0.008707818,-0.2699679772308424,-0.3396686265863434,-0.900967544022999,0.9589308975199995,-0.17939143369702976,-0.2197049095892319,-0.08699899454232646,-0.9232789056558541,0.37414868343955565,left_images/camera_left_98.png,right_images/camera_right_98.png
2025-05-15 15:17:14,5.1312384605407715,99,-0.23775704,-0.04580024,0.13192111,0.33375782,-0.26937214,0.5235844,1.0245686,0.0127692185,0.008869631,-2.7201138e-05,0.8799556635766916,0.44077207291822296,0.17719483591424642,-0.43106227424978305,0.8976068340910796,-0.09212647345683957,-0.1996580723584919,0.004685203129181539,0.9798544295015098,0.039632414,0.010548374,0.11557872,-1.7873324,0.6446478,0.10108737,0.2592085,-0.029817171,0.0020761956,0.008694118,-0.26845939276302616,-0.3400220713169349,-0.90128494132247,0.9594307330084724,-0.17805948951271627,-0.21860349208852103,-0.08615232438032333,-0.9234066326444769,0.37402936755294414,left_images/camera_left_99.png,right_images/camera_right_99.png
2025-05-15 15:17:14,5.200055122375488,100,-0.2368419,-0.04551317,0.13200782,0.3316982,-0.26862863,0.5235955,1.0245771,0.012789936,0.008835936,-0.00016708858,0.8810483653829208,0.43880958975412504,0.17663499595465207,-0.429001529830312,0.8985622456202649,-0.09243147812903754,-0.19927735761830892,0.005659919229399006,0.9799267830072722,0.039572876,0.010526872,0.115586914,-1.7860565,0.644622,0.10092345,0.25371268,-0.029814538,0.0020636276,0.008685265,-0.2672910508093884,-0.34027774423606943,-0.9015356625973401,0.9598127692920535,-0.17705357641383077,-0.21774177133244593,-0.08552743455250095,-0.9235058677976464,0.3739277605128881,left_images/camera_left_100.png,right_images/camera_right_100.png
2025-05-15 15:17:14,5.250218629837036,101,-0.23625539,-0.045279853,0.13196096,0.32991558,-0.2678814,0.5235898,1.0245721,0.012870612,0.008801874,-0.00018227566,0.8819650966580919,0.437057542668779,0.17640372068981855,-0.4271752037265664,0.8994111741180758,-0.09263306749056277,-0.1991454583917233,0.0063438369992521795,0.9799494079461846,0.03953755,0.010262796,0.11559773,-1.7853813,0.6445129,0.10066063,0.2538636,-0.029810378,0.0020838184,0.008673579,-0.266640183736667,-0.3404803748075601,-0.9016518878080273,0.9600363955754824,-0.1763813322261424,-0.21730104650591747,-0.08504781941538636,-0.9235598194015557,0.37390390262693596,left_images/camera_left_101.png,right_images/camera_right_101.png
2025-05-15 15:17:14,5.306265115737915,102,-0.2359109,-0.045116164,0.13193482,0.32836896,-0.26709825,0.52358663,1.0245688,0.012913429,0.008776067,-0.00019112788,0.8827434375596452,0.4354805549624822,0.17641062806687535,-0.425546607362345,0.9001725375842105,-0.0927334219232824,-0.19918360476650454,0.006788875368708001,0.9799386729604304,0.039681006,0.009939354,0.11561268,-1.7848669,0.6442566,0.10037784,0.2626564,-0.029789265,0.002112108,0.008668575,-0.26611265390807015,-0.3406260651392648,-0.9017527040035671,0.9602185348071799,-0.17581649589904802,-0.21695373972930931,-0.08464290190415585,-0.923613795651365,0.37386245550967284,left_images/camera_left_102.png,right_images/camera_right_102.png
2025-05-15 15:17:14,5.373451232910156,103,-0.23574638,-0.04496426,0.13185607,0.32718968,-0.2659878,0.5235905,0.9978848,0.012972594,0.008741973,-0.00014702696,0.8834361223745104,0.4339555209370688,0.1767009437782556,-0.4240605770263143,0.9009095098792265,-0.09238334276957823,-0.1992818222919451,0.006682877928650063,0.9799194326303527,0.040059112,0.009799937,0.11563492,-1.7842407,0.64386433,0.10020398,0.25428402,-0.029743355,0.0021185302,0.008671081,-0.2654730066954045,-0.34071384581542624,-0.9019080651517448,0.9604222690456692,-0.17529074315656046,-0.216476835908116,-0.08433947970713568,-0.923681346912063,0.37376412552497185,left_images/camera_left_103.png,right_images/camera_right_103.png
2025-05-15 15:17:14,5.4368908405303955,104,-0.23560584,-0.044863947,0.13177383,0.32612365,-0.26445785,0.52359504,0.9712086,0.013029396,0.008707694,-9.837095e-05,0.8841620682989375,0.4322852520461992,0.17716347773934402,-0.42249604106858135,0.9017155018722408,-0.09168559845836463,-0.19938538628174493,0.006214060399358963,0.9799014507544279,0.040455114,0.009786302,0.11568439,-1.7844498,0.64402014,0.09948777,0.25431314,-0.029678568,0.002115814,0.008660054,-0.2649750392185979,-0.3401731442972706,-0.9022585330657786,0.9605172686915888,-0.17542712201093824,-0.2159442090175367,-0.08482219719125811,-0.9238547270874722,0.3732259879774982,left_images/camera_left_104.png,right_images/camera_right_104.png
2025-05-15 15:17:14,5.493368864059448,105,-0.2354989,-0.044852972,0.131693,0.32630152,-0.2617944,0.5235983,0.9445386,0.013076384,0.00866011,-4.9592927e-05,0.8847058241768826,0.43080692845603935,0.17804773253758757,-0.42142851868722336,0.9024346034262937,-0.08949743111352948,-0.19923254830623424,0.004144506376074407,0.9799434752894185,0.04076395,0.009591502,0.115757465,-1.785008,0.644013,0.098681144,0.26234302,-0.029611038,0.002136247,0.008619884,-0.26477446473716404,-0.3397988138797076,-0.9024584471924966,0.9605274712311112,-0.1757476928494144,-0.21563794997280727,-0.08533147035833472,-0.9239315529540334,0.3729195967262018,left_images/camera_left_105.png,right_images/camera_right_105.png
2025-05-15 15:17:14,5.550645351409912,106,-0.23545857,-0.04489911,0.1316282,0.32634604,-0.25932416,0.5236063,0.91787404,0.013107128,0.008624828,-6.2063336e-06,0.8852191392269799,0.4293898609522217,0.17891736320904333,-0.4203704123081056,0.903116269559163,-0.08757693825120172,-0.19918783095901782,0.0023132161535985157,0.9799585996504488,0.04093907,0.009020602,0.115830876,-1.7861388,0.64323175,0.09458399,0.25735086,-0.02955425,0.00217382,0.008559181,-0.26224734882114137,-0.34014643453425436,-0.903065186523053,0.9610753104895569,-0.17638382020255822,-0.21265699033455993,-0.08695157044978596,-0.9236823864534744,0.37316252940499006,left_images/camera_left_106.png,right_images/camera_right_106.png
2025-05-15 15:17:14,5.603183031082153,107,-0.2356435,-0.04492538,0.13158435,0.3270344,-0.2582036,0.5236245,0.8912169,0.01311198,0.008604921,4.0329993e-05,0.8852027482621164,0.42918683183722794,0.17948470087090812,-0.42041363473151705,0.9032152128600676,-0.08634034393015622,-0.1991694509733632,0.0009708942610330631,0.9799645846474776,0.041087594,0.008489285,0.11589607,-1.7872279,0.64238435,0.09086718,0.25458437,-0.029505558,0.0022100103,0.008502264,-0.260008590955301,-0.3405876674600207,-0.9035461102808098,0.9615484011091338,-0.17702029291067395,-0.20997258921651502,-0.0884319227084151,-0.9233979947303121,0.3735183240138713,left_images/camera_left_107.png,right_images/camera_right_107.png
2025-05-15 15:17:14,5.653318405151367,108,-0.23588936,-0.044942096,0.13157177,0.32788187,-0.2578128,0.52362275,0.86455727,0.01309474,0.00859563,6.917771e-05,0.8849667267677965,0.429517997324834,0.17985600487044076,-0.4209042133000488,0.9030582973002182,-0.08558828718637682,-0.1991821672242753,4.063612370742986e-05,0.9799624802044955,0.04133212,0.008173523,0.11594796,-1.788024,0.64145595,0.08756815,0.2591702,-0.029455652,0.0022217403,0.008461805,-0.25778684089642134,-0.3410763388632209,-0.9039982719719681,0.9620193890251674,-0.17756770487443288,-0.20733645440507975,-0.08980333958315007,-0.9231124748660304,0.3738966688089449,left_images/camera_left_108.png,right_images/camera_right_108.png
2025-05-15 15:17:14,5.721328258514404,109,-0.23616071,-0.04489233,0.13156436,0.32820338,-0.25790113,0.523624,0.8378985,0.013073529,0.008588259,9.7193755e-05,0.8848073806964777,0.42975019703126516,0.1800851665646765,-0.4211712702064502,0.902947787211159,-0.0854403576956288,-0.19932551321324588,-0.0002484392489454923,0.9799333028631162,0.04169537,0.007985504,0.11599058,-1.78867,0.6404046,0.084630415,0.25532237,-0.029401202,0.002220106,0.008435423,-0.2556889245649355,-0.3416008426721277,-0.9043959520810113,0.9624581093771873,-0.1780897403285188,-0.20483757488266335,-0.09109095206943796,-0.9228179174005091,0.3743120753805177,left_images/camera_left_109.png,right_images/camera_right_109.png
2025-05-15 15:17:14,5.774389266967773,110,-0.23648112,-0.044840958,0.13156226,0.32840702,-0.25741085,0.52362376,0.81123924,0.01303963,0.008572681,0.00012597628,0.8847997511310636,0.42955770238936897,0.18058123024382733,-0.42108434882534185,0.9030389466029191,-0.08490366359956511,-0.19954290659591412,-0.0009171893242904058,0.979888660609458,0.042164687,0.007841724,0.116032176,-1.7891644,0.63941616,0.08259607,0.25445023,-0.029338593,0.0022200632,0.008417803,-0.2542545499987131,-0.3419954992429402,-0.9046511495059982,0.9627483796339016,-0.17851307361389787,-0.20309761215045347,-0.09203358798421823,-0.9225899203039729,0.37464337393881664,left_images/camera_left_110.png,right_images/camera_right_110.png
2025-05-15 15:17:14,5.823119163513184,111,-0.23672417,-0.044792943,0.13155684,0.3281368,-0.2565049,0.5236227,0.7845792,0.013011556,0.00855338,0.00015111454,0.8850440117120152,0.42880826998566535,0.18116446926647306,-0.42044277779710304,0.9033941771568695,-0.08430202415908171,-0.199812331778992,-0.001558291039336926,0.9798329468833341,0.04263571,0.007725789,0.11607502,-1.7895678,0.638556,0.08110551,0.25922996,-0.02927567,0.002221246,0.008401204,-0.25322636008523103,-0.34228541980272287,-0.9048298745888416,0.9629496137908268,-0.17886604203881498,-0.2018290868667511,-0.09276018465959734,-0.9224140233083205,0.37489720957360406,left_images/camera_left_111.png,right_images/camera_right_111.png
2025-05-15 15:17:14,5.879148483276367,112,-0.23691092,-0.044799335,0.13154927,0.32744372,-0.2546764,0.5236116,0.7579191,0.012983508,0.008529808,0.00017440692,0.8856107321445221,0.4272618370737365,0.1820465701155049,-0.41907919800804655,0.9041243162193959,-0.08325771206166074,-0.2001655737317885,-0.0025580072685162172,0.9797587456570307,0.043093566,0.007677216,0.116121136,-1.7899204,0.63779557,0.080087386,0.25522363,-0.029212099,0.0022185317,0.008382036,-0.25255293944370893,-0.34250932876559437,-0.9049333525110477,0.9630701058557763,-0.17920712893559695,-0.20094968560712817,-0.09334336604861465,-0.9222646933756067,0.37511978269282475,left_images/camera_left_112.png,right_images/camera_right_112.png
2025-05-15 15:17:14,5.942439317703247,113,-0.23707838,-0.044819944,0.13153462,0.32642946,-0.2529203,0.5236262,0.7312609,0.012962526,0.008510308,0.00020178594,0.8862645701675383,0.42555475582891233,0.18286131755279253,-0.41750529467853625,0.9049267368856073,-0.08244349449747529,-0.2005603165662068,-0.0032788200562692757,0.9796758692332385,0.04353266,0.0076697245,0.11617389,-1.7903011,0.6370994,0.07941651,0.25948712,-0.029147416,0.0022147433,0.008356915,-0.2521993113579706,-0.34269075909586766,-0.9049632870900693,0.963114003318218,-0.17958749422555156,-0.20039897337597073,-0.09384521278638003,-0.9221232973675946,0.3753421112651678,left_images/camera_left_113.png,right_images/camera_right_113.png
2025-05-15 15:17:14,6.004225969314575,114,-0.2372116,-0.04486683,0.13152835,0.324737,-0.2512723,0.52362525,0.7045988,0.012939035,0.008500361,0.00022155605,0.8870990912700797,0.4234833573906822,0.18362202558765683,-0.4154614541839877,0.9058973164540549,-0.08210866049734206,-0.20111435143998224,-0.0034493556582616755,0.9795616976946464,0.043903235,0.0076310975,0.116242535,-1.7910119,0.6362615,0.07823582,0.2544859,-0.02908097,0.0022127605,0.008310911,-0.2516708815985842,-0.3430149617412507,-0.904987570841191,0.963172846720385,-0.18022575392806015,-0.1995413364734538,-0.09465640335413761,-0.9218781989193099,0.37574027154584866,left_images/camera_left_114.png,right_images/camera_right_114.png
2025-05-15 15:17:14,6.067836046218872,115,-0.23724735,-0.044946052,0.1315151,0.32217777,-0.24894747,0.52361274,0.6779379,0.01292377,0.008488939,0.00024002697,0.8883471183102308,0.42045173223630844,0.18455280612712466,-0.412444333403106,0.9073081437439798,-0.08174107987738391,-0.20181444257925663,-0.003503306344134198,0.9794175093447548,0.044128776,0.0076205074,0.11632599,-1.791891,0.63559383,0.07739134,0.25470388,-0.02902006,0.0022127777,0.008244555,-0.25158691888917195,-0.3432937323579641,-0.9049052080563973,0.9631186409930483,-0.1809922206447774,-0.19910876283523016,-0.09542801274026885,-0.9216242343763594,0.3761678681049624,left_images/camera_left_115.png,right_images/camera_right_115.png
2025-05-15 15:17:15,6.1283652782440186,116,-0.23723328,-0.045059733,0.13148837,0.3206779,-0.2466407,0.5236323,0.65127826,0.012925459,0.008475421,0.0002616085,0.8892649501246228,0.41814355607457254,0.18537479600302414,-0.41027874740305514,0.9083713435603018,-0.08082605785161256,-0.20218604776104632,-0.004179558800033484,0.9793382119467232,0.0442142,0.007645582,0.11641653,-1.7929068,0.6350791,0.0768552,0.25471836,-0.028967991,0.002213297,0.008164227,-0.2518924998436694,-0.3435435979578434,-0.9047253532562721,0.9629660658369996,-0.18186813798466445,-0.1990485780717915,-0.09615885070506003,-0.9213586580090136,0.3766320468878229,left_images/camera_left_116.png,right_images/camera_right_116.png
2025-05-15 15:17:15,6.189739227294922,117,-0.23719785,-0.0453099,0.13147189,0.3198841,-0.24390115,0.52362406,0.6246147,0.012920745,0.008469533,0.0002738554,0.8900135626191784,0.41611946392779653,0.1863342429462736,-0.4085286715974248,0.9092931118228975,-0.07931179782525985,-0.20243562640197782,-0.005534305003761432,0.9792799337428313,0.044185348,0.0077401795,0.11650452,-1.7940124,0.63468915,0.07673176,0.26027715,-0.028928207,0.0022107991,0.008079398,-0.2526227490459693,-0.3437764733391222,-0.904433238577051,0.9627087089353259,-0.18284100679756615,-0.19940187555118488,-0.09681781036841847,-0.9210792053953711,0.3771464025861797,left_images/camera_left_117.png,right_images/camera_right_117.png
2025-05-15 15:17:15,6.254441022872925,118,-0.2371103,-0.045524277,0.1314478,0.31936312,-0.24160692,0.52361196,0.59795177,0.012930065,0.008463994,0.00028632674,0.890603900045678,0.414519240099162,0.18707884116340173,-0.407175966818015,0.9100156342515775,-0.07796972145335634,-0.20256461998395175,-0.006733870010067651,0.9792457453190413,0.044072744,0.0078114057,0.11658722,-1.7952114,0.6342253,0.07595784,0.25481278,-0.028898096,0.002205931,0.00799235,-0.2528584988424202,-0.34413749363224444,-0.9042300398901127,0.962555107594164,-0.1838829044529813,-0.19918519597179718,-0.09772535191824738,-0.9207369129813645,0.377747657393136,left_images/camera_left_118.png,right_images/camera_right_118.png
2025-05-15 15:17:15,6.302135229110718,119,-0.23696695,-0.04571085,0.13140921,0.31935653,-0.23962876,0.52363294,0.5712896,0.012958274,0.008456074,0.00030310825,0.8909958068090358,0.41343123431604223,0.1876195265440913,-0.40635947658789306,0.9104999848071211,-0.07656208887854102,-0.20248073497478414,-0.008024472452804493,0.9792533685445893,0.04390656,0.0078505445,0.116665535,-1.7963419,0.63389224,0.07536064,0.25441682,-0.028875034,0.002206279,0.007907399,-0.25322445335045246,-0.3444336214037929,-0.9040148542319609,0.9623798802456409,-0.18483587368188242,-0.1991498578925967,-0.09850046864736617,-0.9204353210557079,0.37828095039180254,left_images/camera_left_119.png,right_images/camera_right_119.png
2025-05-15 15:17:15,6.352007865905762,120,-0.2367809,-0.045932923,0.13137801,0.31867984,-0.2381742,0.52362347,0.5446252,0.01298819,0.008465191,0.00031232368,0.8914748123692631,0.4122419801334313,0.1879606573909941,-0.4052696965439724,0.9110352056259997,-0.07596925149788336,-0.2025564908225445,-0.008450084358144809,0.9792341211885932,0.04375087,0.007842315,0.116734385,-1.7973361,0.6336294,0.074899584,0.25792426,-0.028855404,0.0022120434,0.007832464,-0.2536281734757683,-0.34466989066977094,-0.9038116043097886,0.9622096146556718,-0.18564516907544476,-0.19921979987725436,-0.09912319145149273,-0.9201839694673223,0.37872952783197805,left_images/camera_left_120.png,right_images/camera_right_120.png
2025-05-15 15:17:15,6.4020726680755615,121,-0.23662513,-0.04608918,0.13135037,0.31840536,-0.23682453,0.5236111,0.51796126,0.01301355,0.008465054,0.00032046158,0.8918215323671547,0.41133850565698465,0.1882949499327564,-0.40451112381431337,0.9114370949005984,-0.07518758374651366,-0.20254655049341538,-0.00911349565405957,0.9792302278219265,0.04360374,0.0074865003,0.11679688,-1.7986821,0.6329656,0.072889365,0.253765,-0.028838698,0.0022465922,0.007758338,-0.25308618506684466,-0.3451786771941356,-0.9037693642400243,0.9622400160823867,-0.18657637888167608,-0.19820041950805578,-0.1002074566989849,-0.9198048356330315,0.37936463984933155,left_images/camera_left_121.png,right_images/camera_right_121.png
2025-05-15 15:17:15,6.452848672866821,122,-0.23648493,-0.04620861,0.13132371,0.31811804,-0.23604372,0.5236346,0.49129695,0.013040695,0.008468969,0.00032886863,0.8920680686595981,0.4107500695579165,0.18841162712556175,-0.40398751232258323,0.9116997898383943,-0.07481699737384967,-0.20250592772890774,-0.009374090184905558,0.9792361695055284,0.043475267,0.0069060177,0.116855584,-1.8002437,0.63215697,0.07068539,0.25692046,-0.028823664,0.0023072653,0.007686319,-0.25265557029434343,-0.34574631323820765,-0.9036728665183145,0.9622396304249075,-0.1875640824394677,-0.1972678600745142,-0.10129193669279735,-0.9193906687914708,0.3800799148865862,left_images/camera_left_122.png,right_images/camera_right_122.png
2025-05-15 15:17:15,6.500324010848999,123,-0.23635596,-0.04636553,0.13130632,0.3172726,-0.23522119,0.5236254,0.46463126,0.013059211,0.008480919,0.00033293664,0.8924726138283532,0.4097905424124887,0.18858511318676596,-0.40302089890053105,0.912132392756823,-0.07475729484886812,-0.20264942293476917,-0.009284903499282605,0.9792073334852093,0.043405637,0.0061039184,0.116918124,-1.8020915,0.63115793,0.06835109,0.25321823,-0.028803222,0.0023950515,0.0076125055,-0.25244466663092535,-0.3463648592718709,-0.9034949222608715,0.9621777068126274,-0.18867247457554534,-0.19651147002232217,-0.10239995508980848,-0.9189309449567565,0.3808939059613423,left_images/camera_left_123.png,right_images/camera_right_123.png
2025-05-15 15:17:15,6.552444219589233,124,-0.23621224,-0.046498917,0.13129178,0.3172685,-0.23480944,0.52359545,0.43834174,0.013081145,0.008491483,0.00033182092,0.8925447420601632,0.4096218518284665,0.18861023812448455,-0.40288999305657475,0.9122065392051844,-0.07455791927202543,-0.20259204553888613,-0.009442898703180075,0.9792176952794774,0.043435358,0.005300406,0.1169781,-1.8019296,0.63011533,0.06787253,0.26034933,-0.028774336,0.0024783115,0.007548767,-0.25226850659325983,-0.3472388766508641,-0.9032085933622713,0.9622886828881247,-0.18820860331734038,-0.19641286216226922,-0.10178944624392533,-0.9186961870931991,0.3816231445467806,left_images/camera_left_124.png,right_images/camera_right_124.png
2025-05-15 15:17:15,6.6078455448150635,125,-0.23605984,-0.046641458,0.13127089,0.31712115,-0.23454031,0.52360463,0.41269946,0.013109686,0.0085058855,0.00033482164,0.8926371299060966,0.40945181153653565,0.18854221899207535,-0.4027191562961667,0.9122834013299296,-0.07454043741485719,-0.20252465396862201,-0.009392001242752558,0.9792321251100506,0.043552432,0.0047332076,0.1170278,-1.8019825,0.6291964,0.06795878,0.25728768,-0.028744128,0.002542348,0.007500832,-0.25264907379992096,-0.3479096991219292,-0.9028439991299333,0.9622409541086219,-0.18803685754219798,-0.19681078842833866,-0.10129556626117059,-0.9184775345442827,0.3822802987250127,left_images/camera_left_125.png,right_images/camera_right_125.png
2025-05-15 15:17:15,6.653940677642822,126,-0.23594575,-0.04676393,0.13126084,0.31691828,-0.23416993,0.52358943,0.38739344,0.013125537,0.00851694,0.0003334824,0.8927604360968793,0.4091698504859492,0.18857050987207996,-0.4024466962125527,0.9124097194404382,-0.07446583497297579,-0.20252274056932873,-0.009409427396343026,0.9792323535445311,0.043686304,0.0043159085,0.11706303,-1.8022205,0.6282571,0.067579,0.25279665,-0.028718792,0.0025864192,0.0074654976,-0.25267998018446947,-0.34856939232979084,-0.9025808586186704,0.9622428235308067,-0.18810259595241308,-0.19673881660573278,-0.1012006728111875,-0.9182139141435418,0.38293815648973845,left_images/camera_left_126.png,right_images/camera_right_126.png
2025-05-15 15:17:15,6.709821462631226,127,-0.23586193,-0.046887834,0.13124652,0.31648824,-0.233875,0.523598,0.3622064,0.013141848,0.008530476,0.0003381446,0.8929343077890217,0.40878468081550623,0.18858262566818096,-0.402032902112876,0.9125841243631876,-0.07456380877458509,-0.2025780530858149,-0.009235837311197814,0.9792225649550371,0.04380743,0.0040058736,0.1170897,-1.8025454,0.627493,0.067548014,0.25671923,-0.028699456,0.00262286,0.00743888,-0.2530459423762922,-0.34907774934125047,-0.9022818162645978,0.9621560113204872,-0.1882768155859917,-0.1969965750784748,-0.10111162607111462,-0.9179850574097848,0.38350993917447507,left_images/camera_left_127.png,right_images/camera_right_127.png
2025-05-15 15:17:15,6.764245986938477,128,-0.2357458,-0.046979308,0.13123685,0.31627765,-0.23365217,0.52359575,0.3363477,0.013158688,0.008539731,0.00033601094,0.8930408157106423,0.40856861479298034,0.18854651543058615,-0.40180862050480093,0.9126816666450034,-0.07457887005129582,-0.20255353357297878,-0.009157640320763764,0.979228371556327,0.04390581,0.003736824,0.117107935,-1.8029627,0.6267101,0.066911295,0.25269037,-0.028685503,0.0026499925,0.0074179536,-0.25292061866234994,-0.3496134662416063,-0.9021095193367508,0.9621660087188003,-0.18855098669340353,-0.19668527418969983,-0.1013298195083146,-0.9177248768773096,0.3840746256119234,left_images/camera_left_128.png,right_images/camera_right_128.png
2025-05-15 15:17:15,6.826610565185547,129,-0.23562358,-0.047087185,0.13122362,0.3164388,-0.23350039,0.52360064,0.31092513,0.013179959,0.008550236,0.0003352454,0.8930191658610726,0.40865148450474265,0.1884694500890369,-0.4019169185674003,0.9126435945026736,-0.07446113068255755,-0.2024340879745297,-0.009253843812668305,0.9792521669113685,0.043990854,0.0034965337,0.11712216,-1.8034028,0.62607396,0.066584624,0.25286973,-0.028674658,0.0026775498,0.0074013714,-0.25308427855913695,-0.3500255073912397,-0.9019038153382579,0.9621081379155669,-0.1888415864580905,-0.19668956805238075,-0.10147058146498295,-0.9175080377846816,0.3845552258098459,left_images/camera_left_129.png,right_images/camera_right_129.png
2025-05-15 15:17:15,6.884130001068115,130,-0.23540264,-0.047150977,0.13120444,0.3163875,-0.23319839,0.52360904,0.28598982,0.013213359,0.008553101,0.00033076666,0.8931250296153925,0.4084753090174881,0.18834968382657782,-0.4017689849979099,0.9127218500887563,-0.0743001148337416,-0.20226063425257387,-0.00931376903436889,0.9792874396918001,0.04408133,0.0031712584,0.11713498,-1.8041091,0.6253006,0.06582621,0.26039496,-0.02866486,0.002713013,0.00738418,-0.25311486139469874,-0.35050825206578645,-0.9017077310165026,0.9620611549905655,-0.1893106454201339,-0.19646835263937817,-0.10183909366918564,-0.9172270410124197,0.38512771159219306,left_images/camera_left_130.png,right_images/camera_right_130.png
2025-05-15 15:17:15,6.933969736099243,131,-0.23529887,-0.04730165,0.13119148,0.31604698,-0.23294212,0.5235869,0.26151103,0.013231137,0.008570371,0.00033273455,0.8932547758948007,0.4081899043687245,0.18835314521552682,-0.40145347567289424,0.912851253141039,-0.07441570068868489,-0.20231414239069562,-0.009142844758968809,0.9792779973931973,0.044161752,0.0027777376,0.1171464,-1.8049257,0.6244674,0.064606525,0.25228176,-0.028656706,0.0027535798,0.007367164,-0.2528537402964284,-0.35102916208039014,-0.9015783456734336,0.9620720977422982,-0.1898359938982235,-0.19590705491739513,-0.10238293199474224,-0.9169192018873924,0.385716103431458,left_images/camera_left_131.png,right_images/camera_right_131.png
2025-05-15 15:17:15,6.9951653480529785,132,-0.23516682,-0.047454964,0.13118471,0.31543982,-0.23282342,0.52359027,0.23743916,0.013247998,0.008592108,0.00032803416,0.8934463327643304,0.40781373111793634,0.18825942521328687,-0.4009939042812221,0.9130238559184183,-0.07477517805505858,-0.20237969067886175,-0.00868327331892274,0.9792686360571329,0.044204786,0.0023495075,0.11715607,-1.8038583,0.6237012,0.06481993,0.26059622,-0.028650686,0.0027916415,0.0073517305,-0.2523798112250838,-0.3518159202903361,-0.9014044536811735,0.9623041635516643,-0.1888447904260874,-0.1957251694086859,-0.10136630454506423,-0.9168223401287683,0.3862145374577274,left_images/camera_left_132.png,right_images/camera_right_132.png
2025-05-15 15:17:15,7.063337326049805,133,-0.23496965,-0.047493003,0.13107738,0.31505802,-0.23262003,0.5236004,0.2129878,0.013339809,0.008590975,0.0003897557,0.8936337204763665,0.40746242836809027,0.18813065432285733,-0.4006188534318155,0.9131825747420251,-0.07484730765033215,-0.2022951010344666,-0.008482609026994804,0.9792878726102711,0.04425168,0.0020038225,0.117161006,-1.8031926,0.62292606,0.06435202,0.2614895,-0.028646488,0.0028181584,0.0073400177,-0.2515745807596219,-0.3525526431553308,-0.9013417021972359,0.9625652139255125,-0.18822027536961128,-0.19504188493838998,-0.10088825132865065,-0.9166677488294097,0.3867063472453864,left_images/camera_left_133.png,right_images/camera_right_133.png
2025-05-15 15:17:15,7.117830991744995,134,-0.23486996,-0.047658283,0.13106766,0.31412262,-0.23246366,0.5235846,0.18894166,0.013354777,0.008615069,0.0003909683,0.893917591753311,0.40685299525608953,0.18810098193552777,-0.3998876068079462,0.9134599691005686,-0.07537099423652387,-0.20248763190717295,-0.00784379384845682,0.9792534063370362,0.04430325,0.0017387538,0.11716483,-1.8027627,0.6223127,0.06411152,0.2530746,-0.028642327,0.0028402344,0.007331876,-0.2511272534602338,-0.35310732486353924,-0.9012493105113781,0.9627204442234107,-0.18780755781963673,-0.19467323262354924,-0.10052088759953448,-0.9165388908025338,0.3871072368254862,left_images/camera_left_134.png,right_images/camera_right_134.png
2025-05-15 15:17:16,7.173898935317993,135,-0.23479563,-0.047740825,0.131042,0.31319737,-0.23203705,0.5235871,0.1654576,0.01337591,0.008623175,0.0004052706,0.8942742096552686,0.40603239317268597,0.18817899362018617,-0.3990027829449501,0.9138280815351867,-0.07559772880123597,-0.2026583754687424,-0.007478842970775661,0.9792209402173693,0.044357456,0.0015043751,0.11716593,-1.8025699,0.6216516,0.06326562,0.25310093,-0.028638907,0.002855721,0.0073253093,-0.25030968213143373,-0.3536689942746636,-0.9012565148280529,0.9629320253306577,-0.18760615779318407,-0.19381910161456306,-0.10053346519372547,-0.9163635588819684,0.3875188386766701,left_images/camera_left_135.png,right_images/camera_right_135.png
2025-05-15 15:17:16,7.238687753677368,136,-0.23468852,-0.047768686,0.1310396,0.312489,-0.2317995,0.5235945,0.14219949,0.01338573,0.008626946,0.00039930642,0.894549503542788,0.4054364396816984,0.18815546521315785,-0.39834965282644363,0.9140953860219406,-0.07581015332032323,-0.20272824126007488,-0.007135729228861631,0.9792090387470742,0.044356953,0.001156091,0.1171655,-1.8008372,0.6208683,0.062929615,0.261508,-0.028639581,0.0028727497,0.0073164003,-0.24876277215148898,-0.3546221744886838,-0.9013102665300243,0.9634464911135303,-0.18613537001021993,-0.19267714652284135,-0.09943813128037132,-0.9162951147922134,0.387963040321358,left_images/camera_left_136.png,right_images/camera_right_136.png
2025-05-15 15:17:16,7.289223909378052,137,-0.23462155,-0.047438685,0.13103342,0.31251886,-0.2315603,0.52359825,0.11911991,0.013393086,0.0085792625,0.0003958568,0.8946936803482021,0.4051032014462139,0.18818771087139927,-0.39810962918424175,0.9142399888740352,-0.07532573195389113,-0.2025634258590989,-0.007525883445295048,0.9792402256763113,0.044351667,0.0008636587,0.11716522,-1.7996774,0.6202489,0.062841564,0.25283575,-0.0286416,0.0028920555,0.0073085027,-0.2478797606672644,-0.35534490472522956,-0.9012688960223565,0.9637604674807596,-0.18512831139739774,-0.19207620789784413,-0.09859708704017289,-0.9162191369999677,0.38835693301681506,left_images/camera_left_137.png,right_images/camera_right_137.png
2025-05-15 15:17:16,7.345062494277954,138,-0.23453273,-0.047488037,0.1310109,0.31190312,-0.23169145,0.5235763,0.096695594,0.013417693,0.008590225,0.0004058145,0.8948510039665598,0.4048073161699991,0.188076360756163,-0.39770615898925177,0.914375521129184,-0.07581040470640754,-0.20266102684545925,-0.00696011027037044,0.9792242159296146,0.044351187,0.00062800135,0.11716552,-1.7989268,0.61975294,0.062909506,0.25291365,-0.028643418,0.0029107789,0.007301519,-0.24744222867042712,-0.3558923693743764,-0.9011731048426292,0.9639377233076384,-0.18446124101731945,-0.19182835073793741,-0.09796126303339892,-0.9161411856168473,0.3887015808579358,left_images/camera_left_138.png,right_images/camera_right_138.png
2025-05-15 15:17:16,7.396796226501465,139,-0.23467378,-0.047530387,0.13098209,0.31128553,-0.23151563,0.5235805,0.07470012,0.013421447,0.008595133,0.0004403796,0.8950310636469934,0.40431622550569807,0.18827582133603057,-0.3971590015766529,0.9145945672317989,-0.07603620885285253,-0.20293871630018664,-0.0067206683375886506,0.9791683767583226,0.04435673,0.00037535152,0.117164455,-1.7985091,0.6191883,0.06220916,0.25257573,-0.028644897,0.00292761,0.007295318,-0.24658955698347246,-0.35644310700708154,-0.9011891598625856,0.9641745007945883,-0.1840572935475993,-0.19102472277021953,-0.09778099203935886,-0.916008310092802,0.38905996123570435,left_images/camera_left_139.png,right_images/camera_right_139.png
2025-05-15 15:17:16,7.453998565673828,140,-0.23462833,-0.04748451,0.13099484,0.31132093,-0.23140259,0.52359027,0.052695278,0.013416147,0.008587637,0.0004268689,0.895067006627816,0.4042420008768537,0.1882643311235533,-0.3971143306491107,0.9146264917779506,-0.07588536704178861,-0.20286759731270512,-0.0068399755142855845,0.97918228777666,0.04436125,0.00019340168,0.117163055,-1.7982509,0.6187517,0.061813492,0.25296503,-0.028646838,0.002941202,0.0072905673,-0.24610711556785891,-0.3568602723192097,-0.9011559430570983,0.964313092847849,-0.18380391617866998,-0.19056856865600957,-0.09762964011551162,-0.9158967553374365,0.3893604845554718,left_images/camera_left_140.png,right_images/camera_right_140.png
2025-05-15 15:17:16,7.503805875778198,141,-0.23453878,-0.04744121,0.13094749,0.31147093,-0.23134668,0.5235874,0.038154475,0.013457453,0.008578251,0.0004529683,0.8950630212466065,0.40428093038008367,0.18819967409087282,-0.39718680346507734,0.9146082915444851,-0.07572526785209885,-0.20274326413000968,-0.006971539936914982,0.9792071111265569,0.04437777,9.895397e-05,0.11716128,-1.7980824,0.6184074,0.061659787,0.2530251,-0.02864791,0.0029479512,0.0072881263,-0.2458716499717056,-0.35717671471801227,-0.9010948486166364,0.9643853031227609,-0.1836601233012297,-0.19034165658046998,-0.0975095834316379,-0.9158022458873011,0.3896127918418024,left_images/camera_left_141.png,right_images/camera_right_141.png
