jiaqis7/OS_Teleop_Extension/demo_2/teleop_log.csv
Epoch Time (Seconds),Time (Seconds),Frame Number,PSM1_joint_1,PSM1_joint_2,PSM1_joint_3,PSM1_joint_4,PSM1_joint_5,PSM1_joint_6,PSM1_jaw_angle,PSM1_ee_x,PSM1_ee_y,PSM1_ee_z,"PSM1_Orientation_Matrix_[1,1]","PSM1_Orientation_Matrix_[1,2]","PSM1_Orientation_Matrix_[1,3]","PSM1_Orientation_Matrix_[2,1]","PSM1_Orientation_Matrix_[2,2]","PSM1_Orientation_Matrix_[2,3]","PSM1_Orientation_Matrix_[3,1]","PSM1_Orientation_Matrix_[3,2]","PSM1_Orientation_Matrix_[3,3]",PSM2_joint_1,PSM2_joint_2,PSM2_joint_3,PSM2_joint_4,PSM2_joint_5,PSM2_joint_6,PSM2_jaw_angle,PSM2_ee_x,PSM2_ee_y,PSM2_ee_z,"PSM2_Orientation_Matrix_[1,1]","PSM2_Orientation_Matrix_[1,2]","PSM2_Orientation_Matrix_[1,3]","PSM2_Orientation_Matrix_[2,1]","PSM2_Orientation_Matrix_[2,2]","PSM2_Orientation_Matrix_[2,3]","PSM2_Orientation_Matrix_[3,1]","PSM2_Orientation_Matrix_[3,2]","PSM2_Orientation_Matrix_[3,3]",PSM3_joint_1,PSM3_joint_2,PSM3_joint_3,PSM3_joint_4,PSM3_joint_5,PSM3_joint_6,PSM3_jaw_angle,PSM3_ee_x,PSM3_ee_y,PSM3_ee_z,"PSM3_Orientation_Matrix_[1,1]","PSM3_Orientation_Matrix_[1,2]","PSM3_Orientation_Matrix_[1,3]","PSM3_Orientation_Matrix_[2,1]","PSM3_Orientation_Matrix_[2,2]","PSM3_Orientation_Matrix_[2,3]","PSM3_Orientation_Matrix_[3,1]","PSM3_Orientation_Matrix_[3,2]","PSM3_Orientation_Matrix_[3,3]",Camera Left,Camera Right
2025-06-27 14:27:28,0.0017807483673095703,1,-0.034323268,-0.00027558792,0.11403818,-0.00069235044,0.0002939669,-0.027659541,1.0471791,0.057907075,2.6405794e-05,0.0020310464,0.8332808101500777,-0.0005970438966957349,0.552849649519845,0.000691489845746077,0.9999997602104886,3.769295083233884e-05,-0.5528495394566441,0.00035088110626073203,0.8332810231878713,0.07067476,0.0005317293,0.11086674,0.00078532315,1.940018e-05,-0.015325014,1.047179,-0.056457072,-6.0736937e-05,0.0067547327,0.8369285845352337,0.0009587468432872002,-0.5473112690163985,-0.0007933533385722459,0.9999995402654402,0.0005385716182316333,0.5473115337523321,-1.6534759605078776e-05,0.8369289603952484,0.0026657255,0.019344743,0.09063903,-0.00016294567,-0.012031062,-0.006226944,0.5235896,0.00019111253,-0.011352362,0.0023486614,0.9999936400418761,-0.00014323904631166856,0.0035636159128948305,0.0010357560162236078,0.9677929595718953,-0.2517453368238365,-0.0034127826291579333,0.25174742677065765,0.9677869528099037,left_images/camera_left_1.png,right_images/camera_right_1.png
2025-06-27 14:27:28,0.05353832244873047,2,-0.034323268,-0.00027558792,0.11403818,-0.0006923588,0.00029397215,-0.027659541,1.0471791,0.057907075,2.6405794e-05,0.0020310464,0.8332808101500777,-0.0005970438966957349,0.552849649519845,0.000691489845746077,0.9999997602104886,3.769295083233884e-05,-0.5528495394566441,0.00035088110626073203,0.8332810231878713,0.07067476,0.0005317328,0.11086674,0.0007853347,1.9387779e-05,-0.015325014,1.047179,-0.056457072,-6.0736937e-05,0.0067547327,0.8369285845352337,0.0009587468432872002,-0.5473112690163985,-0.0007933533385722459,0.9999995402654402,0.0005385716182316333,0.5473115337523321,-1.6534759605078776e-05,0.8369289603952484,0.0026657255,0.019344743,0.09063903,-0.00016294567,-0.012031062,-0.006226944,0.5235896,0.00019111253,-0.011352362,0.0023486614,0.9999936400418761,-0.00014323904631166856,0.0035636159128948305,0.0010357560162236078,0.9677929595718953,-0.2517453368238365,-0.0034127826291579333,0.25174742677065765,0.9677869528099037,left_images/camera_left_2.png,right_images/camera_right_2.png
2025-06-27 14:27:28,0.10592150688171387,3,-0.034323268,-0.00027558792,0.11403818,-0.0006923672,0.00029397738,-0.027659541,1.0471791,0.057907075,2.6405794e-05,0.0020310464,0.8332808101500777,-0.0005970438966957349,0.552849649519845,0.000691489845746077,0.9999997602104886,3.769295083233884e-05,-0.5528495394566441,0.00035088110626073203,0.8332810231878713,0.07067476,0.0005317363,0.11086674,0.0007853462,1.9375377e-05,-0.015325014,1.047179,-0.056457043,-6.0745428e-05,0.0067547006,0.8369286340213877,0.000959175374687702,-0.5473111925931122,-0.0007938499823882383,0.999999539858631,0.0005385951464955492,0.5473114573597921,-1.6282719646141402e-05,0.8369290103572545,0.0026657255,0.019344743,0.09063903,-0.00016294567,-0.012031062,-0.006226944,0.5235896,0.00019111253,-0.011352362,0.0023486614,0.9999936400418761,-0.00014323904631166856,0.0035636159128948305,0.0010357560162236078,0.9677929595718953,-0.2517453368238365,-0.0034127826291579333,0.25174742677065765,0.9677869528099037,left_images/camera_left_3.png,right_images/camera_right_3.png
2025-06-27 14:27:28,0.16605877876281738,4,-0.034323268,-0.00027558792,0.11403818,-0.0006923756,0.00029398262,-0.027659541,1.0471791,0.057907075,2.6405794e-05,0.0020310464,0.8332808101500777,-0.0005970438966957349,0.552849649519845,0.000691489845746077,0.9999997602104886,3.769295083233884e-05,-0.5528495394566441,0.00035088110626073203,0.8332810231878713,0.07067476,0.0005317398,0.11086674,0.0007853427,1.936179e-05,-0.015325014,1.047179,-0.056457043,-6.0745428e-05,0.0067547006,0.8369286340213877,0.000959175374687702,-0.5473111925931122,-0.0007938499823882383,0.999999539858631,0.0005385951464955492,0.5473114573597921,-1.6282719646141402e-05,0.8369290103572545,0.0026657255,0.019344743,0.09063903,-0.00016294567,-0.012031062,-0.006226944,0.5235896,0.00019111253,-0.011352362,0.0023486614,0.9999936400418761,-0.00014323904631166856,0.0035636159128948305,0.0010357560162236078,0.9677929595718953,-0.2517453368238365,-0.0034127826291579333,0.25174742677065765,0.9677869528099037,left_images/camera_left_4.png,right_images/camera_right_4.png
2025-06-27 14:27:28,0.22518634796142578,5,-0.034323268,-0.00027558792,0.11403818,-0.00069238397,0.00029398786,-0.027659541,1.0471791,0.057907075,2.6405794e-05,0.0020310464,0.8332808101500777,-0.0005970438966957349,0.552849649519845,0.000691489845746077,0.9999997602104886,3.769295083233884e-05,-0.5528495394566441,0.00035088110626073203,0.8332810231878713,0.07067476,0.0005317524,0.11086674,0.0007854036,1.9341373e-05,-0.0153250415,1.047179,-0.056457043,-6.0745428e-05,0.0067547006,0.8369286340213877,0.000959175374687702,-0.5473111925931122,-0.0007938499823882383,0.999999539858631,0.0005385951464955492,0.5473114573597921,-1.6282719646141402e-05,0.8369290103572545,0.0026657255,0.019344743,0.09063903,-0.00016294567,-0.012031062,-0.006226944,0.5235896,0.00019111253,-0.011352362,0.0023486614,0.9999936400418761,-0.00014323904631166856,0.0035636159128948305,0.0010357560162236078,0.9677929595718953,-0.2517453368238365,-0.0034127826291579333,0.25174742677065765,0.9677869528099037,left_images/camera_left_5.png,right_images/camera_right_5.png
2025-06-27 14:27:28,0.27397847175598145,6,-0.034323268,-0.00027558717,0.11403818,-0.00069237506,0.00029392508,-0.027659593,1.0471791,0.05790707,2.6403352e-05,0.0020310464,0.8332805261951054,-0.0005971121020735073,0.5528500774361398,0.0006914548780829408,0.9999997602280032,3.786935212293476e-05,-0.5528499674904213,0.0003507150892280836,0.8332807392738455,0.07067476,0.0005317567,0.11086674,0.0007854001,1.9327787e-05,-0.0153250415,1.047179,-0.056457043,-6.0745428e-05,0.0067547006,0.8369286340213877,0.000959175374687702,-0.5473111925931122,-0.0007938499823882383,0.999999539858631,0.0005385951464955492,0.5473114573597921,-1.6282719646141402e-05,0.8369290103572545,0.0026657255,0.019344743,0.09063903,-0.00016294567,-0.012031062,-0.006226944,0.5235896,0.00019111253,-0.011352362,0.0023486614,0.9999936400418761,-0.00014323904631166856,0.0035636159128948305,0.0010357560162236078,0.9677929595718953,-0.2517453368238365,-0.0034127826291579333,0.25174742677065765,0.9677869528099037,left_images/camera_left_6.png,right_images/camera_right_6.png
2025-06-27 14:27:28,0.3222496509552002,7,-0.034323268,-0.0002755936,0.11403818,-0.0006924178,0.00029397098,-0.027659593,1.0471791,0.05790707,2.6403352e-05,0.0020310464,0.8332805261951054,-0.0005971121020735073,0.5528500774361398,0.0006914548780829408,0.9999997602280032,3.786935212293476e-05,-0.5528499674904213,0.0003507150892280836,0.8332807392738455,0.07067476,0.0005317602,0.11086674,0.0007853966,1.9314199e-05,-0.0153250415,1.047179,-0.056457043,-6.0745428e-05,0.0067547006,0.8369286340213877,0.000959175374687702,-0.5473111925931122,-0.0007938499823882383,0.999999539858631,0.0005385951464955492,0.5473114573597921,-1.6282719646141402e-05,0.8369290103572545,0.0026657255,0.019344743,0.09063903,-0.00016294567,-0.012031062,-0.006226944,0.5235896,0.00019111253,-0.011352362,0.0023486614,0.9999936400418761,-0.00014323904631166856,0.0035636159128948305,0.0010357560162236078,0.9677929595718953,-0.2517453368238365,-0.0034127826291579333,0.25174742677065765,0.9677869528099037,left_images/camera_left_7.png,right_images/camera_right_7.png
2025-06-27 14:27:28,0.3749105930328369,8,-0.034323268,-0.00027559898,0.11403818,-0.0006924427,0.0002939482,-0.027659593,1.0471791,0.05790707,2.6403352e-05,0.0020310464,0.8332805261951054,-0.0005971121020735073,0.5528500774361398,0.0006914548780829408,0.9999997602280032,3.786935212293476e-05,-0.5528499674904213,0.0003507150892280836,0.8332807392738455,0.07067476,0.0005317637,0.11086674,0.0007853931,1.930061e-05,-0.0153250415,1.047179,-0.056457043,-6.0745428e-05,0.0067547006,0.8369286340213877,0.000959175374687702,-0.5473111925931122,-0.0007938499823882383,0.999999539858631,0.0005385951464955492,0.5473114573597921,-1.6282719646141402e-05,0.8369290103572545,0.0026657255,0.019344743,0.09063903,-0.00016294567,-0.012031062,-0.006226944,0.5235896,0.00019111253,-0.011352362,0.0023486614,0.9999936400418761,-0.00014323904631166856,0.0035636159128948305,0.0010357560162236078,0.9677929595718953,-0.2517453368238365,-0.0034127826291579333,0.25174742677065765,0.9677869528099037,left_images/camera_left_8.png,right_images/camera_right_8.png
2025-06-27 14:27:28,0.43953704833984375,9,-0.034323268,-0.00027560504,0.11403818,-0.0006924336,0.00029400815,-0.027659593,1.0471791,0.057907075,2.639627e-05,0.0020310497,0.8332806648742044,-0.0005972570311748396,0.55284986825615,0.0006914153426825063,0.9999997602431094,3.8190931636188075e-05,-0.5528497585163872,0.0003504251162063364,0.8332808780420982,0.07067476,0.0005317672,0.11086674,0.0007853896,1.9287023e-05,-0.0153250415,1.047179,-0.056457043,-6.0745428e-05,0.0067547006,0.8369286340213877,0.000959175374687702,-0.5473111925931122,-0.0007938499823882383,0.999999539858631,0.0005385951464955492,0.5473114573597921,-1.6282719646141402e-05,0.8369290103572545,0.0026657255,0.019344743,0.09063903,-0.00016294567,-0.012031062,-0.006226944,0.5235896,0.00019111253,-0.011352362,0.0023486614,0.9999936400418761,-0.00014323904631166856,0.0035636159128948305,0.0010357560162236078,0.9677929595718953,-0.2517453368238365,-0.0034127826291579333,0.25174742677065765,0.9677869528099037,left_images/camera_left_9.png,right_images/camera_right_9.png
2025-06-27 14:27:28,0.5008037090301514,10,-0.034323268,-0.00027560053,0.11403818,-0.00069242663,0.00029397424,-0.027659593,1.0471791,0.05790707,2.6403352e-05,0.0020310464,0.8332805261951054,-0.0005971121020735073,0.5528500774361398,0.0006914548780829408,0.9999997602280032,3.786935212293476e-05,-0.5528499674904213,0.0003507150892280836,0.8332807392738455,0.07067476,0.0005317707,0.11086674,0.00078538613,1.9273435e-05,-0.0153250415,1.047179,-0.056457043,-6.0745428e-05,0.0067547006,0.8369286340213877,0.000959175374687702,-0.5473111925931122,-0.0007938499823882383,0.999999539858631,0.0005385951464955492,0.5473114573597921,-1.6282719646141402e-05,0.8369290103572545,0.0026657255,0.019344743,0.09063903,-0.00016294567,-0.012031062,-0.006226944,0.5235896,0.00019111253,-0.011352362,0.0023486614,0.9999936400418761,-0.00014323904631166856,0.0035636159128948305,0.0010357560162236078,0.9677929595718953,-0.2517453368238365,-0.0034127826291579333,0.25174742677065765,0.9677869528099037,left_images/camera_left_10.png,right_images/camera_right_10.png
2025-06-27 14:27:28,0.5764589309692383,11,-0.034323268,-0.00027560513,0.11403818,-0.00069245155,0.00029395145,-0.027659593,1.0471791,0.05790707,2.6403352e-05,0.0020310464,0.8332805261951054,-0.0005971121020735073,0.5528500774361398,0.0006914548780829408,0.9999997602280032,3.786935212293476e-05,-0.5528499674904213,0.0003507150892280836,0.8332807392738455,0.07067476,0.0005317742,0.11086674,0.00078538264,1.9259847e-05,-0.0153250415,1.047179,-0.056457043,-6.0745428e-05,0.0067547006,0.8369286340213877,0.000959175374687702,-0.5473111925931122,-0.0007938499823882383,0.999999539858631,0.0005385951464955492,0.5473114573597921,-1.6282719646141402e-05,0.8369290103572545,0.0026657255,0.019344743,0.09063903,-0.00016294567,-0.012031062,-0.006226944,0.5235896,0.00019111253,-0.011352362,0.0023486614,0.9999936400418761,-0.00014323904631166856,0.0035636159128948305,0.0010357560162236078,0.9677929595718953,-0.2517453368238365,-0.0034127826291579333,0.25174742677065765,0.9677869528099037,left_images/camera_left_11.png,right_images/camera_right_11.png
2025-06-27 14:27:28,0.6433546543121338,12,-0.034323268,-0.00027561118,0.11403818,-0.00069244247,0.0002940114,-0.027659593,1.0471791,0.057907075,2.639627e-05,0.0020310497,0.8332806648742044,-0.0005972570311748396,0.55284986825615,0.0006914153426825063,0.9999997602431094,3.8190931636188075e-05,-0.5528497585163872,0.0003504251162063364,0.8332808780420982,0.07067476,0.0005317777,0.11086674,0.00078537915,1.924626e-05,-0.0153250415,1.047179,-0.056457043,-6.0745428e-05,0.0067547006,0.8369286340213877,0.000959175374687702,-0.5473111925931122,-0.0007938499823882383,0.999999539858631,0.0005385951464955492,0.5473114573597921,-1.6282719646141402e-05,0.8369290103572545,0.0026657255,0.019344743,0.09063903,-0.00016294567,-0.012031062,-0.006226944,0.5235896,0.00019111253,-0.011352362,0.0023486614,0.9999936400418761,-0.00014323904631166856,0.0035636159128948305,0.0010357560162236078,0.9677929595718953,-0.2517453368238365,-0.0034127826291579333,0.25174742677065765,0.9677869528099037,left_images/camera_left_12.png,right_images/camera_right_12.png
2025-06-27 14:27:28,0.6973085403442383,13,-0.034323268,-0.00027560667,0.11403818,-0.0006924355,0.0002939775,-0.027659593,1.0471791,0.05790707,2.6403352e-05,0.0020310464,0.8332805261951054,-0.0005971121020735073,0.5528500774361398,0.0006914548780829408,0.9999997602280032,3.786935212293476e-05,-0.5528499674904213,0.0003507150892280836,0.8332807392738455,0.07067476,0.0005317812,0.11086674,0.00078537565,1.9232672e-05,-0.0153250415,1.047179,-0.056457043,-6.0745428e-05,0.0067547006,0.8369286340213877,0.000959175374687702,-0.5473111925931122,-0.0007938499823882383,0.999999539858631,0.0005385951464955492,0.5473114573597921,-1.6282719646141402e-05,0.8369290103572545,0.0026657255,0.019344743,0.09063903,-0.00016294567,-0.012031062,-0.006226944,0.5235896,0.00019111253,-0.011352362,0.0023486614,0.9999936400418761,-0.00014323904631166856,0.0035636159128948305,0.0010357560162236078,0.9677929595718953,-0.2517453368238365,-0.0034127826291579333,0.25174742677065765,0.9677869528099037,left_images/camera_left_13.png,right_images/camera_right_13.png
2025-06-27 14:27:29,0.7716610431671143,14,-0.034323268,-0.00027561127,0.11403818,-0.0006924604,0.0002939547,-0.027659593,1.0471791,0.05790707,2.6403352e-05,0.0020310464,0.8332805261951054,-0.0005971121020735073,0.5528500774361398,0.0006914548780829408,0.9999997602280032,3.786935212293476e-05,-0.5528499674904213,0.0003507150892280836,0.8332807392738455,0.07067476,0.00053178467,0.11086674,0.00078537216,1.9219084e-05,-0.0153250415,1.047179,-0.056457043,-6.0745428e-05,0.0067547006,0.8369286340213877,0.000959175374687702,-0.5473111925931122,-0.0007938499823882383,0.999999539858631,0.0005385951464955492,0.5473114573597921,-1.6282719646141402e-05,0.8369290103572545,0.0026657255,0.019344743,0.09063903,-0.00016294567,-0.012031062,-0.006226944,0.5235896,0.00019111253,-0.011352362,0.0023486614,0.9999936400418761,-0.00014323904631166856,0.0035636159128948305,0.0010357560162236078,0.9677929595718953,-0.2517453368238365,-0.0034127826291579333,0.25174742677065765,0.9677869528099037,left_images/camera_left_14.png,right_images/camera_right_14.png
2025-06-27 14:27:29,0.8313872814178467,15,-0.034323268,-0.00027561732,0.11403818,-0.0006924513,0.00029401467,-0.027659593,1.0471791,0.057907075,2.639627e-05,0.0020310497,0.8332806648742044,-0.0005972570311748396,0.55284986825615,0.0006914153426825063,0.9999997602431094,3.8190931636188075e-05,-0.5528497585163872,0.0003504251162063364,0.8332808780420982,0.07067476,0.00053178816,0.11086674,0.00078536867,1.9205496e-05,-0.0153250415,1.047179,-0.056457043,-6.0745428e-05,0.0067547006,0.8369286340213877,0.000959175374687702,-0.5473111925931122,-0.0007938499823882383,0.999999539858631,0.0005385951464955492,0.5473114573597921,-1.6282719646141402e-05,0.8369290103572545,0.0026657255,0.019344743,0.09063903,-0.00016294567,-0.012031062,-0.006226944,0.5235896,0.00019111253,-0.011352362,0.0023486614,0.9999936400418761,-0.00014323904631166856,0.0035636159128948305,0.0010357560162236078,0.9677929595718953,-0.2517453368238365,-0.0034127826291579333,0.25174742677065765,0.9677869528099037,left_images/camera_left_15.png,right_images/camera_right_15.png
2025-06-27 14:27:29,0.8808732032775879,16,-0.034323268,-0.0002756128,0.11403818,-0.00069244433,0.00029398076,-0.027659593,1.0471791,0.05790707,2.6403352e-05,0.0020310464,0.8332805261951054,-0.0005971121020735073,0.5528500774361398,0.0006914548780829408,0.9999997602280032,3.786935212293476e-05,-0.5528499674904213,0.0003507150892280836,0.8332807392738455,0.07067476,0.00053179165,0.11086674,0.0007853652,1.9191908e-05,-0.0153250415,1.047179,-0.056457043,-6.0745428e-05,0.0067547006,0.8369286340213877,0.000959175374687702,-0.5473111925931122,-0.0007938499823882383,0.999999539858631,0.0005385951464955492,0.5473114573597921,-1.6282719646141402e-05,0.8369290103572545,0.0026657255,0.019344743,0.09063903,-0.00016294567,-0.012031062,-0.006226944,0.5235896,0.00019111253,-0.011352362,0.0023486614,0.9999936400418761,-0.00014323904631166856,0.0035636159128948305,0.0010357560162236078,0.9677929595718953,-0.2517453368238365,-0.0034127826291579333,0.25174742677065765,0.9677869528099037,left_images/camera_left_16.png,right_images/camera_right_16.png
2025-06-27 14:27:29,0.9352412223815918,17,-0.034323268,-0.0002756177,0.11403818,-0.0006924183,0.00029397325,-0.027659649,1.0471791,0.05790707,2.6403352e-05,0.0020310464,0.8332805261951054,-0.0005971121020735073,0.5528500774361398,0.0006914548780829408,0.9999997602280032,3.786935212293476e-05,-0.5528499674904213,0.0003507150892280836,0.8332807392738455,0.07067476,0.00053179514,0.11086674,0.0007853617,1.917832e-05,-0.0153250415,1.047179,-0.056457043,-6.0745428e-05,0.0067547006,0.8369286340213877,0.000959175374687702,-0.5473111925931122,-0.0007938499823882383,0.999999539858631,0.0005385951464955492,0.5473114573597921,-1.6282719646141402e-05,0.8369290103572545,0.0026657255,0.019344743,0.09063903,-0.00016294567,-0.012031062,-0.006226944,0.5235896,0.00019111253,-0.011352362,0.0023486614,0.9999936400418761,-0.00014323904631166856,0.0035636159128948305,0.0010357560162236078,0.9677929595718953,-0.2517453368238365,-0.0034127826291579333,0.25174742677065765,0.9677869528099037,left_images/camera_left_17.png,right_images/camera_right_17.png
2025-06-27 14:27:29,0.9877650737762451,18,-0.034323268,-0.00027562297,0.11403818,-0.0006924432,0.00029395046,-0.027659649,1.0471791,0.05790707,2.6403352e-05,0.0020310464,0.8332805261951054,-0.0005971121020735073,0.5528500774361398,0.0006914548780829408,0.9999997602280032,3.786935212293476e-05,-0.5528499674904213,0.0003507150892280836,0.8332807392738455,0.07067476,0.00053179864,0.11086674,0.0007853582,1.9164732e-05,-0.0153250415,1.047179,-0.056457043,-6.0745428e-05,0.0067547006,0.8369286340213877,0.000959175374687702,-0.5473111925931122,-0.0007938499823882383,0.999999539858631,0.0005385951464955492,0.5473114573597921,-1.6282719646141402e-05,0.8369290103572545,0.0026657255,0.019344743,0.09063903,-0.00016294567,-0.012031062,-0.006226944,0.5235896,0.00019111253,-0.011352362,0.0023486614,0.9999936400418761,-0.00014323904631166856,0.0035636159128948305,0.0010357560162236078,0.9677929595718953,-0.2517453368238365,-0.0034127826291579333,0.25174742677065765,0.9677869528099037,left_images/camera_left_18.png,right_images/camera_right_18.png
2025-06-27 14:27:29,1.0383870601654053,19,-0.034323268,-0.00027562902,0.11403818,-0.00069243414,0.00029401042,-0.027659649,1.0471791,0.057907075,2.639627e-05,0.0020310497,0.8332806648742044,-0.0005972570311748396,0.55284986825615,0.0006914153426825063,0.9999997602431094,3.8190931636188075e-05,-0.5528497585163872,0.0003504251162063364,0.8332808780420982,0.07067476,0.0005315969,0.11086674,0.0007853547,1.9355532e-05,-0.015325125,1.047179,-0.056457043,-6.0745428e-05,0.0067547006,0.8369286340213877,0.000959175374687702,-0.5473111925931122,-0.0007938499823882383,0.999999539858631,0.0005385951464955492,0.5473114573597921,-1.6282719646141402e-05,0.8369290103572545,0.0026657255,0.019344743,0.09063903,-0.00016294567,-0.012031062,-0.006226944,0.5235896,0.00019111253,-0.011352362,0.0023486614,0.9999936400418761,-0.00014323904631166856,0.0035636159128948305,0.0010357560162236078,0.9677929595718953,-0.2517453368238365,-0.0034127826291579333,0.25174742677065765,0.9677869528099037,left_images/camera_left_19.png,right_images/camera_right_19.png
2025-06-27 14:27:29,1.0977227687835693,20,-0.034323268,-0.0002756245,0.11403818,-0.00069242716,0.0002939765,-0.027659649,1.0471791,0.05790707,2.6403352e-05,0.0020310464,0.8332805261951054,-0.0005971121020735073,0.5528500774361398,0.0006914548780829408,0.9999997602280032,3.786935212293476e-05,-0.5528499674904213,0.0003507150892280836,0.8332807392738455,0.07067476,0.00053156633,0.11086674,0.0007853512,1.9341895e-05,-0.015325125,1.047179,-0.056457043,-6.0745428e-05,0.0067547006,0.8369286340213877,0.000959175374687702,-0.5473111925931122,-0.0007938499823882383,0.999999539858631,0.0005385951464955492,0.5473114573597921,-1.6282719646141402e-05,0.8369290103572545,0.0026657255,0.019344743,0.09063903,-0.00016294567,-0.012031062,-0.006226944,0.5235896,0.00019111253,-0.011352362,0.0023486614,0.9999936400418761,-0.00014323904631166856,0.0035636159128948305,0.0010357560162236078,0.9677929595718953,-0.2517453368238365,-0.0034127826291579333,0.25174742677065765,0.9677869528099037,left_images/camera_left_20.png,right_images/camera_right_20.png
2025-06-27 14:27:29,1.1668298244476318,21,-0.034323268,-0.0002756291,0.11403818,-0.0006924521,0.00029395372,-0.027659649,1.0471791,0.05790707,2.6403352e-05,0.0020310464,0.8332805261951054,-0.0005971121020735073,0.5528500774361398,0.0006914548780829408,0.9999997602280032,3.786935212293476e-05,-0.5528499674904213,0.0003507150892280836,0.8332807392738455,0.07067476,0.0005315698,0.11086674,0.0007853477,1.9328307e-05,-0.015325125,1.047179,-0.056457043,-6.0745428e-05,0.0067547006,0.8369286340213877,0.000959175374687702,-0.5473111925931122,-0.0007938499823882383,0.999999539858631,0.0005385951464955492,0.5473114573597921,-1.6282719646141402e-05,0.8369290103572545,0.0026657255,0.019344743,0.09063903,-0.00016294567,-0.012031062,-0.006226944,0.5235896,0.00019111253,-0.011352362,0.0023486614,0.9999936400418761,-0.00014323904631166856,0.0035636159128948305,0.0010357560162236078,0.9677929595718953,-0.2517453368238365,-0.0034127826291579333,0.25174742677065765,0.9677869528099037,left_images/camera_left_21.png,right_images/camera_right_21.png
2025-06-27 14:27:29,1.2305357456207275,22,-0.034323268,-0.00027563516,0.11403818,-0.000692443,0.00029401368,-0.027659649,1.0471791,0.057907075,2.639627e-05,0.0020310497,0.8332806648742044,-0.0005972570311748396,0.55284986825615,0.0006914153426825063,0.9999997602431094,3.8190931636188075e-05,-0.5528497585163872,0.0003504251162063364,0.8332808780420982,0.07067476,0.0005315733,0.11086674,0.0007853442,1.9314719e-05,-0.015325125,1.047179,-0.056457043,-6.0745428e-05,0.0067547006,0.8369286340213877,0.000959175374687702,-0.5473111925931122,-0.0007938499823882383,0.999999539858631,0.0005385951464955492,0.5473114573597921,-1.6282719646141402e-05,0.8369290103572545,0.0026657255,0.019344743,0.09063903,-0.00016294567,-0.012031062,-0.006226944,0.5235896,0.00019111253,-0.011352362,0.0023486614,0.9999936400418761,-0.00014323904631166856,0.0035636159128948305,0.0010357560162236078,0.9677929595718953,-0.2517453368238365,-0.0034127826291579333,0.25174742677065765,0.9677869528099037,left_images/camera_left_22.png,right_images/camera_right_22.png
2025-06-27 14:27:29,1.2985455989837646,23,-0.034323268,-0.00027563065,0.11403818,-0.000692436,0.00029397977,-0.027659649,1.0471791,0.05790707,2.6403352e-05,0.0020310464,0.8332805261951054,-0.0005971121020735073,0.5528500774361398,0.0006914548780829408,0.9999997602280032,3.786935212293476e-05,-0.5528499674904213,0.0003507150892280836,0.8332807392738455,0.07067476,0.0005315768,0.11086674,0.00078534073,1.9301131e-05,-0.015325125,1.047179,-0.056457072,-6.0736937e-05,0.0067547327,0.8369285845352337,0.0009587468432872002,-0.5473112690163985,-0.0007933533385722459,0.9999995402654402,0.0005385716182316333,0.5473115337523321,-1.6534759605078776e-05,0.8369289603952484,0.0026657255,0.019344743,0.09063903,-0.00016294567,-0.012031062,-0.006226944,0.5235896,0.00019111253,-0.011352362,0.0023486614,0.9999936400418761,-0.00014323904631166856,0.0035636159128948305,0.0010357560162236078,0.9677929595718953,-0.2517453368238365,-0.0034127826291579333,0.25174742677065765,0.9677869528099037,left_images/camera_left_23.png,right_images/camera_right_23.png
2025-06-27 14:27:29,1.3510370254516602,24,-0.034323268,-0.00027563525,0.11403818,-0.0006924609,0.00029395698,-0.027659649,1.0471791,0.05790707,2.6403352e-05,0.0020310464,0.8332805261951054,-0.0005971121020735073,0.5528500774361398,0.0006914548780829408,0.9999997602280032,3.786935212293476e-05,-0.5528499674904213,0.0003507150892280836,0.8332807392738455,0.07067476,0.00053156953,0.11086674,0.0007852885,1.9295563e-05,-0.015325125,1.047179,-0.056457072,-6.0736937e-05,0.0067547327,0.8369285845352337,0.0009587468432872002,-0.5473112690163985,-0.0007933533385722459,0.9999995402654402,0.0005385716182316333,0.5473115337523321,-1.6534759605078776e-05,0.8369289603952484,0.0026657255,0.019344743,0.09063903,-0.00016294567,-0.012031062,-0.006226944,0.5235896,0.00019111253,-0.011352362,0.0023486614,0.9999936400418761,-0.00014323904631166856,0.0035636159128948305,0.0010357560162236078,0.9677929595718953,-0.2517453368238365,-0.0034127826291579333,0.25174742677065765,0.9677869528099037,left_images/camera_left_24.png,right_images/camera_right_24.png
2025-06-27 14:27:29,1.4010751247406006,25,-0.03432336,-0.00027570102,0.11403818,-0.00069243455,0.0002941352,-0.027659537,1.0471791,0.05790714,2.637551e-05,0.0020310194,0.833280810248951,-0.0005968846851353683,0.5528496495427346,0.0006913429948136302,0.9999997603145335,3.762630800209664e-05,-0.5528495394912756,0.0003508554519778764,0.833281023175697,0.07067476,0.00053157075,0.11086674,0.0007853,1.928316e-05,-0.015325125,1.047179,-0.056457072,-6.0736937e-05,0.0067547327,0.8369285845352337,0.0009587468432872002,-0.5473112690163985,-0.0007933533385722459,0.9999995402654402,0.0005385716182316333,0.5473115337523321,-1.6534759605078776e-05,0.8369289603952484,0.0026657255,0.019344743,0.09063903,-0.00016294567,-0.012031062,-0.006226944,0.5235896,0.00019111253,-0.011352362,0.0023486614,0.9999936400418761,-0.00014323904631166856,0.0035636159128948305,0.0010357560162236078,0.9677929595718953,-0.2517453368238365,-0.0034127826291579333,0.25174742677065765,0.9677869528099037,left_images/camera_left_25.png,right_images/camera_right_25.png
2025-06-27 14:27:29,1.4526243209838867,26,-0.034323364,-0.00027570603,0.11403818,-0.000692401,0.0002941001,-0.027659537,1.0471791,0.05790714,2.637551e-05,0.0020310194,0.833280810248951,-0.0005968846851353683,0.5528496495427346,0.0006913429948136302,0.9999997603145335,3.762630800209664e-05,-0.5528495394912756,0.0003508554519778764,0.833281023175697,0.07067476,0.00053157425,0.11086674,0.0007853115,1.9270758e-05,-0.015325125,1.047179,-0.056457072,-6.0736937e-05,0.0067547327,0.8369285845352337,0.0009587468432872002,-0.5473112690163985,-0.0007933533385722459,0.9999995402654402,0.0005385716182316333,0.5473115337523321,-1.6534759605078776e-05,0.8369289603952484,0.0026657255,0.019344743,0.09063903,-0.00016294567,-0.012031062,-0.006226944,0.5235896,0.00019111253,-0.011352362,0.0023486614,0.9999936400418761,-0.00014323904631166856,0.0035636159128948305,0.0010357560162236078,0.9677929595718953,-0.2517453368238365,-0.0034127826291579333,0.25174742677065765,0.9677869528099037,left_images/camera_left_26.png,right_images/camera_right_26.png
2025-06-27 14:27:29,1.5063869953155518,27,-0.034323364,-0.0002757008,0.11403818,-0.0006923675,0.00029406493,-0.027659537,1.0471791,0.05790714,2.637551e-05,0.0020310194,0.833280810248951,-0.0005968846851353683,0.5528496495427346,0.0006913429948136302,0.9999997603145335,3.762630800209664e-05,-0.5528495394912756,0.0003508554519778764,0.833281023175697,0.07067476,0.00053157774,0.11086674,0.00078532303,1.9258356e-05,-0.015325125,1.047179,-0.056457072,-6.0736937e-05,0.0067547327,0.8369285845352337,0.0009587468432872002,-0.5473112690163985,-0.0007933533385722459,0.9999995402654402,0.0005385716182316333,0.5473115337523321,-1.6534759605078776e-05,0.8369289603952484,0.0026657255,0.019344743,0.09063903,-0.00016294567,-0.012031062,-0.006226944,0.5235896,0.00019111253,-0.011352362,0.0023486614,0.9999936400418761,-0.00014323904631166856,0.0035636159128948305,0.0010357560162236078,0.9677929595718953,-0.2517453368238365,-0.0034127826291579333,0.25174742677065765,0.9677869528099037,left_images/camera_left_27.png,right_images/camera_right_27.png
2025-06-27 14:27:29,1.5547378063201904,28,-0.034323364,-0.00027569555,0.11403818,-0.00069233397,0.00029402977,-0.027659537,1.0471791,0.05790714,2.637551e-05,0.0020310194,0.833280810248951,-0.0005968846851353683,0.5528496495427346,0.0006913429948136302,0.9999997603145335,3.762630800209664e-05,-0.5528495394912756,0.0003508554519778764,0.833281023175697,0.07067476,0.00053158123,0.11086674,0.00078533456,1.9245954e-05,-0.015325125,1.047179,-0.056457072,-6.0736937e-05,0.0067547327,0.8369285845352337,0.0009587468432872002,-0.5473112690163985,-0.0007933533385722459,0.9999995402654402,0.0005385716182316333,0.5473115337523321,-1.6534759605078776e-05,0.8369289603952484,0.0026657255,0.019344743,0.09063903,-0.00016294567,-0.012031062,-0.006226944,0.5235896,0.00019111253,-0.011352362,0.0023486614,0.9999936400418761,-0.00014323904631166856,0.0035636159128948305,0.0010357560162236078,0.9677929595718953,-0.2517453368238365,-0.0034127826291579333,0.25174742677065765,0.9677869528099037,left_images/camera_left_28.png,right_images/camera_right_28.png
2025-06-27 14:27:29,1.6065454483032227,29,-0.034323364,-0.0002756903,0.11403818,-0.00069230044,0.0002939946,-0.027659537,1.0471791,0.05790714,2.637551e-05,0.0020310194,0.833280810248951,-0.0005968846851353683,0.5528496495427346,0.0006913429948136302,0.9999997603145335,3.762630800209664e-05,-0.5528495394912756,0.0003508554519778764,0.833281023175697,0.07067476,0.0005315847,0.11086674,0.0007853461,1.9233552e-05,-0.015325125,1.047179,-0.056457043,-6.0745428e-05,0.0067547006,0.8369286340213877,0.000959175374687702,-0.5473111925931122,-0.0007938499823882383,0.999999539858631,0.0005385951464955492,0.5473114573597921,-1.6282719646141402e-05,0.8369290103572545,0.0026657255,0.019344743,0.09063903,-0.00016294567,-0.012031062,-0.006226944,0.5235896,0.00019111253,-0.011352362,0.0023486614,0.9999936400418761,-0.00014323904631166856,0.0035636159128948305,0.0010357560162236078,0.9677929595718953,-0.2517453368238365,-0.0034127826291579333,0.25174742677065765,0.9677869528099037,left_images/camera_left_29.png,right_images/camera_right_29.png
2025-06-27 14:27:29,1.6557703018188477,30,-0.034323364,-0.0002756868,0.11403818,-0.0006922837,0.000294045,-0.027659481,1.0471791,0.05790714,2.637551e-05,0.0020310194,0.833280810248951,-0.0005968846851353683,0.5528496495427346,0.0006913429948136302,0.9999997603145335,3.762630800209664e-05,-0.5528495394912756,0.0003508554519778764,0.833281023175697,0.07067476,0.0005315882,0.11086674,0.0007853426,1.9219966e-05,-0.015325125,1.047179,-0.056457043,-6.0745428e-05,0.0067547006,0.8369286340213877,0.000959175374687702,-0.5473111925931122,-0.0007938499823882383,0.999999539858631,0.0005385951464955492,0.5473114573597921,-1.6282719646141402e-05,0.8369290103572545,0.0026657255,0.019344743,0.09063903,-0.00016294567,-0.012031062,-0.006226944,0.5235896,0.00019111253,-0.011352362,0.0023486614,0.9999936400418761,-0.00014323904631166856,0.0035636159128948305,0.0010357560162236078,0.9677929595718953,-0.2517453368238365,-0.0034127826291579333,0.25174742677065765,0.9677869528099037,left_images/camera_left_30.png,right_images/camera_right_30.png
2025-06-27 14:27:29,1.708134412765503,31,-0.034323364,-0.00027568176,0.11403818,-0.00069225015,0.00029400986,-0.027659481,1.0471791,0.05790714,2.637551e-05,0.0020310194,0.833280810248951,-0.0005968846851353683,0.5528496495427346,0.0006913429948136302,0.9999997603145335,3.762630800209664e-05,-0.5528495394912756,0.0003508554519778764,0.833281023175697,0.07067476,0.00053160085,0.11086674,0.0007854035,1.9199548e-05,-0.015325153,1.047179,-0.056457043,-6.0745428e-05,0.0067547006,0.8369286340213877,0.000959175374687702,-0.5473111925931122,-0.0007938499823882383,0.999999539858631,0.0005385951464955492,0.5473114573597921,-1.6282719646141402e-05,0.8369290103572545,0.0026657255,0.019344743,0.09063903,-0.00016294567,-0.012031062,-0.006226944,0.5235896,0.00019111253,-0.011352362,0.0023486614,0.9999936400418761,-0.00014323904631166856,0.0035636159128948305,0.0010357560162236078,0.9677929595718953,-0.2517453368238365,-0.0034127826291579333,0.25174742677065765,0.9677869528099037,left_images/camera_left_31.png,right_images/camera_right_31.png
2025-06-27 14:27:30,1.7613706588745117,32,-0.034323364,-0.00027567652,0.11403818,-0.0006922166,0.0002939747,-0.027659481,1.0471791,0.05790714,2.6384425e-05,0.0020310204,0.8332806840987979,-0.0005966841679438434,0.5528498398985418,0.0006914204855848992,0.9999997602788792,3.714695780993065e-05,-0.55284972953376,0.00035129786234213534,0.8332808969034754,0.07067476,0.00053160515,0.11086674,0.0007854,1.9185962e-05,-0.015325153,1.047179,-0.056457043,-6.0745428e-05,0.0067547006,0.8369286340213877,0.000959175374687702,-0.5473111925931122,-0.0007938499823882383,0.999999539858631,0.0005385951464955492,0.5473114573597921,-1.6282719646141402e-05,0.8369290103572545,0.0026657255,0.019344743,0.09063903,-0.00016294567,-0.012031062,-0.006226944,0.5235896,0.00019111253,-0.011352362,0.0023486614,0.9999936400418761,-0.00014323904631166856,0.0035636159128948305,0.0010357560162236078,0.9677929595718953,-0.2517453368238365,-0.0034127826291579333,0.25174742677065765,0.9677869528099037,left_images/camera_left_32.png,right_images/camera_right_32.png
2025-06-27 14:27:30,1.808539867401123,33,-0.034323364,-0.0002756775,0.11403818,-0.00069223676,0.00029398059,-0.027659481,1.0471791,0.05790714,2.6384425e-05,0.0020310204,0.8332806840987979,-0.0005966841679438434,0.5528498398985418,0.0006914204855848992,0.9999997602788792,3.714695780993065e-05,-0.55284972953376,0.00035129786234213534,0.8332808969034754,0.07067476,0.00053160865,0.11086674,0.0007853965,1.9172374e-05,-0.015325153,1.047179,-0.056457043,-6.0745428e-05,0.0067547006,0.8369286340213877,0.000959175374687702,-0.5473111925931122,-0.0007938499823882383,0.999999539858631,0.0005385951464955492,0.5473114573597921,-1.6282719646141402e-05,0.8369290103572545,0.0026657255,0.019344743,0.09063903,-0.00016294567,-0.012031062,-0.006226944,0.5235896,0.00019111253,-0.011352362,0.0023486614,0.9999936400418761,-0.00014323904631166856,0.0035636159128948305,0.0010357560162236078,0.9677929595718953,-0.2517453368238365,-0.0034127826291579333,0.25174742677065765,0.9677869528099037,left_images/camera_left_33.png,right_images/camera_right_33.png
2025-06-27 14:27:30,1.8590853214263916,34,-0.034323364,-0.00027567925,0.11403818,-0.0006922569,0.00029398646,-0.027659481,1.0471791,0.05790714,2.6384425e-05,0.0020310204,0.8332806840987979,-0.0005966841679438434,0.5528498398985418,0.0006914204855848992,0.9999997602788792,3.714695780993065e-05,-0.55284972953376,0.00035129786234213534,0.8332808969034754,0.07067476,0.00053161214,0.11086674,0.000785393,1.9158786e-05,-0.015325153,1.047179,-0.056457043,-6.0745428e-05,0.0067547006,0.8369286340213877,0.000959175374687702,-0.5473111925931122,-0.0007938499823882383,0.999999539858631,0.0005385951464955492,0.5473114573597921,-1.6282719646141402e-05,0.8369290103572545,0.0026657255,0.019344743,0.09063903,-0.00016294567,-0.012031062,-0.006226944,0.5235896,0.00019111253,-0.011352362,0.0023486614,0.9999936400418761,-0.00014323904631166856,0.0035636159128948305,0.0010357560162236078,0.9677929595718953,-0.2517453368238365,-0.0034127826291579333,0.25174742677065765,0.9677869528099037,left_images/camera_left_34.png,right_images/camera_right_34.png
2025-06-27 14:27:30,1.9089272022247314,35,-0.034323364,-0.0002756786,0.11403818,-0.0006922599,0.00029390678,-0.027659537,1.0471791,0.05790714,2.6384425e-05,0.0020310204,0.8332806840987979,-0.0005966841679438434,0.5528498398985418,0.0006914204855848992,0.9999997602788792,3.714695780993065e-05,-0.55284972953376,0.00035129786234213534,0.8332808969034754,0.07067476,0.00053161563,0.11086674,0.0007853895,1.9145198e-05,-0.015325153,1.047179,-0.056457043,-6.0745428e-05,0.0067547006,0.8369286340213877,0.000959175374687702,-0.5473111925931122,-0.0007938499823882383,0.999999539858631,0.0005385951464955492,0.5473114573597921,-1.6282719646141402e-05,0.8369290103572545,0.0026657255,0.019344743,0.09063903,-0.00016294567,-0.012031062,-0.006226944,0.5235896,0.00019111253,-0.011352362,0.0023486614,0.9999936400418761,-0.00014323904631166856,0.0035636159128948305,0.0010357560162236078,0.9677929595718953,-0.2517453368238365,-0.0034127826291579333,0.25174742677065765,0.9677869528099037,left_images/camera_left_35.png,right_images/camera_right_35.png
2025-06-27 14:27:30,1.9598760604858398,36,-0.034323364,-0.00027567978,0.11403818,-0.00069228007,0.00029391263,-0.027659537,1.0471791,0.05790714,2.6384425e-05,0.0020310204,0.8332806840987979,-0.0005966841679438434,0.5528498398985418,0.0006914204855848992,0.9999997602788792,3.714695780993065e-05,-0.55284972953376,0.00035129786234213534,0.8332808969034754,0.07067476,0.0005316191,0.11086674,0.000785386,1.913161e-05,-0.015325153,1.047179,-0.056457043,-6.0745428e-05,0.0067547006,0.8369286340213877,0.000959175374687702,-0.5473111925931122,-0.0007938499823882383,0.999999539858631,0.0005385951464955492,0.5473114573597921,-1.6282719646141402e-05,0.8369290103572545,0.0026657255,0.019344743,0.09063903,-0.00016294567,-0.012031062,-0.006226944,0.5235896,0.00019111253,-0.011352362,0.0023486614,0.9999936400418761,-0.00014323904631166856,0.0035636159128948305,0.0010357560162236078,0.9677929595718953,-0.2517453368238365,-0.0034127826291579333,0.25174742677065765,0.9677869528099037,left_images/camera_left_36.png,right_images/camera_right_36.png
2025-06-27 14:27:30,2.0209407806396484,37,-0.034323364,-0.00027568152,0.11403818,-0.0006923002,0.0002939185,-0.027659537,1.0471791,0.05790714,2.6384425e-05,0.0020310204,0.8332806840987979,-0.0005966841679438434,0.5528498398985418,0.0006914204855848992,0.9999997602788792,3.714695780993065e-05,-0.55284972953376,0.00035129786234213534,0.8332808969034754,0.07067476,0.0005316226,0.11086674,0.0007853825,1.9118022e-05,-0.015325153,1.047179,-0.056457043,-6.0745428e-05,0.0067547006,0.8369286340213877,0.000959175374687702,-0.5473111925931122,-0.0007938499823882383,0.999999539858631,0.0005385951464955492,0.5473114573597921,-1.6282719646141402e-05,0.8369290103572545,0.0026657255,0.019344743,0.09063903,-0.00016294567,-0.012031062,-0.006226944,0.5235896,0.00019111253,-0.011352362,0.0023486614,0.9999936400418761,-0.00014323904631166856,0.0035636159128948305,0.0010357560162236078,0.9677929595718953,-0.2517453368238365,-0.0034127826291579333,0.25174742677065765,0.9677869528099037,left_images/camera_left_37.png,right_images/camera_right_37.png
2025-06-27 14:27:30,2.0734710693359375,38,-0.034323364,-0.00027568327,0.11403818,-0.00069232035,0.0002939244,-0.027659537,1.0471791,0.05790714,2.6384425e-05,0.0020310204,0.8332806840987979,-0.0005966841679438434,0.5528498398985418,0.0006914204855848992,0.9999997602788792,3.714695780993065e-05,-0.55284972953376,0.00035129786234213534,0.8332808969034754,0.07067476,0.0005316261,0.11086674,0.00078537903,1.9104435e-05,-0.015325153,1.047179,-0.056457043,-6.0745428e-05,0.0067547006,0.8369286340213877,0.000959175374687702,-0.5473111925931122,-0.0007938499823882383,0.999999539858631,0.0005385951464955492,0.5473114573597921,-1.6282719646141402e-05,0.8369290103572545,0.0026657255,0.019344743,0.09063903,-0.00016294567,-0.012031062,-0.006226944,0.5235896,0.00019111253,-0.011352362,0.0023486614,0.9999936400418761,-0.00014323904631166856,0.0035636159128948305,0.0010357560162236078,0.9677929595718953,-0.2517453368238365,-0.0034127826291579333,0.25174742677065765,0.9677869528099037,left_images/camera_left_38.png,right_images/camera_right_38.png
2025-06-27 14:27:30,2.1263809204101562,39,-0.034323364,-0.00027568502,0.11403818,-0.0006923405,0.00029393026,-0.027659537,1.0471791,0.05790714,2.6384425e-05,0.0020310204,0.8332806840987979,-0.0005966841679438434,0.5528498398985418,0.0006914204855848992,0.9999997602788792,3.714695780993065e-05,-0.55284972953376,0.00035129786234213534,0.8332808969034754,0.07067476,0.00053162954,0.11086674,0.0007853559,1.9171932e-05,-0.015325153,1.047179,-0.056457043,-6.0745428e-05,0.0067547006,0.8369286340213877,0.000959175374687702,-0.5473111925931122,-0.0007938499823882383,0.999999539858631,0.0005385951464955492,0.5473114573597921,-1.6282719646141402e-05,0.8369290103572545,0.0026657255,0.019344743,0.09063903,-0.00016294567,-0.012031062,-0.006226944,0.5235896,0.00019111253,-0.011352362,0.0023486614,0.9999936400418761,-0.00014323904631166856,0.0035636159128948305,0.0010357560162236078,0.9677929595718953,-0.2517453368238365,-0.0034127826291579333,0.25174742677065765,0.9677869528099037,left_images/camera_left_39.png,right_images/camera_right_39.png
2025-06-27 14:27:30,2.1877448558807373,40,-0.034323364,-0.00027568676,0.11403818,-0.0006923606,0.00029393614,-0.027659537,1.0471791,0.05790714,2.6384425e-05,0.0020310204,0.8332806840987979,-0.0005966841679438434,0.5528498398985418,0.0006914204855848992,0.9999997602788792,3.714695780993065e-05,-0.55284972953376,0.00035129786234213534,0.8332808969034754,0.07067476,0.00053163304,0.11086674,0.00078535243,1.9158357e-05,-0.015325153,1.047179,-0.056457043,-6.0745428e-05,0.0067547006,0.8369286340213877,0.000959175374687702,-0.5473111925931122,-0.0007938499823882383,0.999999539858631,0.0005385951464955492,0.5473114573597921,-1.6282719646141402e-05,0.8369290103572545,0.0026657255,0.019344743,0.09063903,-0.00016294567,-0.012031062,-0.006226944,0.5235896,0.00019111253,-0.011352362,0.0023486614,0.9999936400418761,-0.00014323904631166856,0.0035636159128948305,0.0010357560162236078,0.9677929595718953,-0.2517453368238365,-0.0034127826291579333,0.25174742677065765,0.9677869528099037,left_images/camera_left_40.png,right_images/camera_right_40.png
2025-06-27 14:27:30,2.2546772956848145,41,-0.034323364,-0.0002756885,0.11403818,-0.00069238077,0.00029394202,-0.027659537,1.0471791,0.05790714,2.6384425e-05,0.0020310204,0.8332806840987979,-0.0005966841679438434,0.5528498398985418,0.0006914204855848992,0.9999997602788792,3.714695780993065e-05,-0.55284972953376,0.00035129786234213534,0.8332808969034754,0.07067476,0.0005316365,0.11086674,0.00078534894,1.9144769e-05,-0.015325153,1.047179,-0.056457043,-6.0745428e-05,0.0067547006,0.8369286340213877,0.000959175374687702,-0.5473111925931122,-0.0007938499823882383,0.999999539858631,0.0005385951464955492,0.5473114573597921,-1.6282719646141402e-05,0.8369290103572545,0.0026657255,0.019344743,0.09063903,-0.00016294567,-0.012031062,-0.006226944,0.5235896,0.00019111253,-0.011352362,0.0023486614,0.9999936400418761,-0.00014323904631166856,0.0035636159128948305,0.0010357560162236078,0.9677929595718953,-0.2517453368238365,-0.0034127826291579333,0.25174742677065765,0.9677869528099037,left_images/camera_left_41.png,right_images/camera_right_41.png
2025-06-27 14:27:30,2.3185133934020996,42,-0.034323364,-0.00027569025,0.11403818,-0.0006924009,0.0002939479,-0.027659537,1.0471791,0.05790714,2.6384425e-05,0.0020310204,0.8332806840987979,-0.0005966841679438434,0.5528498398985418,0.0006914204855848992,0.9999997602788792,3.714695780993065e-05,-0.55284972953376,0.00035129786234213534,0.8332808969034754,0.07067476,0.00053164,0.11086674,0.00078534544,1.9131181e-05,-0.015325153,1.047179,-0.056457043,-6.0745428e-05,0.0067547006,0.8369286340213877,0.000959175374687702,-0.5473111925931122,-0.0007938499823882383,0.999999539858631,0.0005385951464955492,0.5473114573597921,-1.6282719646141402e-05,0.8369290103572545,0.0026657255,0.019344743,0.09063903,-0.00016294567,-0.012031062,-0.006226944,0.5235896,0.00019111253,-0.011352362,0.0023486614,0.9999936400418761,-0.00014323904631166856,0.0035636159128948305,0.0010357560162236078,0.9677929595718953,-0.2517453368238365,-0.0034127826291579333,0.25174742677065765,0.9677869528099037,left_images/camera_left_42.png,right_images/camera_right_42.png
2025-06-27 14:27:30,2.3826851844787598,43,-0.034323364,-0.000275692,0.11403818,-0.00069242105,0.00029395378,-0.027659537,1.0471791,0.05790714,2.6384425e-05,0.0020310204,0.8332806840987979,-0.0005966841679438434,0.5528498398985418,0.0006914204855848992,0.9999997602788792,3.714695780993065e-05,-0.55284972953376,0.00035129786234213534,0.8332808969034754,0.07067476,0.0005316435,0.11086674,0.00078534195,1.9117593e-05,-0.015325153,1.047179,-0.056457043,-6.0745428e-05,0.0067547006,0.8369286340213877,0.000959175374687702,-0.5473111925931122,-0.0007938499823882383,0.999999539858631,0.0005385951464955492,0.5473114573597921,-1.6282719646141402e-05,0.8369290103572545,0.0026657255,0.019344743,0.09063903,-0.00016294567,-0.012031062,-0.006226944,0.5235896,0.00019111253,-0.011352362,0.0023486614,0.9999936400418761,-0.00014323904631166856,0.0035636159128948305,0.0010357560162236078,0.9677929595718953,-0.2517453368238365,-0.0034127826291579333,0.25174742677065765,0.9677869528099037,left_images/camera_left_43.png,right_images/camera_right_43.png
2025-06-27 14:27:30,2.4363722801208496,44,-0.034323364,-0.00027569375,0.11403818,-0.0006924412,0.00029395966,-0.027659537,1.0471791,0.05790714,2.6384425e-05,0.0020310204,0.8332806840987979,-0.0005966841679438434,0.5528498398985418,0.0006914204855848992,0.9999997602788792,3.714695780993065e-05,-0.55284972953376,0.00035129786234213534,0.8332808969034754,0.07067476,0.00053165614,0.11086674,0.00078540284,1.9097175e-05,-0.015325181,1.047179,-0.05645705,-6.0734907e-05,0.0067546996,0.8369286527244192,0.000958929936602387,-0.5473111644231876,-0.000793901311956043,0.9999995401015469,0.0005380682129713854,0.5473114286853471,-1.5813653072219234e-05,0.8369290291179611,0.0026657255,0.019344743,0.09063903,-0.00016294567,-0.012031062,-0.006226944,0.5235896,0.00019111253,-0.011352362,0.0023486614,0.9999936400418761,-0.00014323904631166856,0.0035636159128948305,0.0010357560162236078,0.9677929595718953,-0.2517453368238365,-0.0034127826291579333,0.25174742677065765,0.9677869528099037,left_images/camera_left_44.png,right_images/camera_right_44.png
2025-06-27 14:27:30,2.4999163150787354,45,-0.034323364,-0.0002756955,0.11403818,-0.0006924613,0.00029396554,-0.027659537,1.0471791,0.05790714,2.6384425e-05,0.0020310204,0.8332806840987979,-0.0005966841679438434,0.5528498398985418,0.0006914204855848992,0.9999997602788792,3.714695780993065e-05,-0.55284972953376,0.00035129786234213534,0.8332808969034754,0.07067476,0.0005316517,0.11086674,0.0007854047,1.9041783e-05,-0.015325153,1.047179,-0.05645705,-6.0734907e-05,0.0067546996,0.8369286527244192,0.000958929936602387,-0.5473111644231876,-0.000793901311956043,0.9999995401015469,0.0005380682129713854,0.5473114286853471,-1.5813653072219234e-05,0.8369290291179611,0.0026657255,0.019344743,0.09063903,-0.00016294567,-0.012031062,-0.006226944,0.5235896,0.00019111253,-0.011352362,0.0023486614,0.9999936400418761,-0.00014323904631166856,0.0035636159128948305,0.0010357560162236078,0.9677929595718953,-0.2517453368238365,-0.0034127826291579333,0.25174742677065765,0.9677869528099037,left_images/camera_left_45.png,right_images/camera_right_45.png
2025-06-27 14:27:30,2.5502214431762695,46,-0.034323364,-0.00027572055,0.11403818,-0.0006924132,0.00029399653,-0.027659537,1.0471791,0.05790714,2.637551e-05,0.0020310194,0.833280810248951,-0.0005968846851353683,0.5528496495427346,0.0006913429948136302,0.9999997603145335,3.762630800209664e-05,-0.5528495394912756,0.0003508554519778764,0.833281023175697,0.07067476,0.0005316419,0.11086674,0.00078536884,1.9103627e-05,-0.015325209,1.047179,-0.056457046,-6.0746537e-05,0.006754697,0.8369288715650036,0.0009591520023155722,-0.5473108293907276,-0.0007937342349770319,0.9999995398781649,0.0005387294523574237,0.5473110942844974,-1.6458890179236866e-05,0.8369292477875361,0.0026657255,0.019344743,0.09063903,-0.00016294567,-0.012031062,-0.006226944,0.5235896,0.00019111253,-0.011352362,0.0023486614,0.9999936400418761,-0.00014323904631166856,0.0035636159128948305,0.0010357560162236078,0.9677929595718953,-0.2517453368238365,-0.0034127826291579333,0.25174742677065765,0.9677869528099037,left_images/camera_left_46.png,right_images/camera_right_46.png
2025-06-27 14:27:30,2.6040680408477783,47,-0.034323364,-0.0002757214,0.11403818,-0.0006923964,0.00029404694,-0.027659481,1.0471791,0.05790714,2.637551e-05,0.0020310194,0.833280810248951,-0.0005968846851353683,0.5528496495427346,0.0006913429948136302,0.9999997603145335,3.762630800209664e-05,-0.5528495394912756,0.0003508554519778764,0.833281023175697,0.07067476,0.0005316449,0.11086674,0.0007853271,1.9151757e-05,-0.015325236,1.047179,-0.056457076,-6.0738505e-05,0.0067547294,0.8369288220288233,0.0009587805938797985,-0.5473109057905013,-0.0007932947141610272,0.9999995402304375,0.000538722943938642,0.5473111706707098,-1.669391030417885e-05,0.8369291978300021,0.0026657255,0.019344743,0.09063903,-0.00016294567,-0.012031062,-0.006226944,0.5235896,0.00019111253,-0.011352362,0.0023486614,0.9999936400418761,-0.00014323904631166856,0.0035636159128948305,0.0010357560162236078,0.9677929595718953,-0.2517453368238365,-0.0034127826291579333,0.25174742677065765,0.9677869528099037,left_images/camera_left_47.png,right_images/camera_right_47.png
2025-06-27 14:27:30,2.6601483821868896,48,-0.034323364,-0.00027571636,0.11403818,-0.0006923629,0.0002940118,-0.027659481,1.0471791,0.05790714,2.637551e-05,0.0020310194,0.833280810248951,-0.0005968846851353683,0.5528496495427346,0.0006913429948136302,0.9999997603145335,3.762630800209664e-05,-0.5528495394912756,0.0003508554519778764,0.833281023175697,0.07067476,0.0005316361,0.11086674,0.0007853032,1.9147872e-05,-0.015325208,1.047179,-0.056457076,-6.0738505e-05,0.0067547294,0.8369288220288233,0.0009587805938797985,-0.5473109057905013,-0.0007932947141610272,0.9999995402304375,0.000538722943938642,0.5473111706707098,-1.669391030417885e-05,0.8369291978300021,0.0026657255,0.019344743,0.09063903,-0.00016294567,-0.012031062,-0.006226944,0.5235896,0.00019111253,-0.011352362,0.0023486614,0.9999936400418761,-0.00014323904631166856,0.0035636159128948305,0.0010357560162236078,0.9677929595718953,-0.2517453368238365,-0.0034127826291579333,0.25174742677065765,0.9677869528099037,left_images/camera_left_48.png,right_images/camera_right_48.png
2025-06-27 14:27:30,2.706677198410034,49,-0.034323364,-0.00027571112,0.11403818,-0.00069232937,0.00029397666,-0.027659481,1.0471791,0.05790714,2.6384425e-05,0.0020310204,0.8332806840987979,-0.0005966841679438434,0.5528498398985418,0.0006914204855848992,0.9999997602788792,3.714695780993065e-05,-0.55284972953376,0.00035129786234213534,0.8332808969034754,0.07067476,0.0005316357,0.11086674,0.00078534323,1.9137822e-05,-0.015325208,1.047179,-0.056457046,-6.0746537e-05,0.006754697,0.8369288715650036,0.0009591520023155722,-0.5473108293907276,-0.0007937342349770319,0.9999995398781649,0.0005387294523574237,0.5473110942844974,-1.6458890179236866e-05,0.8369292477875361,0.0026657255,0.019344743,0.09063903,-0.00016294567,-0.012031062,-0.006226944,0.5235896,0.00019111253,-0.011352362,0.0023486614,0.9999936400418761,-0.00014323904631166856,0.0035636159128948305,0.0010357560162236078,0.9677929595718953,-0.2517453368238365,-0.0034127826291579333,0.25174742677065765,0.9677869528099037,left_images/camera_left_49.png,right_images/camera_right_49.png
2025-06-27 14:27:31,2.7666616439819336,50,-0.034323364,-0.0002757121,0.11403818,-0.0006923495,0.00029398254,-0.027659481,1.0471791,0.05790714,2.6384425e-05,0.0020310204,0.8332806840987979,-0.0005966841679438434,0.5528498398985418,0.0006914204855848992,0.9999997602788792,3.714695780993065e-05,-0.55284972953376,0.00035129786234213534,0.8332808969034754,0.07067476,0.00053164246,0.11086674,0.0007853539,1.9086265e-05,-0.015325208,1.047179,-0.056457054,-6.0737224e-05,0.0067546973,0.8369288901513637,0.0009590262942401629,-0.5473108011893917,-0.0007939296937600472,0.9999995400076207,0.0005382008814707035,0.5473110655793909,-1.590956962790169e-05,0.8369292665699042,0.0026657255,0.019344743,0.09063903,-0.00016294567,-0.012031062,-0.006226944,0.5235896,0.00019111253,-0.011352362,0.0023486614,0.9999936400418761,-0.00014323904631166856,0.0035636159128948305,0.0010357560162236078,0.9677929595718953,-0.2517453368238365,-0.0034127826291579333,0.25174742677065765,0.9677869528099037,left_images/camera_left_50.png,right_images/camera_right_50.png
2025-06-27 14:27:31,2.8179244995117188,51,-0.034323364,-0.00027571386,0.11403818,-0.00069236965,0.0002939884,-0.027659481,1.0471791,0.05790714,2.637551e-05,0.0020310194,0.833280810248951,-0.0005968846851353683,0.5528496495427346,0.0006913429948136302,0.9999997603145335,3.762630800209664e-05,-0.5528495394912756,0.0003508554519778764,0.833281023175697,0.07067476,0.0005316475,0.11086674,0.000785388,1.9104364e-05,-0.015325236,1.047179,-0.056457046,-6.0746537e-05,0.006754697,0.8369288715650036,0.0009591520023155722,-0.5473108293907276,-0.0007937342349770319,0.9999995398781649,0.0005387294523574237,0.5473110942844974,-1.6458890179236866e-05,0.8369292477875361,0.0026657255,0.019344743,0.09063903,-0.00016294567,-0.012031062,-0.006226944,0.5235896,0.00019111253,-0.011352362,0.0023486614,0.9999936400418761,-0.00014323904631166856,0.0035636159128948305,0.0010357560162236078,0.9677929595718953,-0.2517453368238365,-0.0034127826291579333,0.25174742677065765,0.9677869528099037,left_images/camera_left_51.png,right_images/camera_right_51.png
2025-06-27 14:27:31,2.8654232025146484,52,-0.034323364,-0.00027571066,0.11403818,-0.0006923529,0.00029403882,-0.027659426,1.0471791,0.05790714,2.637551e-05,0.0020310194,0.833280810248951,-0.0005968846851353683,0.5528496495427346,0.0006913429948136302,0.9999997603145335,3.762630800209664e-05,-0.5528495394912756,0.0003508554519778764,0.833281023175697,0.07067476,0.00053165236,0.11086674,0.0007853463,1.9152496e-05,-0.015325263,1.047179,-0.056457046,-6.0746537e-05,0.006754697,0.8369288715650036,0.0009591520023155722,-0.5473108293907276,-0.0007937342349770319,0.9999995398781649,0.0005387294523574237,0.5473110942844974,-1.6458890179236866e-05,0.8369292477875361,0.0026657255,0.019344743,0.09063903,-0.00016294567,-0.012031062,-0.006226944,0.5235896,0.00019111253,-0.011352362,0.0023486614,0.9999936400418761,-0.00014323904631166856,0.0035636159128948305,0.0010357560162236078,0.9677929595718953,-0.2517453368238365,-0.0034127826291579333,0.25174742677065765,0.9677869528099037,left_images/camera_left_52.png,right_images/camera_right_52.png
2025-06-27 14:27:31,2.92409348487854,53,-0.034323364,-0.00027570562,0.11403818,-0.00069231936,0.0002940037,-0.027659426,1.0471791,0.05790714,2.637551e-05,0.0020310194,0.833280810248951,-0.0005968846851353683,0.5528496495427346,0.0006913429948136302,0.9999997603145335,3.762630800209664e-05,-0.5528495394912756,0.0003508554519778764,0.833281023175697,0.07067476,0.0005316591,0.11086674,0.0007853569,1.9100953e-05,-0.015325263,1.047179,-0.056457046,-6.0746537e-05,0.006754697,0.8369288715650036,0.0009591520023155722,-0.5473108293907276,-0.0007937342349770319,0.9999995398781649,0.0005387294523574237,0.5473110942844974,-1.6458890179236866e-05,0.8369292477875361,0.0026657255,0.019344743,0.09063903,-0.00016294567,-0.012031062,-0.006226944,0.5235896,0.00019111253,-0.011352362,0.0023486614,0.9999936400418761,-0.00014323904631166856,0.0035636159128948305,0.0010357560162236078,0.9677929595718953,-0.2517453368238365,-0.0034127826291579333,0.25174742677065765,0.9677869528099037,left_images/camera_left_53.png,right_images/camera_right_53.png
2025-06-27 14:27:31,2.973679542541504,54,-0.034323364,-0.0002757021,0.11403818,-0.0006923026,0.00029405407,-0.02765937,1.0471791,0.05790714,2.637551e-05,0.0020310194,0.833280810248951,-0.0005968846851353683,0.5528496495427346,0.0006913429948136302,0.9999997603145335,3.762630800209664e-05,-0.5528495394912756,0.0003508554519778764,0.833281023175697,0.07067476,0.00053166307,0.11086674,0.0007853152,1.914908e-05,-0.01532529,1.047179,-0.056457076,-6.0738505e-05,0.0067547294,0.8369288220288233,0.0009587805938797985,-0.5473109057905013,-0.0007932947141610272,0.9999995402304375,0.000538722943938642,0.5473111706707098,-1.669391030417885e-05,0.8369291978300021,0.0026657255,0.019344743,0.09063903,-0.00016294567,-0.012031062,-0.006226944,0.5235896,0.00019111253,-0.011352362,0.0023486614,0.9999936400418761,-0.00014323904631166856,0.0035636159128948305,0.0010357560162236078,0.9677929595718953,-0.2517453368238365,-0.0034127826291579333,0.25174742677065765,0.9677869528099037,left_images/camera_left_54.png,right_images/camera_right_54.png
2025-06-27 14:27:31,3.025914430618286,55,-0.034323364,-0.00027569706,0.11403818,-0.00069226907,0.00029401894,-0.02765937,1.0471791,0.05790714,2.637551e-05,0.0020310194,0.833280810248951,-0.0005968846851353683,0.5528496495427346,0.0006913429948136302,0.9999997603145335,3.762630800209664e-05,-0.5528495394912756,0.0003508554519778764,0.833281023175697,0.07067476,0.00053166307,0.11086674,0.0007853552,1.913905e-05,-0.01532529,1.047179,-0.056457046,-6.0746537e-05,0.006754697,0.8369288715650036,0.0009591520023155722,-0.5473108293907276,-0.0007937342349770319,0.9999995398781649,0.0005387294523574237,0.5473110942844974,-1.6458890179236866e-05,0.8369292477875361,0.0026657255,0.019344743,0.09063903,-0.00016294567,-0.012031062,-0.006226944,0.5235896,0.00019111253,-0.011352362,0.0023486614,0.9999936400418761,-0.00014323904631166856,0.0035636159128948305,0.0010357560162236078,0.9677929595718953,-0.2517453368238365,-0.0034127826291579333,0.25174742677065765,0.9677869528099037,left_images/camera_left_55.png,right_images/camera_right_55.png
2025-06-27 14:27:31,3.077392578125,56,-0.034323364,-0.00027569183,0.11403818,-0.00069223554,0.0002939838,-0.02765937,1.0471791,0.05790714,2.6384425e-05,0.0020310204,0.8332806840987979,-0.0005966841679438434,0.5528498398985418,0.0006914204855848992,0.9999997602788792,3.714695780993065e-05,-0.55284972953376,0.00035129786234213534,0.8332808969034754,0.07067476,0.0005316698,0.11086674,0.0007853659,1.9087493e-05,-0.01532529,1.047179,-0.056457054,-6.0737224e-05,0.0067546973,0.8369288901513637,0.0009590262942401629,-0.5473108011893917,-0.0007939296937600472,0.9999995400076207,0.0005382008814707035,0.5473110655793909,-1.590956962790169e-05,0.8369292665699042,0.0026657255,0.019344743,0.09063903,-0.00016294567,-0.012031062,-0.006226944,0.5235896,0.00019111253,-0.011352362,0.0023486614,0.9999936400418761,-0.00014323904631166856,0.0035636159128948305,0.0010357560162236078,0.9677929595718953,-0.2517453368238365,-0.0034127826291579333,0.25174742677065765,0.9677869528099037,left_images/camera_left_56.png,right_images/camera_right_56.png
2025-06-27 14:27:31,3.128199815750122,57,-0.034323364,-0.00027569282,0.11403818,-0.0006922557,0.00029398967,-0.02765937,1.0471791,0.05790714,2.637551e-05,0.0020310194,0.833280810248951,-0.0005968846851353683,0.5528496495427346,0.0006913429948136302,0.9999997603145335,3.762630800209664e-05,-0.5528495394912756,0.0003508554519778764,0.833281023175697,0.07067476,0.0005316671,0.11086674,0.0007853205,1.9109379e-05,-0.01532529,1.047179,-0.056457076,-6.0738505e-05,0.0067547294,0.8369288220288233,0.0009587805938797985,-0.5473109057905013,-0.0007932947141610272,0.9999995402304375,0.000538722943938642,0.5473111706707098,-1.669391030417885e-05,0.8369291978300021,0.0026657255,0.019344743,0.09063903,-0.00016294567,-0.012031062,-0.006226944,0.5235896,0.00019111253,-0.011352362,0.0023486614,0.9999936400418761,-0.00014323904631166856,0.0035636159128948305,0.0010357560162236078,0.9677929595718953,-0.2517453368238365,-0.0034127826291579333,0.25174742677065765,0.9677869528099037,left_images/camera_left_57.png,right_images/camera_right_57.png
2025-06-27 14:27:31,3.1931567192077637,58,-0.034323364,-0.0002756896,0.11403818,-0.0006922389,0.00029404007,-0.027659314,1.0471791,0.05790714,2.637551e-05,0.0020310194,0.833280810248951,-0.0005968846851353683,0.5528496495427346,0.0006913429948136302,0.9999997603145335,3.762630800209664e-05,-0.5528495394912756,0.0003508554519778764,0.833281023175697,0.07067476,0.000531667,0.11086674,0.0007853605,1.9099336e-05,-0.01532529,1.047179,-0.056457054,-6.0737224e-05,0.0067546973,0.8369288901513637,0.0009590262942401629,-0.5473108011893917,-0.0007939296937600472,0.9999995400076207,0.0005382008814707035,0.5473110655793909,-1.590956962790169e-05,0.8369292665699042,0.0026657255,0.019344743,0.09063903,-0.00016294567,-0.012031062,-0.006226944,0.5235896,0.00019111253,-0.011352362,0.0023486614,0.9999936400418761,-0.00014323904631166856,0.0035636159128948305,0.0010357560162236078,0.9677929595718953,-0.2517453368238365,-0.0034127826291579333,0.25174742677065765,0.9677869528099037,left_images/camera_left_58.png,right_images/camera_right_58.png
2025-06-27 14:27:31,3.259988784790039,59,-0.034323364,-0.00027568458,0.11403818,-0.0006922054,0.00029400495,-0.027659314,1.0471791,0.05790714,2.637551e-05,0.0020310194,0.833280810248951,-0.0005968846851353683,0.5528496495427346,0.0006913429948136302,0.9999997603145335,3.762630800209664e-05,-0.5528495394912756,0.0003508554519778764,0.833281023175697,0.07067476,0.00053167634,0.11086674,0.0007854317,1.9015395e-05,-0.015325318,1.047179,-0.056457054,-6.0737224e-05,0.0067546973,0.8369288901513637,0.0009590262942401629,-0.5473108011893917,-0.0007939296937600472,0.9999995400076207,0.0005382008814707035,0.5473110655793909,-1.590956962790169e-05,0.8369292665699042,0.0026657255,0.019344743,0.09063903,-0.00016294567,-0.012031062,-0.006226944,0.5235896,0.00019111253,-0.011352362,0.0023486614,0.9999936400418761,-0.00014323904631166856,0.0035636159128948305,0.0010357560162236078,0.9677929595718953,-0.2517453368238365,-0.0034127826291579333,0.25174742677065765,0.9677869528099037,left_images/camera_left_59.png,right_images/camera_right_59.png
2025-06-27 14:27:31,3.3075244426727295,60,-0.034323364,-0.00027568106,0.11403818,-0.0006921886,0.00029405532,-0.027659258,1.0471791,0.05790714,2.637551e-05,0.0020310194,0.833280810248951,-0.0005968846851353683,0.5528496495427346,0.0006913429948136302,0.9999997603145335,3.762630800209664e-05,-0.5528495394912756,0.0003508554519778764,0.833281023175697,0.07067476,0.00053167494,0.11086674,0.00078538636,1.9037268e-05,-0.015325318,1.047179,-0.056457054,-6.0737224e-05,0.0067546973,0.8369288901513637,0.0009590262942401629,-0.5473108011893917,-0.0007939296937600472,0.9999995400076207,0.0005382008814707035,0.5473110655793909,-1.590956962790169e-05,0.8369292665699042,0.0026657255,0.019344743,0.09063903,-0.00016294567,-0.012031062,-0.006226944,0.5235896,0.00019111253,-0.011352362,0.0023486614,0.9999936400418761,-0.00014323904631166856,0.0035636159128948305,0.0010357560162236078,0.9677929595718953,-0.2517453368238365,-0.0034127826291579333,0.25174742677065765,0.9677869528099037,left_images/camera_left_60.png,right_images/camera_right_60.png
2025-06-27 14:27:31,3.358682632446289,61,-0.034323364,-0.00027567602,0.11403818,-0.0006921551,0.0002940202,-0.027659258,1.0471791,0.05790714,2.637551e-05,0.0020310194,0.833280810248951,-0.0005968846851353683,0.5528496495427346,0.0006913429948136302,0.9999997603145335,3.762630800209664e-05,-0.5528495394912756,0.0003508554519778764,0.833281023175697,0.07067476,0.00053167145,0.11086674,0.00078534096,1.9059158e-05,-0.015325318,1.047179,-0.056457076,-6.0729955e-05,0.0067547276,0.8369288407021547,0.0009585876068896049,-0.5473108775739319,-0.0007933644385723353,0.9999995404224146,0.0005382637155348183,0.5473111420150472,-1.6271440323615237e-05,0.8369292165777373,0.0026657255,0.019344743,0.09063903,-0.00016294567,-0.012031062,-0.006226944,0.5235896,0.00019111253,-0.011352362,0.0023486614,0.9999936400418761,-0.00014323904631166856,0.0035636159128948305,0.0010357560162236078,0.9677929595718953,-0.2517453368238365,-0.0034127826291579333,0.25174742677065765,0.9677869528099037,left_images/camera_left_61.png,right_images/camera_right_61.png
2025-06-27 14:27:31,3.40846848487854,62,-0.034323364,-0.00027567078,0.11403818,-0.00069212157,0.00029398504,-0.027659258,1.0471791,0.05790714,2.6384425e-05,0.0020310204,0.8332806840987979,-0.0005966841679438434,0.5528498398985418,0.0006914204855848992,0.9999997602788792,3.714695780993065e-05,-0.55284972953376,0.00035129786234213534,0.8332808969034754,0.07067476,0.00053166796,0.11086674,0.0007853242,1.9083504e-05,-0.015325374,1.047179,-0.056457076,-6.0729955e-05,0.0067547276,0.8369288407021547,0.0009585876068896049,-0.5473108775739319,-0.0007933644385723353,0.9999995404224146,0.0005382637155348183,0.5473111420150472,-1.6271440323615237e-05,0.8369292165777373,0.0026657255,0.019344743,0.09063903,-0.00016294567,-0.012031062,-0.006226944,0.5235896,0.00019111253,-0.011352362,0.0023486614,0.9999936400418761,-0.00014323904631166856,0.0035636159128948305,0.0010357560162236078,0.9677929595718953,-0.2517453368238365,-0.0034127826291579333,0.25174742677065765,0.9677869528099037,left_images/camera_left_62.png,right_images/camera_right_62.png
2025-06-27 14:27:31,3.4579081535339355,63,-0.034323364,-0.00027567177,0.11403818,-0.0006921417,0.00029399092,-0.027659258,1.0471791,0.05790714,2.637551e-05,0.0020310194,0.833280810248951,-0.0005968846851353683,0.5528496495427346,0.0006913429948136302,0.9999997603145335,3.762630800209664e-05,-0.5528495394912756,0.0003508554519778764,0.833281023175697,0.07067476,0.00053166447,0.11086674,0.00078530743,1.9107849e-05,-0.01532543,1.047179,-0.056457076,-6.0738505e-05,0.0067547294,0.8369288220288233,0.0009587805938797985,-0.5473109057905013,-0.0007932947141610272,0.9999995402304375,0.000538722943938642,0.5473111706707098,-1.669391030417885e-05,0.8369291978300021,0.0026657255,0.019344743,0.09063903,-0.00016294567,-0.012031062,-0.006226944,0.5235896,0.00019111253,-0.011352362,0.0023486614,0.9999936400418761,-0.00014323904631166856,0.0035636159128948305,0.0010357560162236078,0.9677929595718953,-0.2517453368238365,-0.0034127826291579333,0.25174742677065765,0.9677869528099037,left_images/camera_left_63.png,right_images/camera_right_63.png
2025-06-27 14:27:31,3.505051612854004,64,-0.034323364,-0.00027566857,0.11403818,-0.00069212494,0.00029404133,-0.027659202,1.0471791,0.057907145,2.637469e-05,0.0020310162,0.8332809869982949,-0.0005969437844512795,0.5528493830739672,0.000691355272371349,0.9999997603027234,3.771449923933027e-05,-0.5528492730709115,0.0003507885606651393,0.8332811999633442,0.07067476,0.00053166435,0.11086674,0.0007853475,1.9097808e-05,-0.01532543,1.047179,-0.056457054,-6.0737224e-05,0.0067546973,0.8369288901513637,0.0009590262942401629,-0.5473108011893917,-0.0007939296937600472,0.9999995400076207,0.0005382008814707035,0.5473110655793909,-1.590956962790169e-05,0.8369292665699042,0.0026657255,0.019344743,0.09063903,-0.00016294567,-0.012031062,-0.006226944,0.5235896,0.00019111253,-0.011352362,0.0023486614,0.9999936400418761,-0.00014323904631166856,0.0035636159128948305,0.0010357560162236078,0.9677929595718953,-0.2517453368238365,-0.0034127826291579333,0.25174742677065765,0.9677869528099037,left_images/camera_left_64.png,right_images/camera_right_64.png
2025-06-27 14:27:31,3.5583460330963135,65,-0.034323364,-0.0002756698,0.11403818,-0.0006921409,0.00029404703,-0.02765909,1.0471791,0.057907145,2.637469e-05,0.0020310162,0.8332809869982949,-0.0005969437844512795,0.5528493830739672,0.000691355272371349,0.9999997603027234,3.771449923933027e-05,-0.5528492730709115,0.0003507885606651393,0.8332811999633442,0.07067476,0.00053167366,0.11086674,0.00078541867,1.9013867e-05,-0.015325458,1.047179,-0.056457054,-6.0737224e-05,0.0067546973,0.8369288901513637,0.0009590262942401629,-0.5473108011893917,-0.0007939296937600472,0.9999995400076207,0.0005382008814707035,0.5473110655793909,-1.590956962790169e-05,0.8369292665699042,0.0026657255,0.019344743,0.09063903,-0.00016294567,-0.012031062,-0.006226944,0.5235896,0.00019111253,-0.011352362,0.0023486614,0.9999936400418761,-0.00014323904631166856,0.0035636159128948305,0.0010357560162236078,0.9677929595718953,-0.2517453368238365,-0.0034127826291579333,0.25174742677065765,0.9677869528099037,left_images/camera_left_65.png,right_images/camera_right_65.png
2025-06-27 14:27:31,3.6083531379699707,66,-0.034323364,-0.00027567148,0.11403818,-0.00069215684,0.00029405273,-0.027658978,1.0471791,0.057907145,2.637469e-05,0.0020310162,0.8332809869982949,-0.0005969437844512795,0.5528493830739672,0.000691355272371349,0.9999997603027234,3.771449923933027e-05,-0.5528492730709115,0.0003507885606651393,0.8332811999633442,0.07067476,0.00053167227,0.11086674,0.0007853733,1.903574e-05,-0.015325458,1.047179,-0.056457054,-6.0737224e-05,0.0067546973,0.8369288901513637,0.0009590262942401629,-0.5473108011893917,-0.0007939296937600472,0.9999995400076207,0.0005382008814707035,0.5473110655793909,-1.590956962790169e-05,0.8369292665699042,0.0026657255,0.019344743,0.09063903,-0.00016294567,-0.012031062,-0.006226944,0.5235896,0.00019111253,-0.011352362,0.0023486614,0.9999936400418761,-0.00014323904631166856,0.0035636159128948305,0.0010357560162236078,0.9677929595718953,-0.2517453368238365,-0.0034127826291579333,0.25174742677065765,0.9677869528099037,left_images/camera_left_66.png,right_images/camera_right_66.png
2025-06-27 14:27:31,3.6574997901916504,67,-0.034323364,-0.00027567317,0.11403818,-0.0006921728,0.00029405844,-0.027658867,1.0471791,0.057907145,2.637469e-05,0.0020310162,0.8332809869982949,-0.0005969437844512795,0.5528493830739672,0.000691355272371349,0.9999997603027234,3.771449923933027e-05,-0.5528492730709115,0.0003507885606651393,0.8332811999633442,0.07067476,0.0005316688,0.11086674,0.0007853279,1.905763e-05,-0.015325458,1.047179,-0.056457076,-6.0729955e-05,0.0067547276,0.8369288407021547,0.0009585876068896049,-0.5473108775739319,-0.0007933644385723353,0.9999995404224146,0.0005382637155348183,0.5473111420150472,-1.6271440323615237e-05,0.8369292165777373,0.0026657255,0.019344743,0.09063903,-0.00016294567,-0.012031062,-0.006226944,0.5235896,0.00019111253,-0.011352362,0.0023486614,0.9999936400418761,-0.00014323904631166856,0.0035636159128948305,0.0010357560162236078,0.9677929595718953,-0.2517453368238365,-0.0034127826291579333,0.25174742677065765,0.9677869528099037,left_images/camera_left_67.png,right_images/camera_right_67.png
2025-06-27 14:27:31,3.7121474742889404,68,-0.034323364,-0.00027567171,0.11403818,-0.0006922058,0.00029404502,-0.02765881,1.0471791,0.05790715,2.6375033e-05,0.0020310148,0.8332811953665067,-0.0005968784077013926,0.5528490690819075,0.0006912774923220727,0.9999997603565411,3.7713239828571996e-05,-0.5528489591054631,0.0003507463845420372,0.8332814082847279,0.07067476,0.0005316653,0.11086674,0.00078531116,1.9081976e-05,-0.015325514,1.047179,-0.056457076,-6.0729955e-05,0.0067547276,0.8369288407021547,0.0009585876068896049,-0.5473108775739319,-0.0007933644385723353,0.9999995404224146,0.0005382637155348183,0.5473111420150472,-1.6271440323615237e-05,0.8369292165777373,0.0026657255,0.019344743,0.09063903,-0.00016294567,-0.012031062,-0.006226944,0.5235896,0.00019111253,-0.011352362,0.0023486614,0.9999936400418761,-0.00014323904631166856,0.0035636159128948305,0.0010357560162236078,0.9677929595718953,-0.2517453368238365,-0.0034127826291579333,0.25174742677065765,0.9677869528099037,left_images/camera_left_68.png,right_images/camera_right_68.png
2025-06-27 14:27:32,3.7613377571105957,69,-0.034323364,-0.0002756727,0.11403818,-0.0006922279,0.00029405113,-0.02765881,1.0471791,0.05790715,2.6375033e-05,0.0020310148,0.8332811953665067,-0.0005968784077013926,0.5528490690819075,0.0006912774923220727,0.9999997603565411,3.7713239828571996e-05,-0.5528489591054631,0.0003507463845420372,0.8332814082847279,0.07067476,0.0005316618,0.11086674,0.0007852944,1.910632e-05,-0.01532557,1.047179,-0.056457076,-6.0738505e-05,0.0067547294,0.8369288220288233,0.0009587805938797985,-0.5473109057905013,-0.0007932947141610272,0.9999995402304375,0.000538722943938642,0.5473111706707098,-1.669391030417885e-05,0.8369291978300021,0.0026657255,0.019344743,0.09063903,-0.00016294567,-0.012031062,-0.006226944,0.5235896,0.00019111253,-0.011352362,0.0023486614,0.9999936400418761,-0.00014323904631166856,0.0035636159128948305,0.0010357560162236078,0.9677929595718953,-0.2517453368238365,-0.0034127826291579333,0.25174742677065765,0.9677869528099037,left_images/camera_left_69.png,right_images/camera_right_69.png
2025-06-27 14:27:32,3.8136470317840576,70,-0.034323364,-0.00027567445,0.11403818,-0.00069225003,0.00029405724,-0.02765881,1.0471791,0.05790715,2.6375033e-05,0.0020310148,0.8332811953665067,-0.0005968784077013926,0.5528490690819075,0.0006912774923220727,0.9999997603565411,3.7713239828571996e-05,-0.5528489591054631,0.0003507463845420372,0.8332814082847279,0.07067476,0.0005316617,0.11086674,0.00078533444,1.909628e-05,-0.01532557,1.047179,-0.056457076,-6.0729955e-05,0.0067547276,0.8369288407021547,0.0009585876068896049,-0.5473108775739319,-0.0007933644385723353,0.9999995404224146,0.0005382637155348183,0.5473111420150472,-1.6271440323615237e-05,0.8369292165777373,0.0026657255,0.019344743,0.09063903,-0.00016294567,-0.012031062,-0.006226944,0.5235896,0.00019111253,-0.011352362,0.0023486614,0.9999936400418761,-0.00014323904631166856,0.0035636159128948305,0.0010357560162236078,0.9677929595718953,-0.2517453368238365,-0.0034127826291579333,0.25174742677065765,0.9677869528099037,left_images/camera_left_70.png,right_images/camera_right_70.png
2025-06-27 14:27:32,3.883498191833496,71,-0.034323364,-0.0002756762,0.11403818,-0.00069227215,0.00029406336,-0.02765881,1.0471791,0.05790715,2.6375033e-05,0.0020310148,0.8332811953665067,-0.0005968784077013926,0.5528490690819075,0.0006912774923220727,0.9999997603565411,3.7713239828571996e-05,-0.5528489591054631,0.0003507463845420372,0.8332814082847279,0.07067476,0.0005316616,0.11086674,0.0007853384,1.903504e-05,-0.01532557,1.047179,-0.056457076,-6.0729955e-05,0.0067547276,0.8369288407021547,0.0009585876068896049,-0.5473108775739319,-0.0007933644385723353,0.9999995404224146,0.0005382637155348183,0.5473111420150472,-1.6271440323615237e-05,0.8369292165777373,0.0026657255,0.019344743,0.09063903,-0.00016294567,-0.012031062,-0.006226944,0.5235896,0.00019111253,-0.011352362,0.0023486614,0.9999936400418761,-0.00014323904631166856,0.0035636159128948305,0.0010357560162236078,0.9677929595718953,-0.2517453368238365,-0.0034127826291579333,0.25174742677065765,0.9677869528099037,left_images/camera_left_71.png,right_images/camera_right_71.png
2025-06-27 14:27:32,3.946390151977539,72,-0.034323364,-0.00027567794,0.11403818,-0.00069229427,0.00029406947,-0.02765881,1.0471791,0.05790715,2.6375033e-05,0.0020310148,0.8332811953665067,-0.0005968784077013926,0.5528490690819075,0.0006912774923220727,0.9999997603565411,3.7713239828571996e-05,-0.5528489591054631,0.0003507463845420372,0.8332814082847279,0.07067476,0.0005316631,0.11086674,0.0007853232,1.903756e-05,-0.015325558,1.047179,-0.056457076,-6.0729955e-05,0.0067547276,0.8369288407021547,0.0009585876068896049,-0.5473108775739319,-0.0007933644385723353,0.9999995404224146,0.0005382637155348183,0.5473111420150472,-1.6271440323615237e-05,0.8369292165777373,0.0026657255,0.019344743,0.09063903,-0.00016294567,-0.012031062,-0.006226944,0.5235896,0.00019111253,-0.011352362,0.0023486614,0.9999936400418761,-0.00014323904631166856,0.0035636159128948305,0.0010357560162236078,0.9677929595718953,-0.2517453368238365,-0.0034127826291579333,0.25174742677065765,0.9677869528099037,left_images/camera_left_72.png,right_images/camera_right_72.png
2025-06-27 14:27:32,4.004560232162476,73,-0.034323364,-0.0002756797,0.11403818,-0.0006923164,0.00029407558,-0.02765881,1.0471791,0.05790715,2.6375033e-05,0.0020310148,0.8332811953665067,-0.0005968784077013926,0.5528490690819075,0.0006912774923220727,0.9999997603565411,3.7713239828571996e-05,-0.5528489591054631,0.0003507463845420372,0.8332814082847279,0.07067476,0.0005316649,0.11086674,0.000785308,1.904009e-05,-0.015325547,1.047179,-0.056457076,-6.0729955e-05,0.0067547276,0.8369288407021547,0.0009585876068896049,-0.5473108775739319,-0.0007933644385723353,0.9999995404224146,0.0005382637155348183,0.5473111420150472,-1.6271440323615237e-05,0.8369292165777373,0.0026657255,0.019344743,0.09063903,-0.00016294567,-0.012031062,-0.006226944,0.5235896,0.00019111253,-0.011352362,0.0023486614,0.9999936400418761,-0.00014323904631166856,0.0035636159128948305,0.0010357560162236078,0.9677929595718953,-0.2517453368238365,-0.0034127826291579333,0.25174742677065765,0.9677869528099037,left_images/camera_left_73.png,right_images/camera_right_73.png
2025-06-27 14:27:32,4.070767641067505,74,-0.034323364,-0.00027568144,0.11403818,-0.0006923385,0.0002940817,-0.02765881,1.0471791,0.05790715,2.6375033e-05,0.0020310148,0.8332811953665067,-0.0005968784077013926,0.5528490690819075,0.0006912774923220727,0.9999997603565411,3.7713239828571996e-05,-0.5528489591054631,0.0003507463845420372,0.8332814082847279,0.07067476,0.000531662,0.11086674,0.00078529125,1.9064433e-05,-0.015325603,1.047179,-0.056457076,-6.0728322e-05,0.0067547276,0.8369289969938855,0.0009585763381592775,-0.5473106385976912,-0.0007934335372868958,0.9999995404355363,0.0005381374713333898,0.5473109029190178,-1.6128238150563687e-05,0.8369293729376746,0.0026657255,0.019344743,0.09063903,-0.00016294567,-0.012031062,-0.006226944,0.5235896,0.00019111253,-0.011352362,0.0023486614,0.9999936400418761,-0.00014323904631166856,0.0035636159128948305,0.0010357560162236078,0.9677929595718953,-0.2517453368238365,-0.0034127826291579333,0.25174742677065765,0.9677869528099037,left_images/camera_left_74.png,right_images/camera_right_74.png
2025-06-27 14:27:32,4.1220033168792725,75,-0.034323364,-0.00027568318,0.11403818,-0.0006923606,0.0002940878,-0.02765881,1.0471791,0.05790715,2.6375033e-05,0.0020310148,0.8332811953665067,-0.0005968784077013926,0.5528490690819075,0.0006912774923220727,0.9999997603565411,3.7713239828571996e-05,-0.5528489591054631,0.0003507463845420372,0.8332814082847279,0.07067476,0.00053166854,0.11086674,0.00078528427,1.901129e-05,-0.015325603,1.047179,-0.056457076,-6.0728322e-05,0.0067547276,0.8369289969938855,0.0009585763381592775,-0.5473106385976912,-0.0007934335372868958,0.9999995404355363,0.0005381374713333898,0.5473109029190178,-1.6128238150563687e-05,0.8369293729376746,0.0026657255,0.019344743,0.09063903,-0.00016294567,-0.012031062,-0.006226944,0.5235896,0.00019111253,-0.011352362,0.0023486614,0.9999936400418761,-0.00014323904631166856,0.0035636159128948305,0.0010357560162236078,0.9677929595718953,-0.2517453368238365,-0.0034127826291579333,0.25174742677065765,0.9677869528099037,left_images/camera_left_75.png,right_images/camera_right_75.png
2025-06-27 14:27:32,4.171481132507324,76,-0.034323364,-0.00027568493,0.11403818,-0.00069238275,0.00029409392,-0.02765881,1.0471791,0.05790715,2.6375033e-05,0.0020310148,0.8332811953665067,-0.0005968784077013926,0.5528490690819075,0.0006912774923220727,0.9999997603565411,3.7713239828571996e-05,-0.5528489591054631,0.0003507463845420372,0.8332814082847279,0.07067476,0.0005316755,0.11086674,0.0007852773,1.8958139e-05,-0.015325603,1.047179,-0.056457076,-6.0728322e-05,0.0067547276,0.8369289969938855,0.0009585763381592775,-0.5473106385976912,-0.0007934335372868958,0.9999995404355363,0.0005381374713333898,0.5473109029190178,-1.6128238150563687e-05,0.8369293729376746,0.0026657255,0.019344743,0.09063903,-0.00016294567,-0.012031062,-0.006226944,0.5235896,0.00019111253,-0.011352362,0.0023486614,0.9999936400418761,-0.00014323904631166856,0.0035636159128948305,0.0010357560162236078,0.9677929595718953,-0.2517453368238365,-0.0034127826291579333,0.25174742677065765,0.9677869528099037,left_images/camera_left_76.png,right_images/camera_right_76.png
2025-06-27 14:27:32,4.234484434127808,77,-0.034323364,-0.00027568667,0.11403818,-0.00069240486,0.00029410003,-0.02765881,1.0471791,0.05790715,2.6375033e-05,0.0020310148,0.8332811953665067,-0.0005968784077013926,0.5528490690819075,0.0006912774923220727,0.9999997603565411,3.7713239828571996e-05,-0.5528489591054631,0.0003507463845420372,0.8332814082847279,0.07067476,0.0005316825,0.11086674,0.0007852703,1.8904988e-05,-0.015325603,1.047179,-0.056457076,-6.0728322e-05,0.0067547276,0.8369289969938855,0.0009585763381592775,-0.5473106385976912,-0.0007934335372868958,0.9999995404355363,0.0005381374713333898,0.5473109029190178,-1.6128238150563687e-05,0.8369293729376746,0.0026657255,0.019344743,0.09063903,-0.00016294567,-0.012031062,-0.006226944,0.5235896,0.00019111253,-0.011352362,0.0023486614,0.9999936400418761,-0.00014323904631166856,0.0035636159128948305,0.0010357560162236078,0.9677929595718953,-0.2517453368238365,-0.0034127826291579333,0.25174742677065765,0.9677869528099037,left_images/camera_left_77.png,right_images/camera_right_77.png
2025-06-27 14:27:32,4.282384395599365,78,-0.034323364,-0.00027568842,0.11403818,-0.000692427,0.00029410614,-0.02765881,1.0471791,0.05790715,2.6375033e-05,0.0020310148,0.8332811953665067,-0.0005968784077013926,0.5528490690819075,0.0006912774923220727,0.9999997603565411,3.7713239828571996e-05,-0.5528489591054631,0.0003507463845420372,0.8332814082847279,0.07067476,0.0005316895,0.11086674,0.0007852633,1.8851837e-05,-0.015325603,1.047179,-0.056457076,-6.0728322e-05,0.0067547276,0.8369289969938855,0.0009585763381592775,-0.5473106385976912,-0.0007934335372868958,0.9999995404355363,0.0005381374713333898,0.5473109029190178,-1.6128238150563687e-05,0.8369293729376746,0.0026657255,0.019344743,0.09063903,-0.00016294567,-0.012031062,-0.006226944,0.5235896,0.00019111253,-0.011352362,0.0023486614,0.9999936400418761,-0.00014323904631166856,0.0035636159128948305,0.0010357560162236078,0.9677929595718953,-0.2517453368238365,-0.0034127826291579333,0.25174742677065765,0.9677869528099037,left_images/camera_left_78.png,right_images/camera_right_78.png
2025-06-27 14:27:32,4.330416440963745,79,-0.034323364,-0.00027569017,0.11403818,-0.0006924491,0.00029411225,-0.02765881,1.0471791,0.05790715,2.6375033e-05,0.0020310148,0.8332811953665067,-0.0005968784077013926,0.5528490690819075,0.0006912774923220727,0.9999997603565411,3.7713239828571996e-05,-0.5528489591054631,0.0003507463845420372,0.8332814082847279,0.07067476,0.0005316965,0.11086674,0.0007852563,1.8798686e-05,-0.015325603,1.047179,-0.056457076,-6.0728322e-05,0.0067547276,0.8369289969938855,0.0009585763381592775,-0.5473106385976912,-0.0007934335372868958,0.9999995404355363,0.0005381374713333898,0.5473109029190178,-1.6128238150563687e-05,0.8369293729376746,0.0026657255,0.019344743,0.09063903,-0.00016294567,-0.012031062,-0.006226944,0.5235896,0.00019111253,-0.011352362,0.0023486614,0.9999936400418761,-0.00014323904631166856,0.0035636159128948305,0.0010357560162236078,0.9677929595718953,-0.2517453368238365,-0.0034127826291579333,0.25174742677065765,0.9677869528099037,left_images/camera_left_79.png,right_images/camera_right_79.png
2025-06-27 14:27:32,4.383861780166626,80,-0.034323364,-0.0002756919,0.11403818,-0.0006924712,0.00029411836,-0.02765881,1.0471791,0.05790712,2.6351603e-05,0.002030985,0.8332812266260028,-0.0005973278198258733,0.5528490214806752,0.0006917268963120816,0.9999997600406582,3.784874175287854e-05,-0.5528489114274941,0.0003508818918039093,0.8332814398601069,0.07067476,0.00053170347,0.11086674,0.00078524934,1.8745535e-05,-0.015325603,1.047179,-0.056457076,-6.0728322e-05,0.0067547276,0.8369289969938855,0.0009585763381592775,-0.5473106385976912,-0.0007934335372868958,0.9999995404355363,0.0005381374713333898,0.5473109029190178,-1.6128238150563687e-05,0.8369293729376746,0.0026657255,0.019344743,0.09063903,-0.00016294567,-0.012031062,-0.006226944,0.5235896,0.00019111253,-0.011352362,0.0023486614,0.9999936400418761,-0.00014323904631166856,0.0035636159128948305,0.0010357560162236078,0.9677929595718953,-0.2517453368238365,-0.0034127826291579333,0.25174742677065765,0.9677869528099037,left_images/camera_left_80.png,right_images/camera_right_80.png
2025-06-27 14:27:32,4.432129859924316,81,-0.034323364,-0.00027569194,0.11403818,-0.00069246424,0.0002941236,-0.02765881,1.0471791,0.05790712,2.6351603e-05,0.002030985,0.8332812266260028,-0.0005973278198258733,0.5528490214806752,0.0006917268963120816,0.9999997600406582,3.784874175287854e-05,-0.5528489114274941,0.0003508818918039093,0.8332814398601069,0.07067476,0.000531708,0.11086674,0.0007852557,1.876296e-05,-0.015325631,1.047179,-0.056457076,-6.0728322e-05,0.0067547276,0.8369289969938855,0.0009585763381592775,-0.5473106385976912,-0.0007934335372868958,0.9999995404355363,0.0005381374713333898,0.5473109029190178,-1.6128238150563687e-05,0.8369293729376746,0.0026657255,0.019344743,0.09063903,-0.00016294567,-0.012031062,-0.006226944,0.5235896,0.00019111253,-0.011352362,0.0023486614,0.9999936400418761,-0.00014323904631166856,0.0035636159128948305,0.0010357560162236078,0.9677929595718953,-0.2517453368238365,-0.0034127826291579333,0.25174742677065765,0.9677869528099037,left_images/camera_left_81.png,right_images/camera_right_81.png
2025-06-27 14:27:32,4.496288061141968,82,-0.034323364,-0.00027566732,0.11403818,-0.00069252605,0.00029411868,-0.027658755,1.0471791,0.05790712,2.6351603e-05,0.002030985,0.8332812266260028,-0.0005973278198258733,0.5528490214806752,0.0006917268963120816,0.9999997600406582,3.784874175287854e-05,-0.5528489114274941,0.0003508818918039093,0.8332814398601069,0.07067476,0.0005317148,0.11086674,0.0007852487,1.8709821e-05,-0.015325631,1.047179,-0.056457076,-6.0722195e-05,0.0067547294,0.8369289971416765,0.0009583011273834246,-0.5473106388536373,-0.0007933529565403982,0.9999995407036844,0.0005377578509326507,0.5473109028098322,-1.5854625405579146e-05,0.8369293730143045,0.0026657255,0.019344743,0.09063903,-0.00016294567,-0.012031062,-0.006226944,0.5235896,0.00019111253,-0.011352362,0.0023486614,0.9999936400418761,-0.00014323904631166856,0.0035636159128948305,0.0010357560162236078,0.9677929595718953,-0.2517453368238365,-0.0034127826291579333,0.25174742677065765,0.9677869528099037,left_images/camera_left_82.png,right_images/camera_right_82.png
2025-06-27 14:27:32,4.550152778625488,83,-0.034323364,-0.00027566386,0.11403818,-0.00069251907,0.00029412392,-0.027658755,1.0471791,0.05790712,2.6351603e-05,0.002030985,0.8332812266260028,-0.0005973278198258733,0.5528490214806752,0.0006917268963120816,0.9999997600406582,3.784874175287854e-05,-0.5528489114274941,0.0003508818918039093,0.8332814398601069,0.07067476,0.0005317184,0.11086674,0.00078525173,1.86965e-05,-0.015325687,1.047179,-0.056457076,-6.0722195e-05,0.0067547294,0.8369289971416765,0.0009583011273834246,-0.5473106388536373,-0.0007933529565403982,0.9999995407036844,0.0005377578509326507,0.5473109028098322,-1.5854625405579146e-05,0.8369293730143045,0.0026657255,0.019344743,0.09063903,-0.00016294567,-0.012031062,-0.006226944,0.5235896,0.00019111253,-0.011352362,0.0023486614,0.9999936400418761,-0.00014323904631166856,0.0035636159128948305,0.0010357560162236078,0.9677929595718953,-0.2517453368238365,-0.0034127826291579333,0.25174742677065765,0.9677869528099037,left_images/camera_left_83.png,right_images/camera_right_83.png
2025-06-27 14:27:32,4.607449054718018,84,-0.034323364,-0.00027566386,0.11403818,-0.0006925121,0.00029412916,-0.027658755,1.0471791,0.05790712,2.6351603e-05,0.002030985,0.8332812266260028,-0.0005973278198258733,0.5528490214806752,0.0006917268963120816,0.9999997600406582,3.784874175287854e-05,-0.5528489114274941,0.0003508818918039093,0.8332814398601069,0.07067476,0.0005317219,0.11086674,0.00078525476,1.8683182e-05,-0.015325743,1.047179,-0.056457076,-6.0722195e-05,0.0067547294,0.8369289971416765,0.0009583011273834246,-0.5473106388536373,-0.0007933529565403982,0.9999995407036844,0.0005377578509326507,0.5473109028098322,-1.5854625405579146e-05,0.8369293730143045,0.0026657255,0.019344743,0.09063903,-0.00016294567,-0.012031062,-0.006226944,0.5235896,0.00019111253,-0.011352362,0.0023486614,0.9999936400418761,-0.00014323904631166856,0.0035636159128948305,0.0010357560162236078,0.9677929595718953,-0.2517453368238365,-0.0034127826291579333,0.25174742677065765,0.9677869528099037,left_images/camera_left_84.png,right_images/camera_right_84.png
2025-06-27 14:27:32,4.654540538787842,85,-0.034323364,-0.00027566386,0.11403818,-0.0006925051,0.0002941344,-0.027658755,1.0471791,0.05790712,2.6351603e-05,0.002030985,0.8332812266260028,-0.0005973278198258733,0.5528490214806752,0.0006917268963120816,0.9999997600406582,3.784874175287854e-05,-0.5528489114274941,0.0003508818918039093,0.8332814398601069,0.07067476,0.0005317254,0.11086674,0.0007852578,1.8669863e-05,-0.015325799,1.047179,-0.056457076,-6.0722195e-05,0.0067547294,0.8369289971416765,0.0009583011273834246,-0.5473106388536373,-0.0007933529565403982,0.9999995407036844,0.0005377578509326507,0.5473109028098322,-1.5854625405579146e-05,0.8369293730143045,0.0026657255,0.019344743,0.09063903,-0.00016294567,-0.012031062,-0.006226944,0.5235896,0.00019111253,-0.011352362,0.0023486614,0.9999936400418761,-0.00014323904631166856,0.0035636159128948305,0.0010357560162236078,0.9677929595718953,-0.2517453368238365,-0.0034127826291579333,0.25174742677065765,0.9677869528099037,left_images/camera_left_85.png,right_images/camera_right_85.png
2025-06-27 14:27:32,4.707762956619263,86,-0.034323364,-0.00027566386,0.11403818,-0.0006924981,0.00029413964,-0.027658755,1.0471791,0.05790712,2.6351603e-05,0.002030985,0.8332812266260028,-0.0005973278198258733,0.5528490214806752,0.0006917268963120816,0.9999997600406582,3.784874175287854e-05,-0.5528489114274941,0.0003508818918039093,0.8332814398601069,0.07067476,0.0005317289,0.11086674,0.0007852608,1.8656545e-05,-0.0153258545,1.047179,-0.056457076,-6.0722195e-05,0.0067547294,0.8369289971416765,0.0009583011273834246,-0.5473106388536373,-0.0007933529565403982,0.9999995407036844,0.0005377578509326507,0.5473109028098322,-1.5854625405579146e-05,0.8369293730143045,0.0026657255,0.019344743,0.09063903,-0.00016294567,-0.012031062,-0.006226944,0.5235896,0.00019111253,-0.011352362,0.0023486614,0.9999936400418761,-0.00014323904631166856,0.0035636159128948305,0.0010357560162236078,0.9677929595718953,-0.2517453368238365,-0.0034127826291579333,0.25174742677065765,0.9677869528099037,left_images/camera_left_86.png,right_images/camera_right_86.png
2025-06-27 14:27:33,4.7649781703948975,87,-0.034323364,-0.00027566386,0.11403818,-0.0006924911,0.00029414488,-0.027658755,1.0471791,0.05790712,2.6351603e-05,0.002030985,0.8332812266260028,-0.0005973278198258733,0.5528490214806752,0.0006917268963120816,0.9999997600406582,3.784874175287854e-05,-0.5528489114274941,0.0003508818918039093,0.8332814398601069,0.07067476,0.0005317324,0.11086674,0.00078526384,1.8643226e-05,-0.01532591,1.047179,-0.056457076,-6.0722195e-05,0.0067547294,0.8369289971416765,0.0009583011273834246,-0.5473106388536373,-0.0007933529565403982,0.9999995407036844,0.0005377578509326507,0.5473109028098322,-1.5854625405579146e-05,0.8369293730143045,0.0026657255,0.019344743,0.09063903,-0.00016294567,-0.012031062,-0.006226944,0.5235896,0.00019111253,-0.011352362,0.0023486614,0.9999936400418761,-0.00014323904631166856,0.0035636159128948305,0.0010357560162236078,0.9677929595718953,-0.2517453368238365,-0.0034127826291579333,0.25174742677065765,0.9677869528099037,left_images/camera_left_87.png,right_images/camera_right_87.png
2025-06-27 14:27:33,4.812951326370239,88,-0.034323364,-0.00027566386,0.11403818,-0.00069248414,0.00029415012,-0.027658755,1.0471791,0.05790712,2.6351603e-05,0.002030985,0.8332812266260028,-0.0005973278198258733,0.5528490214806752,0.0006917268963120816,0.9999997600406582,3.784874175287854e-05,-0.5528489114274941,0.0003508818918039093,0.8332814398601069,0.07067476,0.0005317359,0.11086674,0.00078526686,1.8629908e-05,-0.015325966,1.047179,-0.05645708,-6.0723567e-05,0.006754728,0.8369292345580226,0.0009583974430289594,-0.5473102756357344,-0.0007934031361288862,0.9999995406104907,0.0005378571103804159,0.5473105396880147,-1.5910650567314594e-05,0.8369296104770492,0.0026657255,0.019344743,0.09063903,-0.00016294567,-0.012031062,-0.006226944,0.5235896,0.00019111253,-0.011352362,0.0023486614,0.9999936400418761,-0.00014323904631166856,0.0035636159128948305,0.0010357560162236078,0.9677929595718953,-0.2517453368238365,-0.0034127826291579333,0.25174742677065765,0.9677869528099037,left_images/camera_left_88.png,right_images/camera_right_88.png
2025-06-27 14:27:33,4.868641376495361,89,-0.034323364,-0.00027566386,0.11403818,-0.00069247716,0.00029415535,-0.027658755,1.0471791,0.05790712,2.6351603e-05,0.002030985,0.8332812266260028,-0.0005973278198258733,0.5528490214806752,0.0006917268963120816,0.9999997600406582,3.784874175287854e-05,-0.5528489114274941,0.0003508818918039093,0.8332814398601069,0.07067476,0.0005317394,0.11086674,0.0007852634,1.861609e-05,-0.015326022,1.047179,-0.05645708,-6.0723567e-05,0.006754728,0.8369292345580226,0.0009583974430289594,-0.5473102756357344,-0.0007934031361288862,0.9999995406104907,0.0005378571103804159,0.5473105396880147,-1.5910650567314594e-05,0.8369296104770492,0.0026657255,0.019344743,0.09063903,-0.00016294567,-0.012031062,-0.006226944,0.5235896,0.00019111253,-0.011352362,0.0023486614,0.9999936400418761,-0.00014323904631166856,0.0035636159128948305,0.0010357560162236078,0.9677929595718953,-0.2517453368238365,-0.0034127826291579333,0.25174742677065765,0.9677869528099037,left_images/camera_left_89.png,right_images/camera_right_89.png
2025-06-27 14:27:33,4.935485124588013,90,-0.034323364,-0.00027566386,0.11403818,-0.0006924702,0.0002941606,-0.027658755,1.0471791,0.05790712,2.6351603e-05,0.002030985,0.8332812266260028,-0.0005973278198258733,0.5528490214806752,0.0006917268963120816,0.9999997600406582,3.784874175287854e-05,-0.5528489114274941,0.0003508818918039093,0.8332814398601069,0.07067476,0.0005317429,0.11086674,0.0007852599,1.8602273e-05,-0.015326078,1.047179,-0.05645708,-6.0723567e-05,0.006754728,0.8369292345580226,0.0009583974430289594,-0.5473102756357344,-0.0007934031361288862,0.9999995406104907,0.0005378571103804159,0.5473105396880147,-1.5910650567314594e-05,0.8369296104770492,0.0026657255,0.019344743,0.09063903,-0.00016294567,-0.012031062,-0.006226944,0.5235896,0.00019111253,-0.011352362,0.0023486614,0.9999936400418761,-0.00014323904631166856,0.0035636159128948305,0.0010357560162236078,0.9677929595718953,-0.2517453368238365,-0.0034127826291579333,0.25174742677065765,0.9677869528099037,left_images/camera_left_90.png,right_images/camera_right_90.png
2025-06-27 14:27:33,4.9888014793396,91,-0.034323364,-0.00027566386,0.11403818,-0.0006924632,0.00029416583,-0.027658755,1.0471791,0.05790715,2.6375033e-05,0.0020310148,0.8332811953665067,-0.0005968784077013926,0.5528490690819075,0.0006912774923220727,0.9999997603565411,3.7713239828571996e-05,-0.5528489591054631,0.0003507463845420372,0.8332814082847279,0.07067476,0.00053174637,0.11086674,0.0007852564,1.8588456e-05,-0.015326134,1.047179,-0.05645708,-6.0723567e-05,0.006754728,0.8369292345580226,0.0009583974430289594,-0.5473102756357344,-0.0007934031361288862,0.9999995406104907,0.0005378571103804159,0.5473105396880147,-1.5910650567314594e-05,0.8369296104770492,0.0026657255,0.019344743,0.09063903,-0.00016294567,-0.012031062,-0.006226944,0.5235896,0.00019111253,-0.011352362,0.0023486614,0.9999936400418761,-0.00014323904631166856,0.0035636159128948305,0.0010357560162236078,0.9677929595718953,-0.2517453368238365,-0.0034127826291579333,0.25174742677065765,0.9677869528099037,left_images/camera_left_91.png,right_images/camera_right_91.png
2025-06-27 14:27:33,5.042734861373901,92,-0.034323364,-0.00027569005,0.11403818,-0.00069241715,0.00029418198,-0.027658768,1.0471791,0.05790715,2.6375033e-05,0.0020310148,0.8332811953665067,-0.0005968784077013926,0.5528490690819075,0.0006912774923220727,0.9999997603565411,3.7713239828571996e-05,-0.5528489591054631,0.0003507463845420372,0.8332814082847279,0.07067476,0.00053174986,0.11086674,0.0007852529,1.857464e-05,-0.01532619,1.047179,-0.05645708,-6.0723567e-05,0.006754728,0.8369292345580226,0.0009583974430289594,-0.5473102756357344,-0.0007934031361288862,0.9999995406104907,0.0005378571103804159,0.5473105396880147,-1.5910650567314594e-05,0.8369296104770492,0.0026657255,0.019344743,0.09063903,-0.00016294567,-0.012031062,-0.006226944,0.5235896,0.00019111253,-0.011352362,0.0023486614,0.9999936400418761,-0.00014323904631166856,0.0035636159128948305,0.0010357560162236078,0.9677929595718953,-0.2517453368238365,-0.0034127826291579333,0.25174742677065765,0.9677869528099037,left_images/camera_left_92.png,right_images/camera_right_92.png
2025-06-27 14:27:33,5.105409622192383,93,-0.034323364,-0.00027569517,0.11403818,-0.00069243927,0.0002941881,-0.027658768,1.0471791,0.05790715,2.6375033e-05,0.0020310148,0.8332811953665067,-0.0005968784077013926,0.5528490690819075,0.0006912774923220727,0.9999997603565411,3.7713239828571996e-05,-0.5528489591054631,0.0003507463845420372,0.8332814082847279,0.07067476,0.00053175335,0.11086674,0.0007852494,1.8560822e-05,-0.015326246,1.047179,-0.05645708,-6.0723567e-05,0.006754728,0.8369292345580226,0.0009583974430289594,-0.5473102756357344,-0.0007934031361288862,0.9999995406104907,0.0005378571103804159,0.5473105396880147,-1.5910650567314594e-05,0.8369296104770492,0.0026657255,0.019344743,0.09063903,-0.00016294567,-0.012031062,-0.006226944,0.5235896,0.00019111253,-0.011352362,0.0023486614,0.9999936400418761,-0.00014323904631166856,0.0035636159128948305,0.0010357560162236078,0.9677929595718953,-0.2517453368238365,-0.0034127826291579333,0.25174742677065765,0.9677869528099037,left_images/camera_left_93.png,right_images/camera_right_93.png
2025-06-27 14:27:33,5.1659157276153564,94,-0.034323364,-0.00027569692,0.11403818,-0.0006924614,0.0002941942,-0.027658768,1.0471791,0.05790715,2.6375033e-05,0.0020310148,0.8332811953665067,-0.0005968784077013926,0.5528490690819075,0.0006912774923220727,0.9999997603565411,3.7713239828571996e-05,-0.5528489591054631,0.0003507463845420372,0.8332814082847279,0.07067476,0.00053175684,0.11086674,0.0007852459,1.8547005e-05,-0.015326302,1.047179,-0.05645708,-6.0723567e-05,0.006754728,0.8369292345580226,0.0009583974430289594,-0.5473102756357344,-0.0007934031361288862,0.9999995406104907,0.0005378571103804159,0.5473105396880147,-1.5910650567314594e-05,0.8369296104770492,0.0026657255,0.019344743,0.09063903,-0.00016294567,-0.012031062,-0.006226944,0.5235896,0.00019111253,-0.011352362,0.0023486614,0.9999936400418761,-0.00014323904631166856,0.0035636159128948305,0.0010357560162236078,0.9677929595718953,-0.2517453368238365,-0.0034127826291579333,0.25174742677065765,0.9677869528099037,left_images/camera_left_94.png,right_images/camera_right_94.png
