jiaqis7/OS_Teleop_Extension/demo_2/teleop_log.csv
Epoch Time (Seconds),Time (Seconds),Frame Number,PSM1_joint_1,PSM1_joint_2,PSM1_joint_3,PSM1_joint_4,PSM1_joint_5,PSM1_joint_6,PSM1_jaw_angle,PSM1_ee_x,PSM1_ee_y,PSM1_ee_z,"PSM1_Orientation_Matrix_[1,1]","PSM1_Orientation_Matrix_[1,2]","PSM1_Orientation_Matrix_[1,3]","PSM1_Orientation_Matrix_[2,1]","PSM1_Orientation_Matrix_[2,2]","PSM1_Orientation_Matrix_[2,3]","PSM1_Orientation_Matrix_[3,1]","PSM1_Orientation_Matrix_[3,2]","PSM1_Orientation_Matrix_[3,3]",PSM2_joint_1,PSM2_joint_2,PSM2_joint_3,PSM2_joint_4,PSM2_joint_5,PSM2_joint_6,PSM2_jaw_angle,PSM2_ee_x,PSM2_ee_y,PSM2_ee_z,"PSM2_Orientation_Matrix_[1,1]","PSM2_Orientation_Matrix_[1,2]","PSM2_Orientation_Matrix_[1,3]","PSM2_Orientation_Matrix_[2,1]","PSM2_Orientation_Matrix_[2,2]","PSM2_Orientation_Matrix_[2,3]","PSM2_Orientation_Matrix_[3,1]","PSM2_Orientation_Matrix_[3,2]","PSM2_Orientation_Matrix_[3,3]",PSM3_joint_1,PSM3_joint_2,PSM3_joint_3,PSM3_joint_4,PSM3_joint_5,PSM3_joint_6,PSM3_jaw_angle,PSM3_ee_x,PSM3_ee_y,PSM3_ee_z,"PSM3_Orientation_Matrix_[1,1]","PSM3_Orientation_Matrix_[1,2]","PSM3_Orientation_Matrix_[1,3]","PSM3_Orientation_Matrix_[2,1]","PSM3_Orientation_Matrix_[2,2]","PSM3_Orientation_Matrix_[2,3]","PSM3_Orientation_Matrix_[3,1]","PSM3_Orientation_Matrix_[3,2]","PSM3_Orientation_Matrix_[3,3]",Camera Left,Camera Right
2025-05-30 14:59:02,0.0027532577514648438,1,-0.0120502515,-0.00013989724,0.11291553,0.00043856824,0.00026841267,-0.023880916,1.0471802,0.060729444,1.1096935e-05,0.0016193241,0.8473986456837671,0.00031141892825734354,0.5309570964885659,-0.00044150804343422807,0.9999998955596471,0.00011811580021581735,-0.5309570042517235,-0.0003345129979549234,0.8473986946751153,0.016472075,0.0015602757,0.112207495,0.0004855604,0.0001014701,-0.01120357,1.047179,-0.06093361,-0.00018139076,0.0023201387,0.8632777762379861,0.0012709437658485877,-0.5047275163447515,-0.0005040721874219182,0.9999985019217386,0.0016559183277883136,0.5047288648025068,-0.0011750983884288892,0.8632771236277201,0.002723351,-0.006506289,0.09171615,-0.00017289846,-0.011824319,-0.006229117,1.792832e-14,0.00019948912,-0.008734858,0.0019246573,0.9999938206179776,-0.0002225918316668245,0.003508443919509682,0.0011839268360611863,0.9610197795750178,-0.27647709052077146,-0.003310142460185573,0.2764795358041178,0.9610141045991119,left_images/camera_left_1.png,right_images/camera_right_1.png
2025-05-30 14:59:02,0.06146812438964844,2,-0.0120502515,-0.00013990073,0.11291553,0.00043855753,0.00026843735,-0.023880916,1.0471802,0.060729444,1.1096935e-05,0.0016193241,0.8473986456837671,0.00031141892825734354,0.5309570964885659,-0.00044150804343422807,0.9999998955596471,0.00011811580021581735,-0.5309570042517235,-0.0003345129979549234,0.8473986946751153,0.016472075,0.0015602671,0.112207495,0.00048555122,0.00010147826,-0.011203598,1.047179,-0.06093361,-0.00018139076,0.0023201387,0.8632777762379861,0.0012709437658485877,-0.5047275163447515,-0.0005040721874219182,0.9999985019217386,0.0016559183277883136,0.5047288648025068,-0.0011750983884288892,0.8632771236277201,0.002723351,-0.006506289,0.09171615,-0.00017289526,-0.011824319,-0.006229117,1.7968937e-14,0.00019948912,-0.008734858,0.0019246573,0.9999938206179776,-0.0002225918316668245,0.003508443919509682,0.0011839268360611863,0.9610197795750178,-0.27647709052077146,-0.003310142460185573,0.2764795358041178,0.9610141045991119,left_images/camera_left_2.png,right_images/camera_right_2.png
2025-05-30 14:59:02,0.11179471015930176,3,-0.0120502515,-0.00013990422,0.11291553,0.00043854682,0.00026846203,-0.023880916,1.0471802,0.060729444,1.10680285e-05,0.001619326,0.8473986459009449,0.00031088733249184355,0.5309570964534814,-0.0004408658440091407,0.9999998958457808,0.00011809206345394492,-0.530957004438733,-0.0003341519031231282,0.8473986947004067,0.016472075,0.0015602584,0.112207495,0.00048554206,0.000101486425,-0.011203626,1.047179,-0.06093361,-0.00018139076,0.0023201387,0.8632777762379861,0.0012709437658485877,-0.5047275163447515,-0.0005040721874219182,0.9999985019217386,0.0016559183277883136,0.5047288648025068,-0.0011750983884288892,0.8632771236277201,0.002723351,-0.006506289,0.09171615,-0.00017289206,-0.011824319,-0.006229117,1.793817e-14,0.00019948912,-0.008734858,0.0019246573,0.9999938206179776,-0.0002225918316668245,0.003508443919509682,0.0011839268360611863,0.9610197795750178,-0.27647709052077146,-0.003310142460185573,0.2764795358041178,0.9610141045991119,left_images/camera_left_3.png,right_images/camera_right_3.png
2025-05-30 14:59:02,0.16523003578186035,4,-0.0120502515,-0.0001398704,0.11291553,0.000438458,0.0002684281,-0.023880916,1.0471802,0.060729444,1.10680285e-05,0.001619326,0.8473986459009449,0.00031088733249184355,0.5309570964534814,-0.0004408658440091407,0.9999998958457808,0.00011809206345394492,-0.530957004438733,-0.0003341519031231282,0.8473986947004067,0.016472075,0.0015602498,0.112207495,0.0004855329,0.00010149459,-0.011203654,1.047179,-0.06093361,-0.0001813971,0.0023201406,0.8632777761817447,0.001271134716592154,-0.5047275159600807,-0.0005040849551940078,0.9999985013249266,0.0016562748136636147,0.5047288648859497,-0.001175399690617439,0.8632771231687469,0.002723351,-0.006506289,0.09171615,-0.00017288886,-0.011824319,-0.006229117,1.783667e-14,0.00019948912,-0.008734858,0.0019246573,0.9999938206179776,-0.0002225918316668245,0.003508443919509682,0.0011839268360611863,0.9610197795750178,-0.27647709052077146,-0.003310142460185573,0.2764795358041178,0.9610141045991119,left_images/camera_left_4.png,right_images/camera_right_4.png
2025-05-30 14:59:02,0.21865391731262207,5,-0.0120502515,-0.00013986316,0.11291553,0.00043847025,0.00026841342,-0.023880916,1.0471802,0.060729444,1.10680285e-05,0.001619326,0.8473986459009449,0.00031088733249184355,0.5309570964534814,-0.0004408658440091407,0.9999998958457808,0.00011809206345394492,-0.530957004438733,-0.0003341519031231282,0.8473986947004067,0.016472075,0.0015602498,0.112207495,0.00048552765,0.00010151352,-0.011203654,1.047179,-0.06093361,-0.0001813971,0.0023201406,0.8632777761817447,0.001271134716592154,-0.5047275159600807,-0.0005040849551940078,0.9999985013249266,0.0016562748136636147,0.5047288648859497,-0.001175399690617439,0.8632771231687469,0.002723351,-0.006506289,0.09171615,-0.00017288566,-0.011824319,-0.006229117,1.795307e-14,0.00019948912,-0.008734858,0.0019246573,0.9999938206179776,-0.0002225918316668245,0.003508443919509682,0.0011839268360611863,0.9610197795750178,-0.27647709052077146,-0.003310142460185573,0.2764795358041178,0.9610141045991119,left_images/camera_left_5.png,right_images/camera_right_5.png
2025-05-30 14:59:02,0.268909215927124,6,-0.0120502515,-0.00013986084,0.11291553,0.00043848253,0.00026839875,-0.023880916,1.0471802,0.060729444,1.10680285e-05,0.001619326,0.8473986459009449,0.00031088733249184355,0.5309570964534814,-0.0004408658440091407,0.9999998958457808,0.00011809206345394492,-0.530957004438733,-0.0003341519031231282,0.8473986947004067,0.016472075,0.0015602498,0.112207495,0.0004855224,0.00010153247,-0.011203654,1.047179,-0.06093361,-0.0001813971,0.0023201406,0.8632777761817447,0.001271134716592154,-0.5047275159600807,-0.0005040849551940078,0.9999985013249266,0.0016562748136636147,0.5047288648859497,-0.001175399690617439,0.8632771231687469,0.002723351,-0.006506289,0.09171615,-0.00017288246,-0.011824319,-0.006229117,1.8003904e-14,0.00019948912,-0.008734858,0.0019246573,0.9999938206179776,-0.0002225918316668245,0.003508443919509682,0.0011839268360611863,0.9610197795750178,-0.27647709052077146,-0.003310142460185573,0.2764795358041178,0.9610141045991119,left_images/camera_left_6.png,right_images/camera_right_6.png
2025-05-30 14:59:02,0.32793617248535156,7,-0.0120502515,-0.00013985854,0.11291553,0.0004384948,0.0002683841,-0.023880916,1.0471802,0.060729444,1.10680285e-05,0.001619326,0.8473986459009449,0.00031088733249184355,0.5309570964534814,-0.0004408658440091407,0.9999998958457808,0.00011809206345394492,-0.530957004438733,-0.0003341519031231282,0.8473986947004067,0.016472075,0.0015602498,0.112207495,0.00048551717,0.00010155141,-0.011203654,1.047179,-0.06093361,-0.0001813971,0.0023201406,0.8632777761817447,0.001271134716592154,-0.5047275159600807,-0.0005040849551940078,0.9999985013249266,0.0016562748136636147,0.5047288648859497,-0.001175399690617439,0.8632771231687469,0.002723351,-0.006506289,0.09171615,-0.00017287926,-0.011824319,-0.006229117,1.7852016e-14,0.00019948912,-0.008734858,0.0019246573,0.9999938206179776,-0.0002225918316668245,0.003508443919509682,0.0011839268360611863,0.9610197795750178,-0.27647709052077146,-0.003310142460185573,0.2764795358041178,0.9610141045991119,left_images/camera_left_7.png,right_images/camera_right_7.png
2025-05-30 14:59:02,0.3828301429748535,8,-0.0120502515,-0.00013985625,0.11291553,0.0004385071,0.00026836942,-0.023880916,1.0471802,0.060729444,1.10680285e-05,0.001619326,0.8473986459009449,0.00031088733249184355,0.5309570964534814,-0.0004408658440091407,0.9999998958457808,0.00011809206345394492,-0.530957004438733,-0.0003341519031231282,0.8473986947004067,0.016472075,0.0015602498,0.112207495,0.00048551193,0.00010157036,-0.011203654,1.047179,-0.06093361,-0.0001813971,0.0023201406,0.8632777761817447,0.001271134716592154,-0.5047275159600807,-0.0005040849551940078,0.9999985013249266,0.0016562748136636147,0.5047288648859497,-0.001175399690617439,0.8632771231687469,0.002723351,-0.006506289,0.09171615,-0.00017287605,-0.011824319,-0.006229117,1.792719e-14,0.00019948912,-0.008734858,0.0019246573,0.9999938206179776,-0.0002225918316668245,0.003508443919509682,0.0011839268360611863,0.9610197795750178,-0.27647709052077146,-0.003310142460185573,0.2764795358041178,0.9610141045991119,left_images/camera_left_8.png,right_images/camera_right_8.png
2025-05-30 14:59:02,0.43283748626708984,9,-0.0120502515,-0.00013985395,0.11291553,0.00043851938,0.00026835475,-0.023880916,1.0471802,0.060729444,1.10680285e-05,0.001619326,0.8473986459009449,0.00031088733249184355,0.5309570964534814,-0.0004408658440091407,0.9999998958457808,0.00011809206345394492,-0.530957004438733,-0.0003341519031231282,0.8473986947004067,0.016472075,0.0015602498,0.112207495,0.0004855067,0.00010158931,-0.011203654,1.047179,-0.06093361,-0.0001813971,0.0023201406,0.8632777761817447,0.001271134716592154,-0.5047275159600807,-0.0005040849551940078,0.9999985013249266,0.0016562748136636147,0.5047288648859497,-0.001175399690617439,0.8632771231687469,0.002723351,-0.006506289,0.09171615,-0.00017287285,-0.011824319,-0.006229117,1.8019284e-14,0.00019948912,-0.008734858,0.0019246573,0.9999938206179776,-0.0002225918316668245,0.003508443919509682,0.0011839268360611863,0.9610197795750178,-0.27647709052077146,-0.003310142460185573,0.2764795358041178,0.9610141045991119,left_images/camera_left_9.png,right_images/camera_right_9.png
2025-05-30 14:59:02,0.5021066665649414,10,-0.0120502515,-0.00013985165,0.11291553,0.00043853166,0.00026834008,-0.023880916,1.0471802,0.060729444,1.10680285e-05,0.001619326,0.8473986459009449,0.00031088733249184355,0.5309570964534814,-0.0004408658440091407,0.9999998958457808,0.00011809206345394492,-0.530957004438733,-0.0003341519031231282,0.8473986947004067,0.016472075,0.0015602498,0.112207495,0.00048550146,0.00010160825,-0.011203654,1.047179,-0.06093361,-0.0001813971,0.0023201406,0.8632777761817447,0.001271134716592154,-0.5047275159600807,-0.0005040849551940078,0.9999985013249266,0.0016562748136636147,0.5047288648859497,-0.001175399690617439,0.8632771231687469,0.002723351,-0.006506289,0.09171615,-0.00017286965,-0.011824319,-0.006229117,1.8090223e-14,0.00019948912,-0.008734858,0.0019246573,0.9999938206179776,-0.0002225918316668245,0.003508443919509682,0.0011839268360611863,0.9610197795750178,-0.27647709052077146,-0.003310142460185573,0.2764795358041178,0.9610141045991119,left_images/camera_left_10.png,right_images/camera_right_10.png
2025-05-30 14:59:02,0.5710842609405518,11,-0.0120502515,-0.00013984935,0.11291553,0.00043854394,0.0002683254,-0.023880916,1.0471802,0.060729444,1.10680285e-05,0.001619326,0.8473986459009449,0.00031088733249184355,0.5309570964534814,-0.0004408658440091407,0.9999998958457808,0.00011809206345394492,-0.530957004438733,-0.0003341519031231282,0.8473986947004067,0.016472075,0.0015602498,0.112207495,0.00048549622,0.0001016272,-0.011203654,1.047179,-0.06093361,-0.0001813971,0.0023201406,0.8632777761817447,0.001271134716592154,-0.5047275159600807,-0.0005040849551940078,0.9999985013249266,0.0016562748136636147,0.5047288648859497,-0.001175399690617439,0.8632771231687469,0.002723351,-0.006506289,0.09171615,-0.00017286645,-0.011824319,-0.006229117,1.7805164e-14,0.00019948912,-0.008734858,0.0019246573,0.9999938206179776,-0.0002225918316668245,0.003508443919509682,0.0011839268360611863,0.9610197795750178,-0.27647709052077146,-0.003310142460185573,0.2764795358041178,0.9610141045991119,left_images/camera_left_11.png,right_images/camera_right_11.png
2025-05-30 14:59:03,0.6359121799468994,12,-0.0120502515,-0.0001398151,0.11291553,0.00043845514,0.00026829148,-0.023880916,1.0471802,0.060729444,1.10680285e-05,0.001619326,0.8473986459009449,0.00031088733249184355,0.5309570964534814,-0.0004408658440091407,0.9999998958457808,0.00011809206345394492,-0.530957004438733,-0.0003341519031231282,0.8473986947004067,0.016472075,0.0015602498,0.112207495,0.00048549098,0.00010164615,-0.011203654,1.047179,-0.06093361,-0.0001813971,0.0023201406,0.8632777761817447,0.001271134716592154,-0.5047275159600807,-0.0005040849551940078,0.9999985013249266,0.0016562748136636147,0.5047288648859497,-0.001175399690617439,0.8632771231687469,0.002723351,-0.006506289,0.09171615,-0.00017286325,-0.011824319,-0.006229117,1.7816156e-14,0.00019948912,-0.008734858,0.0019246573,0.9999938206179776,-0.0002225918316668245,0.003508443919509682,0.0011839268360611863,0.9610197795750178,-0.27647709052077146,-0.003310142460185573,0.2764795358041178,0.9610141045991119,left_images/camera_left_12.png,right_images/camera_right_12.png
2025-05-30 14:59:03,0.7031402587890625,13,-0.0120502515,-0.00013980786,0.11291553,0.0004384674,0.0002682768,-0.023880916,1.0471802,0.060729444,1.10680285e-05,0.001619326,0.8473986459009449,0.00031088733249184355,0.5309570964534814,-0.0004408658440091407,0.9999998958457808,0.00011809206345394492,-0.530957004438733,-0.0003341519031231282,0.8473986947004067,0.016472075,0.0015602498,0.112207495,0.00048548574,0.00010166509,-0.011203654,1.047179,-0.06093361,-0.0001813971,0.0023201406,0.8632777761817447,0.001271134716592154,-0.5047275159600807,-0.0005040849551940078,0.9999985013249266,0.0016562748136636147,0.5047288648859497,-0.001175399690617439,0.8632771231687469,0.002723351,-0.006506289,0.09171615,-0.00017286005,-0.011824319,-0.006229117,1.7903414e-14,0.00019948912,-0.008734858,0.0019246573,0.9999938206179776,-0.0002225918316668245,0.003508443919509682,0.0011839268360611863,0.9610197795750178,-0.27647709052077146,-0.003310142460185573,0.2764795358041178,0.9610141045991119,left_images/camera_left_13.png,right_images/camera_right_13.png
2025-05-30 14:59:03,0.7727093696594238,14,-0.0120502515,-0.00013980555,0.11291553,0.00043847968,0.00026826214,-0.023880916,1.0471802,0.060729444,1.10680285e-05,0.001619326,0.8473986459009449,0.00031088733249184355,0.5309570964534814,-0.0004408658440091407,0.9999998958457808,0.00011809206345394492,-0.530957004438733,-0.0003341519031231282,0.8473986947004067,0.016472075,0.0015602498,0.112207495,0.0004854805,0.00010168404,-0.011203654,1.047179,-0.06093361,-0.0001813971,0.0023201406,0.8632777761817447,0.001271134716592154,-0.5047275159600807,-0.0005040849551940078,0.9999985013249266,0.0016562748136636147,0.5047288648859497,-0.001175399690617439,0.8632771231687469,0.002723351,-0.006506289,0.09171615,-0.00017285685,-0.011824319,-0.006229117,1.7889214e-14,0.00019948912,-0.008734858,0.0019246573,0.9999938206179776,-0.0002225918316668245,0.003508443919509682,0.0011839268360611863,0.9610197795750178,-0.27647709052077146,-0.003310142460185573,0.2764795358041178,0.9610141045991119,left_images/camera_left_14.png,right_images/camera_right_14.png
2025-05-30 14:59:03,0.8313450813293457,15,-0.0120502515,-0.00013980325,0.11291553,0.00043849196,0.00026824747,-0.023880916,1.0471802,0.060729444,1.10680285e-05,0.001619326,0.8473986459009449,0.00031088733249184355,0.5309570964534814,-0.0004408658440091407,0.9999998958457808,0.00011809206345394492,-0.530957004438733,-0.0003341519031231282,0.8473986947004067,0.016472075,0.0015602498,0.112207495,0.00048547526,0.000101702986,-0.011203654,1.047179,-0.06093361,-0.0001813971,0.0023201406,0.8632777761817447,0.001271134716592154,-0.5047275159600807,-0.0005040849551940078,0.9999985013249266,0.0016562748136636147,0.5047288648859497,-0.001175399690617439,0.8632771231687469,0.002723351,-0.006506289,0.09171615,-0.00017285364,-0.011824319,-0.006229117,1.8149658e-14,0.00019948912,-0.008734858,0.0019246573,0.9999938206179776,-0.0002225918316668245,0.003508443919509682,0.0011839268360611863,0.9610197795750178,-0.27647709052077146,-0.003310142460185573,0.2764795358041178,0.9610141045991119,left_images/camera_left_15.png,right_images/camera_right_15.png
2025-05-30 14:59:03,0.8829150199890137,16,-0.0120502515,-0.00013980095,0.11291553,0.00043850424,0.0002682328,-0.023880916,1.0471802,0.060729444,1.10680285e-05,0.001619326,0.8473986459009449,0.00031088733249184355,0.5309570964534814,-0.0004408658440091407,0.9999998958457808,0.00011809206345394492,-0.530957004438733,-0.0003341519031231282,0.8473986947004067,0.016472075,0.0015602498,0.112207495,0.00048547002,0.00010172193,-0.011203654,1.047179,-0.06093361,-0.0001813971,0.0023201406,0.8632777761817447,0.001271134716592154,-0.5047275159600807,-0.0005040849551940078,0.9999985013249266,0.0016562748136636147,0.5047288648859497,-0.001175399690617439,0.8632771231687469,0.002723351,-0.006506289,0.09171615,-0.00017285044,-0.011824319,-0.006229117,1.7658575e-14,0.00019948912,-0.008734858,0.0019246573,0.9999938206179776,-0.0002225918316668245,0.003508443919509682,0.0011839268360611863,0.9610197795750178,-0.27647709052077146,-0.003310142460185573,0.2764795358041178,0.9610141045991119,left_images/camera_left_16.png,right_images/camera_right_16.png
2025-05-30 14:59:03,0.9341230392456055,17,-0.0120502515,-0.00013979865,0.11291553,0.00043851652,0.00026821814,-0.023880916,1.0471802,0.060729444,1.10680285e-05,0.001619326,0.8473986459009449,0.00031088733249184355,0.5309570964534814,-0.0004408658440091407,0.9999998958457808,0.00011809206345394492,-0.530957004438733,-0.0003341519031231282,0.8473986947004067,0.016472075,0.0015602498,0.112207495,0.00048546479,0.00010174088,-0.011203654,1.047179,-0.06093361,-0.0001813971,0.0023201406,0.8632777761817447,0.001271134716592154,-0.5047275159600807,-0.0005040849551940078,0.9999985013249266,0.0016562748136636147,0.5047288648859497,-0.001175399690617439,0.8632771231687469,0.002723351,-0.006506289,0.09171615,-0.00017284724,-0.011824319,-0.006229117,1.7954085e-14,0.00019948912,-0.008734858,0.0019246573,0.9999938206179776,-0.0002225918316668245,0.003508443919509682,0.0011839268360611863,0.9610197795750178,-0.27647709052077146,-0.003310142460185573,0.2764795358041178,0.9610141045991119,left_images/camera_left_17.png,right_images/camera_right_17.png
2025-05-30 14:59:03,0.9839539527893066,18,-0.0120502515,-0.00013979635,0.11291553,0.0004385288,0.00026820347,-0.023880916,1.0471802,0.060729444,1.10680285e-05,0.001619326,0.8473986459009449,0.00031088733249184355,0.5309570964534814,-0.0004408658440091407,0.9999998958457808,0.00011809206345394492,-0.530957004438733,-0.0003341519031231282,0.8473986947004067,0.016472075,0.0015602498,0.112207495,0.00048545955,0.000101759826,-0.011203654,1.047179,-0.06093361,-0.0001813971,0.0023201406,0.8632777761817447,0.001271134716592154,-0.5047275159600807,-0.0005040849551940078,0.9999985013249266,0.0016562748136636147,0.5047288648859497,-0.001175399690617439,0.8632771231687469,0.002723351,-0.006506289,0.09171615,-0.00017284404,-0.011824319,-0.006229117,1.7715144e-14,0.00019948912,-0.008734858,0.0019246573,0.9999938206179776,-0.0002225918316668245,0.003508443919509682,0.0011839268360611863,0.9610197795750178,-0.27647709052077146,-0.003310142460185573,0.2764795358041178,0.9610141045991119,left_images/camera_left_18.png,right_images/camera_right_18.png
2025-05-30 14:59:03,1.0329654216766357,19,-0.0120502515,-0.00013979405,0.11291553,0.0004385411,0.0002681888,-0.023880916,1.0471802,0.060729444,1.10680285e-05,0.001619326,0.8473986459009449,0.00031088733249184355,0.5309570964534814,-0.0004408658440091407,0.9999998958457808,0.00011809206345394492,-0.530957004438733,-0.0003341519031231282,0.8473986947004067,0.016472075,0.0015602498,0.112207495,0.0004854543,0.00010177877,-0.011203654,1.047179,-0.06093361,-0.0001813971,0.0023201406,0.8632777761817447,0.001271134716592154,-0.5047275159600807,-0.0005040849551940078,0.9999985013249266,0.0016562748136636147,0.5047288648859497,-0.001175399690617439,0.8632771231687469,0.002723351,-0.006506289,0.09171615,-0.00017284084,-0.011824319,-0.006229117,1.7852573e-14,0.00019948912,-0.008734858,0.0019246573,0.9999938206179776,-0.0002225918316668245,0.003508443919509682,0.0011839268360611863,0.9610197795750178,-0.27647709052077146,-0.003310142460185573,0.2764795358041178,0.9610141045991119,left_images/camera_left_19.png,right_images/camera_right_19.png
2025-05-30 14:59:03,1.0876386165618896,20,-0.0120502515,-0.00013979175,0.11291553,0.00043855337,0.00026817413,-0.023880916,1.0471802,0.060729444,1.1096935e-05,0.0016193241,0.8473986456837671,0.00031141892825734354,0.5309570964885659,-0.00044150804343422807,0.9999998955596471,0.00011811580021581735,-0.5309570042517235,-0.0003345129979549234,0.8473986946751153,0.016472075,0.0015602498,0.112207495,0.00048544907,0.00010179772,-0.011203654,1.047179,-0.06093361,-0.0001813971,0.0023201406,0.8632777761817447,0.001271134716592154,-0.5047275159600807,-0.0005040849551940078,0.9999985013249266,0.0016562748136636147,0.5047288648859497,-0.001175399690617439,0.8632771231687469,0.002723351,-0.006506289,0.09171615,-0.00017283764,-0.011824319,-0.006229117,1.7965857e-14,0.00019948912,-0.008734858,0.0019246573,0.9999938206179776,-0.0002225918316668245,0.003508443919509682,0.0011839268360611863,0.9610197795750178,-0.27647709052077146,-0.003310142460185573,0.2764795358041178,0.9610141045991119,left_images/camera_left_20.png,right_images/camera_right_20.png
2025-05-30 14:59:03,1.141880989074707,21,-0.0120502515,-0.00013979491,0.11291553,0.00043854266,0.0002681988,-0.023880916,1.0471802,0.060729444,1.10680285e-05,0.001619326,0.8473986459009449,0.00031088733249184355,0.5309570964534814,-0.0004408658440091407,0.9999998958457808,0.00011809206345394492,-0.530957004438733,-0.0003341519031231282,0.8473986947004067,0.016472075,0.0015602498,0.112207495,0.00048544383,0.000101816666,-0.011203654,1.047179,-0.06093361,-0.0001813971,0.0023201406,0.8632777761817447,0.001271134716592154,-0.5047275159600807,-0.0005040849551940078,0.9999985013249266,0.0016562748136636147,0.5047288648859497,-0.001175399690617439,0.8632771231687469,0.002723351,-0.006506289,0.09171615,-0.00017283444,-0.011824319,-0.006229117,1.7725567e-14,0.00019948912,-0.008734858,0.0019246573,0.9999938206179776,-0.0002225918316668245,0.003508443919509682,0.0011839268360611863,0.9610197795750178,-0.27647709052077146,-0.003310142460185573,0.2764795358041178,0.9610141045991119,left_images/camera_left_21.png,right_images/camera_right_21.png
2025-05-30 14:59:03,1.193774700164795,22,-0.0120502515,-0.00013976109,0.11291553,0.00043845383,0.00026816488,-0.023880916,1.0471802,0.060729444,1.10680285e-05,0.001619326,0.8473986459009449,0.00031088733249184355,0.5309570964534814,-0.0004408658440091407,0.9999998958457808,0.00011809206345394492,-0.530957004438733,-0.0003341519031231282,0.8473986947004067,0.016472075,0.0015602498,0.112207495,0.0004854386,0.00010183561,-0.011203654,1.047179,-0.06093361,-0.0001813971,0.0023201406,0.8632777761817447,0.001271134716592154,-0.5047275159600807,-0.0005040849551940078,0.9999985013249266,0.0016562748136636147,0.5047288648859497,-0.001175399690617439,0.8632771231687469,0.002723351,-0.006506289,0.09171615,-0.00017283123,-0.011824319,-0.006229117,1.7925314e-14,0.00019948912,-0.008734858,0.0019246573,0.9999938206179776,-0.0002225918316668245,0.003508443919509682,0.0011839268360611863,0.9610197795750178,-0.27647709052077146,-0.003310142460185573,0.2764795358041178,0.9610141045991119,left_images/camera_left_22.png,right_images/camera_right_22.png
2025-05-30 14:59:03,1.2585997581481934,23,-0.0120502515,-0.00013975384,0.11291553,0.0004384661,0.0002681502,-0.023880916,1.0471802,0.060729444,1.10680285e-05,0.001619326,0.8473986459009449,0.00031088733249184355,0.5309570964534814,-0.0004408658440091407,0.9999998958457808,0.00011809206345394492,-0.530957004438733,-0.0003341519031231282,0.8473986947004067,0.016472075,0.0015602498,0.112207495,0.00048543335,0.00010185456,-0.011203654,1.047179,-0.06093361,-0.0001813971,0.0023201406,0.8632777761817447,0.001271134716592154,-0.5047275159600807,-0.0005040849551940078,0.9999985013249266,0.0016562748136636147,0.5047288648859497,-0.001175399690617439,0.8632771231687469,0.002723351,-0.006506289,0.09171615,-0.00017282803,-0.011824319,-0.006229117,1.7822783e-14,0.00019948912,-0.008734858,0.0019246573,0.9999938206179776,-0.0002225918316668245,0.003508443919509682,0.0011839268360611863,0.9610197795750178,-0.27647709052077146,-0.003310142460185573,0.2764795358041178,0.9610141045991119,left_images/camera_left_23.png,right_images/camera_right_23.png
2025-05-30 14:59:03,1.314333438873291,24,-0.0120502515,-0.00013975294,0.11291553,0.00043846137,0.0002682035,-0.023880916,1.0471802,0.060729444,1.10680285e-05,0.001619326,0.8473986459009449,0.00031088733249184355,0.5309570964534814,-0.0004408658440091407,0.9999998958457808,0.00011809206345394492,-0.530957004438733,-0.0003341519031231282,0.8473986947004067,0.016472075,0.0015602498,0.112207495,0.0004854281,0.000101873506,-0.011203654,1.047179,-0.06093361,-0.00018140388,0.0023201397,0.8632778474734472,0.0012713632991166867,-0.5047273934481599,-0.0005041355538441625,0.9999985006920475,0.0016566414822104154,0.5047287428995452,-0.0011756908687615196,0.8632771940935461,0.002723351,-0.006506289,0.09171615,-0.00017282483,-0.011824319,-0.006229117,1.8017538e-14,0.00019948912,-0.008734858,0.0019246573,0.9999938206179776,-0.0002225918316668245,0.003508443919509682,0.0011839268360611863,0.9610197795750178,-0.27647709052077146,-0.003310142460185573,0.2764795358041178,0.9610141045991119,left_images/camera_left_24.png,right_images/camera_right_24.png
2025-05-30 14:59:03,1.3687107563018799,25,-0.0120502515,-0.00013975095,0.11291553,0.00043847362,0.00026818886,-0.023880916,1.0471802,0.060729444,1.10680285e-05,0.001619326,0.8473986459009449,0.00031088733249184355,0.5309570964534814,-0.0004408658440091407,0.9999998958457808,0.00011809206345394492,-0.530957004438733,-0.0003341519031231282,0.8473986947004067,0.016472075,0.0015602428,0.112207495,0.00048546257,0.000101932346,-0.011203654,1.047179,-0.06093361,-0.00018140388,0.0023201397,0.8632778474734472,0.0012713632991166867,-0.5047273934481599,-0.0005041355538441625,0.9999985006920475,0.0016566414822104154,0.5047287428995452,-0.0011756908687615196,0.8632771940935461,0.002723351,-0.006506289,0.09171615,-0.00017282163,-0.011824319,-0.006229117,1.7758346e-14,0.00019948912,-0.008734858,0.0019246573,0.9999938206179776,-0.0002225918316668245,0.003508443919509682,0.0011839268360611863,0.9610197795750178,-0.27647709052077146,-0.003310142460185573,0.2764795358041178,0.9610141045991119,left_images/camera_left_25.png,right_images/camera_right_25.png
2025-05-30 14:59:03,1.432304859161377,26,-0.0120502515,-0.00013974865,0.11291553,0.0004384859,0.0002681742,-0.023880916,1.0471802,0.060729444,1.10680285e-05,0.001619326,0.8473986459009449,0.00031088733249184355,0.5309570964534814,-0.0004408658440091407,0.9999998958457808,0.00011809206345394492,-0.530957004438733,-0.0003341519031231282,0.8473986947004067,0.016472075,0.0015602359,0.112207495,0.00048549703,0.000101991194,-0.011203654,1.047179,-0.06093361,-0.00018140388,0.0023201397,0.8632778474734472,0.0012713632991166867,-0.5047273934481599,-0.0005041355538441625,0.9999985006920475,0.0016566414822104154,0.5047287428995452,-0.0011756908687615196,0.8632771940935461,0.002723351,-0.006506289,0.09171615,-0.00017281843,-0.011824319,-0.006229117,1.7833362e-14,0.00019948912,-0.008734858,0.0019246573,0.9999938206179776,-0.0002225918316668245,0.003508443919509682,0.0011839268360611863,0.9610197795750178,-0.27647709052077146,-0.003310142460185573,0.2764795358041178,0.9610141045991119,left_images/camera_left_26.png,right_images/camera_right_26.png
2025-05-30 14:59:03,1.501812219619751,27,-0.0120502515,-0.00013974635,0.11291553,0.0004384982,0.00026815952,-0.023880916,1.0471802,0.060729444,1.10680285e-05,0.001619326,0.8473986459009449,0.00031088733249184355,0.5309570964534814,-0.0004408658440091407,0.9999998958457808,0.00011809206345394492,-0.530957004438733,-0.0003341519031231282,0.8473986947004067,0.016472075,0.0015602289,0.112207495,0.0004855315,0.00010205004,-0.011203654,1.047179,-0.06093361,-0.00018140388,0.0023201397,0.8632778474734472,0.0012713632991166867,-0.5047273934481599,-0.0005041355538441625,0.9999985006920475,0.0016566414822104154,0.5047287428995452,-0.0011756908687615196,0.8632771940935461,0.002723351,-0.006506289,0.09171615,-0.00017281523,-0.011824319,-0.006229117,1.7832088e-14,0.00019948912,-0.008734858,0.0019246573,0.9999938206179776,-0.0002225918316668245,0.003508443919509682,0.0011839268360611863,0.9610197795750178,-0.27647709052077146,-0.003310142460185573,0.2764795358041178,0.9610141045991119,left_images/camera_left_27.png,right_images/camera_right_27.png
2025-05-30 14:59:03,1.567488670349121,28,-0.0120502515,-0.00013974405,0.11291553,0.00043851047,0.00026814485,-0.023880916,1.0471802,0.060729444,1.1075307e-05,0.0016193241,0.8473986458495095,0.0003111020249096469,0.5309570964098204,-0.0004408922657835357,0.9999998958768368,0.00011772988231335768,-0.5309570044988833,-0.0003338590201183344,0.8473986947781589,0.016472075,0.0015602219,0.112207495,0.00048556595,0.00010210889,-0.011203654,1.047179,-0.06093361,-0.00018140388,0.0023201397,0.8632778474734472,0.0012713632991166867,-0.5047273934481599,-0.0005041355538441625,0.9999985006920475,0.0016566414822104154,0.5047287428995452,-0.0011756908687615196,0.8632771940935461,0.002723351,-0.006506289,0.09171615,-0.00017281203,-0.011824319,-0.006229117,1.7837479e-14,0.00019948912,-0.008734858,0.0019246573,0.9999938206179776,-0.0002225918316668245,0.003508443919509682,0.0011839268360611863,0.9610197795750178,-0.27647709052077146,-0.003310142460185573,0.2764795358041178,0.9610141045991119,left_images/camera_left_28.png,right_images/camera_right_28.png
2025-05-30 14:59:04,1.6363704204559326,29,-0.0120502515,-0.00013974603,0.11291553,0.00043851387,0.00026810163,-0.023880916,1.0471802,0.060729444,1.1075307e-05,0.0016193241,0.8473986458495095,0.0003111020249096469,0.5309570964098204,-0.0004408922657835357,0.9999998958768368,0.00011772988231335768,-0.5309570044988833,-0.0003338590201183344,0.8473986947781589,0.016472075,0.0015602149,0.112207495,0.0004856004,0.00010216774,-0.011203654,1.047179,-0.06093361,-0.00018140388,0.0023201397,0.8632778474734472,0.0012713632991166867,-0.5047273934481599,-0.0005041355538441625,0.9999985006920475,0.0016566414822104154,0.5047287428995452,-0.0011756908687615196,0.8632771940935461,0.002723351,-0.006506289,0.09171615,-0.00017280882,-0.011824319,-0.006229117,1.7882626e-14,0.00019948912,-0.008734858,0.0019246573,0.9999938206179776,-0.0002225918316668245,0.003508443919509682,0.0011839268360611863,0.9610197795750178,-0.27647709052077146,-0.003310142460185573,0.2764795358041178,0.9610141045991119,left_images/camera_left_29.png,right_images/camera_right_29.png
2025-05-30 14:59:04,1.7024526596069336,30,-0.0120502515,-0.0001397494,0.11291553,0.00043850043,0.0002681263,-0.023880916,1.0471802,0.060729444,1.1075307e-05,0.0016193241,0.8473986458495095,0.0003111020249096469,0.5309570964098204,-0.0004408922657835357,0.9999998958768368,0.00011772988231335768,-0.5309570044988833,-0.0003338590201183344,0.8473986947781589,0.016472075,0.0015602079,0.112207495,0.00048563487,0.000102226586,-0.011203654,1.047179,-0.06093361,-0.00018140388,0.0023201397,0.8632778474734472,0.0012713632991166867,-0.5047273934481599,-0.0005041355538441625,0.9999985006920475,0.0016566414822104154,0.5047287428995452,-0.0011756908687615196,0.8632771940935461,0.002723351,-0.006506289,0.09171615,-0.00017280562,-0.011824319,-0.006229117,1.7849737e-14,0.00019948912,-0.008734858,0.0019246573,0.9999938206179776,-0.0002225918316668245,0.003508443919509682,0.0011839268360611863,0.9610197795750178,-0.27647709052077146,-0.003310142460185573,0.2764795358041178,0.9610141045991119,left_images/camera_left_30.png,right_images/camera_right_30.png
2025-05-30 14:59:04,1.7588653564453125,31,-0.0120502515,-0.0001397529,0.11291553,0.00043848698,0.000268151,-0.023880916,1.0471802,0.060729444,1.10680285e-05,0.001619326,0.8473986459009449,0.00031088733249184355,0.5309570964534814,-0.0004408658440091407,0.9999998958457808,0.00011809206345394492,-0.530957004438733,-0.0003341519031231282,0.8473986947004067,0.016472075,0.0015602026,0.112207495,0.00048565384,0.000102232785,-0.011203654,1.047179,-0.06093361,-0.00018140388,0.0023201397,0.8632778474734472,0.0012713632991166867,-0.5047273934481599,-0.0005041355538441625,0.9999985006920475,0.0016566414822104154,0.5047287428995452,-0.0011756908687615196,0.8632771940935461,0.002723351,-0.006506289,0.09171615,-0.00017280242,-0.011824319,-0.006229117,1.7893707e-14,0.00019948912,-0.008734858,0.0019246573,0.9999938206179776,-0.0002225918316668245,0.003508443919509682,0.0011839268360611863,0.9610197795750178,-0.27647709052077146,-0.003310142460185573,0.2764795358041178,0.9610141045991119,left_images/camera_left_31.png,right_images/camera_right_31.png
2025-05-30 14:59:04,1.831979751586914,32,-0.0120502515,-0.00013975242,0.11291553,0.00043848224,0.00026820428,-0.023880916,1.0471802,0.060729444,1.10680285e-05,0.001619326,0.8473986459009449,0.00031088733249184355,0.5309570964534814,-0.0004408658440091407,0.9999998958457808,0.00011809206345394492,-0.530957004438733,-0.0003341519031231282,0.8473986947004067,0.016472075,0.0015601972,0.112207495,0.00048567282,0.00010223897,-0.011203654,1.047179,-0.06093361,-0.00018140388,0.0023201397,0.8632778474734472,0.0012713632991166867,-0.5047273934481599,-0.0005041355538441625,0.9999985006920475,0.0016566414822104154,0.5047287428995452,-0.0011756908687615196,0.8632771940935461,0.002723351,-0.006506289,0.09171615,-0.00017279922,-0.011824319,-0.006229117,1.7710187e-14,0.00019948912,-0.008734858,0.0019246573,0.9999938206179776,-0.0002225918316668245,0.003508443919509682,0.0011839268360611863,0.9610197795750178,-0.27647709052077146,-0.003310142460185573,0.2764795358041178,0.9610141045991119,left_images/camera_left_32.png,right_images/camera_right_32.png
2025-05-30 14:59:04,1.8987491130828857,33,-0.0120502515,-0.00013975042,0.11291553,0.0004384945,0.00026818964,-0.023880916,1.0471802,0.060729444,1.10680285e-05,0.001619326,0.8473986459009449,0.00031088733249184355,0.5309570964534814,-0.0004408658440091407,0.9999998958457808,0.00011809206345394492,-0.530957004438733,-0.0003341519031231282,0.8473986947004067,0.016471976,0.0015601506,0.112207495,0.00048567457,0.00010234167,-0.011203488,1.047179,-0.060933508,-0.00018143564,0.002320135,0.8632779660256537,0.0012713677470255489,-0.5047271906670595,-0.0005041714513616494,0.999998500760158,0.0016565894434489223,0.5047285400943343,-0.001175628125019856,0.8632773127522544,0.002723351,-0.006506289,0.09171615,-0.00017279602,-0.011824319,-0.006229117,1.7603501e-14,0.00019948912,-0.008734858,0.0019246573,0.9999938206179776,-0.0002225918316668245,0.003508443919509682,0.0011839268360611863,0.9610197795750178,-0.27647709052077146,-0.003310142460185573,0.2764795358041178,0.9610141045991119,left_images/camera_left_33.png,right_images/camera_right_33.png
2025-05-30 14:59:04,1.9588346481323242,34,-0.0120502515,-0.00013974812,0.11291553,0.00043850677,0.00026817498,-0.023880916,1.0471802,0.060729444,1.10680285e-05,0.001619326,0.8473986459009449,0.00031088733249184355,0.5309570964534814,-0.0004408658440091407,0.9999998958457808,0.00011809206345394492,-0.530957004438733,-0.0003341519031231282,0.8473986947004067,0.016471963,0.0015601426,0.112207495,0.00048565454,0.00010236043,-0.011203432,1.047179,-0.060933508,-0.00018143564,0.002320135,0.8632779660256537,0.0012713677470255489,-0.5047271906670595,-0.0005041714513616494,0.999998500760158,0.0016565894434489223,0.5047285400943343,-0.001175628125019856,0.8632773127522544,0.002723351,-0.006506289,0.09171615,-0.00017279282,-0.011824319,-0.006229117,1.7878887e-14,0.00019948912,-0.008734858,0.0019246573,0.9999938206179776,-0.0002225918316668245,0.003508443919509682,0.0011839268360611863,0.9610197795750178,-0.27647709052077146,-0.003310142460185573,0.2764795358041178,0.9610141045991119,left_images/camera_left_34.png,right_images/camera_right_34.png
2025-05-30 14:59:04,2.0177488327026367,35,-0.0120502515,-0.00013974583,0.11291553,0.00043851906,0.0002681603,-0.023880916,1.0471802,0.060729444,1.10680285e-05,0.001619326,0.8473986459009449,0.00031088733249184355,0.5309570964534814,-0.0004408658440091407,0.9999998958457808,0.00011809206345394492,-0.530957004438733,-0.0003341519031231282,0.8473986947004067,0.016471963,0.0015601426,0.112207495,0.00048563452,0.000102379185,-0.011203377,1.047179,-0.060933504,-0.00018143521,0.0023201378,0.8632777893631256,0.0012713804612225366,-0.5047274927959025,-0.0005041837333008109,0.9999985007483859,0.0016565928116078726,0.504728842242127,-0.001175624388662293,0.863277136101854,0.002723351,-0.006506289,0.09171615,-0.00017278962,-0.011824319,-0.006229117,1.7798524e-14,0.00019948912,-0.008734858,0.0019246573,0.9999938206179776,-0.0002225918316668245,0.003508443919509682,0.0011839268360611863,0.9610197795750178,-0.27647709052077146,-0.003310142460185573,0.2764795358041178,0.9610141045991119,left_images/camera_left_35.png,right_images/camera_right_35.png
2025-05-30 14:59:04,2.0788660049438477,36,-0.0120502515,-0.00013974353,0.11291553,0.00043853134,0.00026814564,-0.023880916,1.0471802,0.060729444,1.1075307e-05,0.0016193241,0.8473986458495095,0.0003111020249096469,0.5309570964098204,-0.0004408922657835357,0.9999998958768368,0.00011772988231335768,-0.5309570044988833,-0.0003338590201183344,0.8473986947781589,0.016471963,0.0015601426,0.112207495,0.00048561598,0.00010239803,-0.011203377,1.047179,-0.060933504,-0.00018143521,0.0023201378,0.8632777893631256,0.0012713804612225366,-0.5047274927959025,-0.0005041837333008109,0.9999985007483859,0.0016565928116078726,0.504728842242127,-0.001175624388662293,0.863277136101854,0.002723351,-0.006506289,0.09171615,-0.00017278641,-0.011824319,-0.006229117,1.778263e-14,0.00019948912,-0.008734858,0.0019246573,0.9999938206179776,-0.0002225918316668245,0.003508443919509682,0.0011839268360611863,0.9610197795750178,-0.27647709052077146,-0.003310142460185573,0.2764795358041178,0.9610141045991119,left_images/camera_left_36.png,right_images/camera_right_36.png
2025-05-30 14:59:04,2.1315951347351074,37,-0.0120502515,-0.0001397455,0.11291553,0.00043853474,0.00026810242,-0.023880916,1.0471802,0.060729444,1.1075307e-05,0.0016193241,0.8473986458495095,0.0003111020249096469,0.5309570964098204,-0.0004408922657835357,0.9999998958768368,0.00011772988231335768,-0.5309570044988833,-0.0003338590201183344,0.8473986947781589,0.016471963,0.0015601426,0.112207495,0.00048559747,0.000102416874,-0.011203377,1.047179,-0.060933504,-0.00018143521,0.0023201378,0.8632777893631256,0.0012713804612225366,-0.5047274927959025,-0.0005041837333008109,0.9999985007483859,0.0016565928116078726,0.504728842242127,-0.001175624388662293,0.863277136101854,0.002723351,-0.006506289,0.09171615,-0.00017278321,-0.011824319,-0.006229117,1.7844897e-14,0.00019948912,-0.008734858,0.0019246573,0.9999938206179776,-0.0002225918316668245,0.003508443919509682,0.0011839268360611863,0.9610197795750178,-0.27647709052077146,-0.003310142460185573,0.2764795358041178,0.9610141045991119,left_images/camera_left_37.png,right_images/camera_right_37.png
2025-05-30 14:59:04,2.1817257404327393,38,-0.0120502515,-0.00013974888,0.11291553,0.0004385213,0.0002681271,-0.023880916,1.0471802,0.060729444,1.1075307e-05,0.0016193241,0.8473986458495095,0.0003111020249096469,0.5309570964098204,-0.0004408922657835357,0.9999998958768368,0.00011772988231335768,-0.5309570044988833,-0.0003338590201183344,0.8473986947781589,0.016471963,0.0015601426,0.112207495,0.00048557896,0.00010243572,-0.011203377,1.047179,-0.060933504,-0.00018143521,0.0023201378,0.8632777893631256,0.0012713804612225366,-0.5047274927959025,-0.0005041837333008109,0.9999985007483859,0.0016565928116078726,0.504728842242127,-0.001175624388662293,0.863277136101854,0.002723351,-0.006506289,0.09171615,-0.00017278001,-0.011824319,-0.006229117,1.7810796e-14,0.00019948912,-0.008734858,0.0019246573,0.9999938206179776,-0.0002225918316668245,0.003508443919509682,0.0011839268360611863,0.9610197795750178,-0.27647709052077146,-0.003310142460185573,0.2764795358041178,0.9610141045991119,left_images/camera_left_38.png,right_images/camera_right_38.png
2025-05-30 14:59:04,2.2347488403320312,39,-0.0120502515,-0.00013975237,0.11291553,0.00043850785,0.00026815178,-0.023880916,1.0471802,0.060729444,1.10680285e-05,0.001619326,0.8473986459009449,0.00031088733249184355,0.5309570964534814,-0.0004408658440091407,0.9999998958457808,0.00011809206345394492,-0.530957004438733,-0.0003341519031231282,0.8473986947004067,0.016471963,0.0015601426,0.112207495,0.00048556045,0.00010245456,-0.011203377,1.047179,-0.060933504,-0.00018143521,0.0023201378,0.8632777893631256,0.0012713804612225366,-0.5047274927959025,-0.0005041837333008109,0.9999985007483859,0.0016565928116078726,0.504728842242127,-0.001175624388662293,0.863277136101854,0.002723351,-0.006506289,0.09171615,-0.00017277681,-0.011824319,-0.006229117,1.8045471e-14,0.00019948912,-0.008734858,0.0019246573,0.9999938206179776,-0.0002225918316668245,0.003508443919509682,0.0011839268360611863,0.9610197795750178,-0.27647709052077146,-0.003310142460185573,0.2764795358041178,0.9610141045991119,left_images/camera_left_39.png,right_images/camera_right_39.png
2025-05-30 14:59:04,2.3000078201293945,40,-0.0120502515,-0.0001397519,0.11291553,0.0004385031,0.00026820507,-0.023880916,1.0471802,0.060729444,1.10680285e-05,0.001619326,0.8473986459009449,0.00031088733249184355,0.5309570964534814,-0.0004408658440091407,0.9999998958457808,0.00011809206345394492,-0.530957004438733,-0.0003341519031231282,0.8473986947004067,0.016471963,0.0015601426,0.112207495,0.00048554194,0.00010247341,-0.011203377,1.047179,-0.060933504,-0.00018143521,0.0023201378,0.8632777893631256,0.0012713804612225366,-0.5047274927959025,-0.0005041837333008109,0.9999985007483859,0.0016565928116078726,0.504728842242127,-0.001175624388662293,0.863277136101854,0.002723351,-0.006506289,0.09171615,-0.00017277361,-0.011824319,-0.006229117,1.7621733e-14,0.00019948912,-0.008734858,0.0019246573,0.9999938206179776,-0.0002225918316668245,0.003508443919509682,0.0011839268360611863,0.9610197795750178,-0.27647709052077146,-0.003310142460185573,0.2764795358041178,0.9610141045991119,left_images/camera_left_40.png,right_images/camera_right_40.png
2025-05-30 14:59:04,2.359736442565918,41,-0.0120502515,-0.0001397499,0.11291553,0.00043851536,0.00026819043,-0.023880916,1.0471802,0.060729444,1.10680285e-05,0.001619326,0.8473986459009449,0.00031088733249184355,0.5309570964534814,-0.0004408658440091407,0.9999998958457808,0.00011809206345394492,-0.530957004438733,-0.0003341519031231282,0.8473986947004067,0.016471963,0.0015601426,0.112207495,0.00048552343,0.00010249225,-0.011203377,1.047179,-0.060933504,-0.00018143521,0.0023201378,0.8632777893631256,0.0012713804612225366,-0.5047274927959025,-0.0005041837333008109,0.9999985007483859,0.0016565928116078726,0.504728842242127,-0.001175624388662293,0.863277136101854,0.002723351,-0.006506289,0.09171615,-0.00017277041,-0.011824319,-0.006229117,1.8012222e-14,0.00019948912,-0.008734858,0.0019246573,0.9999938206179776,-0.0002225918316668245,0.003508443919509682,0.0011839268360611863,0.9610197795750178,-0.27647709052077146,-0.003310142460185573,0.2764795358041178,0.9610141045991119,left_images/camera_left_41.png,right_images/camera_right_41.png
2025-05-30 14:59:04,2.4287357330322266,42,-0.0120502515,-0.0001397476,0.11291553,0.00043852764,0.00026817576,-0.023880916,1.0471802,0.060729444,1.10680285e-05,0.001619326,0.8473986459009449,0.00031088733249184355,0.5309570964534814,-0.0004408658440091407,0.9999998958457808,0.00011809206345394492,-0.530957004438733,-0.0003341519031231282,0.8473986947004067,0.016471963,0.0015601426,0.112207495,0.00048550492,0.0001025111,-0.011203377,1.047179,-0.060933504,-0.00018143521,0.0023201378,0.8632777893631256,0.0012713804612225366,-0.5047274927959025,-0.0005041837333008109,0.9999985007483859,0.0016565928116078726,0.504728842242127,-0.001175624388662293,0.863277136101854,0.002723351,-0.006506289,0.09171615,-0.0001727672,-0.011824319,-0.006229117,1.778677e-14,0.00019948912,-0.008734858,0.0019246573,0.9999938206179776,-0.0002225918316668245,0.003508443919509682,0.0011839268360611863,0.9610197795750178,-0.27647709052077146,-0.003310142460185573,0.2764795358041178,0.9610141045991119,left_images/camera_left_42.png,right_images/camera_right_42.png
2025-05-30 14:59:04,2.4907596111297607,43,-0.0120502515,-0.0001397453,0.11291553,0.00043853992,0.0002681611,-0.023880916,1.0471802,0.060729444,1.10680285e-05,0.001619326,0.8473986459009449,0.00031088733249184355,0.5309570964534814,-0.0004408658440091407,0.9999998958457808,0.00011809206345394492,-0.530957004438733,-0.0003341519031231282,0.8473986947004067,0.016471963,0.0015601426,0.112207495,0.0004854864,0.00010252994,-0.011203377,1.047179,-0.060933504,-0.00018143521,0.0023201378,0.8632777893631256,0.0012713804612225366,-0.5047274927959025,-0.0005041837333008109,0.9999985007483859,0.0016565928116078726,0.504728842242127,-0.001175624388662293,0.863277136101854,0.002723351,-0.006506289,0.09171615,-0.000172764,-0.011824319,-0.006229117,1.8049694e-14,0.00019948912,-0.008734858,0.0019246573,0.9999938206179776,-0.0002225918316668245,0.003508443919509682,0.0011839268360611863,0.9610197795750178,-0.27647709052077146,-0.003310142460185573,0.2764795358041178,0.9610141045991119,left_images/camera_left_43.png,right_images/camera_right_43.png
2025-05-30 14:59:04,2.544738531112671,44,-0.0120502515,-0.000139743,0.11291553,0.0004385522,0.00026814642,-0.023880916,1.0471802,0.060729444,1.1101409e-05,0.0016193241,0.8473986631474827,0.00031153629837483065,0.5309570685479139,-0.0004414700727730931,0.9999998956096366,0.00011783416652725455,-0.5309569764114925,-0.0003342541708795291,0.8473987122211806,0.016471963,0.0015601426,0.112207495,0.0004854679,0.00010254879,-0.011203377,1.047179,-0.060933504,-0.00018143521,0.0023201378,0.8632777893631256,0.0012713804612225366,-0.5047274927959025,-0.0005041837333008109,0.9999985007483859,0.0016565928116078726,0.504728842242127,-0.001175624388662293,0.863277136101854,0.002723351,-0.006506289,0.09171615,-0.0001727608,-0.011824319,-0.006229117,1.7942094e-14,0.00019948912,-0.008734858,0.0019246573,0.9999938206179776,-0.0002225918316668245,0.003508443919509682,0.0011839268360611863,0.9610197795750178,-0.27647709052077146,-0.003310142460185573,0.2764795358041178,0.9610141045991119,left_images/camera_left_44.png,right_images/camera_right_44.png
2025-05-30 14:59:04,2.5963752269744873,45,-0.0120502515,-0.0001397812,0.11291553,0.00043862488,0.00026817748,-0.023880895,1.0471802,0.060729444,1.1096935e-05,0.0016193241,0.8473986456837671,0.00031141892825734354,0.5309570964885659,-0.00044150804343422807,0.9999998955596471,0.00011811580021581735,-0.5309570042517235,-0.0003345129979549234,0.8473986946751153,0.016471963,0.0015601426,0.112207495,0.0004854494,0.00010256763,-0.011203377,1.047179,-0.060933504,-0.00018143521,0.0023201378,0.8632777893631256,0.0012713804612225366,-0.5047274927959025,-0.0005041837333008109,0.9999985007483859,0.0016565928116078726,0.504728842242127,-0.001175624388662293,0.863277136101854,0.002723351,-0.006506289,0.09171615,-0.0001727576,-0.011824319,-0.006229117,1.7703856e-14,0.00019948912,-0.008734858,0.0019246573,0.9999938206179776,-0.0002225918316668245,0.003508443919509682,0.0011839268360611863,0.9610197795750178,-0.27647709052077146,-0.003310142460185573,0.2764795358041178,0.9610141045991119,left_images/camera_left_45.png,right_images/camera_right_45.png
2025-05-30 14:59:05,2.6525778770446777,46,-0.0120502515,-0.00013979051,0.11291553,0.0004386142,0.00026820213,-0.023880895,1.0471802,0.060729444,1.1096935e-05,0.0016193241,0.8473986456837671,0.00031141892825734354,0.5309570964885659,-0.00044150804343422807,0.9999998955596471,0.00011811580021581735,-0.5309570042517235,-0.0003345129979549234,0.8473986946751153,0.016471963,0.0015601426,0.112207495,0.00048543088,0.00010258648,-0.011203377,1.047179,-0.060933504,-0.00018143521,0.0023201378,0.8632777893631256,0.0012713804612225366,-0.5047274927959025,-0.0005041837333008109,0.9999985007483859,0.0016565928116078726,0.504728842242127,-0.001175624388662293,0.863277136101854,0.002723351,-0.006506289,0.09171615,-0.0001727544,-0.011824319,-0.006229117,1.7841663e-14,0.00019948912,-0.008734858,0.0019246573,0.9999938206179776,-0.0002225918316668245,0.003508443919509682,0.0011839268360611863,0.9610197795750178,-0.27647709052077146,-0.003310142460185573,0.2764795358041178,0.9610141045991119,left_images/camera_left_46.png,right_images/camera_right_46.png
2025-05-30 14:59:05,2.71687388420105,47,-0.0120502515,-0.000139794,0.11291553,0.00043860349,0.0002682268,-0.023880895,1.0471802,0.060729444,1.1096935e-05,0.0016193241,0.8473986456837671,0.00031141892825734354,0.5309570964885659,-0.00044150804343422807,0.9999998955596471,0.00011811580021581735,-0.5309570042517235,-0.0003345129979549234,0.8473986946751153,0.016471963,0.0015601426,0.112207495,0.00048541237,0.00010260532,-0.011203377,1.047179,-0.060933504,-0.00018143521,0.0023201378,0.8632777893631256,0.0012713804612225366,-0.5047274927959025,-0.0005041837333008109,0.9999985007483859,0.0016565928116078726,0.504728842242127,-0.001175624388662293,0.863277136101854,0.002723351,-0.006506289,0.09171615,-0.0001727512,-0.011824319,-0.006229117,1.7767184e-14,0.00019948912,-0.008734858,0.0019246573,0.9999938206179776,-0.0002225918316668245,0.003508443919509682,0.0011839268360611863,0.9610197795750178,-0.27647709052077146,-0.003310142460185573,0.2764795358041178,0.9610141045991119,left_images/camera_left_47.png,right_images/camera_right_47.png
2025-05-30 14:59:05,2.781968355178833,48,-0.0120502515,-0.0001397975,0.11291553,0.00043859278,0.0002682515,-0.023880895,1.0471802,0.060729444,1.1096935e-05,0.0016193241,0.8473986456837671,0.00031141892825734354,0.5309570964885659,-0.00044150804343422807,0.9999998955596471,0.00011811580021581735,-0.5309570042517235,-0.0003345129979549234,0.8473986946751153,0.016471963,0.0015601426,0.112207495,0.00048539386,0.000102624166,-0.011203377,1.047179,-0.060933504,-0.00018144393,0.0023201378,0.8632777892029484,0.001271710766871321,-0.504727492237737,-0.0005043046876907489,0.9999984999458953,0.0016570403558839072,0.5047288423952524,-0.0011759496947056397,0.8632771355692584,0.002723351,-0.006506289,0.09171615,-0.000172748,-0.011824319,-0.006229117,1.7958444e-14,0.00019948912,-0.008734858,0.0019246573,0.9999938206179776,-0.0002225918316668245,0.003508443919509682,0.0011839268360611863,0.9610197795750178,-0.27647709052077146,-0.003310142460185573,0.2764795358041178,0.9610141045991119,left_images/camera_left_48.png,right_images/camera_right_48.png
2025-05-30 14:59:05,2.852004051208496,49,-0.0120502515,-0.00013980099,0.11291553,0.00043858206,0.00026827617,-0.023880895,1.0471802,0.060729444,1.1096935e-05,0.0016193241,0.8473986456837671,0.00031141892825734354,0.5309570964885659,-0.00044150804343422807,0.9999998955596471,0.00011811580021581735,-0.5309570042517235,-0.0003345129979549234,0.8473986946751153,0.016471963,0.0015601356,0.112207495,0.00048537512,0.00010268218,-0.011203377,1.047179,-0.060933504,-0.00018144393,0.0023201378,0.8632777892029484,0.001271710766871321,-0.504727492237737,-0.0005043046876907489,0.9999984999458953,0.0016570403558839072,0.5047288423952524,-0.0011759496947056397,0.8632771355692584,0.002723351,-0.006506289,0.09171615,-0.0001727448,-0.011824319,-0.006229117,1.7654814e-14,0.00019948912,-0.008734858,0.0019246573,0.9999938206179776,-0.0002225918316668245,0.003508443919509682,0.0011839268360611863,0.9610197795750178,-0.27647709052077146,-0.003310142460185573,0.2764795358041178,0.9610141045991119,left_images/camera_left_49.png,right_images/camera_right_49.png
2025-05-30 14:59:05,2.903254508972168,50,-0.0120502515,-0.00013980448,0.11291553,0.00043857135,0.00026830085,-0.023880895,1.0471802,0.060729444,1.1096935e-05,0.0016193241,0.8473986456837671,0.00031141892825734354,0.5309570964885659,-0.00044150804343422807,0.9999998955596471,0.00011811580021581735,-0.5309570042517235,-0.0003345129979549234,0.8473986946751153,0.016471963,0.0015601286,0.112207495,0.00048535637,0.000102740196,-0.011203377,1.047179,-0.06093352,-0.0001814393,0.002320108,0.8632777603873195,0.001271491063498117,-0.5047275420770393,-0.0005040425392636474,0.9999985000566061,0.0016570533053462313,0.5047288919427663,-0.001176093114336889,0.8632771064051299,0.002723351,-0.006506289,0.09171615,-0.0001727416,-0.011824319,-0.006229117,1.8055358e-14,0.00019948912,-0.008734858,0.0019246573,0.9999938206179776,-0.0002225918316668245,0.003508443919509682,0.0011839268360611863,0.9610197795750178,-0.27647709052077146,-0.003310142460185573,0.2764795358041178,0.9610141045991119,left_images/camera_left_50.png,right_images/camera_right_50.png
2025-05-30 14:59:05,2.953176736831665,51,-0.0120502515,-0.00013980798,0.11291553,0.00043856064,0.00026832553,-0.023880895,1.0471802,0.060729444,1.1096935e-05,0.0016193241,0.8473986456837671,0.00031141892825734354,0.5309570964885659,-0.00044150804343422807,0.9999998955596471,0.00011811580021581735,-0.5309570042517235,-0.0003345129979549234,0.8473986946751153,0.016471963,0.0015601274,0.112207495,0.00048534758,0.00010275951,-0.011203377,1.047179,-0.06093352,-0.0001814393,0.002320108,0.8632777603873195,0.001271491063498117,-0.5047275420770393,-0.0005040425392636474,0.9999985000566061,0.0016570533053462313,0.5047288919427663,-0.001176093114336889,0.8632771064051299,0.002723351,-0.006506289,0.09171615,-0.0001727384,-0.011824319,-0.006229117,1.7706334e-14,0.00019948912,-0.008734858,0.0019246573,0.9999938206179776,-0.0002225918316668245,0.003508443919509682,0.0011839268360611863,0.9610197795750178,-0.27647709052077146,-0.003310142460185573,0.2764795358041178,0.9610141045991119,left_images/camera_left_51.png,right_images/camera_right_51.png
2025-05-30 14:59:05,3.0164923667907715,52,-0.0120502515,-0.00013981147,0.11291553,0.00043854993,0.0002683502,-0.023880895,1.0471802,0.060729444,1.1096935e-05,0.0016193241,0.8473986456837671,0.00031141892825734354,0.5309570964885659,-0.00044150804343422807,0.9999998955596471,0.00011811580021581735,-0.5309570042517235,-0.0003345129979549234,0.8473986946751153,0.016471963,0.0015601274,0.112207495,0.0004853388,0.000102778824,-0.011203377,1.047179,-0.06093352,-0.0001814393,0.002320108,0.8632777603873195,0.001271491063498117,-0.5047275420770393,-0.0005040425392636474,0.9999985000566061,0.0016570533053462313,0.5047288919427663,-0.001176093114336889,0.8632771064051299,0.002723351,-0.006506289,0.09171615,-0.00017273519,-0.011824319,-0.006229117,1.8011947e-14,0.00019948912,-0.008734858,0.0019246573,0.9999938206179776,-0.0002225918316668245,0.003508443919509682,0.0011839268360611863,0.9610197795750178,-0.27647709052077146,-0.003310142460185573,0.2764795358041178,0.9610141045991119,left_images/camera_left_52.png,right_images/camera_right_52.png
2025-05-30 14:59:05,3.0686898231506348,53,-0.0120502515,-0.00013984703,0.11291553,0.00043864016,0.00026839421,-0.023880895,1.0471802,0.060729444,1.1096935e-05,0.0016193241,0.8473986456837671,0.00031141892825734354,0.5309570964885659,-0.00044150804343422807,0.9999998955596471,0.00011811580021581735,-0.5309570042517235,-0.0003345129979549234,0.8473986946751153,0.016471963,0.0015601274,0.112207495,0.00048533,0.000102798134,-0.011203377,1.047179,-0.06093352,-0.0001814393,0.002320108,0.8632777603873195,0.001271491063498117,-0.5047275420770393,-0.0005040425392636474,0.9999985000566061,0.0016570533053462313,0.5047288919427663,-0.001176093114336889,0.8632771064051299,0.002723351,-0.006506289,0.09171615,-0.00017273199,-0.011824319,-0.006229117,1.8153163e-14,0.00019948912,-0.008734858,0.0019246573,0.9999938206179776,-0.0002225918316668245,0.003508443919509682,0.0011839268360611863,0.9610197795750178,-0.27647709052077146,-0.003310142460185573,0.2764795358041178,0.9610141045991119,left_images/camera_left_53.png,right_images/camera_right_53.png
2025-05-30 14:59:05,3.1177337169647217,54,-0.0120502515,-0.00013985587,0.11291553,0.00043862947,0.00026841887,-0.023880895,1.0471802,0.060729444,1.1096935e-05,0.0016193241,0.8473986456837671,0.00031141892825734354,0.5309570964885659,-0.00044150804343422807,0.9999998955596471,0.00011811580021581735,-0.5309570042517235,-0.0003345129979549234,0.8473986946751153,0.016471963,0.0015601274,0.112207495,0.00048532122,0.000102817445,-0.011203377,1.047179,-0.06093352,-0.0001814393,0.002320108,0.8632777603873195,0.001271491063498117,-0.5047275420770393,-0.0005040425392636474,0.9999985000566061,0.0016570533053462313,0.5047288919427663,-0.001176093114336889,0.8632771064051299,0.002723351,-0.006506289,0.09171615,-0.00017272879,-0.011824319,-0.006229117,1.7890491e-14,0.00019948912,-0.008734858,0.0019246573,0.9999938206179776,-0.0002225918316668245,0.003508443919509682,0.0011839268360611863,0.9610197795750178,-0.27647709052077146,-0.003310142460185573,0.2764795358041178,0.9610141045991119,left_images/camera_left_54.png,right_images/camera_right_54.png
2025-05-30 14:59:05,3.168745517730713,55,-0.0120502515,-0.00013985936,0.11291553,0.00043861876,0.00026844355,-0.023880895,1.0471802,0.060729444,1.1096935e-05,0.0016193241,0.8473986456837671,0.00031141892825734354,0.5309570964885659,-0.00044150804343422807,0.9999998955596471,0.00011811580021581735,-0.5309570042517235,-0.0003345129979549234,0.8473986946751153,0.016471963,0.0015601274,0.112207495,0.00048531243,0.000102836755,-0.011203377,1.047179,-0.06093352,-0.0001814393,0.002320108,0.8632777603873195,0.001271491063498117,-0.5047275420770393,-0.0005040425392636474,0.9999985000566061,0.0016570533053462313,0.5047288919427663,-0.001176093114336889,0.8632771064051299,0.002723351,-0.006506289,0.09171615,-0.00017272559,-0.011824319,-0.006229117,1.7864121e-14,0.00019948912,-0.008734858,0.0019246573,0.9999938206179776,-0.0002225918316668245,0.003508443919509682,0.0011839268360611863,0.9610197795750178,-0.27647709052077146,-0.003310142460185573,0.2764795358041178,0.9610141045991119,left_images/camera_left_55.png,right_images/camera_right_55.png
2025-05-30 14:59:05,3.2225306034088135,56,-0.0120502515,-0.00013986285,0.11291553,0.00043860805,0.00026846823,-0.023880895,1.0471802,0.060729444,1.1096935e-05,0.0016193241,0.8473986456837671,0.00031141892825734354,0.5309570964885659,-0.00044150804343422807,0.9999998955596471,0.00011811580021581735,-0.5309570042517235,-0.0003345129979549234,0.8473986946751153,0.016471963,0.0015601274,0.112207495,0.00048530364,0.000102856065,-0.011203377,1.047179,-0.06093352,-0.0001814393,0.002320108,0.8632777603873195,0.001271491063498117,-0.5047275420770393,-0.0005040425392636474,0.9999985000566061,0.0016570533053462313,0.5047288919427663,-0.001176093114336889,0.8632771064051299,0.002723351,-0.006506289,0.09171615,-0.00017272239,-0.011824319,-0.006229117,1.7885787e-14,0.00019948912,-0.008734858,0.0019246573,0.9999938206179776,-0.0002225918316668245,0.003508443919509682,0.0011839268360611863,0.9610197795750178,-0.27647709052077146,-0.003310142460185573,0.2764795358041178,0.9610141045991119,left_images/camera_left_56.png,right_images/camera_right_56.png
2025-05-30 14:59:05,3.271366596221924,57,-0.0120502515,-0.00013986634,0.11291553,0.00043859734,0.0002684929,-0.023880895,1.0471802,0.060729444,1.1096935e-05,0.0016193241,0.8473986456837671,0.00031141892825734354,0.5309570964885659,-0.00044150804343422807,0.9999998955596471,0.00011811580021581735,-0.5309570042517235,-0.0003345129979549234,0.8473986946751153,0.016471963,0.0015601274,0.112207495,0.00048529485,0.000102875376,-0.011203377,1.047179,-0.06093352,-0.0001814393,0.002320108,0.8632777603873195,0.001271491063498117,-0.5047275420770393,-0.0005040425392636474,0.9999985000566061,0.0016570533053462313,0.5047288919427663,-0.001176093114336889,0.8632771064051299,0.002723351,-0.006506289,0.09171615,-0.00017271918,-0.011824319,-0.006229117,1.7807204e-14,0.00019948912,-0.008734858,0.0019246573,0.9999938206179776,-0.0002225918316668245,0.003508443919509682,0.0011839268360611863,0.9610197795750178,-0.27647709052077146,-0.003310142460185573,0.2764795358041178,0.9610141045991119,left_images/camera_left_57.png,right_images/camera_right_57.png
2025-05-30 14:59:05,3.3223369121551514,58,-0.0120502515,-0.00013986984,0.11291553,0.00043858663,0.0002685176,-0.023880895,1.0471802,0.060729444,1.1096935e-05,0.0016193241,0.8473986456837671,0.00031141892825734354,0.5309570964885659,-0.00044150804343422807,0.9999998955596471,0.00011811580021581735,-0.5309570042517235,-0.0003345129979549234,0.8473986946751153,0.016471963,0.0015601274,0.112207495,0.00048528606,0.000102894686,-0.011203377,1.047179,-0.06093352,-0.0001814393,0.002320108,0.8632777603873195,0.001271491063498117,-0.5047275420770393,-0.0005040425392636474,0.9999985000566061,0.0016570533053462313,0.5047288919427663,-0.001176093114336889,0.8632771064051299,0.002723351,-0.006506289,0.09171615,-0.00017271598,-0.011824319,-0.006229117,1.8085299e-14,0.00019948912,-0.008734858,0.0019246573,0.9999938206179776,-0.0002225918316668245,0.003508443919509682,0.0011839268360611863,0.9610197795750178,-0.27647709052077146,-0.003310142460185573,0.2764795358041178,0.9610141045991119,left_images/camera_left_58.png,right_images/camera_right_58.png
2025-05-30 14:59:05,3.37015700340271,59,-0.0120502515,-0.00013987291,0.11291553,0.0004385759,0.00026849206,-0.023880895,1.0471802,0.060729444,1.1096935e-05,0.0016193241,0.8473986456837671,0.00031141892825734354,0.5309570964885659,-0.00044150804343422807,0.9999998955596471,0.00011811580021581735,-0.5309570042517235,-0.0003345129979549234,0.8473986946751153,0.016471963,0.0015601274,0.112207495,0.00048527727,0.000102914,-0.011203377,1.047179,-0.06093352,-0.0001814393,0.002320108,0.8632777603873195,0.001271491063498117,-0.5047275420770393,-0.0005040425392636474,0.9999985000566061,0.0016570533053462313,0.5047288919427663,-0.001176093114336889,0.8632771064051299,0.002723351,-0.006506289,0.09171615,-0.00017271278,-0.011824319,-0.006229117,1.7746782e-14,0.00019948912,-0.008734858,0.0019246573,0.9999938206179776,-0.0002225918316668245,0.003508443919509682,0.0011839268360611863,0.9610197795750178,-0.27647709052077146,-0.003310142460185573,0.2764795358041178,0.9610141045991119,left_images/camera_left_59.png,right_images/camera_right_59.png
2025-05-30 14:59:05,3.4270987510681152,60,-0.0120502515,-0.00013987639,0.11291553,0.00043856518,0.00026851674,-0.023880895,1.0471802,0.060729444,1.1096935e-05,0.0016193241,0.8473986456837671,0.00031141892825734354,0.5309570964885659,-0.00044150804343422807,0.9999998955596471,0.00011811580021581735,-0.5309570042517235,-0.0003345129979549234,0.8473986946751153,0.016471963,0.0015601274,0.112207495,0.00048526848,0.00010293331,-0.011203377,1.047179,-0.06093352,-0.0001814393,0.002320108,0.8632777603873195,0.001271491063498117,-0.5047275420770393,-0.0005040425392636474,0.9999985000566061,0.0016570533053462313,0.5047288919427663,-0.001176093114336889,0.8632771064051299,0.002723351,-0.006506289,0.09171615,-0.00017270958,-0.011824319,-0.006229117,1.7680752e-14,0.00019948912,-0.008734858,0.0019246573,0.9999938206179776,-0.0002225918316668245,0.003508443919509682,0.0011839268360611863,0.9610197795750178,-0.27647709052077146,-0.003310142460185573,0.2764795358041178,0.9610141045991119,left_images/camera_left_60.png,right_images/camera_right_60.png
2025-05-30 14:59:05,3.4818129539489746,61,-0.0120502515,-0.00013987946,0.11291553,0.00043855445,0.00026849122,-0.023880895,1.0471802,0.060729444,1.1096935e-05,0.0016193241,0.8473986456837671,0.00031141892825734354,0.5309570964885659,-0.00044150804343422807,0.9999998955596471,0.00011811580021581735,-0.5309570042517235,-0.0003345129979549234,0.8473986946751153,0.016471963,0.0015601274,0.112207495,0.0004852597,0.00010295262,-0.011203377,1.047179,-0.06093352,-0.0001814393,0.002320108,0.8632777603873195,0.001271491063498117,-0.5047275420770393,-0.0005040425392636474,0.9999985000566061,0.0016570533053462313,0.5047288919427663,-0.001176093114336889,0.8632771064051299,0.002723351,-0.006506289,0.09171615,-0.00017270638,-0.011824319,-0.006229117,1.8012334e-14,0.00019948912,-0.008734858,0.0019246573,0.9999938206179776,-0.0002225918316668245,0.003508443919509682,0.0011839268360611863,0.9610197795750178,-0.27647709052077146,-0.003310142460185573,0.2764795358041178,0.9610141045991119,left_images/camera_left_61.png,right_images/camera_right_61.png
2025-05-30 14:59:05,3.5346245765686035,62,-0.0120502515,-0.00013988293,0.11291553,0.00043854374,0.0002685159,-0.023880895,1.0471802,0.060729444,1.10680285e-05,0.001619326,0.8473986459009449,0.00031088733249184355,0.5309570964534814,-0.0004408658440091407,0.9999998958457808,0.00011809206345394492,-0.530957004438733,-0.0003341519031231282,0.8473986947004067,0.016471963,0.0015601274,0.112207495,0.0004852509,0.00010297193,-0.011203377,1.047179,-0.06093352,-0.0001814393,0.002320108,0.8632777603873195,0.001271491063498117,-0.5047275420770393,-0.0005040425392636474,0.9999985000566061,0.0016570533053462313,0.5047288919427663,-0.001176093114336889,0.8632771064051299,0.002723351,-0.006506289,0.09171615,-0.00017270318,-0.011824319,-0.006229117,1.8063564e-14,0.00019948912,-0.008734858,0.0019246573,0.9999938206179776,-0.0002225918316668245,0.003508443919509682,0.0011839268360611863,0.9610197795750178,-0.27647709052077146,-0.003310142460185573,0.2764795358041178,0.9610141045991119,left_images/camera_left_62.png,right_images/camera_right_62.png
2025-05-30 14:59:06,3.5896172523498535,63,-0.0120502515,-0.00013984911,0.11291553,0.0004384549,0.00026848196,-0.023880895,1.0471802,0.060729444,1.10680285e-05,0.001619326,0.8473986459009449,0.00031088733249184355,0.5309570964534814,-0.0004408658440091407,0.9999998958457808,0.00011809206345394492,-0.530957004438733,-0.0003341519031231282,0.8473986947004067,0.016471963,0.0015601274,0.112207495,0.0004852421,0.00010299124,-0.011203377,1.047179,-0.06093352,-0.00018144817,0.0023201052,0.8632777762589935,0.0012715134557011885,-0.5047275148739754,-0.000503813298948017,0.9999984994486839,0.0016574898310692105,0.5047288650250616,-0.001176585701198831,0.863277121471779,0.002723351,-0.006506289,0.09171615,-0.00017269998,-0.011824319,-0.006229117,1.7951327e-14,0.00019948912,-0.008734858,0.0019246573,0.9999938206179776,-0.0002225918316668245,0.003508443919509682,0.0011839268360611863,0.9610197795750178,-0.27647709052077146,-0.003310142460185573,0.2764795358041178,0.9610141045991119,left_images/camera_left_63.png,right_images/camera_right_63.png
2025-05-30 14:59:06,3.663121461868286,64,-0.0120502515,-0.00013984187,0.11291553,0.00043846716,0.0002684673,-0.023880895,1.0471802,0.060729444,1.10680285e-05,0.001619326,0.8473986459009449,0.00031088733249184355,0.5309570964534814,-0.0004408658440091407,0.9999998958457808,0.00011809206345394492,-0.530957004438733,-0.0003341519031231282,0.8473986947004067,0.016471963,0.0015601204,0.112207495,0.00048519333,0.00010304891,-0.011203377,1.047179,-0.06093352,-0.00018144817,0.0023201052,0.8632777762589935,0.0012715134557011885,-0.5047275148739754,-0.000503813298948017,0.9999984994486839,0.0016574898310692105,0.5047288650250616,-0.001176585701198831,0.863277121471779,0.002723351,-0.006506289,0.09171615,-0.00017269677,-0.011824319,-0.006229117,1.7892367e-14,0.00019948912,-0.008734858,0.0019246573,0.9999938206179776,-0.0002225918316668245,0.003508443919509682,0.0011839268360611863,0.9610197795750178,-0.27647709052077146,-0.003310142460185573,0.2764795358041178,0.9610141045991119,left_images/camera_left_64.png,right_images/camera_right_64.png
2025-05-30 14:59:06,3.715482711791992,65,-0.0120502515,-0.00013983955,0.11291553,0.00043847944,0.00026845263,-0.023880895,1.0471802,0.060729444,1.10680285e-05,0.001619326,0.8473986459009449,0.00031088733249184355,0.5309570964534814,-0.0004408658440091407,0.9999998958457808,0.00011809206345394492,-0.530957004438733,-0.0003341519031231282,0.8473986947004067,0.016471963,0.0015601134,0.112207495,0.00048514456,0.00010310658,-0.011203377,1.047179,-0.06093352,-0.00018144817,0.0023201052,0.8632777762589935,0.0012715134557011885,-0.5047275148739754,-0.000503813298948017,0.9999984994486839,0.0016574898310692105,0.5047288650250616,-0.001176585701198831,0.863277121471779,0.002723351,-0.006506289,0.09171615,-0.00017269357,-0.011824319,-0.006229117,1.776326e-14,0.00019948912,-0.008734858,0.0019246573,0.9999938206179776,-0.0002225918316668245,0.003508443919509682,0.0011839268360611863,0.9610197795750178,-0.27647709052077146,-0.003310142460185573,0.2764795358041178,0.9610141045991119,left_images/camera_left_65.png,right_images/camera_right_65.png
2025-05-30 14:59:06,3.770098924636841,66,-0.0120502515,-0.00013983726,0.11291553,0.00043849173,0.00026843796,-0.023880895,1.0471802,0.060729444,1.10680285e-05,0.001619326,0.8473986459009449,0.00031088733249184355,0.5309570964534814,-0.0004408658440091407,0.9999998958457808,0.00011809206345394492,-0.530957004438733,-0.0003341519031231282,0.8473986947004067,0.016471963,0.0015601064,0.112207495,0.00048509578,0.000103164246,-0.011203377,1.047179,-0.06093352,-0.00018144817,0.0023201052,0.8632777762589935,0.0012715134557011885,-0.5047275148739754,-0.000503813298948017,0.9999984994486839,0.0016574898310692105,0.5047288650250616,-0.001176585701198831,0.863277121471779,0.002723351,-0.006506289,0.09171615,-0.00017269037,-0.011824319,-0.006229117,1.7708626e-14,0.00019948912,-0.008734858,0.0019246573,0.9999938206179776,-0.0002225918316668245,0.003508443919509682,0.0011839268360611863,0.9610197795750178,-0.27647709052077146,-0.003310142460185573,0.2764795358041178,0.9610141045991119,left_images/camera_left_66.png,right_images/camera_right_66.png
2025-05-30 14:59:06,3.834928035736084,67,-0.0120502515,-0.00013983496,0.11291553,0.000438504,0.0002684233,-0.023880895,1.0471802,0.060729444,1.10680285e-05,0.001619326,0.8473986459009449,0.00031088733249184355,0.5309570964534814,-0.0004408658440091407,0.9999998958457808,0.00011809206345394492,-0.530957004438733,-0.0003341519031231282,0.8473986947004067,0.016471963,0.0015600994,0.112207495,0.000485047,0.000103221915,-0.011203377,1.047179,-0.06093352,-0.00018144817,0.0023201052,0.8632777762589935,0.0012715134557011885,-0.5047275148739754,-0.000503813298948017,0.9999984994486839,0.0016574898310692105,0.5047288650250616,-0.001176585701198831,0.863277121471779,0.002723351,-0.006506289,0.09171615,-0.00017268717,-0.011824319,-0.006229117,1.8148414e-14,0.00019948912,-0.008734858,0.0019246573,0.9999938206179776,-0.0002225918316668245,0.003508443919509682,0.0011839268360611863,0.9610197795750178,-0.27647709052077146,-0.003310142460185573,0.2764795358041178,0.9610141045991119,left_images/camera_left_67.png,right_images/camera_right_67.png
2025-05-30 14:59:06,3.8989174365997314,68,-0.0120502515,-0.00013983266,0.11291553,0.0004385163,0.00026840862,-0.023880895,1.0471802,0.060729444,1.10680285e-05,0.001619326,0.8473986459009449,0.00031088733249184355,0.5309570964534814,-0.0004408658440091407,0.9999998958457808,0.00011809206345394492,-0.530957004438733,-0.0003341519031231282,0.8473986947004067,0.016471963,0.0015600924,0.112207495,0.00048499822,0.000103279584,-0.011203377,1.047179,-0.06093352,-0.00018144817,0.0023201052,0.8632777762589935,0.0012715134557011885,-0.5047275148739754,-0.000503813298948017,0.9999984994486839,0.0016574898310692105,0.5047288650250616,-0.001176585701198831,0.863277121471779,0.002723351,-0.006506289,0.09171615,-0.00017268397,-0.011824319,-0.006229117,1.7833205e-14,0.00019948912,-0.008734858,0.0019246573,0.9999938206179776,-0.0002225918316668245,0.003508443919509682,0.0011839268360611863,0.9610197795750178,-0.27647709052077146,-0.003310142460185573,0.2764795358041178,0.9610141045991119,left_images/camera_left_68.png,right_images/camera_right_68.png
2025-05-30 14:59:06,3.9561779499053955,69,-0.0120502515,-0.00013983036,0.11291553,0.00043852857,0.00026839395,-0.023880895,1.0471802,0.060729444,1.10680285e-05,0.001619326,0.8473986459009449,0.00031088733249184355,0.5309570964534814,-0.0004408658440091407,0.9999998958457808,0.00011809206345394492,-0.530957004438733,-0.0003341519031231282,0.8473986947004067,0.016471963,0.0015600667,0.112207495,0.00048501557,0.00010336006,-0.011203349,1.047179,-0.06093352,-0.00018144817,0.0023201052,0.8632777762589935,0.0012715134557011885,-0.5047275148739754,-0.000503813298948017,0.9999984994486839,0.0016574898310692105,0.5047288650250616,-0.001176585701198831,0.863277121471779,0.002723351,-0.006506289,0.09171615,-0.00017268077,-0.011824319,-0.006229117,1.7877606e-14,0.00019948912,-0.008734858,0.0019246573,0.9999938206179776,-0.0002225918316668245,0.003508443919509682,0.0011839268360611863,0.9610197795750178,-0.27647709052077146,-0.003310142460185573,0.2764795358041178,0.9610141045991119,left_images/camera_left_69.png,right_images/camera_right_69.png
2025-05-30 14:59:06,4.020184755325317,70,-0.0120502515,-0.00013982806,0.11291553,0.00043854085,0.00026837928,-0.023880895,1.0471802,0.060729444,1.10680285e-05,0.001619326,0.8473986459009449,0.00031088733249184355,0.5309570964534814,-0.0004408658440091407,0.9999998958457808,0.00011809206345394492,-0.530957004438733,-0.0003341519031231282,0.8473986947004067,0.016471963,0.0015600584,0.112207495,0.0004849842,0.000103348815,-0.011203377,1.047179,-0.06093349,-0.00018146355,0.00232008,0.8632777607901703,0.001271262115821862,-0.5047275419647143,-0.0005034995339658712,0.9999984995427099,0.0016575284456438251,0.5047288917957132,-0.0011767773628424394,0.8632771055586436,0.002723351,-0.006506289,0.09171615,-0.00017267757,-0.011824319,-0.006229117,1.800214e-14,0.00019948912,-0.008734858,0.0019246573,0.9999938206179776,-0.0002225918316668245,0.003508443919509682,0.0011839268360611863,0.9610197795750178,-0.27647709052077146,-0.003310142460185573,0.2764795358041178,0.9610141045991119,left_images/camera_left_70.png,right_images/camera_right_70.png
2025-05-30 14:59:06,4.0874364376068115,71,-0.0120502515,-0.00013982576,0.11291553,0.00043855314,0.00026836462,-0.023880895,1.0471802,0.060729444,1.1096935e-05,0.0016193241,0.8473986456837671,0.00031141892825734354,0.5309570964885659,-0.00044150804343422807,0.9999998955596471,0.00011811580021581735,-0.5309570042517235,-0.0003345129979549234,0.8473986946751153,0.016471963,0.0015600723,0.112207495,0.00048494065,0.000103315775,-0.0112034045,1.047179,-0.06093349,-0.00018146307,0.0023200754,0.863277908466116,0.001271191894164653,-0.5047272895589621,-0.0005034296694058188,0.9999984996092953,0.0016575094949724876,0.5047286392834629,-0.0011767966375598143,0.8632772531676817,0.002723351,-0.006506289,0.09171615,-0.00017267436,-0.011824319,-0.006229117,1.8027646e-14,0.00019948912,-0.008734858,0.0019246573,0.9999938206179776,-0.0002225918316668245,0.003508443919509682,0.0011839268360611863,0.9610197795750178,-0.27647709052077146,-0.003310142460185573,0.2764795358041178,0.9610141045991119,left_images/camera_left_71.png,right_images/camera_right_71.png
2025-05-30 14:59:06,4.162161588668823,72,-0.0120502515,-0.00013982892,0.11291553,0.00043854243,0.0002683893,-0.023880895,1.0471802,0.060729444,1.10680285e-05,0.001619326,0.8473986459009449,0.00031088733249184355,0.5309570964534814,-0.0004408658440091407,0.9999998958457808,0.00011809206345394492,-0.530957004438733,-0.0003341519031231282,0.8473986947004067,0.016471963,0.001560067,0.112207495,0.00048494476,0.00010332471,-0.0112034045,1.047179,-0.06093349,-0.00018146307,0.0023200754,0.863277908466116,0.001271191894164653,-0.5047272895589621,-0.0005034296694058188,0.9999984996092953,0.0016575094949724876,0.5047286392834629,-0.0011767966375598143,0.8632772531676817,0.002723351,-0.006506289,0.09171615,-0.00017267116,-0.011824319,-0.006229117,1.7609947e-14,0.00019948912,-0.008734858,0.0019246573,0.9999938206179776,-0.0002225918316668245,0.003508443919509682,0.0011839268360611863,0.9610197795750178,-0.27647709052077146,-0.003310142460185573,0.2764795358041178,0.9610141045991119,left_images/camera_left_72.png,right_images/camera_right_72.png
2025-05-30 14:59:06,4.230834007263184,73,-0.0120502515,-0.0001397951,0.11291553,0.0004384536,0.00026835536,-0.023880895,1.0471802,0.060729444,1.10680285e-05,0.001619326,0.8473986459009449,0.00031088733249184355,0.5309570964534814,-0.0004408658440091407,0.9999998958457808,0.00011809206345394492,-0.530957004438733,-0.0003341519031231282,0.8473986947004067,0.016471963,0.0015600587,0.112207495,0.0004849489,0.00010333364,-0.0112034045,1.047179,-0.06093349,-0.00018146307,0.0023200754,0.863277908466116,0.001271191894164653,-0.5047272895589621,-0.0005034296694058188,0.9999984996092953,0.0016575094949724876,0.5047286392834629,-0.0011767966375598143,0.8632772531676817,0.002723351,-0.006506289,0.09171615,-0.00017266796,-0.011824319,-0.006229117,1.7685457e-14,0.00019948912,-0.008734858,0.0019246573,0.9999938206179776,-0.0002225918316668245,0.003508443919509682,0.0011839268360611863,0.9610197795750178,-0.27647709052077146,-0.003310142460185573,0.2764795358041178,0.9610141045991119,left_images/camera_left_73.png,right_images/camera_right_73.png
2025-05-30 14:59:06,4.298898935317993,74,-0.0120502515,-0.00013978785,0.11291553,0.00043846585,0.0002683407,-0.023880895,1.0471802,0.060729444,1.10680285e-05,0.001619326,0.8473986459009449,0.00031088733249184355,0.5309570964534814,-0.0004408658440091407,0.9999998958457808,0.00011809206345394492,-0.530957004438733,-0.0003341519031231282,0.8473986947004067,0.016471963,0.0015600504,0.112207495,0.00048495302,0.000103342565,-0.0112034045,1.047179,-0.06093349,-0.00018146307,0.0023200754,0.863277908466116,0.001271191894164653,-0.5047272895589621,-0.0005034296694058188,0.9999984996092953,0.0016575094949724876,0.5047286392834629,-0.0011767966375598143,0.8632772531676817,0.002723351,-0.006506289,0.09171615,-0.00017266476,-0.011824319,-0.006229117,1.7917955e-14,0.00019948912,-0.008734858,0.0019246573,0.9999938206179776,-0.0002225918316668245,0.003508443919509682,0.0011839268360611863,0.9610197795750178,-0.27647709052077146,-0.003310142460185573,0.2764795358041178,0.9610141045991119,left_images/camera_left_74.png,right_images/camera_right_74.png
2025-05-30 14:59:06,4.36384654045105,75,-0.0120502515,-0.00013978554,0.11291553,0.00043847814,0.00026832602,-0.023880895,1.0471802,0.060729444,1.10680285e-05,0.001619326,0.8473986459009449,0.00031088733249184355,0.5309570964534814,-0.0004408658440091407,0.9999998958457808,0.00011809206345394492,-0.530957004438733,-0.0003341519031231282,0.8473986947004067,0.016471963,0.0015600421,0.112207495,0.00048495716,0.00010335149,-0.0112034045,1.047179,-0.06093349,-0.00018146307,0.0023200754,0.863277908466116,0.001271191894164653,-0.5047272895589621,-0.0005034296694058188,0.9999984996092953,0.0016575094949724876,0.5047286392834629,-0.0011767966375598143,0.8632772531676817,0.002723351,-0.006506289,0.09171615,-0.00017266156,-0.011824319,-0.006229117,1.7769594e-14,0.00019948912,-0.008734858,0.0019246573,0.9999938206179776,-0.0002225918316668245,0.003508443919509682,0.0011839268360611863,0.9610197795750178,-0.27647709052077146,-0.003310142460185573,0.2764795358041178,0.9610141045991119,left_images/camera_left_75.png,right_images/camera_right_75.png
2025-05-30 14:59:06,4.43087100982666,76,-0.0120502515,-0.00013978324,0.11291553,0.00043849042,0.00026831136,-0.023880895,1.0471802,0.060729444,1.10680285e-05,0.001619326,0.8473986459009449,0.00031088733249184355,0.5309570964534814,-0.0004408658440091407,0.9999998958457808,0.00011809206345394492,-0.530957004438733,-0.0003341519031231282,0.8473986947004067,0.016471963,0.0015600339,0.112207495,0.0004849613,0.00010336042,-0.0112034045,1.047179,-0.06093349,-0.00018146307,0.0023200754,0.863277908466116,0.001271191894164653,-0.5047272895589621,-0.0005034296694058188,0.9999984996092953,0.0016575094949724876,0.5047286392834629,-0.0011767966375598143,0.8632772531676817,0.002723351,-0.006506289,0.09171615,-0.00017265836,-0.011824319,-0.006229117,1.7742799e-14,0.00019948912,-0.008734858,0.0019246573,0.9999938206179776,-0.0002225918316668245,0.003508443919509682,0.0011839268360611863,0.9610197795750178,-0.27647709052077146,-0.003310142460185573,0.2764795358041178,0.9610141045991119,left_images/camera_left_76.png,right_images/camera_right_76.png
2025-05-30 14:59:06,4.493593454360962,77,-0.0120502515,-0.00013978094,0.11291553,0.0004385027,0.0002682967,-0.023880895,1.0471802,0.060729444,1.10680285e-05,0.001619326,0.8473986459009449,0.00031088733249184355,0.5309570964534814,-0.0004408658440091407,0.9999998958457808,0.00011809206345394492,-0.530957004438733,-0.0003341519031231282,0.8473986947004067,0.016471963,0.0015600296,0.11220746,0.00048496545,0.000103364175,-0.011203387,1.0411677,-0.06093349,-0.00018146551,0.0023201033,0.8632779374555185,0.0012713739182783133,-0.5047272395174506,-0.0005034335253261652,0.9999984990202392,0.0016578636718364204,0.5047285896967116,-0.0011771005176869638,0.8632772817450601,0.002723351,-0.006506289,0.09171615,-0.00017265516,-0.011824319,-0.006229117,1.7778678e-14,0.00019948912,-0.008734858,0.0019246573,0.9999938206179776,-0.0002225918316668245,0.003508443919509682,0.0011839268360611863,0.9610197795750178,-0.27647709052077146,-0.003310142460185573,0.2764795358041178,0.9610141045991119,left_images/camera_left_77.png,right_images/camera_right_77.png
2025-05-30 14:59:06,4.553060293197632,78,-0.0120502515,-0.00013977864,0.11291553,0.00043851498,0.00026828202,-0.023880895,1.0471802,0.060729444,1.10680285e-05,0.001619326,0.8473986459009449,0.00031088733249184355,0.5309570964534814,-0.0004408658440091407,0.9999998958457808,0.00011809206345394492,-0.530957004438733,-0.0003341519031231282,0.8473986947004067,0.016471963,0.0015600298,0.11220746,0.00048498696,0.00010338434,-0.011203387,1.0391009,-0.06093352,-0.00018144939,0.0023201331,0.8632778923567455,0.0012716782507944209,-0.504727315887026,-0.0005038313207463707,0.9999984989485865,0.0016577860459013266,0.5047286664358341,-0.0011768326135039894,0.8632772372435775,0.002723351,-0.006506289,0.09171615,-0.00017265195,-0.011824319,-0.006229117,1.7983943e-14,0.00019948912,-0.008734858,0.0019246573,0.9999938206179776,-0.0002225918316668245,0.003508443919509682,0.0011839268360611863,0.9610197795750178,-0.27647709052077146,-0.003310142460185573,0.2764795358041178,0.9610141045991119,left_images/camera_left_78.png,right_images/camera_right_78.png
2025-05-30 14:59:07,4.6204986572265625,79,-0.0120502515,-0.00013977634,0.11291553,0.00043852726,0.00026826735,-0.023880895,1.0471802,0.060729444,1.10680285e-05,0.001619326,0.8473986459009449,0.00031088733249184355,0.5309570964534814,-0.0004408658440091407,0.9999998958457808,0.00011809206345394492,-0.530957004438733,-0.0003341519031231282,0.8473986947004067,0.016471963,0.0015600112,0.11220746,0.000485045,0.00010340834,-0.011203387,1.0404899,-0.06093352,-0.00018144939,0.0023201331,0.8632778923567455,0.0012716782507944209,-0.504727315887026,-0.0005038313207463707,0.9999984989485865,0.0016577860459013266,0.5047286664358341,-0.0011768326135039894,0.8632772372435775,0.002723351,-0.006506289,0.09171615,-0.00017264875,-0.011824319,-0.006229117,1.7898536e-14,0.00019948912,-0.008734858,0.0019246573,0.9999938206179776,-0.0002225918316668245,0.003508443919509682,0.0011839268360611863,0.9610197795750178,-0.27647709052077146,-0.003310142460185573,0.2764795358041178,0.9610141045991119,left_images/camera_left_79.png,right_images/camera_right_79.png
2025-05-30 14:59:07,4.677718639373779,80,-0.0120502515,-0.00013977404,0.11291553,0.00043853954,0.00026825268,-0.023880895,1.0471802,0.060729444,1.10680285e-05,0.001619326,0.8473986459009449,0.00031088733249184355,0.5309570964534814,-0.0004408658440091407,0.9999998958457808,0.00011809206345394492,-0.530957004438733,-0.0003341519031231282,0.8473986947004067,0.016471963,0.0015600071,0.11220746,0.0004850371,0.00010342804,-0.011203387,1.0392466,-0.06093352,-0.00018144939,0.0023201331,0.8632778923567455,0.0012716782507944209,-0.504727315887026,-0.0005038313207463707,0.9999984989485865,0.0016577860459013266,0.5047286664358341,-0.0011768326135039894,0.8632772372435775,0.0027233756,-0.006506243,0.09171615,-0.00017269491,-0.011824375,-0.0062291413,5.212304e-12,0.00019948912,-0.008734858,0.0019246573,0.9999938206179776,-0.0002225918316668245,0.003508443919509682,0.0011839268360611863,0.9610197795750178,-0.27647709052077146,-0.003310142460185573,0.2764795358041178,0.9610141045991119,left_images/camera_left_80.png,right_images/camera_right_80.png
2025-05-30 14:59:07,4.731167316436768,81,-0.0120502515,-0.00013977174,0.11291553,0.00043855183,0.000268238,-0.023880895,1.0471802,0.060729444,1.1096935e-05,0.0016193241,0.8473986456837671,0.00031141892825734354,0.5309570964885659,-0.00044150804343422807,0.9999998955596471,0.00011811580021581735,-0.5309570042517235,-0.0003345129979549234,0.8473986946751153,0.016471963,0.0015600071,0.11220746,0.0004850288,0.00010344775,-0.011203387,1.0425979,-0.06093352,-0.00018144939,0.0023201331,0.8632778923567455,0.0012716782507944209,-0.504727315887026,-0.0005038313207463707,0.9999984989485865,0.0016577860459013266,0.5047286664358341,-0.0011768326135039894,0.8632772372435775,0.0027233798,-0.0065062363,0.09171615,-0.00017269173,-0.011824375,-0.0062291413,7.092519e-13,0.00019948912,-0.008734858,0.0019246573,0.9999938206179776,-0.0002225918316668245,0.003508443919509682,0.0011839268360611863,0.9610197795750178,-0.27647709052077146,-0.003310142460185573,0.2764795358041178,0.9610141045991119,left_images/camera_left_81.png,right_images/camera_right_81.png
2025-05-30 14:59:07,4.782637596130371,82,-0.0120502515,-0.000139807,0.11291553,0.00043864205,0.00026828202,-0.023880895,1.0471802,0.060729444,1.1096935e-05,0.0016193241,0.8473986456837671,0.00031141892825734354,0.5309570964885659,-0.00044150804343422807,0.9999998955596471,0.00011811580021581735,-0.5309570042517235,-0.0003345129979549234,0.8473986946751153,0.016471963,0.0015600007,0.112207405,0.0004850211,0.0001034728,-0.011203416,1.0347605,-0.06093355,-0.00018145311,0.002320163,0.8632778923567455,0.0012716782507944209,-0.504727315887026,-0.0005038313207463707,0.9999984989485865,0.0016577860459013266,0.5047286664358341,-0.0011768326135039894,0.8632772372435775,0.0027233798,-0.0065062363,0.09171615,-0.00017268852,-0.011824375,-0.0062291413,4.8696446e-14,0.00019948912,-0.008734858,0.0019246573,0.9999938206179776,-0.0002225918316668245,0.003508443919509682,0.0011839268360611863,0.9610197795750178,-0.27647709052077146,-0.003310142460185573,0.2764795358041178,0.9610141045991119,left_images/camera_left_82.png,right_images/camera_right_82.png
2025-05-30 14:59:07,4.835618734359741,83,-0.0120502515,-0.00013981583,0.11291553,0.00043863137,0.00026830667,-0.023880895,1.0471802,0.060729444,1.1096935e-05,0.0016193241,0.8473986456837671,0.00031141892825734354,0.5309570964885659,-0.00044150804343422807,0.9999998955596471,0.00011811580021581735,-0.5309570042517235,-0.0003345129979549234,0.8473986946751153,0.016471963,0.0015599927,0.11220747,0.00048501213,0.00010349758,-0.011203444,1.0447775,-0.06093352,-0.00018145684,0.0023201033,0.8632778923567455,0.0012716782507944209,-0.504727315887026,-0.0005038313207463707,0.9999984989485865,0.0016577860459013266,0.5047286664358341,-0.0011768326135039894,0.8632772372435775,0.0027233798,-0.0065062363,0.09171615,-0.00017268532,-0.011824375,-0.0062291413,1.7916614e-14,0.00019948912,-0.008734858,0.0019246573,0.9999938206179776,-0.0002225918316668245,0.003508443919509682,0.0011839268360611863,0.9610197795750178,-0.27647709052077146,-0.003310142460185573,0.2764795358041178,0.9610141045991119,left_images/camera_left_83.png,right_images/camera_right_83.png
2025-05-30 14:59:07,4.905096054077148,84,-0.0120502515,-0.00013981933,0.11291553,0.00043862066,0.00026833135,-0.023880895,1.0471802,0.060729444,1.1096935e-05,0.0016193241,0.8473986456837671,0.00031141892825734354,0.5309570964885659,-0.00044150804343422807,0.9999998955596471,0.00011811580021581735,-0.5309570042517235,-0.0003345129979549234,0.8473986946751153,0.016471963,0.0015599909,0.11220747,0.0004850052,0.00010351726,-0.011203444,1.0455867,-0.06093352,-0.00018145684,0.0023201033,0.8632778923567455,0.0012716782507944209,-0.504727315887026,-0.0005038313207463707,0.9999984989485865,0.0016577860459013266,0.5047286664358341,-0.0011768326135039894,0.8632772372435775,0.0027233798,-0.0065062363,0.09171615,-0.00017268212,-0.011824375,-0.0062291413,1.8276259e-14,0.00019948912,-0.008734858,0.0019246573,0.9999938206179776,-0.0002225918316668245,0.003508443919509682,0.0011839268360611863,0.9610197795750178,-0.27647709052077146,-0.003310142460185573,0.2764795358041178,0.9610141045991119,left_images/camera_left_84.png,right_images/camera_right_84.png
2025-05-30 14:59:07,4.966941833496094,85,-0.0120502515,-0.00013982282,0.11291553,0.00043860995,0.00026835603,-0.023880895,1.0471802,0.060729444,1.1096935e-05,0.0016193241,0.8473986456837671,0.00031141892825734354,0.5309570964885659,-0.00044150804343422807,0.9999998955596471,0.00011811580021581735,-0.5309570042517235,-0.0003345129979549234,0.8473986946751153,0.016471963,0.0015599909,0.11220747,0.00048499723,0.000103536935,-0.011203444,1.0422543,-0.06093352,-0.00018145684,0.0023201033,0.8632778923567455,0.0012716782507944209,-0.504727315887026,-0.0005038313207463707,0.9999984989485865,0.0016577860459013266,0.5047286664358341,-0.0011768326135039894,0.8632772372435775,0.0027233798,-0.0065062363,0.09171615,-0.00017267892,-0.011824375,-0.0062291413,1.8264434e-14,0.00019948912,-0.008734858,0.0019246573,0.9999938206179776,-0.0002225918316668245,0.003508443919509682,0.0011839268360611863,0.9610197795750178,-0.27647709052077146,-0.003310142460185573,0.2764795358041178,0.9610141045991119,left_images/camera_left_85.png,right_images/camera_right_85.png
2025-05-30 14:59:07,5.023667573928833,86,-0.0120502515,-0.00013982631,0.11291553,0.00043859924,0.0002683807,-0.023880895,1.0471802,0.060729444,1.1096935e-05,0.0016193241,0.8473986456837671,0.00031141892825734354,0.5309570964885659,-0.00044150804343422807,0.9999998955596471,0.00011811580021581735,-0.5309570042517235,-0.0003345129979549234,0.8473986946751153,0.016471963,0.0015599909,0.11220747,0.00048498888,0.0001035566,-0.011203444,1.0440843,-0.06093352,-0.00018145684,0.0023201033,0.8632778923567455,0.0012716782507944209,-0.504727315887026,-0.0005038313207463707,0.9999984989485865,0.0016577860459013266,0.5047286664358341,-0.0011768326135039894,0.8632772372435775,0.0027233798,-0.0065062363,0.09171615,-0.00017267572,-0.011824375,-0.0062291413,1.7852268e-14,0.00019948912,-0.008734858,0.0019246573,0.9999938206179776,-0.0002225918316668245,0.003508443919509682,0.0011839268360611863,0.9610197795750178,-0.27647709052077146,-0.003310142460185573,0.2764795358041178,0.9610141045991119,left_images/camera_left_86.png,right_images/camera_right_86.png
2025-05-30 14:59:07,5.082059144973755,87,-0.0120502515,-0.0001398298,0.11291553,0.00043858853,0.0002684054,-0.023880895,1.0471802,0.060729444,1.1096935e-05,0.0016193241,0.8473986456837671,0.00031141892825734354,0.5309570964885659,-0.00044150804343422807,0.9999998955596471,0.00011811580021581735,-0.5309570042517235,-0.0003345129979549234,0.8473986946751153,0.016471963,0.0015599723,0.11220747,0.00048504726,0.0001035806,-0.011203444,1.0469754,-0.06093352,-0.00018145684,0.0023201033,0.8632778923567455,0.0012716782507944209,-0.504727315887026,-0.0005038313207463707,0.9999984989485865,0.0016577860459013266,0.5047286664358341,-0.0011768326135039894,0.8632772372435775,0.0027233798,-0.0065062363,0.09171615,-0.00017267252,-0.011824375,-0.0062291413,1.790895e-14,0.00019948912,-0.008734858,0.0019246573,0.9999938206179776,-0.0002225918316668245,0.003508443919509682,0.0011839268360611863,0.9610197795750178,-0.27647709052077146,-0.003310142460185573,0.2764795358041178,0.9610141045991119,left_images/camera_left_87.png,right_images/camera_right_87.png
2025-05-30 14:59:07,5.149981260299683,88,-0.01325358,-0.0026823857,0.11291336,0.07234373,0.018766003,-0.004815529,1.04718,0.060742233,-3.0884417e-05,0.0016148137,0.8543951401496657,0.05386261336519803,0.5168246930731004,-0.07235694959214754,0.997255452576952,0.01568547580591437,-0.5145613824747759,-0.05079745256417585,0.8559475465696701,0.017204221,0.00014895578,0.11220896,-0.0827094,0.0092634335,-0.022731462,1.0421078,-0.060940955,-0.00020468901,0.0023166295,0.8657682313865884,-0.06596662503869291,-0.4960783949163108,0.08238014750759146,0.9965374110649974,0.011256093660763591,0.4936181528452597,-0.050612179649535974,0.8682047721895779,0.0027233798,-0.0065062363,0.09171615,-0.00017266932,-0.011824375,-0.0062291413,1.8120528e-14,0.00019948912,-0.008734858,0.0019246573,0.9999938206179776,-0.0002225918316668245,0.003508443919509682,0.0011839268360611863,0.9610197795750178,-0.27647709052077146,-0.003310142460185573,0.2764795358041178,0.9610141045991119,left_images/camera_left_88.png,right_images/camera_right_88.png
2025-05-30 14:59:07,5.201531887054443,89,-0.018466737,-0.007812177,0.11246561,0.18890287,0.055530615,0.025831075,1.0471802,0.060565833,-0.00014796568,0.0022703847,0.8538119638687505,0.1359059801939087,0.502528302588143,-0.18650647408655663,0.9811005042756006,0.05154741151563692,-0.4860251695934974,-0.13773657850293342,0.8630226934814154,0.018609585,-0.0034608236,0.11194496,-0.19937554,0.020562524,-0.032807816,1.0441221,-0.06096478,-3.4359546e-05,0.0026157405,0.8557408653161825,-0.16073087161591396,-0.4918060169797637,0.19740160565959405,0.9800485943306396,0.02318100156488931,0.47826789303791367,-0.1169202277628891,0.8703961643004574,0.0027233798,-0.0065062363,0.09171615,-0.00017266611,-0.011824375,-0.0062291413,1.774693e-14,0.00019948912,-0.008734858,0.0019246573,0.9999938206179776,-0.0002225918316668245,0.003508443919509682,0.0011839268360611863,0.9610197795750178,-0.27647709052077146,-0.003310142460185573,0.2764795358041178,0.9610141045991119,left_images/camera_left_89.png,right_images/camera_right_89.png
2025-05-30 14:59:07,5.267258644104004,90,-0.02608797,-0.013763591,0.11146827,0.3055623,0.09249285,0.056830827,1.0471805,0.060320444,-0.00020701234,0.00364858,0.8405529176254531,0.2139538553038539,0.497689200678451,-0.2960910902190166,0.9507827997464107,0.09133528343028648,-0.45365279560943095,-0.22413347698858854,0.8625330866284223,0.021073738,-0.00820127,0.11137433,-0.315666,0.03539164,-0.042834524,1.0444939,-0.0609826,0.00019369429,0.0032825805,0.8334628816163396,-0.25102677503149423,-0.4922653585060351,0.3090645053889098,0.9502530110351031,0.0387084813371589,0.4580597739122005,-0.18440383194502283,0.8695840789064021,0.0027233798,-0.0065062363,0.09171615,-0.00017266291,-0.011824375,-0.0062291413,1.7899624e-14,0.00019948912,-0.008734858,0.0019246573,0.9999938206179776,-0.0002225918316668245,0.003508443919509682,0.0011839268360611863,0.9610197795750178,-0.27647709052077146,-0.003310142460185573,0.2764795358041178,0.9610141045991119,left_images/camera_left_90.png,right_images/camera_right_90.png
2025-05-30 14:59:07,5.333158016204834,91,-0.035789303,-0.019753776,0.11004285,0.42222127,0.11958905,0.08939596,1.0471807,0.060056478,-0.0001128288,0.0055652773,0.8165281482258363,0.2909818056361147,0.4986094382817409,-0.4001085241004014,0.9078459017952079,0.12541526037864936,-0.4161669762211862,-0.30190297676967714,0.8577060338603912,0.024155345,-0.015481238,0.11044276,-0.43233082,0.064635344,-0.055078376,1.0400839,-0.061003245,0.000459405,0.004393396,0.8004181991595032,-0.33056169592910933,-0.5000596680784494,0.4159247688201958,0.9069870849288578,0.06618923216142865,0.43166803580543767,-0.2609662678522339,0.8634577661398104,0.0027233798,-0.0065062363,0.09171615,-0.00017265971,-0.011824375,-0.0062291413,1.7822956e-14,0.00019948912,-0.008734858,0.0019246573,0.9999938206179776,-0.0002225918316668245,0.003508443919509682,0.0011839268360611863,0.9610197795750178,-0.27647709052077146,-0.003310142460185573,0.2764795358041178,0.9610141045991119,left_images/camera_left_91.png,right_images/camera_right_91.png
2025-05-30 14:59:07,5.40642523765564,92,-0.046703346,-0.029158326,0.10832099,0.53887194,0.14710933,0.1198965,1.0471804,0.059754804,0.00035571016,0.007898206,0.7808334470903058,0.36147312951387,0.5095451938194682,-0.49767562688673783,0.8529301186919649,0.1575727864543966,-0.37764811439746787,-0.37662632577603933,0.8458927310389169,0.026699755,-0.026730468,0.10919651,-0.5489985,0.10533903,-0.074847355,1.0168397,-0.061119486,0.0009795573,0.005863741,0.7601877262022655,-0.39915263741212104,-0.5126322199963412,0.5154691047181291,0.8508263092801223,0.10191267594296582,0.3954822663692011,-0.3417188368874525,0.8525385700974278,0.0027233798,-0.0065062363,0.09171615,-0.00017265651,-0.011824375,-0.0062291413,1.792188e-14,0.00019948912,-0.008734858,0.0019246573,0.9999938206179776,-0.0002225918316668245,0.003508443919509682,0.0011839268360611863,0.9610197795750178,-0.27647709052077146,-0.003310142460185573,0.2764795358041178,0.9610141045991119,left_images/camera_left_92.png,right_images/camera_right_92.png
2025-05-30 14:59:07,5.469541072845459,93,-0.058368176,-0.043027338,0.10658407,0.6555416,0.17133567,0.15877326,1.0471803,0.059430614,0.0013239278,0.010322904,0.7393841430108552,0.4265317900995208,0.5209431073530022,-0.5867153921136204,0.7877220125737143,0.18777401194994392,-0.33026676750933304,-0.4444824664048239,0.8326819316747667,0.02820693,-0.041863333,0.10791972,-0.6656777,0.15132296,-0.10972625,1.0304804,-0.061295416,0.001820917,0.0074090096,0.7178681864234809,-0.45793725450748485,-0.5243650806977993,0.6048989477549174,0.7831384456073444,0.14419236462693244,0.3446193986502446,-0.4206989968443704,0.8391959390560015,0.0027233798,-0.0065062363,0.09171615,-0.00017265331,-0.011824375,-0.0062291413,1.7779872e-14,0.00019948912,-0.008734858,0.0019246573,0.9999938206179776,-0.0002225918316668245,0.003508443919509682,0.0011839268360611863,0.9610197795750178,-0.27647709052077146,-0.003310142460185573,0.2764795358041178,0.9610141045991119,left_images/camera_left_93.png,right_images/camera_right_93.png
2025-05-30 14:59:07,5.522829532623291,94,-0.07063446,-0.059853595,0.10518677,0.7722275,0.1852292,0.21067293,1.0471809,0.059011985,0.0026776283,0.012467194,0.6955913493769122,0.4887892197378749,0.5265337342849423,-0.6658390778277765,0.7138604012991823,0.21693697217032215,-0.26983512949477706,-0.5014862172831974,0.8220100831288671,0.027464863,-0.05963989,0.10686947,-0.78238606,0.19470307,-0.16837728,1.0458708,-0.06161687,0.0029091323,0.008691037,0.6800807500550363,-0.5097623430367572,-0.5269084617144184,0.6806134259209841,0.706127566254422,0.1953182649720909,0.27249869331921633,-0.4914531654158738,0.8271748595925998,0.0027233798,-0.0065062363,0.09171615,-0.0001726501,-0.011824375,-0.0062291413,1.7944529e-14,0.00019948912,-0.008734858,0.0019246573,0.9999938206179776,-0.0002225918316668245,0.003508443919509682,0.0011839268360611863,0.9610197795750178,-0.27647709052077146,-0.003310142460185573,0.2764795358041178,0.9610141045991119,left_images/camera_left_94.png,right_images/camera_right_94.png
