jiaqis7/OS_Teleop_Extension/demo_2/teleop_log.csv
Epoch Time (Seconds),Time (Seconds),Frame Number,PSM1_joint_1,PSM1_joint_2,PSM1_joint_3,PSM1_joint_4,PSM1_joint_5,PSM1_joint_6,PSM1_jaw_angle,PSM1_ee_x,PSM1_ee_y,PSM1_ee_z,"PSM1_Orientation_Matrix_[1,1]","PSM1_Orientation_Matrix_[1,2]","PSM1_Orientation_Matrix_[1,3]","PSM1_Orientation_Matrix_[2,1]","PSM1_Orientation_Matrix_[2,2]","PSM1_Orientation_Matrix_[2,3]","PSM1_Orientation_Matrix_[3,1]","PSM1_Orientation_Matrix_[3,2]","PSM1_Orientation_Matrix_[3,3]",PSM2_joint_1,PSM2_joint_2,PSM2_joint_3,PSM2_joint_4,PSM2_joint_5,PSM2_joint_6,PSM2_jaw_angle,PSM2_ee_x,PSM2_ee_y,PSM2_ee_z,"PSM2_Orientation_Matrix_[1,1]","PSM2_Orientation_Matrix_[1,2]","PSM2_Orientation_Matrix_[1,3]","PSM2_Orientation_Matrix_[2,1]","PSM2_Orientation_Matrix_[2,2]","PSM2_Orientation_Matrix_[2,3]","PSM2_Orientation_Matrix_[3,1]","PSM2_Orientation_Matrix_[3,2]","PSM2_Orientation_Matrix_[3,3]",Camera Left,Camera Right
2025-05-07 16:11:12,0.0018839836120605469,1,-0.06550272,-0.0006223965,0.114032045,0.00016293507,9.869986e-06,0.012456442,0.7733493,0.035163946,7.2314615e-05,0.0028103665,0.8381876895809005,0.00047567805923525266,0.5453816743945616,-0.0001704814778139941,0.9999997993065208,-0.0006101827461180223,-0.5453818551905605,0.0004184701923673389,0.8381876024563955,-0.0009051211,1.9246148e-05,0.10708704,0.0007040797,0.000115302355,-0.014006547,0.9759102,-0.04523686,-4.475381e-06,0.0047320416,0.8732869566335646,0.000677250096441753,-0.4872057396069896,-0.0007060883117546822,0.999999742975853,0.00012444888176862674,0.48720569866636704,0.00023533069294011616,0.8732872103761067,left_images/camera_left_1.png,right_images/camera_right_1.png
2025-05-07 16:11:12,0.04778289794921875,2,-0.06550272,-0.000622393,0.114032045,0.0001629101,9.8509e-06,0.012456442,0.746681,0.03516388,7.231016e-05,0.0028103683,0.8381876896852265,0.00047543884909778987,0.54538167444281,-0.0001701283914568895,0.9999997993031633,-0.0006102867879336952,-0.5453818551404813,0.0004187499658205415,0.8381876023492553,-0.0009051227,1.92527e-05,0.10708704,0.0007040813,0.00011526536,-0.014006547,1.0025783,-0.04523686,-4.475381e-06,0.0047320416,0.8732869566335646,0.000677250096441753,-0.4872057396069896,-0.0007060883117546822,0.999999742975853,0.00012444888176862674,0.48720569866636704,0.00023533069294011616,0.8732872103761067,left_images/camera_left_2.png,right_images/camera_right_2.png
2025-05-07 16:11:12,0.09273147583007812,3,-0.06550272,-0.0006223895,0.114032045,0.0001628893,9.831546e-06,0.012456442,0.72001266,0.03516388,7.231016e-05,0.0028103683,0.8381876896852265,0.00047543884909778987,0.54538167444281,-0.0001701283914568895,0.9999997993031633,-0.0006102867879336952,-0.5453818551404813,0.0004187499658205415,0.8381876023492553,-0.0009051227,1.925847e-05,0.10708704,0.00070408295,0.00011522835,-0.014006547,1.029243,-0.04523686,-4.475381e-06,0.0047320416,0.8732869566335646,0.000677250096441753,-0.4872057396069896,-0.0007060883117546822,0.999999742975853,0.00012444888176862674,0.48720569866636704,0.00023533069294011616,0.8732872103761067,left_images/camera_left_3.png,right_images/camera_right_3.png
2025-05-07 16:11:12,0.14231181144714355,4,-0.06550272,-0.000622386,0.114032045,0.00016286848,9.812192e-06,0.012456442,0.69334435,0.03516388,7.231016e-05,0.0028103683,0.8381876896852265,0.00047543884909778987,0.54538167444281,-0.0001701283914568895,0.9999997993031633,-0.0006102867879336952,-0.5453818551404813,0.0004187499658205415,0.8381876023492553,-0.0009051227,1.9264242e-05,0.10708704,0.0007040967,0.000115191484,-0.014006547,1.0393248,-0.04523686,-4.475381e-06,0.0047320416,0.8732869566335646,0.000677250096441753,-0.4872057396069896,-0.0007060883117546822,0.999999742975853,0.00012444888176862674,0.48720569866636704,0.00023533069294011616,0.8732872103761067,left_images/camera_left_4.png,right_images/camera_right_4.png
2025-05-07 16:11:12,0.1891772747039795,5,-0.06550272,-0.0006223825,0.114032045,0.00016284767,9.792838e-06,0.012456442,0.66667604,0.03516388,7.231016e-05,0.0028103683,0.8381876896852265,0.00047543884909778987,0.54538167444281,-0.0001701283914568895,0.9999997993031633,-0.0006102867879336952,-0.5453818551404813,0.0004187499658205415,0.8381876023492553,-0.0009051227,1.9270012e-05,0.10708704,0.00070409995,0.00011515451,-0.014006547,1.0402353,-0.04523686,-4.475381e-06,0.0047320416,0.8732869566335646,0.000677250096441753,-0.4872057396069896,-0.0007060883117546822,0.999999742975853,0.00012444888176862674,0.48720569866636704,0.00023533069294011616,0.8732872103761067,left_images/camera_left_5.png,right_images/camera_right_5.png
2025-05-07 16:11:12,0.23407602310180664,6,-0.06550272,-0.000622379,0.114032045,0.00016282687,9.773483e-06,0.012456442,0.64000773,0.03516388,7.231016e-05,0.0028103683,0.8381876896852265,0.00047543884909778987,0.54538167444281,-0.0001701283914568895,0.9999997993031633,-0.0006102867879336952,-0.5453818551404813,0.0004187499658205415,0.8381876023492553,-0.0009051227,1.9275778e-05,0.10708704,0.0007041019,0.00011511752,-0.014006547,1.0427315,-0.04523686,-4.475381e-06,0.0047320416,0.8732869566335646,0.000677250096441753,-0.4872057396069896,-0.0007060883117546822,0.999999742975853,0.00012444888176862674,0.48720569866636704,0.00023533069294011616,0.8732872103761067,left_images/camera_left_6.png,right_images/camera_right_6.png
2025-05-07 16:11:12,0.27420520782470703,7,-0.06550272,-0.0006223755,0.114032045,0.00016280606,9.754129e-06,0.012456442,0.6133394,0.03516388,7.231016e-05,0.0028103683,0.8381876896852265,0.00047543884909778987,0.54538167444281,-0.0001701283914568895,0.9999997993031633,-0.0006102867879336952,-0.5453818551404813,0.0004187499658205415,0.8381876023492553,-0.0009051227,1.9281548e-05,0.10708704,0.0007041037,0.00011508053,-0.014006547,1.0403239,-0.04523686,-4.475381e-06,0.0047320416,0.8732869566335646,0.000677250096441753,-0.4872057396069896,-0.0007060883117546822,0.999999742975853,0.00012444888176862674,0.48720569866636704,0.00023533069294011616,0.8732872103761067,left_images/camera_left_7.png,right_images/camera_right_7.png
2025-05-07 16:11:12,0.32480740547180176,8,-0.06550272,-0.000622372,0.114032045,0.00016278525,9.734776e-06,0.012456442,0.5866711,0.035163883,7.2316034e-05,0.0028103665,0.838187689682479,0.00047555622846526247,0.5453816743446936,-0.00017009795362009185,0.9999997991484094,-0.0006105487915130112,-0.5453818551541975,0.00041898617424878873,0.8381876022222897,-0.0009051227,1.9287314e-05,0.10708704,0.0007041053,0.000115043535,-0.014006547,1.042978,-0.04523686,-4.475381e-06,0.0047320416,0.8732869566335646,0.000677250096441753,-0.4872057396069896,-0.0007060883117546822,0.999999742975853,0.00012444888176862674,0.48720569866636704,0.00023533069294011616,0.8732872103761067,left_images/camera_left_8.png,right_images/camera_right_8.png
2025-05-07 16:11:12,0.372298002243042,9,-0.06550272,-0.00062237517,0.114032045,0.0001627389,9.706046e-06,0.01245647,0.5600028,0.035163883,7.2316034e-05,0.0028103665,0.838187689682479,0.00047555622846526247,0.5453816743446936,-0.00017009795362009185,0.9999997991484094,-0.0006105487915130112,-0.5453818551541975,0.00041898617424878873,0.8381876022222897,-0.0009051227,1.9293084e-05,0.10708704,0.0007041071,0.00011500655,-0.014006547,1.0403055,-0.04523686,-4.475381e-06,0.0047320416,0.8732869566335646,0.000677250096441753,-0.4872057396069896,-0.0007060883117546822,0.999999742975853,0.00012444888176862674,0.48720569866636704,0.00023533069294011616,0.8732872103761067,left_images/camera_left_9.png,right_images/camera_right_9.png
2025-05-07 16:11:12,0.4162142276763916,10,-0.06550272,-0.00062237866,0.114032045,0.00016271122,9.726633e-06,0.012456442,0.5333345,0.035163883,7.2316034e-05,0.0028103665,0.838187689682479,0.00047555622846526247,0.5453816743446936,-0.00017009795362009185,0.9999997991484094,-0.0006105487915130112,-0.5453818551541975,0.00041898617424878873,0.8381876022222897,-0.0009051062,1.929885e-05,0.10708707,0.0007041085,0.00011496958,-0.014006575,1.0452065,-0.045236863,-4.4663925e-06,0.00473201,0.8732871815968912,0.0006769607051333639,-0.4872053367757398,-0.0007060197002604245,0.9999997430828285,0.00012397765882032934,0.487205295532326,0.00023570846558350063,0.8732874351820127,left_images/camera_left_10.png,right_images/camera_right_10.png
2025-05-07 16:11:12,0.46424055099487305,11,-0.06550272,-0.00062238215,0.114032045,0.00016266487,9.6979065e-06,0.01245647,0.5066662,0.035163883,7.2316034e-05,0.0028103665,0.838187689682479,0.00047555622846526247,0.5453816743446936,-0.00017009795362009185,0.9999997991484094,-0.0006105487915130112,-0.5453818551541975,0.00041898617424878873,0.8381876022222897,-0.0009051267,1.9304602e-05,0.10708704,0.0007040964,0.00011493258,-0.014006547,1.0405567,-0.045236863,-4.466838e-06,0.0047320426,0.8732870264470461,0.000676965775881096,-0.48720561486564845,-0.0007060355562363862,0.9999997430738478,0.0001239597997982397,0.4872055736063265,0.00023573200232838268,0.8732872800386787,left_images/camera_left_11.png,right_images/camera_right_11.png
2025-05-07 16:11:12,0.5087101459503174,12,-0.06550272,-0.00062238565,0.114032045,0.0001626372,9.718493e-06,0.012456442,0.47999924,0.035163883,7.2316034e-05,0.0028103665,0.838187689682479,0.00047555622846526247,0.5453816743446936,-0.00017009795362009185,0.9999997991484094,-0.0006105487915130112,-0.5453818551541975,0.00041898617424878873,0.8381876022222897,-0.00090513064,1.9304687e-05,0.10708706,0.00070411013,0.00011493477,-0.014006547,1.0447769,-0.045236863,-4.466838e-06,0.0047320426,0.8732870264470461,0.000676965775881096,-0.48720561486564845,-0.0007060355562363862,0.9999997430738478,0.0001239597997982397,0.4872055736063265,0.00023573200232838268,0.8732872800386787,left_images/camera_left_12.png,right_images/camera_right_12.png
2025-05-07 16:11:12,0.555140495300293,13,-0.06550272,-0.00062238914,0.114032045,0.00016257583,9.741171e-06,0.012456498,0.45333272,0.035163883,7.2309376e-05,0.0028103665,0.8381878328568386,0.00047537454212668456,0.5453814544608212,-0.00017006419351290963,0.9999997993257062,-0.0006102677423330165,-0.5453816351225317,0.0004187691391987695,0.8381877454982753,-0.00090513064,1.930436e-05,0.10708704,0.0007041249,0.00011493702,-0.014006547,1.0406997,-0.045236863,-4.466838e-06,0.0047320426,0.8732870264470461,0.000676965775881096,-0.48720561486564845,-0.0007060355562363862,0.9999997430738478,0.0001239597997982397,0.4872055736063265,0.00023573200232838268,0.8732872800386787,left_images/camera_left_13.png,right_images/camera_right_13.png
2025-05-07 16:11:12,0.5978953838348389,14,-0.06550272,-0.00062239263,0.114032045,0.00016251102,9.764069e-06,0.012456554,0.4266662,0.03516392,7.232823e-05,0.0028103665,0.8381878952970475,0.00047502988493189097,0.545381358797781,-0.00016971958992529777,0.9999997994466479,-0.0006101654895694353,-0.5453815392665636,0.0004188714269170366,0.8381878078175328,-0.00090513146,1.9304032e-05,0.10708706,0.00070413866,0.00011493922,-0.014006547,1.0450954,-0.045236863,-4.466838e-06,0.0047320426,0.8732870264470461,0.000676965775881096,-0.48720561486564845,-0.0007060355562363862,0.9999997430738478,0.0001239597997982397,0.4872055736063265,0.00023573200232838268,0.8732872800386787,left_images/camera_left_14.png,right_images/camera_right_14.png
2025-05-07 16:11:12,0.646371603012085,15,-0.06550272,-0.0006223961,0.114032045,0.00016248321,9.7841385e-06,0.012456554,0.39999968,0.03516392,7.232823e-05,0.0028103665,0.8381878952970475,0.00047502988493189097,0.545381358797781,-0.00016971958992529777,0.9999997994466479,-0.0006101654895694353,-0.5453815392665636,0.0004188714269170366,0.8381878078175328,-0.00090513146,1.9303705e-05,0.10708703,0.0007041532,0.00011494148,-0.014006547,1.0404465,-0.045236863,-4.466838e-06,0.0047320426,0.8732870264470461,0.000676965775881096,-0.48720561486564845,-0.0007060355562363862,0.9999997430738478,0.0001239597997982397,0.4872055736063265,0.00023573200232838268,0.8732872800386787,left_images/camera_left_15.png,right_images/camera_right_15.png
2025-05-07 16:11:12,0.7035632133483887,16,-0.06550272,-0.0006223996,0.114032045,0.00016245541,9.804207e-06,0.012456554,0.37333316,0.03516392,7.232823e-05,0.0028103665,0.8381878952970475,0.00047502988493189097,0.545381358797781,-0.00016971958992529777,0.9999997994466479,-0.0006101654895694353,-0.5453815392665636,0.0004188714269170366,0.8381878078175328,-0.00090513227,1.9303377e-05,0.10708706,0.00070416695,0.00011494367,-0.014006547,1.0451127,-0.045236863,-4.466838e-06,0.0047320426,0.8732870264470461,0.000676965775881096,-0.48720561486564845,-0.0007060355562363862,0.9999997430738478,0.0001239597997982397,0.4872055736063265,0.00023573200232838268,0.8732872800386787,left_images/camera_left_16.png,right_images/camera_right_16.png
2025-05-07 16:11:12,0.762789249420166,17,-0.06550272,-0.0006224031,0.114032045,0.00016242762,9.824276e-06,0.012456554,0.34666663,0.03516392,7.232823e-05,0.0028103665,0.8381878952970475,0.00047502988493189097,0.545381358797781,-0.00016971958992529777,0.9999997994466479,-0.0006101654895694353,-0.5453815392665636,0.0004188714269170366,0.8381878078175328,-0.00090513227,1.930305e-05,0.10708706,0.0007041823,0.0001149459,-0.014006547,1.0428144,-0.045236863,-4.466838e-06,0.0047320426,0.8732870264470461,0.000676965775881096,-0.48720561486564845,-0.0007060355562363862,0.9999997430738478,0.0001239597997982397,0.4872055736063265,0.00023573200232838268,0.8732872800386787,left_images/camera_left_17.png,right_images/camera_right_17.png
2025-05-07 16:11:12,0.8164045810699463,18,-0.06550272,-0.0006224066,0.114032045,0.00016239983,9.844345e-06,0.012456554,0.3200001,0.03516392,7.232823e-05,0.0028103665,0.8381878952970475,0.00047502988493189097,0.545381358797781,-0.00016971958992529777,0.9999997994466479,-0.0006101654895694353,-0.5453815392665636,0.0004188714269170366,0.8381878078175328,-0.00090513227,1.9302723e-05,0.10708706,0.0007041968,0.00011494813,-0.014006547,1.0394028,-0.045236863,-4.466838e-06,0.0047320426,0.8732870264470461,0.000676965775881096,-0.48720561486564845,-0.0007060355562363862,0.9999997430738478,0.0001239597997982397,0.4872055736063265,0.00023573200232838268,0.8732872800386787,left_images/camera_left_18.png,right_images/camera_right_18.png
2025-05-07 16:11:12,0.8726112842559814,19,-0.06550272,-0.0006224101,0.114032045,0.00016237203,9.864414e-06,0.012456554,0.2933336,0.03516392,7.232823e-05,0.0028103665,0.8381878952970475,0.00047502988493189097,0.545381358797781,-0.00016971958992529777,0.9999997994466479,-0.0006101654895694353,-0.5453815392665636,0.0004188714269170366,0.8381878078175328,-0.0009051466,1.9297635e-05,0.1070871,0.00070421066,0.00011495585,-0.014006538,1.0447696,-0.045236833,-4.4705635e-06,0.0047320127,0.8732870264470461,0.000676965775881096,-0.48720561486564845,-0.0007060355562363862,0.9999997430738478,0.0001239597997982397,0.4872055736063265,0.00023573200232838268,0.8732872800386787,left_images/camera_left_19.png,right_images/camera_right_19.png
2025-05-07 16:11:12,0.9245283603668213,20,-0.06550272,-0.0006224136,0.114032045,0.00016234424,9.884483e-06,0.012456554,0.26666707,0.03516392,7.232823e-05,0.0028103665,0.8381878952970475,0.00047502988493189097,0.545381358797781,-0.00016971958992529777,0.9999997994466479,-0.0006101654895694353,-0.5453815392665636,0.0004188714269170366,0.8381878078175328,-0.0009051201,1.9301297e-05,0.10708707,0.0007042254,0.0001149526,-0.014006566,1.04039,-0.045236863,-4.4663925e-06,0.00473201,0.8732871815968912,0.0006769607051333639,-0.4872053367757398,-0.0007060197002604245,0.9999997430828285,0.00012397765882032934,0.487205295532326,0.00023570846558350063,0.8732874351820127,left_images/camera_left_20.png,right_images/camera_right_20.png
2025-05-07 16:11:13,0.98531174659729,21,-0.06550272,-0.0006224171,0.114032045,0.00016231644,9.904552e-06,0.012456554,0.24000055,0.03516392,7.232823e-05,0.0028103665,0.8381878952970475,0.00047502988493189097,0.545381358797781,-0.00016971958992529777,0.9999997994466479,-0.0006101654895694353,-0.5453815392665636,0.0004188714269170366,0.8381878078175328,-0.00090512173,1.9307414e-05,0.10708707,0.000704212,0.000114915594,-0.014006566,1.0403404,-0.045236863,-4.4663925e-06,0.00473201,0.8732871815968912,0.0006769607051333639,-0.4872053367757398,-0.0007060197002604245,0.9999997430828285,0.00012397765882032934,0.487205295532326,0.00023570846558350063,0.8732874351820127,left_images/camera_left_21.png,right_images/camera_right_21.png
2025-05-07 16:11:13,1.0388731956481934,22,-0.06550272,-0.0006224206,0.114032045,0.00016228865,9.924621e-06,0.012456554,0.21333402,0.03516392,7.232823e-05,0.0028103665,0.8381878952970475,0.00047502988493189097,0.545381358797781,-0.00016971958992529777,0.9999997994466479,-0.0006101654895694353,-0.5453815392665636,0.0004188714269170366,0.8381878078175328,-0.0009051287,1.9313164e-05,0.10708707,0.0007041997,0.00011487861,-0.014006566,1.0422581,-0.045236863,-4.4663925e-06,0.00473201,0.8732871815968912,0.0006769607051333639,-0.4872053367757398,-0.0007060197002604245,0.9999997430828285,0.00012397765882032934,0.487205295532326,0.00023570846558350063,0.8732874351820127,left_images/camera_left_22.png,right_images/camera_right_22.png
2025-05-07 16:11:13,1.0938472747802734,23,-0.06550272,-0.00062242406,0.114032045,0.00016226085,9.94469e-06,0.012456554,0.1866675,0.03516392,7.232823e-05,0.0028103665,0.8381878952970475,0.00047502988493189097,0.545381358797781,-0.00016971958992529777,0.9999997994466479,-0.0006101654895694353,-0.5453815392665636,0.0004188714269170366,0.8381878078175328,-0.0009051357,1.9318912e-05,0.10708707,0.00070418726,0.00011484162,-0.014006566,1.0403613,-0.045236863,-4.4663925e-06,0.00473201,0.8732871815968912,0.0006769607051333639,-0.4872053367757398,-0.0007060197002604245,0.9999997430828285,0.00012397765882032934,0.487205295532326,0.00023570846558350063,0.8732874351820127,left_images/camera_left_23.png,right_images/camera_right_23.png
2025-05-07 16:11:13,1.1360793113708496,24,-0.06550272,-0.00062242756,0.114032045,0.00016223306,9.964759e-06,0.012456554,0.16000098,0.03516392,7.232823e-05,0.0028103665,0.8381878952970475,0.00047502988493189097,0.545381358797781,-0.00016971958992529777,0.9999997994466479,-0.0006101654895694353,-0.5453815392665636,0.0004188714269170366,0.8381878078175328,-0.0009051427,1.932466e-05,0.10708707,0.00070417445,0.00011480461,-0.014006566,1.0406133,-0.045236863,-4.4663925e-06,0.00473201,0.8732871815968912,0.0006769607051333639,-0.4872053367757398,-0.0007060197002604245,0.9999997430828285,0.00012397765882032934,0.487205295532326,0.00023570846558350063,0.8732874351820127,left_images/camera_left_24.png,right_images/camera_right_24.png
2025-05-07 16:11:13,1.182837724685669,25,-0.06550272,-0.00062243105,0.114032045,0.00016220527,9.984828e-06,0.012456554,0.13333446,0.035163905,7.225113e-05,0.0028103078,0.8381879079915082,0.0004751024194511684,0.5453813392246842,-0.0001695982719649992,0.9999997992722518,-0.0006104849567844227,-0.5453815197943961,0.00041920537609295807,0.8381878203204861,-0.0009051497,1.9330408e-05,0.10708707,0.00070416136,0.00011476761,-0.014006566,1.0404239,-0.045236863,-4.4663925e-06,0.00473201,0.8732871815968912,0.0006769607051333639,-0.4872053367757398,-0.0007060197002604245,0.9999997430828285,0.00012397765882032934,0.487205295532326,0.00023570846558350063,0.8732874351820127,left_images/camera_left_25.png,right_images/camera_right_25.png
2025-05-07 16:11:13,1.2262911796569824,26,-0.06550272,-0.00062243454,0.114032045,0.00016218465,1.0004436e-05,0.01245661,0.106667936,0.035163905,7.225113e-05,0.0028103078,0.8381879079915082,0.0004751024194511684,0.5453813392246842,-0.0001695982719649992,0.9999997992722518,-0.0006104849567844227,-0.5453815197943961,0.00041920537609295807,0.8381878203204861,-0.00090515666,1.9336156e-05,0.10708707,0.00070414826,0.0001147306,-0.014006566,1.0403084,-0.045236863,-4.4663925e-06,0.00473201,0.8732871815968912,0.0006769607051333639,-0.4872053367757398,-0.0007060197002604245,0.9999997430828285,0.00012397765882032934,0.487205295532326,0.00023570846558350063,0.8732874351820127,left_images/camera_left_26.png,right_images/camera_right_26.png
2025-05-07 16:11:13,1.269840955734253,27,-0.06550272,-0.00062243803,0.114032045,0.00016216404,1.0024045e-05,0.012456666,0.080001414,0.035163905,7.225113e-05,0.0028103078,0.8381879079915082,0.0004751024194511684,0.5453813392246842,-0.0001695982719649992,0.9999997992722518,-0.0006104849567844227,-0.5453815197943961,0.00041920537609295807,0.8381878203204861,-0.00090516364,1.9341904e-05,0.10708707,0.00070413516,0.000114693605,-0.014006566,1.0399919,-0.045236863,-4.4663925e-06,0.00473201,0.8732871815968912,0.0006769607051333639,-0.4872053367757398,-0.0007060197002604245,0.9999997430828285,0.00012397765882032934,0.487205295532326,0.00023570846558350063,0.8732874351820127,left_images/camera_left_27.png,right_images/camera_right_27.png
2025-05-07 16:11:13,1.3139779567718506,28,-0.06550272,-0.0006224415,0.114032045,0.00016219325,1.0024016e-05,0.012456666,0.053334814,0.035163905,7.225113e-05,0.0028103078,0.8381879079915082,0.0004751024194511684,0.5453813392246842,-0.0001695982719649992,0.9999997992722518,-0.0006104849567844227,-0.5453815197943961,0.00041920537609295807,0.8381878203204861,-0.00090517063,1.9347654e-05,0.10708709,0.00070412236,0.000114656614,-0.014006566,1.0451174,-0.045236863,-4.4663925e-06,0.00473201,0.8732871815968912,0.0006769607051333639,-0.4872053367757398,-0.0007060197002604245,0.9999997430828285,0.00012397765882032934,0.487205295532326,0.00023570846558350063,0.8732874351820127,left_images/camera_left_28.png,right_images/camera_right_28.png
2025-05-07 16:11:13,1.3579816818237305,29,-0.06550272,-0.000622445,0.114032045,0.00016217264,1.004362e-05,0.012456722,0.026668089,0.035163905,7.225113e-05,0.0028103078,0.8381879079915082,0.0004751024194511684,0.5453813392246842,-0.0001695982719649992,0.9999997992722518,-0.0006104849567844227,-0.5453815197943961,0.00041920537609295807,0.8381878203204861,-0.00090519444,1.9353403e-05,0.10708706,0.00070411025,0.000114619615,-0.014006538,1.0404818,-0.04523696,-4.412767e-06,0.0047320956,0.873287209743045,0.0006768808424481688,-0.4872052864363565,-0.0007059806071961484,0.9999997431220623,0.0001238837830001117,0.48720524513862673,0.00023577136075893194,0.8732874632795756,left_images/camera_left_29.png,right_images/camera_right_29.png
2025-05-07 16:11:13,1.405663251876831,30,-0.06550272,-0.0006224485,0.114032045,0.0001621414,1.0063352e-05,0.0124567775,0.003613193,0.03516386,7.224854e-05,0.0028103087,0.8381879080967938,0.0004747756351673189,0.5453813393474488,-0.00016927148766365138,0.9999997993868055,-0.000610388001492943,-0.5453815197341071,0.0004193023314434153,0.838187820311218,-0.00090519304,1.9353558e-05,0.10708706,0.0007041699,0.00011462178,-0.014006587,1.0409641,-0.045236964,-4.413438e-06,0.00473209,0.8732873795204652,0.0006768778368570469,-0.4872049821242318,-0.0007059368109148025,0.9999997431440381,0.00012395594770563676,0.48720494088576116,0.00023568676659475217,0.8732876330443768,left_images/camera_left_30.png,right_images/camera_right_30.png
2025-05-07 16:11:13,1.4504714012145996,31,-0.06550272,-0.000622452,0.114032045,0.00016212581,1.0082166e-05,0.012456833,0.00023910287,0.03516386,7.224854e-05,0.0028103087,0.8381879080967938,0.0004747756351673189,0.5453813393474488,-0.00016927148766365138,0.9999997993868055,-0.000610388001492943,-0.5453815197341071,0.0004193023314434153,0.838187820311218,-0.00090518605,1.9353232e-05,0.10708706,0.0007041867,0.000114623974,-0.014006643,1.040241,-0.045236964,-4.413438e-06,0.00473209,0.8732873795204652,0.0006768778368570469,-0.4872049821242318,-0.0007059368109148025,0.9999997431440381,0.00012395594770563676,0.48720494088576116,0.00023568676659475217,0.8732876330443768,left_images/camera_left_31.png,right_images/camera_right_31.png
2025-05-07 16:11:13,1.4989817142486572,32,-0.06550272,-0.0006224538,0.114032045,0.00016211612,1.00989155e-05,0.012456805,1.5822632e-05,0.03516386,7.224854e-05,0.0028103087,0.8381879080967938,0.0004747756351673189,0.5453813393474488,-0.00016927148766365138,0.9999997993868055,-0.000610388001492943,-0.5453815197341071,0.0004193023314434153,0.838187820311218,-0.0009052531,1.928789e-05,0.10708706,0.0007041872,0.000114685114,-0.014006643,1.0402964,-0.045236964,-4.413438e-06,0.00473209,0.8732873795204652,0.0006768778368570469,-0.4872049821242318,-0.0007059368109148025,0.9999997431440381,0.00012395594770563676,0.48720494088576116,0.00023568676659475217,0.8732876330443768,left_images/camera_left_32.png,right_images/camera_right_32.png
2025-05-07 16:11:13,1.5513741970062256,33,-0.06550272,-0.00062245695,0.114032045,0.00016210628,1.0117662e-05,0.012456861,1.047061e-06,0.035163864,7.224424e-05,0.0028103031,0.8381881944021223,0.0004746617533184941,0.5453808994282162,-0.00016929610445309137,0.9999997995329106,-0.0006101417603778448,-0.5453810797082524,0.00041908275874411787,0.8381881067313603,-0.00090525846,1.927698e-05,0.10708706,0.00070420414,0.00011468729,-0.0140066985,1.0425642,-0.045236964,-4.413438e-06,0.00473209,0.8732873795204652,0.0006768778368570469,-0.4872049821242318,-0.0007059368109148025,0.9999997431440381,0.00012395594770563676,0.48720494088576116,0.00023568676659475217,0.8732876330443768,left_images/camera_left_33.png,right_images/camera_right_33.png
2025-05-07 16:11:13,1.6060967445373535,34,-0.06550272,-0.0006224521,0.114032045,0.00016213393,1.012562e-05,0.012456889,6.928907e-08,0.035163864,7.224424e-05,0.0028103031,0.8381881944021223,0.0004746617533184941,0.5453808994282162,-0.00016929610445309137,0.9999997995329106,-0.0006101417603778448,-0.5453810797082524,0.00041908275874411787,0.8381881067313603,-0.0009052515,1.9276653e-05,0.10708706,0.0007042204,0.000114689516,-0.014006754,1.0400043,-0.045236964,-4.413438e-06,0.00473209,0.8732873795204652,0.0006768778368570469,-0.4872049821242318,-0.0007059368109148025,0.9999997431440381,0.00012395594770563676,0.48720494088576116,0.00023568676659475217,0.8732876330443768,left_images/camera_left_34.png,right_images/camera_right_34.png
2025-05-07 16:11:13,1.661083459854126,35,-0.06550272,-0.0006224484,0.114032045,0.00016217736,1.01013975e-05,0.012456889,4.5852255e-09,0.03516391,7.225353e-05,0.0028103031,0.8381881942446181,0.000475259443175348,0.5453808991497671,-0.0001697460104730191,0.9999997992097833,-0.0006105462187407003,-0.5453810798104741,0.00041917640077028615,0.8381881066180232,-0.0009052445,1.9276325e-05,0.107087076,0.00070423685,0.00011469173,-0.01400681,1.0441915,-0.045236964,-4.413438e-06,0.00473209,0.8732873795204652,0.0006768778368570469,-0.4872049821242318,-0.0007059368109148025,0.9999997431440381,0.00012395594770563676,0.48720494088576116,0.00023568676659475217,0.8732876330443768,left_images/camera_left_35.png,right_images/camera_right_35.png
2025-05-07 16:11:13,1.712751865386963,36,-0.06550272,-0.0006224513,0.114032045,0.00016217823,1.0119414e-05,0.012456889,3.0352335e-10,0.035163905,7.2245944e-05,0.0028103008,0.8381882127514307,0.00047503885462398817,0.5453808708990896,-0.0001697653944889511,0.9999997994715173,-0.0006101119869182185,-0.5453810513615903,0.00041880187719829404,0.8381881253159785,-0.0009052375,1.9275998e-05,0.10708706,0.0007042538,0.000114693976,-0.014006866,1.0404203,-0.045236964,-4.413438e-06,0.00473209,0.8732873795204652,0.0006768778368570469,-0.4872049821242318,-0.0007059368109148025,0.9999997431440381,0.00012395594770563676,0.48720494088576116,0.00023568676659475217,0.8732876330443768,left_images/camera_left_36.png,right_images/camera_right_36.png
2025-05-07 16:11:13,1.7572381496429443,37,-0.06550272,-0.0006224582,0.114032045,0.00016219566,1.0174992e-05,0.012456889,2.0141059e-11,0.035163905,7.2245944e-05,0.0028103008,0.8381882127514307,0.00047503885462398817,0.5453808708990896,-0.0001697653944889511,0.9999997994715173,-0.0006101119869182185,-0.5453810513615903,0.00041880187719829404,0.8381881253159785,-0.0009052305,1.927567e-05,0.10708706,0.0007042709,0.000114696166,-0.014006922,1.0401019,-0.045236964,-4.413438e-06,0.00473209,0.8732873795204652,0.0006768778368570469,-0.4872049821242318,-0.0007059368109148025,0.9999997431440381,0.00012395594770563676,0.48720494088576116,0.00023568676659475217,0.8732876330443768,left_images/camera_left_37.png,right_images/camera_right_37.png
2025-05-07 16:11:13,1.7996675968170166,38,-0.06550272,-0.00062246516,0.114032045,0.0001622131,1.0230573e-05,0.012456889,1.2953191e-12,0.035163905,7.2245944e-05,0.0028103008,0.8381882127514307,0.00047503885462398817,0.5453808708990896,-0.0001697653944889511,0.9999997994715173,-0.0006101119869182185,-0.5453810513615903,0.00041880187719829404,0.8381881253159785,-0.00090522354,1.9276202e-05,0.10708706,0.00070428784,0.00011469727,-0.014006922,1.0424141,-0.045236964,-4.413438e-06,0.00473209,0.8732873795204652,0.0006768778368570469,-0.4872049821242318,-0.0007059368109148025,0.9999997431440381,0.00012395594770563676,0.48720494088576116,0.00023568676659475217,0.8732876330443768,left_images/camera_left_38.png,right_images/camera_right_38.png
2025-05-07 16:11:13,1.8381686210632324,39,-0.06550272,-0.00062247214,0.114032045,0.00016223053,1.0286154e-05,0.012456889,5.049801e-13,0.035163905,7.2245944e-05,0.0028103008,0.8381882127514307,0.00047503885462398817,0.5453808708990896,-0.0001697653944889511,0.9999997994715173,-0.0006101119869182185,-0.5453810513615903,0.00041880187719829404,0.8381881253159785,-0.00090521656,1.9276875e-05,0.10708706,0.00070430525,0.0001146984,-0.014006922,1.0401994,-0.045236964,-4.413438e-06,0.00473209,0.8732873795204652,0.0006768778368570469,-0.4872049821242318,-0.0007059368109148025,0.9999997431440381,0.00012395594770563676,0.48720494088576116,0.00023568676659475217,0.8732876330443768,left_images/camera_left_39.png,right_images/camera_right_39.png
2025-05-07 16:11:13,1.881829023361206,40,-0.06550272,-0.0006224791,0.114032045,0.00016224796,1.0341735e-05,0.012456889,5.0474577e-13,0.035163905,7.2245944e-05,0.0028103008,0.8381882127514307,0.00047503885462398817,0.5453808708990896,-0.0001697653944889511,0.9999997994715173,-0.0006101119869182185,-0.5453810513615903,0.00041880187719829404,0.8381881253159785,-0.00090520957,1.927755e-05,0.10708706,0.000704322,0.0001146995,-0.014006922,1.0427983,-0.045236964,-4.413438e-06,0.00473209,0.8732873795204652,0.0006768778368570469,-0.4872049821242318,-0.0007059368109148025,0.9999997431440381,0.00012395594770563676,0.48720494088576116,0.00023568676659475217,0.8732876330443768,left_images/camera_left_40.png,right_images/camera_right_40.png
2025-05-07 16:11:13,1.9341232776641846,41,-0.06550272,-0.0006224861,0.114032045,0.0001622654,1.0397316e-05,0.012456889,5.067341e-13,0.035163905,7.2245944e-05,0.0028103008,0.8381882127514307,0.00047503885462398817,0.5453808708990896,-0.0001697653944889511,0.9999997994715173,-0.0006101119869182185,-0.5453810513615903,0.00041880187719829404,0.8381881253159785,-0.0009052026,1.9278223e-05,0.10708706,0.0007043383,0.00011470063,-0.014006922,1.0402594,-0.045236964,-4.413438e-06,0.00473209,0.8732873795204652,0.0006768778368570469,-0.4872049821242318,-0.0007059368109148025,0.9999997431440381,0.00012395594770563676,0.48720494088576116,0.00023568676659475217,0.8732876330443768,left_images/camera_left_41.png,right_images/camera_right_41.png
2025-05-07 16:11:14,1.9771490097045898,42,-0.06550272,-0.0006224931,0.114032045,0.00016228283,1.0452897e-05,0.012456889,5.0609576e-13,0.035163905,7.2245944e-05,0.0028103008,0.8381882127514307,0.00047503885462398817,0.5453808708990896,-0.0001697653944889511,0.9999997994715173,-0.0006101119869182185,-0.5453810513615903,0.00041880187719829404,0.8381881253159785,-0.0009051956,1.9278898e-05,0.10708706,0.0007043551,0.00011470173,-0.014006922,1.0424588,-0.045236964,-4.413438e-06,0.00473209,0.8732873795204652,0.0006768778368570469,-0.4872049821242318,-0.0007059368109148025,0.9999997431440381,0.00012395594770563676,0.48720494088576116,0.00023568676659475217,0.8732876330443768,left_images/camera_left_42.png,right_images/camera_right_42.png
2025-05-07 16:11:14,2.0181832313537598,43,-0.06550272,-0.0006225001,0.114032045,0.00016230026,1.0508478e-05,0.012456889,5.080419e-13,0.03516391,7.2237126e-05,0.0028103008,0.8381882127884436,0.000474756212829454,0.5453808710883185,-0.00016971053782797177,0.9999997997454849,-0.0006096780488477012,-0.5453810513217782,0.0004184680731865138,0.8381881255086018,-0.0009051886,1.927957e-05,0.10708706,0.0007043718,0.00011470287,-0.014006922,1.0400655,-0.045236964,-4.413438e-06,0.00473209,0.8732873795204652,0.0006768778368570469,-0.4872049821242318,-0.0007059368109148025,0.9999997431440381,0.00012395594770563676,0.48720494088576116,0.00023568676659475217,0.8732876330443768,left_images/camera_left_43.png,right_images/camera_right_43.png
2025-05-07 16:11:14,2.059514045715332,44,-0.06550272,-0.0006225038,0.114032045,0.00016226577,1.0528993e-05,0.012456945,5.942718e-13,0.03516391,7.2237126e-05,0.0028103008,0.8381882127884436,0.000474756212829454,0.5453808710883185,-0.00016971053782797177,0.9999997997454849,-0.0006096780488477012,-0.5453810513217782,0.0004184680731865138,0.8381881255086018,-0.00090518163,1.9280245e-05,0.10708706,0.00070438854,0.000114703966,-0.014006922,1.0423774,-0.045236863,-4.4663925e-06,0.0047320398,0.8732871815968912,0.0006769607051333639,-0.4872053367757398,-0.0007060197002604245,0.9999997430828285,0.00012397765882032934,0.487205295532326,0.00023570846558350063,0.8732874351820127,left_images/camera_left_44.png,right_images/camera_right_44.png
2025-05-07 16:11:14,2.104565143585205,45,-0.06550272,-0.0006225073,0.114032045,0.00016223128,1.05495055e-05,0.012457001,5.821818e-13,0.03516391,7.2237126e-05,0.0028103008,0.8381882127884436,0.000474756212829454,0.5453808710883185,-0.00016971053782797177,0.9999997997454849,-0.0006096780488477012,-0.5453810513217782,0.0004184680731865138,0.8381881255086018,-0.0009051125,1.935074e-05,0.10708706,0.0007043919,0.00011460804,-0.014006978,1.0399575,-0.045236867,-4.4672906e-06,0.004732035,0.8732873514294861,0.0006768726604469147,-0.48720503248291164,-0.0007059016317485666,0.9999997431623676,0.00012400840757572474,0.4872049912882253,0.0002356238536190078,0.8732876049419458,left_images/camera_left_45.png,right_images/camera_right_45.png
2025-05-07 16:11:14,2.148453712463379,46,-0.06550272,-0.0006225108,0.114032045,0.0001621968,1.0570018e-05,0.012457057,5.839226e-13,0.03516391,7.2237126e-05,0.0028103008,0.8381882127884436,0.000474756212829454,0.5453808710883185,-0.00016971053782797177,0.9999997997454849,-0.0006096780488477012,-0.5453810513217782,0.0004184680731865138,0.8381881255086018,-0.0009050999,1.936142e-05,0.10708706,0.0007044148,0.00011461025,-0.014007034,1.0399687,-0.045236867,-4.4672906e-06,0.004732035,0.8732873514294861,0.0006768726604469147,-0.48720503248291164,-0.0007059016317485666,0.9999997431623676,0.00012400840757572474,0.4872049912882253,0.0002356238536190078,0.8732876049419458,left_images/camera_left_46.png,right_images/camera_right_46.png
2025-05-07 16:11:14,2.1887290477752686,47,-0.06550272,-0.0006225143,0.114032045,0.00016216231,1.0590531e-05,0.012457113,5.842805e-13,0.03516391,7.2237126e-05,0.0028103008,0.8381882127884436,0.000474756212829454,0.5453808710883185,-0.00016971053782797177,0.9999997997454849,-0.0006096780488477012,-0.5453810513217782,0.0004184680731865138,0.8381881255086018,-0.0009050999,1.9361094e-05,0.10708706,0.0007044378,0.000114612434,-0.01400709,1.0402095,-0.045236867,-4.4672906e-06,0.004732035,0.8732873514294861,0.0006768726604469147,-0.48720503248291164,-0.0007059016317485666,0.9999997431623676,0.00012400840757572474,0.4872049912882253,0.0002356238536190078,0.8732876049419458,left_images/camera_left_47.png,right_images/camera_right_47.png
2025-05-07 16:11:14,2.2333593368530273,48,-0.06550272,-0.0006225194,0.114032045,0.00016219661,1.0626003e-05,0.012457085,8.492465e-12,0.03516391,7.2237126e-05,0.0028103008,0.8381882127884436,0.000474756212829454,0.5453808710883185,-0.00016971053782797177,0.9999997997454849,-0.0006096780488477012,-0.5453810513217782,0.0004184680731865138,0.8381881255086018,-0.0009050821,1.9361205e-05,0.10708706,0.0007044107,0.00011459764,-0.01400717,1.0399857,-0.045236867,-4.4600383e-06,0.0047320332,0.8732873514265918,0.0006767781856776358,-0.48720503261934395,-0.0007060087252203879,0.9999997431345413,0.00012362253686319636,0.48720499113823595,0.00023601300620664358,0.8732876049205397,left_images/camera_left_48.png,right_images/camera_right_48.png
2025-05-07 16:11:14,2.2892353534698486,49,-0.06550272,-0.00062252313,0.114032045,0.00016216213,1.0646516e-05,0.012457141,1.5973161e-12,0.03516391,7.2237126e-05,0.0028103008,0.8381882127884436,0.000474756212829454,0.5453808710883185,-0.00016971053782797177,0.9999997997454849,-0.0006096780488477012,-0.5453810513217782,0.0004184680731865138,0.8381881255086018,-0.00090507936,1.9360943e-05,0.10708706,0.0007044302,0.00011459982,-0.014007226,1.0404508,-0.045236867,-4.4672906e-06,0.004732035,0.8732873514294861,0.0006768726604469147,-0.48720503248291164,-0.0007059016317485666,0.9999997431623676,0.00012400840757572474,0.4872049912882253,0.0002356238536190078,0.8732876049419458,left_images/camera_left_49.png,right_images/camera_right_49.png
2025-05-07 16:11:14,2.342316150665283,50,-0.06550272,-0.00062252826,0.114032045,0.00016219643,1.0681988e-05,0.012457113,8.4780195e-12,0.03516391,7.2237126e-05,0.0028103008,0.8381882127884436,0.000474756212829454,0.5453808710883185,-0.00016971053782797177,0.9999997997454849,-0.0006096780488477012,-0.5453810513217782,0.0004184680731865138,0.8381881255086018,-0.00090507936,1.9360616e-05,0.10708706,0.00070445327,0.00011460201,-0.0140072815,1.0401387,-0.045236867,-4.468966e-06,0.0047320053,0.8732873365524811,0.0006772164089145487,-0.4872050586714069,-0.0007063053914273347,0.999999742879522,0.00012399025757417166,0.4872050173692463,0.0002358364378748811,0.8732875903340245,left_images/camera_left_50.png,right_images/camera_right_50.png
2025-05-07 16:11:14,2.3859856128692627,51,-0.06550272,-0.000622532,0.114032045,0.00016216196,1.0702501e-05,0.012457169,1.6051773e-12,0.03516391,7.2237126e-05,0.0028103008,0.8381882127884436,0.000474756212829454,0.5453808710883185,-0.00016971053782797177,0.9999997997454849,-0.0006096780488477012,-0.5453810513217782,0.0004184680731865138,0.8381881255086018,-0.00090507936,1.9360288e-05,0.10708706,0.00070446404,0.00011460422,-0.014007337,1.0399463,-0.04523687,-4.4708577e-06,0.0047320034,0.8732875478803618,0.000677271093660565,-0.487204679802001,-0.0007063192791935809,0.9999997428589047,0.00012407739634872633,0.48720463855568996,0.00023576681305272976,0.8732878016918759,left_images/camera_left_51.png,right_images/camera_right_51.png
2025-05-07 16:11:14,2.4337611198425293,52,-0.06893806,0.0035993839,0.11405173,-0.11650863,-0.021659425,0.07574371,9.4353584e-07,0.03528111,5.6451026e-05,0.0027416293,0.8636208665860517,-0.08629045910254221,0.49670207918331655,0.11455517659668121,0.9930591637599584,-0.02665724643086073,-0.49095428535868835,0.07992154866020143,0.8675116343586955,-0.0009050658,1.935996e-05,0.10708708,0.00070449046,0.00011460643,-0.014007393,1.0450795,-0.04523687,-4.4708577e-06,0.0047319736,0.8732875478803618,0.000677271093660565,-0.487204679802001,-0.0007063192791935809,0.9999997428589047,0.00012407739634872633,0.48720463855568996,0.00023576681305272976,0.8732878016918759,left_images/camera_left_52.png,right_images/camera_right_52.png
2025-05-07 16:11:14,2.477949857711792,53,-0.070588045,0.007138386,0.11411445,-0.23317741,-0.018880488,0.1323296,1.1362185e-06,0.03549745,-0.00021424424,0.0025822762,0.8724680261294123,-0.18472147593489766,0.4524129968405863,0.22756152274514505,0.9728738475940649,-0.04162006767691627,-0.43245265260807236,0.13926396876419,0.8908368258307965,-0.0009050833,1.9359633e-05,0.10708705,0.00070451753,0.00011460869,-0.0140074175,1.0406507,-0.04523687,-4.4708577e-06,0.0047320034,0.8732875478803618,0.000677271093660565,-0.487204679802001,-0.0007063192791935809,0.9999997428589047,0.00012407739634872633,0.48720463855568996,0.00023576681305272976,0.8732878016918759,left_images/camera_left_53.png,right_images/camera_right_53.png
2025-05-07 16:11:14,2.521446466445923,54,-0.07223262,0.009585571,0.11420652,-0.34984586,0.00034815609,0.17753245,1.0734093e-06,0.03567787,-0.0005635455,0.002422355,0.8625209220382175,-0.2889024214329967,0.4154431970035066,0.33910061116159873,0.9393790919511699,-0.050771026332210034,-0.3755907807124311,0.18466811445170198,0.9082011082071414,-0.0009050728,1.9359306e-05,0.10708708,0.0007045435,0.00011461089,-0.014007473,1.0452639,-0.04523687,-4.4708577e-06,0.0047319736,0.8732875478803618,0.000677271093660565,-0.487204679802001,-0.0007063192791935809,0.9999997428589047,0.00012407739634872633,0.48720463855568996,0.00023576681305272976,0.8732878016918759,left_images/camera_left_54.png,right_images/camera_right_54.png
2025-05-07 16:11:14,2.562962532043457,55,-0.074619286,0.011402455,0.11431851,-0.46651742,0.028476654,0.21009357,8.989712e-07,0.035767768,-0.0009236281,0.002303739,0.834074058207916,-0.39324200353519584,0.3868865364421494,0.44753992338342946,0.8923954024309947,-0.0577794314438691,-0.32253446699931404,0.22133949574273393,0.9203153509649942,-0.0009050903,1.9358979e-05,0.107087046,0.00070457085,0.00011461316,-0.014007498,1.0401484,-0.04523687,-4.4708577e-06,0.0047320034,0.8732875478803618,0.000677271093660565,-0.487204679802001,-0.0007063192791935809,0.9999997428589047,0.00012407739634872633,0.48720463855568996,0.00023576681305272976,0.8732878016918759,left_images/camera_left_55.png,right_images/camera_right_55.png
2025-05-07 16:11:14,2.6108651161193848,56,-0.077732176,0.013044688,0.11443232,-0.58319247,0.059899896,0.23096187,7.2491304e-07,0.035778165,-0.0012606509,0.002236925,0.7889558945829369,-0.4932393677270435,0.36641987190525593,0.5504409781051388,0.8323604542245857,-0.06473641838794873,-0.2730628609413881,0.2527666915700481,0.9281948467898518,-0.00090507977,1.9363417e-05,0.107087076,0.00070459675,0.00011460985,-0.014007553,1.0445099,-0.04523687,-4.4671324e-06,0.0047319736,0.8732875478803618,0.000677271093660565,-0.487204679802001,-0.0007063192791935809,0.9999997428589047,0.00012407739634872633,0.48720463855568996,0.00023576681305272976,0.8732878016918759,left_images/camera_left_56.png,right_images/camera_right_56.png
2025-05-07 16:11:14,2.6555581092834473,57,-0.08107075,0.014777701,0.114527486,-0.699866,0.088974096,0.24327035,5.0233706e-07,0.03574624,-0.0015180227,0.0022169743,0.7303737888382091,-0.5846637653624521,0.3531606009315292,0.6449969634111042,0.7605066827380356,-0.07488993724956344,-0.22479556438812093,0.2824851624120965,0.9325605005834408,-0.0009050973,1.9359119e-05,0.10708706,0.00070462376,0.00011461761,-0.014007578,1.0406818,-0.04523687,-4.4708577e-06,0.0047320034,0.8732875478803618,0.000677271093660565,-0.487204679802001,-0.0007063192791935809,0.9999997428589047,0.00012407739634872633,0.48720463855568996,0.00023576681305272976,0.8732878016918759,left_images/camera_left_57.png,right_images/camera_right_57.png
2025-05-07 16:11:14,2.697186231613159,58,-0.08385395,0.016793096,0.114597864,-0.81653863,0.111838914,0.24771099,2.8867993e-07,0.035697922,-0.0016876028,0.0022204192,0.6607786416238222,-0.664818859711147,0.3484070472107974,0.7292613826381505,0.678500226395778,-0.08840406423672563,-0.17762157123071964,0.3124953224501901,0.9331651787761276,-0.0009051035,1.935803e-05,0.10708706,0.00070464984,0.00011461977,-0.014007634,1.0423841,-0.04523687,-4.4708577e-06,0.0047320034,0.8732875478803618,0.000677271093660565,-0.487204679802001,-0.0007063192791935809,0.9999997428589047,0.00012407739634872633,0.48720463855568996,0.00023576681305272976,0.8732878016918759,left_images/camera_left_58.png,right_images/camera_right_58.png
2025-05-07 16:11:14,2.7378430366516113,59,-0.085511506,0.01896813,0.11463736,-0.93320656,0.1274374,0.24768487,1.3986721e-07,0.03567423,-0.0017578809,0.002224069,0.5831972402188845,-0.7327192356299684,0.350718549179982,0.8020267136871787,0.5879170464228407,-0.10538831556480802,-0.12897336753462282,0.34274782021666916,0.9305319995591237,-0.000905107,1.9357703e-05,0.10708706,0.000704676,0.00011462199,-0.014007689,1.0403011,-0.04523687,-4.469217e-06,0.0047320016,0.8732877030504007,0.0006772017346425882,-0.4872044017645629,-0.0007063099132475783,0.999999742881112,0.00012395166899314795,0.48720436043539417,0.00023587183043987699,0.8732879568259361,left_images/camera_left_59.png,right_images/camera_right_59.png
2025-05-07 16:11:14,2.7827341556549072,60,-0.085916914,0.020969804,0.11465149,-1.0498723,0.13579214,0.24559772,2.1338614e-07,0.035671577,-0.0017134183,0.0022229487,0.4999746965731344,-0.7879492124548887,0.3593902355077596,0.8625755568205803,0.4901537510584547,-0.1253503454282927,-0.07738676606673833,0.37267323342983344,0.9247302036392478,-0.0009051008,1.9363122e-05,0.10708706,0.0007047104,0.00011458493,-0.014007745,1.0427017,-0.045236874,-4.463555e-06,0.0047320016,0.8732877311671194,0.0006771003610042608,-0.48720435150774877,-0.0007063800988294564,0.9999997428728689,0.00012361776504791344,0.487204309935925,0.00023619758039754242,0.8732879849113705,left_images/camera_left_60.png,right_images/camera_right_60.png
2025-05-07 16:11:14,2.8253695964813232,61,-0.08519851,0.022492956,0.11464975,-1.1665349,0.13759261,0.24355645,2.3166774e-07,0.035669897,-0.0015479135,0.0022226833,0.4131275547364973,-0.8304336878574905,0.3737720074976859,0.9104124565897624,0.3864393981941573,-0.14769478802425975,-0.02178950214291142,0.40130347817424317,0.91568593742703,-0.0009050968,1.936891e-05,0.10708706,0.0007047152,0.00011454792,-0.014007801,1.040562,-0.045236874,-4.463555e-06,0.0047320016,0.8732877311671194,0.0006771003610042608,-0.48720435150774877,-0.0007063800988294564,0.9999997428728689,0.00012361776504791344,0.487204309935925,0.00023619758039754242,0.8732879849113705,left_images/camera_left_61.png,right_images/camera_right_61.png
2025-05-07 16:11:14,2.867100715637207,62,-0.08337293,0.02345134,0.11462835,-1.283197,0.13394585,0.24245565,1.486096e-07,0.035675302,-0.0012895223,0.0022294624,0.3240298054931071,-0.8604136440425731,0.39331036891681237,0.9452957139863458,0.2779018023634654,-0.17084086560943706,0.03769215132018164,0.4271521384571512,0.9033937969348356,-0.00090509333,1.9374695e-05,0.10708706,0.0007047198,0.00011451088,-0.014007857,1.0421354,-0.045236874,-4.463555e-06,0.0047320016,0.8732877311671194,0.0006771003610042608,-0.48720435150774877,-0.0007063800988294564,0.9999997428728689,0.00012361776504791344,0.487204309935925,0.00023619758039754242,0.8732879849113705,left_images/camera_left_62.png,right_images/camera_right_62.png
2025-05-07 16:11:14,2.916088819503784,63,-0.08100624,0.02385929,0.114595175,-1.3998327,0.12844342,0.24285631,1.021511e-07,0.03567884,-0.0009825813,0.0022508455,0.23340079416592374,-0.8790435756448122,0.41569996560055145,0.9671607006468065,0.16562708716973618,-0.1927896447427797,0.10061932422300726,0.44704592617901373,0.8888338942005156,-0.00090508984,1.938048e-05,0.10708706,0.0007047246,0.00011447387,-0.014007913,1.039907,-0.045236874,-4.463555e-06,0.0047320016,0.8732877311671194,0.0006771003610042608,-0.48720435150774877,-0.0007063800988294564,0.9999997428728689,0.00012361776504791344,0.487204309935925,0.00023619758039754242,0.8732879849113705,left_images/camera_left_63.png,right_images/camera_right_63.png
2025-05-07 16:11:15,2.9594314098358154,64,-0.078483,0.023715392,0.114554666,-1.4888344,0.121521376,0.2452337,7.932362e-07,0.035696577,-0.0007034644,0.0022753943,0.16474467010785504,-0.8849702165179633,0.4355306069005984,0.9746756899041716,0.07836949685691469,-0.209440973718662,0.1512167093309507,0.4590053788775722,0.8754699132355008,-0.00090508634,1.9386265e-05,0.10708706,0.0007047292,0.00011443686,-0.014007969,1.0428132,-0.045236874,-4.463555e-06,0.0047320016,0.8732877311671194,0.0006771003610042608,-0.48720435150774877,-0.0007063800988294564,0.9999997428728689,0.00012361776504791344,0.487204309935925,0.00023619758039754242,0.8732879849113705,left_images/camera_left_64.png,right_images/camera_right_64.png
2025-05-07 16:11:15,3.008877992630005,65,-0.076094225,0.02317525,0.11451244,-1.5406387,0.11331485,0.24984895,6.4078364e-07,0.035734694,-0.0004730688,0.0022933679,0.12702578960215877,-0.883940041217386,0.45001605783411147,0.9747850453023866,0.027331816896110583,-0.22146576990582936,0.18346270528576747,0.46680078761476373,0.8651233787451731,-0.00090508285,1.9392051e-05,0.10708706,0.00070473406,0.000114399845,-0.014008025,1.0409813,-0.045236874,-4.463555e-06,0.0047320016,0.8732877311671194,0.0006771003610042608,-0.48720435150774877,-0.0007063800988294564,0.9999997428728689,0.00012361776504791344,0.487204309935925,0.00023619758039754242,0.8732879849113705,left_images/camera_left_65.png,right_images/camera_right_65.png
2025-05-07 16:11:15,3.0620124340057373,66,-0.07412567,0.022550883,0.11447961,-1.5724472,0.10604056,0.25483185,4.880461e-07,0.0357735,-0.0002887058,0.0023045987,0.1054165868827373,-0.8814078343243988,0.4604428007924195,0.9730665609099455,-0.004027323577850239,-0.23048915094574635,0.2050092955182424,0.4723388722690233,0.8572439433992762,-0.00090507936,1.9397838e-05,0.10708706,0.00070473854,0.00011436283,-0.014008081,1.0401051,-0.045236878,-4.4643334e-06,0.0047320006,0.8732879278420925,0.0006772037535319399,-0.48720399883451343,-0.0007064426976542675,0.9999997428163047,0.0001237175801854955,0.48720395731559824,0.00023614063800677095,0.8732881816523226,left_images/camera_left_66.png,right_images/camera_right_66.png
2025-05-07 16:11:15,3.1069815158843994,67,-0.07255581,0.021907154,0.114458956,-1.588169,0.0989269,0.25928527,3.6305602e-07,0.035797983,-0.00014553568,0.0023110313,0.09653231847523053,-0.8784628071583147,0.46795791256194247,0.9713447999292162,-0.019446139168847465,-0.2368778742768035,0.217188377083738,0.47741485535219763,0.8514130987650899,-0.0009050726,1.93922e-05,0.10708706,0.000704748,0.00011440432,-0.0140081365,1.0426542,-0.045236878,-4.4643334e-06,0.0047320006,0.8732879278420925,0.0006772037535319399,-0.48720399883451343,-0.0007064426976542675,0.9999997428163047,0.0001237175801854955,0.48720395731559824,0.00023614063800677095,0.8732881816523226,left_images/camera_left_67.png,right_images/camera_right_67.png
2025-05-07 16:11:15,3.15350341796875,68,-0.07132215,0.02129539,0.114452116,-1.5907596,0.09233705,0.26435286,2.711329e-07,0.03581716,-2.6284484e-05,0.0023084208,0.09840412144195854,-0.8758313485469967,0.4724786532591555,0.969910002124419,-0.021836025903844036,-0.242482526693649,0.222690854464762,0.48212305159064495,0.8473288301849988,-0.0009050656,1.9385732e-05,0.10708706,0.0007047571,0.00011444584,-0.014008192,1.0403531,-0.045236878,-4.4643334e-06,0.0047320006,0.8732879278420925,0.0006772037535319399,-0.48720399883451343,-0.0007064426976542675,0.9999997428163047,0.0001237175801854955,0.48720395731559824,0.00023614063800677095,0.8732881816523226,left_images/camera_left_68.png,right_images/camera_right_68.png
2025-05-07 16:11:15,3.2002906799316406,69,-0.07027789,0.020697655,0.11445157,-1.5810343,0.08502005,0.27024516,2.4094322e-07,0.035829514,7.93864e-05,0.0023049088,0.11073981105089303,-0.8730330329923863,0.47492106454918087,0.968721870556186,-0.011956301241458633,-0.2478608165215862,0.22206897972147405,0.48751448200513814,0.8444021542373783,-0.00090505864,1.9379264e-05,0.10708706,0.0007047665,0.000114487346,-0.014008248,1.0415387,-0.045236878,-4.4643334e-06,0.0047320006,0.8732879278420925,0.0006772037535319399,-0.48720399883451343,-0.0007064426976542675,0.9999997428163047,0.0001237175801854955,0.48720395731559824,0.00023614063800677095,0.8732881816523226,left_images/camera_left_69.png,right_images/camera_right_69.png
2025-05-07 16:11:15,3.2439143657684326,70,-0.06944114,0.020207124,0.114452325,-1.5667412,0.079074055,0.27641428,2.2438105e-07,0.035854366,0.00017055706,0.0022961432,0.12655373148168803,-0.8707331830376315,0.4751924631191192,0.9674205706197399,0.0024457289278740912,-0.25316290793042395,0.21927515269596265,0.4917496744962482,0.8426747089138229,-0.00090505165,1.9372796e-05,0.10708706,0.00070477667,0.00011452888,-0.014008304,1.0404508,-0.045236878,-4.4643334e-06,0.0047320006,0.8732879278420925,0.0006772037535319399,-0.48720399883451343,-0.0007064426976542675,0.9999997428163047,0.0001237175801854955,0.48720395731559824,0.00023614063800677095,0.8732881816523226,left_images/camera_left_70.png,right_images/camera_right_70.png
2025-05-07 16:11:15,3.296341896057129,71,-0.0687553,0.019805877,0.11444613,-1.5467303,0.07343652,0.28264272,1.9665286e-07,0.035887025,0.00024660467,0.0022922838,0.14688320299593743,-0.8682753702822749,0.4738387975238336,0.9658563202060312,0.022541536603652712,-0.2580958113678149,0.21341718158507936,0.49557013680076056,0.8419402271631619,-0.00090504467,1.9366327e-05,0.10708706,0.000704786,0.000114570386,-0.01400836,1.0424373,-0.045236878,-4.4643334e-06,0.0047320006,0.8732879278420925,0.0006772037535319399,-0.48720399883451343,-0.0007064426976542675,0.9999997428163047,0.0001237175801854955,0.48720395731559824,0.00023614063800677095,0.8732881816523226,left_images/camera_left_71.png,right_images/camera_right_71.png
2025-05-07 16:11:15,3.3483033180236816,72,-0.068150125,0.019447615,0.11443955,-1.5162418,0.06818371,0.2884742,1.6152028e-07,0.03594178,0.00030268496,0.0022741053,0.17526160328000495,-0.8652938249399756,0.4696274767690549,0.963648074790696,0.053066005496832935,-0.26185184172122145,0.20165752742684231,0.4984481874591954,0.8431391617347255,-0.0009050377,1.9359859e-05,0.10708706,0.00070479506,0.0001146119,-0.014008416,1.0402015,-0.045236874,-4.4701324e-06,0.0047320006,0.8732878716269702,0.0006772961018559667,-0.4872040994688233,-0.0007063634898836726,0.9999997428311802,0.00012404915941164718,0.4872040581931321,0.0002358125615867179,0.873288125461797,left_images/camera_left_72.png,right_images/camera_right_72.png
2025-05-07 16:11:15,3.396138906478882,73,-0.067481935,0.01915039,0.11442699,-1.4779996,0.06225096,0.29354373,1.1932232e-07,0.036013406,0.00033843028,0.002250284,0.20951601677682763,-0.8607131126874351,0.4639784223020281,0.9601291014722252,0.09127607495776158,-0.26423623265260765,0.1850814610384033,0.5008409086608363,0.8455195071621222,-0.00090503297,1.9361629e-05,0.10708706,0.0007047803,0.00011464482,-0.014008416,1.0423182,-0.045236874,-4.4701324e-06,0.0047320006,0.8732878716269702,0.0006772961018559667,-0.4872040994688233,-0.0007063634898836726,0.9999997428311802,0.00012404915941164718,0.4872040581931321,0.0002358125615867179,0.873288125461797,left_images/camera_left_73.png,right_images/camera_right_73.png
2025-05-07 16:11:15,3.4388744831085205,74,-0.06517776,0.0195512,0.11436118,-1.4241087,0.05217503,0.29955587,1.0088926e-07,0.03624896,0.00029524928,0.0021825917,0.25684839682083827,-0.8520106497624491,0.4561871915583936,0.9530362704078925,0.14491582934775782,-0.26593470945227515,0.16047045939231197,0.5030678434324946,0.8492184504393434,-0.0009050322,1.936689e-05,0.10708706,0.00070476683,0.00011460786,-0.014008416,1.0402279,-0.045236874,-4.4701324e-06,0.0047320006,0.8732878716269702,0.0006772961018559667,-0.4872040994688233,-0.0007063634898836726,0.9999997428311802,0.00012404915941164718,0.4872040581931321,0.0002358125615867179,0.873288125461797,left_images/camera_left_74.png,right_images/camera_right_74.png
2025-05-07 16:11:15,3.486492872238159,75,-0.062839694,0.020054836,0.11427933,-1.3689389,0.04165247,0.30427647,6.503657e-08,0.036494464,0.00024010823,0.0021256097,0.304389218751666,-0.8404586871294477,0.4483039133627942,0.9430081328123885,0.19944070082904042,-0.26638143385475277,0.13447254350774818,0.503837872813732,0.8532669763685281,-0.0009050279,1.9369483e-05,0.10708706,0.0007047521,0.00011464077,-0.014008416,1.0425936,-0.045236874,-4.4701324e-06,0.0047320006,0.8732878716269702,0.0006772961018559667,-0.4872040994688233,-0.0007063634898836726,0.9999997428311802,0.00012404915941164718,0.4872040581931321,0.0002358125615867179,0.873288125461797,left_images/camera_left_75.png,right_images/camera_right_75.png
2025-05-07 16:11:15,3.5391745567321777,76,-0.06057885,0.020462526,0.11417993,-1.3097782,0.027964711,0.30926815,8.963066e-08,0.036709893,0.00021994626,0.002111148,0.35556726779346515,-0.8238234179904336,0.4414599574643768,0.9285195615626471,0.2573377185297757,-0.2676354281805743,0.10688003494291937,0.505066604115189,0.8564370283553551,-0.00090502715,1.9374746e-05,0.10708706,0.0007047387,0.000114603805,-0.014008416,1.0405203,-0.045236874,-4.4701324e-06,0.0047320006,0.8732878716269702,0.0006772961018559667,-0.4872040994688233,-0.0007063634898836726,0.9999997428311802,0.00012404915941164718,0.4872040581931321,0.0002358125615867179,0.873288125461797,left_images/camera_left_76.png,right_images/camera_right_76.png
2025-05-07 16:11:15,3.5976405143737793,77,-0.058400363,0.020811012,0.114044376,-1.2517809,0.01225007,0.31343755,8.1039644e-08,0.03691078,0.00023112167,0.0021502646,0.40534493572797364,-0.8033753816303724,0.4362149461789892,0.9106865924518162,0.31328600491073694,-0.2692616004103991,0.07965810321734151,0.5063989290246607,0.8586120842816576,-0.00090502296,1.937734e-05,0.10708706,0.0007047249,0.0001146367,-0.014008416,1.0402462,-0.045236874,-4.4701324e-06,0.0047320006,0.8732878716269702,0.0006772961018559667,-0.4872040994688233,-0.0007063634898836726,0.9999997428311802,0.00012404915941164718,0.4872040581931321,0.0002358125615867179,0.873288125461797,left_images/camera_left_77.png,right_images/camera_right_77.png
2025-05-07 16:11:15,3.646996021270752,78,-0.056677155,0.02117769,0.11392289,-1.2060243,-0.00096698233,0.31575984,7.4412426e-08,0.037069798,0.00024147728,0.002198225,0.44374645674978247,-0.7847965258910558,0.4326470791203181,0.8942884924693985,0.3566768638496401,-0.2702400914579402,0.0577682815983305,0.506829387213996,0.8601085965722359,-0.0009050222,1.9382602e-05,0.10708706,0.0007047113,0.00011459974,-0.014008416,1.0399879,-0.045236874,-4.4701324e-06,0.0047320006,0.8732878716269702,0.0006772961018559667,-0.4872040994688233,-0.0007063634898836726,0.9999997428311802,0.00012404915941164718,0.4872040581931321,0.0002358125615867179,0.873288125461797,left_images/camera_left_78.png,right_images/camera_right_78.png
2025-05-07 16:11:15,3.690403461456299,79,-0.055236734,0.021591274,0.1138333,-1.1709942,-0.013198233,0.3169129,4.8079993e-08,0.037174687,0.00025305804,0.0022427281,0.47288997506102076,-0.7682948870251987,0.43139081823530334,0.880190154159439,0.38939661816901316,-0.2713587409303762,0.040501407476412954,0.5080287790366538,0.8603873521054087,-0.0009050179,1.9385196e-05,0.10708706,0.00070469687,0.000114632654,-0.014008416,1.0402796,-0.045236874,-4.4701324e-06,0.0047320006,0.8732878716269702,0.0006772961018559667,-0.4872040994688233,-0.0007063634898836726,0.9999997428311802,0.00012404915941164718,0.4872040581931321,0.0002358125615867179,0.873288125461797,left_images/camera_left_79.png,right_images/camera_right_79.png
2025-05-07 16:11:15,3.7325477600097656,80,-0.05432338,0.021888556,0.11378236,-1.1448623,-0.023866294,0.31714818,3.1594254e-08,0.037208363,0.00027579768,0.0022858838,0.4944607872175333,-0.7543488414776307,0.43181750226869475,0.8687800031146502,0.41347731937946336,-0.2725028670434168,0.027015478754339073,0.5098963931232796,0.8598115096854334,-0.00090501714,1.9390458e-05,0.10708706,0.0007046827,0.0001145957,-0.014008416,1.0404018,-0.045236878,-4.4643334e-06,0.0047320006,0.8732879278420925,0.0006772037535319399,-0.48720399883451343,-0.0007064426976542675,0.9999997428163047,0.0001237175801854955,0.48720395731559824,0.00023614063800677095,0.8732881816523226,left_images/camera_left_80.png,right_images/camera_right_80.png
2025-05-07 16:11:15,3.7772958278656006,81,-0.0535541,0.022253962,0.11377624,-1.1241989,-0.035665892,0.31730932,2.1593017e-08,0.037178874,0.00030893134,0.002319103,0.5120333444263694,-0.7410339889509777,0.4343851763296593,0.8588188439755039,0.4323114903488988,-0.2748398962030313,0.015876001641660753,0.5137853662101678,0.8577718519747298,-0.0009050137,1.9386087e-05,0.10708706,0.00070470944,0.00011458605,-0.014008444,1.0402724,-0.045236878,-4.4655326e-06,0.004731997,0.8732880695071958,0.000677191165832534,-0.4872037449245641,-0.0007064300947780879,0.9999997428256266,0.00012371419266309422,0.48720370340640473,0.00023613725922190434,0.8732883233081034,left_images/camera_left_81.png,right_images/camera_right_81.png
2025-05-07 16:11:15,3.817830801010132,82,-0.05307994,0.022564152,0.113802016,-1.1078706,-0.046522163,0.3174127,1.8879154e-08,0.037108734,0.00034879148,0.0023421673,0.5261067637695469,-0.7292717619916885,0.4374635645142028,0.8503911873172013,0.44702060221930673,-0.27750208958623906,0.00681921177078848,0.5180108863267512,0.8553468419289328,-0.0009050137,1.9391253e-05,0.10708706,0.00070473435,0.000114549024,-0.0140085,1.0396811,-0.045236878,-4.4655326e-06,0.004731997,0.8732880695071958,0.000677191165832534,-0.4872037449245641,-0.0007064300947780879,0.9999997428256266,0.00012371419266309422,0.48720370340640473,0.00023613725922190434,0.8732883233081034,left_images/camera_left_82.png,right_images/camera_right_82.png
2025-05-07 16:11:15,3.85937762260437,83,-0.05311481,0.022611098,0.11384482,-1.1080763,-0.05095969,0.31916538,3.9062716e-08,0.037032105,0.00039180345,0.002350227,0.5277182057906272,-0.7267597677296316,0.43969732235561,0.8493851883101768,0.44684224364285463,-0.2808501578698243,0.007635257455167632,0.5216821343555784,0.8531057692559592,-0.0009050137,1.9397072e-05,0.10708706,0.0007047591,0.00011451198,-0.014008556,1.0400532,-0.045236878,-4.4655326e-06,0.004731997,0.8732880695071958,0.000677191165832534,-0.4872037449245641,-0.0007064300947780879,0.9999997428256266,0.00012371419266309422,0.48720370340640473,0.00023613725922190434,0.8732883233081034,left_images/camera_left_83.png,right_images/camera_right_83.png
2025-05-07 16:11:15,3.9031920433044434,84,-0.053632136,0.022370411,0.11390536,-1.1276652,-0.04755291,0.3250694,1.1383909e-07,0.036971994,0.00044833845,0.0023332639,0.5156531398505323,-0.7353736658428496,0.43969013060010437,0.8565144754209431,0.429241877128796,-0.2865909355044828,0.02201800982546892,0.5243824773043022,0.8511981113345641,-0.0009050137,1.9402893e-05,0.10708706,0.000704784,0.00011447494,-0.014008611,1.0403525,-0.045236878,-4.4655326e-06,0.004731997,0.8732880695071958,0.000677191165832534,-0.4872037449245641,-0.0007064300947780879,0.9999997428256266,0.00012371419266309422,0.48720370340640473,0.00023613725922190434,0.8732883233081034,left_images/camera_left_84.png,right_images/camera_right_84.png
2025-05-07 16:11:16,3.958004951477051,85,-0.054495625,0.022365713,0.11393648,-1.1482466,-0.043249596,0.33478573,1.9635945e-07,0.03692057,0.0005041994,0.0023584468,0.504111422033385,-0.7444118145474431,0.4378615358051693,0.8627116995569842,0.4105682869992524,-0.2952324595263861,0.040002470210951435,0.5265783247273692,0.8491849446995273,-0.0009050137,1.9408713e-05,0.10708706,0.00070480874,0.000114437906,-0.014008667,1.040338,-0.045236878,-4.4655326e-06,0.004731997,0.8732880695071958,0.000677191165832534,-0.4872037449245641,-0.0007064300947780879,0.9999997428256266,0.00012371419266309422,0.48720370340640473,0.00023613725922190434,0.8732883233081034,left_images/camera_left_85.png,right_images/camera_right_85.png
2025-05-07 16:11:16,4.009162664413452,86,-0.055490576,0.022772392,0.11391479,-1.1634169,-0.039667606,0.34716612,2.5393854e-07,0.036900707,0.000539914,0.002436908,0.49751477051957116,-0.7509927350107055,0.4341531585466112,0.8655582336177252,0.39669370168461904,-0.30568456169770475,0.05734106147798354,0.5278674255955702,0.847388921135793,-0.0009050137,1.9414532e-05,0.10708706,0.00070483354,0.00011440086,-0.014008723,1.0422581,-0.045236792,-4.491796e-06,0.004731822,0.8732880826960867,0.0006776054741188869,-0.48720372070809786,-0.0007068744054235367,0.9999997425049764,0.0001237681545862432,0.48720367912154333,0.00023630658597821827,0.8732883368107178,left_images/camera_left_86.png,right_images/camera_right_86.png
2025-05-07 16:11:16,4.05513072013855,87,-0.056595076,0.023711812,0.11381203,-1.1740018,-0.03385432,0.3655082,3.8395348e-07,0.03698299,0.0005472803,0.002567782,0.49585044250272203,-0.7572990288387341,0.42500649358541,0.8649325144325043,0.3869365912936129,-0.3196432695921275,0.0776149737313665,0.5260971918172439,0.8468752332042127,-0.000905007,1.9408899e-05,0.10708706,0.0007048413,0.00011444238,-0.014008779,1.0401896,-0.045236792,-4.491796e-06,0.004731822,0.8732880826960867,0.0006776054741188869,-0.48720372070809786,-0.0007068744054235367,0.9999997425049764,0.0001237681545862432,0.48720367912154333,0.00023630658597821827,0.8732883368107178,left_images/camera_left_87.png,right_images/camera_right_87.png
2025-05-07 16:11:16,4.109342098236084,88,-0.058252644,0.024715014,0.1136588,-1.1838106,-0.022128563,0.38389382,3.7713468e-07,0.037121147,0.00051120226,0.0027234629,0.49287898955270093,-0.7663409503374377,0.4120580656817938,0.8645113174098527,0.3777381930050254,-0.3315630251031908,0.09844025461054803,0.5196493099978207,0.8486896434451167,-0.000905,1.9402429e-05,0.10708706,0.0007048485,0.00011448392,-0.014008835,1.0395725,-0.045236796,-4.490513e-06,0.00473182,0.8732882660238487,0.0006774736712903045,-0.487203392285485,-0.0007067725867156246,0.9999997425878573,0.00012367994789939487,0.48720335066332426,0.00023633375457925688,0.8732885200486641,left_images/camera_left_88.png,right_images/camera_right_88.png
2025-05-07 16:11:16,4.169434070587158,89,-0.06090391,0.025973678,0.11337709,-1.1987692,-0.0015936636,0.4066088,4.6208865e-07,0.037359834,0.00043784897,0.0029893247,0.48485283717483596,-0.7811632865059844,0.39332130135384363,0.8653908456945109,0.36342335632375056,-0.3449958670281711,0.12655595786706858,0.5076488785504695,0.8522184025440892,-0.0009049997,1.9407393e-05,0.10708706,0.0007048551,0.000114446884,-0.014008835,1.0403551,-0.045236796,-4.490513e-06,0.00473182,0.8732882660238487,0.0006774736712903045,-0.487203392285485,-0.0007067725867156246,0.9999997425878573,0.00012367994789939487,0.48720335066332426,0.00023633375457925688,0.8732885200486641,left_images/camera_left_89.png,right_images/camera_right_89.png
2025-05-07 16:11:16,4.221125602722168,90,-0.063958086,0.027813163,0.11300905,-1.2295634,0.02742815,0.4299116,5.105712e-07,0.03768528,0.00029310375,0.0033203987,0.4618490055609002,-0.8042695948173617,0.3739597771348204,0.8716710845259557,0.33363139340095066,-0.358998069268742,0.1639665101895872,0.4917728257942452,0.8551458772318271,-0.0009049997,1.9413183e-05,0.10708706,0.0007048622,0.00011440985,-0.014008835,1.0396522,-0.045236796,-4.490513e-06,0.00473182,0.8732882660238487,0.0006774736712903045,-0.487203392285485,-0.0007067725867156246,0.9999997425878573,0.00012367994789939487,0.48720335066332426,0.00023633375457925688,0.8732885200486641,left_images/camera_left_90.png,right_images/camera_right_90.png
2025-05-07 16:11:16,4.26887845993042,91,-0.06439347,0.030987484,0.11255204,-1.2593757,0.039108843,0.45094234,5.052886e-07,0.038061276,0.00010221382,0.0037195813,0.4426367437803591,-0.8182697035294512,0.36675251238586576,0.8750440352968313,0.3048189582455033,-0.37600975916266294,0.19588427539483194,0.48736033381877736,0.8509460944578637,-0.00090498314,1.9418972e-05,0.10708709,0.0007048688,0.00011437282,-0.014008835,1.0448887,-0.045236796,-4.490513e-06,0.00473179,0.8732882660238487,0.0006774736712903045,-0.487203392285485,-0.0007067725867156246,0.9999997425878573,0.00012367994789939487,0.48720335066332426,0.00023633375457925688,0.8732885200486641,left_images/camera_left_91.png,right_images/camera_right_91.png
2025-05-07 16:11:16,4.318498373031616,92,-0.06161876,0.034593433,0.11211889,-1.2770247,0.020578437,0.4636774,3.8091184e-07,0.038299985,-6.561121e-05,0.004128669,0.4390318521684469,-0.814500863111304,0.3792616204844407,0.8737120232115156,0.28861871097109243,-0.39156932996983446,0.20947155720331823,0.5032768459489528,0.8383520042646115,-0.0009049995,1.9424762e-05,0.10708706,0.00070487615,0.00011433577,-0.014008807,1.0406041,-0.045236792,-4.491796e-06,0.004731822,0.8732880826960867,0.0006776054741188869,-0.48720372070809786,-0.0007068744054235367,0.9999997425049764,0.0001237681545862432,0.48720367912154333,0.00023630658597821827,0.8732883368107178,left_images/camera_left_92.png,right_images/camera_right_92.png
2025-05-07 16:11:16,4.363106966018677,93,-0.056328047,0.03773934,0.11191308,-1.2815642,-0.01926661,0.46813926,1.856959e-07,0.038364213,-0.00017567491,0.004352121,0.4493261606060994,-0.7968486279576293,0.40390378249903214,0.869276823827749,0.285687276925643,-0.40341118397827247,0.2060674766937335,0.5323673956252906,0.8210488116575183,-0.00090498,1.9423429e-05,0.10708709,0.0007048993,0.000114355666,-0.014008807,1.0452946,-0.045236792,-4.491796e-06,0.004731792,0.8732880826960867,0.0006776054741188869,-0.48720372070809786,-0.0007068744054235367,0.9999997425049764,0.0001237681545862432,0.48720367912154333,0.00023630658597821827,0.8732883368107178,left_images/camera_left_93.png,right_images/camera_right_93.png
2025-05-07 16:11:16,4.407011985778809,94,-0.053128537,0.039720453,0.111797616,-1.2814246,-0.05446798,0.47055662,5.3858255e-08,0.0382616,-0.0002018679,0.004589758,0.46138383596223576,-0.7786045024461022,0.4253233883569425,0.8645239857738419,0.2868640527095977,-0.4126830421579441,0.19930688381107928,0.5581075559725768,0.8054767048349905,-0.00090498896,1.9421961e-05,0.10708706,0.0007049236,0.000114375565,-0.014008779,1.0404589,-0.045236792,-4.491796e-06,0.004731822,0.8732880826960867,0.0006776054741188869,-0.48720372070809786,-0.0007068744054235367,0.9999997425049764,0.0001237681545862432,0.48720367912154333,0.00023630658597821827,0.8732883368107178,left_images/camera_left_94.png,right_images/camera_right_94.png
2025-05-07 16:11:16,4.450347185134888,95,-0.05292002,0.040041164,0.111684136,-1.2808118,-0.083143406,0.47092912,2.6011062e-08,0.03796314,-8.7399734e-05,0.0049550384,0.47180771318694303,-0.7614556894364616,0.4445027725472033,0.8605900684361579,0.2880461512930551,-0.42001684351262364,0.191786902280517,0.5807018578841486,0.7912035998171026,-0.000904985,1.9416188e-05,0.10708706,0.00070493034,0.00011441709,-0.014008835,1.0396589,-0.045236796,-4.490513e-06,0.00473182,0.8732882660238487,0.0006774736712903045,-0.487203392285485,-0.0007067725867156246,0.9999997425878573,0.00012367994789939487,0.48720335066332426,0.00023633375457925688,0.8732885200486641,left_images/camera_left_95.png,right_images/camera_right_95.png
2025-05-07 16:11:16,4.4906325340271,96,-0.053290367,0.040573865,0.111582816,-1.2732635,-0.11021325,0.46923065,6.048549e-08,0.037650086,-1.7138198e-05,0.0053194584,0.4854496744702793,-0.7428602160029802,0.46097430843454335,0.8556883438979603,0.29560546569315665,-0.4247527124922195,0.17926536663244796,0.600646408573578,0.7791584050716495,-0.00090498466,1.9421152e-05,0.10708706,0.0007049368,0.00011438006,-0.014008835,1.039949,-0.045236796,-4.490513e-06,0.00473182,0.8732882660238487,0.0006774736712903045,-0.487203392285485,-0.0007067725867156246,0.9999997425878573,0.00012367994789939487,0.48720335066332426,0.00023633375457925688,0.8732885200486641,left_images/camera_left_96.png,right_images/camera_right_96.png
2025-05-07 16:11:16,4.537512302398682,97,-0.053551298,0.0417229,0.111472495,-1.258401,-0.1346176,0.46646705,1.1597532e-07,0.03741904,-2.4530571e-05,0.005644362,0.5022452103443052,-0.723887725455864,0.47300772680849545,0.8492484682670305,0.3098918461980642,-0.42748576912694725,0.1628704633514222,0.6164037675049455,0.7704022375184291,-0.0009049681,1.9426941e-05,0.10708708,0.0007049435,0.00011434304,-0.014008835,1.0448396,-0.045236796,-4.490513e-06,0.00473179,0.8732882660238487,0.0006774736712903045,-0.487203392285485,-0.0007067725867156246,0.9999997425878573,0.00012367994789939487,0.48720335066332426,0.00023633375457925688,0.8732885200486641,left_images/camera_left_97.png,right_images/camera_right_97.png
2025-05-07 16:11:16,4.589482069015503,98,-0.05428896,0.04353011,0.11123996,-1.2381513,-0.15530224,0.46836448,1.5463343e-07,0.03730865,-6.7900866e-05,0.0060582524,0.5232644136672261,-0.705302790089847,0.47827014090466813,0.8392228626584863,0.3290400321056039,-0.43294069347110176,0.14798425653017763,0.6279176948959315,0.7640811660130029,-0.0009049845,1.9432731e-05,0.10708705,0.00070495077,0.00011430599,-0.014008807,1.0403607,-0.045236792,-4.491796e-06,0.004731822,0.8732880826960867,0.0006776054741188869,-0.48720372070809786,-0.0007068744054235367,0.9999997425049764,0.0001237681545862432,0.48720367912154333,0.00023630658597821827,0.8732883368107178,left_images/camera_left_98.png,right_images/camera_right_98.png
2025-05-07 16:11:16,4.637754678726196,99,-0.056458563,0.046944633,0.11075748,-1.2065264,-0.17525038,0.4772081,4.7981126e-07,0.037303552,-0.00020390749,0.006741401,0.5543027521246008,-0.6830191966028297,0.47563981757115137,0.8218059376229138,0.3586061792664522,-0.44276021623407,0.13184634949370674,0.6363068326396801,0.7600856233749202,-0.00090498175,1.94314e-05,0.10708705,0.0007049741,0.00011432587,-0.014008807,1.0402013,-0.045236792,-4.491796e-06,0.004731822,0.8732880826960867,0.0006776054741188869,-0.48720372070809786,-0.0007068744054235367,0.9999997425049764,0.0001237681545862432,0.48720367912154333,0.00023630658597821827,0.8732883368107178,left_images/camera_left_99.png,right_images/camera_right_99.png
2025-05-07 16:11:16,4.681197166442871,100,-0.058857255,0.050942,0.11024147,-1.1762027,-0.19544458,0.48391953,4.6057616e-07,0.037294816,-0.00040373253,0.0074676103,0.5826727620764237,-0.6600071256299873,0.4742183531369001,0.8046446688887499,0.3865140728145471,-0.4507258904758249,0.1141902323456152,0.6442029692837137,0.7562824374550167,-0.00090497563,1.9429932e-05,0.10708705,0.0007049974,0.00011434575,-0.014008807,1.040637,-0.045236792,-4.491796e-06,0.004731822,0.8732880826960867,0.0006776054741188869,-0.48720372070809786,-0.0007068744054235367,0.9999997425049764,0.0001237681545862432,0.48720367912154333,0.00023630658597821827,0.8732883368107178,left_images/camera_left_100.png,right_images/camera_right_100.png
2025-05-07 16:11:16,4.732339143753052,101,-0.06138421,0.054722928,0.10982383,-1.1500939,-0.21412243,0.48170367,4.2748263e-07,0.037186112,-0.0006510494,0.008104631,0.6030720952621317,-0.638408730836296,0.47826597235025275,0.7923377303253301,0.4101000764242653,-0.45168445669484447,0.09222238892507334,0.6513464667201335,0.7531552371670471,-0.0009049695,1.9428464e-05,0.10708705,0.0007050216,0.00011436564,-0.014008807,1.0402193,-0.045236792,-4.491796e-06,0.004731822,0.8732880826960867,0.0006776054741188869,-0.48720372070809786,-0.0007068744054235367,0.9999997425049764,0.0001237681545862432,0.48720367912154333,0.00023630658597821827,0.8732883368107178,left_images/camera_left_101.png,right_images/camera_right_101.png
2025-05-07 16:11:16,4.7732319831848145,102,-0.06525051,0.05812432,0.10950593,-1.1296703,-0.22098848,0.47323707,8.9035984e-07,0.03697741,-0.0009903177,0.008622471,0.6131372500869391,-0.6254621684025095,0.48255547707290364,0.7867815205976751,0.4286049953725562,-0.44415379857398674,0.07097570994246355,0.6519929706974781,0.7548957641682997,-0.0009049465,1.9431749e-05,0.107087076,0.00070504507,0.000114380055,-0.014008807,1.045029,-0.045236792,-4.4880708e-06,0.004731792,0.8732880826960867,0.0006776054741188869,-0.48720372070809786,-0.0007068744054235367,0.9999997425049764,0.0001237681545862432,0.48720367912154333,0.00023630658597821827,0.8732883368107178,left_images/camera_left_102.png,right_images/camera_right_102.png
2025-05-07 16:11:16,4.8136515617370605,103,-0.06896972,0.061201964,0.109263554,-1.1076198,-0.22651747,0.46243787,1.0941119e-06,0.036752217,-0.0013174671,0.009048955,0.6225765902645446,-0.6127005277267963,0.48682281435639274,0.7810804193716154,0.448300690532708,-0.4346721400574905,0.04808084575831309,0.6508644668371464,0.7576699004711502,-0.00090495544,1.9426296e-05,0.107087046,0.0007050694,0.000114405455,-0.014008779,1.0405102,-0.045236792,-4.491796e-06,0.004731822,0.8732880826960867,0.0006776054741188869,-0.48720372070809786,-0.0007068744054235367,0.9999997425049764,0.0001237681545862432,0.48720367912154333,0.00023630658597821827,0.8732883368107178,left_images/camera_left_103.png,right_images/camera_right_103.png
2025-05-07 16:11:16,4.856934547424316,104,-0.072128706,0.064550616,0.10907303,-1.0747411,-0.23701763,0.44832796,1.2175403e-06,0.036529,-0.0016384209,0.009421872,0.6381249370480998,-0.5927576420048661,0.4913602981135019,0.7697389564818817,0.47683650972906205,-0.42441593026604196,0.01727725648192699,0.6490495519097421,0.7605499165565799,-0.0009049348,1.9424504e-05,0.107087076,0.0007050756,0.000114441464,-0.014008863,1.044877,-0.045236796,-4.486788e-06,0.00473179,0.8732882660238487,0.0006774736712903045,-0.487203392285485,-0.0007067725867156246,0.9999997425878573,0.00012367994789939487,0.48720335066332426,0.00023633375457925688,0.8732885200486641,left_images/camera_left_104.png,right_images/camera_right_104.png
2025-05-07 16:11:16,4.911618232727051,105,-0.074501805,0.06837518,0.108919024,-1.0297397,-0.25376138,0.43134204,1.2761602e-06,0.03633601,-0.0019476498,0.009751171,0.6604627328676579,-0.5637044012113068,0.49601040971736376,0.7505515208939892,0.5145346766821658,-0.4146401825381848,-0.021480059979077898,0.646135755508532,0.7629201743804617,-0.0009049505,1.9425486e-05,0.10708705,0.00070508267,0.000114409944,-0.014008835,1.0405344,-0.045236796,-4.490513e-06,0.00473182,0.8732882660238487,0.0006774736712903045,-0.487203392285485,-0.0007067725867156246,0.9999997425878573,0.00012367994789939487,0.48720335066332426,0.00023633375457925688,0.8732885200486641,left_images/camera_left_105.png,right_images/camera_right_105.png
2025-05-07 16:11:17,4.958248615264893,106,-0.07613846,0.07264171,0.10878552,-0.97574335,-0.27424353,0.41167805,1.3515107e-06,0.036198266,-0.0022528234,0.0100339465,0.6863725895299707,-0.5275763111625507,0.5005555955556164,0.7242996931250909,0.5578376351701001,-0.4052247861702556,-0.0654417518165692,0.640687450078387,0.7650078224640797,-0.0009049373,1.9430505e-05,0.10708708,0.0007050889,0.000114372895,-0.014008835,1.0449814,-0.045236796,-4.490513e-06,0.00473179,0.8732882660238487,0.0006774736712903045,-0.487203392285485,-0.0007067725867156246,0.9999997425878573,0.00012367994789939487,0.48720335066332426,0.00023633375457925688,0.8732885200486641,left_images/camera_left_106.png,right_images/camera_right_106.png
2025-05-07 16:11:17,5.003348350524902,107,-0.077670105,0.07795387,0.108617544,-0.91141224,-0.2940609,0.38940656,1.4535628e-06,0.036144983,-0.002647376,0.010301452,0.7147319088087145,-0.48601885476420403,0.5029353550351603,0.6900666525676641,0.6071240332264093,-0.39396500262454337,-0.11386972180834548,0.628638275236713,0.769316323343461,-0.00090495363,1.9436295e-05,0.10708705,0.00070509606,0.000114335846,-0.014008807,1.0405757,-0.045236792,-4.491796e-06,0.004731822,0.8732880826960867,0.0006776054741188869,-0.48720372070809786,-0.0007068744054235367,0.9999997425049764,0.0001237681545862432,0.48720367912154333,0.00023630658597821827,0.8732883368107178,left_images/camera_left_107.png,right_images/camera_right_107.png
2025-05-07 16:11:17,5.057605981826782,108,-0.07912369,0.08339765,0.108450055,-0.8528459,-0.3095649,0.36942533,1.3878447e-06,0.036139745,-0.003075148,0.0105339885,0.7381194686851551,-0.4483211882473767,0.504170370129388,0.6564400584046176,0.6497723261978464,-0.38325236310971567,-0.155775799371039,0.6138436578444867,0.7739055911766074,-0.00090493413,1.9434961e-05,0.10708708,0.0007051191,0.00011435573,-0.014008807,1.0450181,-0.045236792,-4.491796e-06,0.004731792,0.8732880826960867,0.0006776054741188869,-0.48720372070809786,-0.0007068744054235367,0.9999997425049764,0.0001237681545862432,0.48720367912154333,0.00023630658597821827,0.8732883368107178,left_images/camera_left_108.png,right_images/camera_right_108.png
2025-05-07 16:11:17,5.117598295211792,109,-0.08046181,0.089245364,0.10826284,-0.80306065,-0.32309029,0.352984,1.2314413e-06,0.036167163,-0.0035464112,0.010780729,0.7564550710468894,-0.41512437377541134,0.505418123720369,0.6257303221133648,0.684250012957898,-0.3745176681480076,-0.19036094524705002,0.5995612346246953,0.7773603002854986,-0.0009049265,1.9433492e-05,0.10708708,0.00070514326,0.00011437562,-0.014008807,1.0426023,-0.045236792,-4.491796e-06,0.004731792,0.8732880826960867,0.0006776054741188869,-0.48720372070809786,-0.0007068744054235367,0.9999997425049764,0.0001237681545862432,0.48720367912154333,0.00023630658597821827,0.8732883368107178,left_images/camera_left_109.png,right_images/camera_right_109.png
2025-05-07 16:11:17,5.170097351074219,110,-0.08183905,0.09483079,0.108079076,-0.76506513,-0.33306444,0.3412186,1.0694133e-06,0.03619887,-0.004015685,0.011022857,0.7694436601587387,-0.3895696354705528,0.5061540802570539,0.6011032737963375,0.7095909000448388,-0.3676351571937601,-0.215942835196838,0.5871254156420893,0.7801618025988296,-0.00090492144,1.9432026e-05,0.10708708,0.0007051668,0.000114395516,-0.014008807,1.0407268,-0.045236792,-4.491796e-06,0.004731792,0.8732880826960867,0.0006776054741188869,-0.48720372070809786,-0.0007068744054235367,0.9999997425049764,0.0001237681545862432,0.48720367912154333,0.00023630658597821827,0.8732883368107178,left_images/camera_left_110.png,right_images/camera_right_110.png
2025-05-07 16:11:17,5.22146463394165,111,-0.08358177,0.101107486,0.10793327,-0.74057215,-0.33906332,0.33434907,1.0279441e-06,0.036178347,-0.0046054972,0.011259256,0.776627084051661,-0.3737360320290218,0.5071210414492933,0.5851822011752499,0.7260780772156008,-0.36107120795569525,-0.2332641501497886,0.5771758866672252,0.7825955737830357,-0.0009049165,1.9430558e-05,0.10708708,0.00070519024,0.00011441538,-0.014008807,1.0426273,-0.045236792,-4.491796e-06,0.004731792,0.8732880826960867,0.0006776054741188869,-0.48720372070809786,-0.0007068744054235367,0.9999997425049764,0.0001237681545862432,0.48720367912154333,0.00023630658597821827,0.8732883368107178,left_images/camera_left_111.png,right_images/camera_right_111.png
2025-05-07 16:11:17,5.271662473678589,112,-0.085689195,0.10882242,0.10785947,-0.722171,-0.3440958,0.33013347,1.2072776e-06,0.03608782,-0.005365398,0.011475604,0.7811904714155876,-0.3621703233766497,0.5085018232364021,0.5731911265819967,0.7388465636741295,-0.3543412024512424,-0.2473729568428079,0.5682767039147248,0.7847727110512079,-0.00090491143,1.942909e-05,0.10708708,0.0007052142,0.00011443527,-0.014008807,1.040523,-0.045236763,-4.4870662e-06,0.004731792,0.8732880824667058,0.0006779021151582864,-0.4872037207065919,-0.00070724182461964,0.9999997422513417,0.0001237184385212982,0.4872036789994777,0.00023652901045196798,0.8732883368186029,left_images/camera_left_112.png,right_images/camera_right_112.png
2025-05-07 16:11:17,5.318138599395752,113,-0.087555595,0.11719757,0.107845776,-0.70712537,-0.3491178,0.3277197,1.1487953e-06,0.035987847,-0.0061981026,0.011643297,0.7847311956520103,-0.35284123894995834,0.509607702715358,0.56309114643277,0.7494691716367277,-0.34817283290800566,-0.2590855290817976,0.5601776690144081,0.786813616911902,-0.0009049091,1.9432186e-05,0.10708708,0.00070523954,0.00011440067,-0.014008779,1.0406922,-0.045236763,-4.4870662e-06,0.004731792,0.8732880824667058,0.0006779021151582864,-0.4872037207065919,-0.00070724182461964,0.9999997422513417,0.0001237184385212982,0.4872036789994777,0.00023652901045196798,0.8732883368186029,left_images/camera_left_113.png,right_images/camera_right_113.png
2025-05-07 16:11:17,5.361797094345093,114,-0.08937576,0.12624116,0.10782482,-0.6936592,-0.3553029,0.3274302,9.549836e-07,0.035904612,-0.0070768516,0.011834664,0.7884322947299734,-0.34385733462123935,0.5100359301598325,0.5531920979005213,0.7589491779052334,-0.3434743777596676,-0.2689851658498078,0.5529541380477658,0.7885992022368549,-0.0009049056,1.9432344e-05,0.10708708,0.00070524745,0.00011440287,-0.014008835,1.0403601,-0.045236766,-4.4887483e-06,0.00473179,0.8732882657492821,0.0006778702597101361,-0.4872033922260008,-0.0007071691751311619,0.9999997422947187,0.00012378309231839767,0.4872033505799905,0.0002364368989817481,0.8732885200672362,left_images/camera_left_114.png,right_images/camera_right_114.png
2025-05-07 16:11:17,5.405693054199219,115,-0.09130899,0.13566057,0.10776734,-0.6831031,-0.36049828,0.32998323,7.142272e-07,0.03585233,-0.007993901,0.012064912,0.7918693817135298,-0.33733696492537024,0.5090644894309282,0.5448307106716439,0.7668004765518461,-0.3393766725467341,-0.2758665964078714,0.5460959634119276,0.7909973576008553,-0.00090490805,1.9437673e-05,0.10708708,0.00070523156,0.00011436591,-0.014008835,1.0425339,-0.045236766,-4.4887483e-06,0.00473179,0.8732882657492821,0.0006778702597101361,-0.4872033922260008,-0.0007071691751311619,0.9999997422947187,0.00012378309231839767,0.4872033505799905,0.0002364368989817481,0.8732885200672362,left_images/camera_left_115.png,right_images/camera_right_115.png
2025-05-07 16:11:17,5.458166837692261,116,-0.093210876,0.1450274,0.107650414,-0.6753676,-0.36393598,0.33523378,4.6129787e-07,0.03585807,-0.008909669,0.012333854,0.7951385371171099,-0.33370564492147636,0.5063548650292636,0.5381766846941122,0.77314432222214,-0.33557966724359467,-0.27950055964687504,0.5393407082385022,0.7943494429996627,-0.0009049114,1.9443421e-05,0.10708708,0.0007052152,0.00011432893,-0.014008835,1.0403111,-0.045236766,-4.4887483e-06,0.00473179,0.8732882657492821,0.0006778702597101361,-0.4872033922260008,-0.0007071691751311619,0.9999997422947187,0.00012378309231839767,0.4872033505799905,0.0002364368989817481,0.8732885200672362,left_images/camera_left_116.png,right_images/camera_right_116.png
2025-05-07 16:11:17,5.517116546630859,117,-0.09499807,0.1552926,0.10749155,-0.6692079,-0.36645266,0.3419387,3.7335036e-07,0.035917364,-0.009921712,0.012635862,0.7980308608509733,-0.332141108059608,0.5028210710246639,0.5327383663702121,0.7788459533967679,-0.3310420122502234,-0.28166749568711674,0.532053817968084,0.7984874179715875,-0.00090491486,1.944917e-05,0.10708708,0.00070519827,0.000114291965,-0.014008835,1.0404382,-0.045236766,-4.4887483e-06,0.00473179,0.8732882657492821,0.0006778702597101361,-0.4872033922260008,-0.0007071691751311619,0.9999997422947187,0.00012378309231839767,0.4872033505799905,0.0002364368989817481,0.8732885200672362,left_images/camera_left_117.png,right_images/camera_right_117.png
2025-05-07 16:11:17,5.569843053817749,118,-0.09674927,0.16642375,0.10739792,-0.66191226,-0.36996436,0.3471838,5.1673254e-07,0.035944834,-0.011025721,0.012906505,0.8005701266345726,-0.32969805569904037,0.5003865150147202,0.5268137492821319,0.7851845574440252,-0.32550343211513666,-0.285577915651066,0.5241988199335275,0.8022847694383147,-0.0009048877,1.9450114e-05,0.10708708,0.0007052483,0.00011427709,-0.014008863,1.040275,-0.045236766,-4.4887483e-06,0.00473179,0.8732882657492821,0.0006778702597101361,-0.4872033922260008,-0.0007071691751311619,0.9999997422947187,0.00012378309231839767,0.4872033505799905,0.0002364368989817481,0.8732885200672362,left_images/camera_left_118.png,right_images/camera_right_118.png
2025-05-07 16:11:17,5.6174726486206055,119,-0.09862971,0.17696321,0.1073956,-0.6469774,-0.37529564,0.34904417,4.968534e-07,0.035920046,-0.0120586,0.013107529,0.8053209550200197,-0.3214795067133673,0.49810549702746076,0.5151366703340645,0.795308093886364,-0.319561021834597,-0.29341501373102397,0.5139415945048315,0.8060841563726796,-0.0009048853,1.9455088e-05,0.10708708,0.0007052315,0.00011424013,-0.014008863,1.0402986,-0.045236766,-4.4887483e-06,0.00473179,0.8732882657492821,0.0006778702597101361,-0.4872033922260008,-0.0007071691751311619,0.9999997422947187,0.00012378309231839767,0.4872033505799905,0.0002364368989817481,0.8732885200672362,left_images/camera_left_119.png,right_images/camera_right_119.png
2025-05-07 16:11:17,5.671247959136963,120,-0.10034534,0.18726927,0.10745306,-0.625327,-0.3816213,0.3498705,4.7098973e-07,0.035907708,-0.013057994,0.013236485,0.8127811938133439,-0.30885665310396504,0.49395779052138933,0.49781863571436347,0.8086281928712512,-0.31352360617545977,-0.30259434383154893,0.5007274842937942,0.8109923856325426,-0.00090491923,1.9453691e-05,0.1070871,0.000705231,0.00011431072,-0.014008835,1.0448971,-0.045236737,-4.4924736e-06,0.00473179,0.8732882657492821,0.0006778702597101361,-0.4872033922260008,-0.0007071691751311619,0.9999997422947187,0.00012378309231839767,0.4872033505799905,0.0002364368989817481,0.8732885200672362,left_images/camera_left_120.png,right_images/camera_right_120.png
2025-05-07 16:11:17,5.730897903442383,121,-0.10130181,0.19709104,0.10757934,-0.601531,-0.3899286,0.35001072,4.6617595e-07,0.035924315,-0.013990459,0.013271081,0.8212532134178313,-0.2936987371875209,0.4891668541769177,0.47802299190594294,0.8222534430821147,-0.3088580491891035,-0.3115079110715763,0.4874836685613821,0.8156730314444384,-0.00090489566,1.9467852e-05,0.107087076,0.000705215,0.000114262744,-0.014008863,1.040776,-0.045236766,-4.485023e-06,0.00473179,0.8732882657492821,0.0006778702597101361,-0.4872033922260008,-0.0007071691751311619,0.9999997422947187,0.00012378309231839767,0.4872033505799905,0.0002364368989817481,0.8732885200672362,left_images/camera_left_121.png,right_images/camera_right_121.png
2025-05-07 16:11:17,5.78321099281311,122,-0.10132918,0.20565881,0.10775523,-0.57807696,-0.3985068,0.3500903,8.460013e-07,0.035989072,-0.014795791,0.01319976,0.8299772723150196,-0.27830908488980316,0.4834064342851884,0.4578884925428311,0.8348656832376754,-0.3055117335699943,-0.31855275204802974,0.47491403876900695,0.8203540698641878,-0.00090489327,1.9475154e-05,0.107087076,0.0007051979,0.00011422577,-0.014008863,1.0404688,-0.04523681,-4.3778145e-06,0.0047319075,0.8732882938074247,0.0006779720216289063,-0.48720334179155106,-0.0007072001559188428,0.9999997422538206,0.00012393640224112306,0.48720330024216435,0.00023631807002538519,0.8732885481826229,left_images/camera_left_122.png,right_images/camera_right_122.png
2025-05-07 16:11:17,5.8277623653411865,123,-0.10052071,0.21385919,0.10800764,-0.5489887,-0.406707,0.34975514,1.7003952e-06,0.036121458,-0.015581689,0.012983441,0.8409247770578825,-0.2600778580116341,0.47455771735609886,0.43285533759077455,0.8495765262388115,-0.30142326184813706,-0.3247795807148708,0.4588891302221859,0.8270060399504942,-0.00090489327,1.9476882e-05,0.107087076,0.000705207,0.00011427622,-0.014008891,1.0407915,-0.04523681,-4.3778145e-06,0.0047319075,0.8732882938074247,0.0006779720216289063,-0.48720334179155106,-0.0007072001559188428,0.9999997422538206,0.00012393640224112306,0.48720330024216435,0.00023631807002538519,0.8732885481826229,left_images/camera_left_123.png,right_images/camera_right_123.png
2025-05-07 16:11:17,5.882120370864868,124,-0.099057764,0.22084081,0.10829161,-0.5228114,-0.41093725,0.3517811,2.4389715e-06,0.0363104,-0.016302226,0.012661146,0.8515857797321799,-0.24591405797399152,0.4629556521403527,0.41018789063156674,0.8625003234182252,-0.2963765957066828,-0.32641622836060225,0.4422888967566572,0.8353639791543671,-0.00090489327,1.9482064e-05,0.107087076,0.000705216,0.0001142392,-0.014008891,1.0401956,-0.04523681,-4.3778145e-06,0.0047319075,0.8732882938074247,0.0006779720216289063,-0.48720334179155106,-0.0007072001559188428,0.9999997422538206,0.00012393640224112306,0.48720330024216435,0.00023631807002538519,0.8732885481826229,left_images/camera_left_124.png,right_images/camera_right_124.png
2025-05-07 16:11:17,5.939480304718018,125,-0.09681428,0.22747146,0.10857231,-0.49628055,-0.41532686,0.35796767,3.9096603e-06,0.0366088,-0.016973652,0.012277001,0.8642381570316028,-0.23135386782963116,0.44673011513763905,0.3856691121068183,0.8748666360297265,-0.29303191827643693,-0.3230352053528486,0.4255393718591731,0.845319169959101,-0.00090489327,1.9483798e-05,0.107087076,0.000705225,0.00011428966,-0.014008919,1.0401561,-0.04523681,-4.3778145e-06,0.0047319075,0.8732882938074247,0.0006779720216289063,-0.48720334179155106,-0.0007072001559188428,0.9999997422538206,0.00012393640224112306,0.48720330024216435,0.00023631807002538519,0.8732885481826229,left_images/camera_left_125.png,right_images/camera_right_125.png
2025-05-07 16:11:18,5.991811037063599,126,-0.094326444,0.23342574,0.108835846,-0.47422466,-0.41974014,0.36544666,4.1328763e-06,0.036921937,-0.01757368,0.0119019365,0.8755415448375049,-0.21899270642482555,0.43066134931786687,0.3643638650060262,0.8846531043909117,-0.2909086777141465,-0.31727902096014143,0.41162006683864794,0.8543435745847927,-0.00090489327,1.948898e-05,0.107087076,0.0007052341,0.000114252645,-0.014008919,1.0399476,-0.04523681,-4.3778145e-06,0.0047319075,0.8732882938074247,0.0006779720216289063,-0.48720334179155106,-0.0007072001559188428,0.9999997422538206,0.00012393640224112306,0.48720330024216435,0.00023631807002538519,0.8732885481826229,left_images/camera_left_126.png,right_images/camera_right_126.png
2025-05-07 16:11:18,6.043001651763916,127,-0.09203174,0.23948523,0.10915778,-0.45617965,-0.423055,0.37462908,4.3054683e-06,0.03718598,-0.018219145,0.011503242,0.8855618293190547,-0.20967520868399225,0.4145076034482519,0.34639548057201697,0.8926167089006541,-0.288523104847161,-0.3095002705852943,0.39908860902647764,0.8630978302909471,-0.00090489327,1.9494772e-05,0.107087076,0.0007052437,0.00011421561,-0.014008919,1.0398651,-0.045236807,-4.3706464e-06,0.0047319075,0.8732882658421983,0.000677686751569686,-0.48720339231474225,-0.0007070864507547659,0.9999997423814585,0.00012355471565760577,0.48720335053350877,0.00023659603409425644,0.8732885200500689,left_images/camera_left_127.png,right_images/camera_right_127.png
2025-05-07 16:11:18,6.085995197296143,128,-0.090048715,0.24512506,0.10955671,-0.4413827,-0.42460036,0.38236958,3.6581582e-06,0.03735447,-0.01887766,0.011067714,0.8934056076154344,-0.20315988238022675,0.40069000795196896,0.33217578652884905,0.8992201691808546,-0.284714478350322,-0.3024659768060485,0.38746503007317695,0.8708531353478353,-0.0009048867,1.9490499e-05,0.107087076,0.0007052211,0.00011418929,-0.014008947,1.0425358,-0.045236807,-4.3706464e-06,0.0047319075,0.8732882658421983,0.000677686751569686,-0.48720339231474225,-0.0007070864507547659,0.9999997423814585,0.00012355471565760577,0.48720335053350877,0.00023659603409425644,0.8732885200500689,left_images/camera_left_128.png,right_images/camera_right_128.png
2025-05-07 16:11:18,6.136972665786743,129,-0.08795075,0.25068784,0.11006754,-0.42902195,-0.4229355,0.39078328,3.515916e-06,0.037476566,-0.019611446,0.010527061,0.9002775491856613,-0.2003284359124839,0.38648266739546966,0.32103692345418416,0.9051437961872174,-0.278657499455632,-0.2939993677056665,0.3749442971811294,0.8791934632377663,-0.00090488244,1.9484207e-05,0.107087076,0.0007052151,0.00011423081,-0.014009003,1.0401052,-0.04523681,-4.3778145e-06,0.0047319075,0.8732882938074247,0.0006779720216289063,-0.48720334179155106,-0.0007072001559188428,0.9999997422538206,0.00012393640224112306,0.48720330024216435,0.00023631807002538519,0.8732885481826229,left_images/camera_left_129.png,right_images/camera_right_129.png
2025-05-07 16:11:18,6.189806938171387,130,-0.08562488,0.2557415,0.11061327,-0.4190089,-0.42066222,0.39938375,3.3446065e-06,0.03758715,-0.020314865,0.009947708,0.9063631194201625,-0.19912197049297717,0.37263432024163623,0.3120957357374894,0.910034253756181,-0.2728257845675627,-0.2847843877206536,0.36357681149576204,0.8869666028961563,-0.0009048656,1.9475596e-05,0.107087106,0.0007052237,0.00011429234,-0.0140090585,1.0450902,-0.04523681,-4.385265e-06,0.0047318777,0.8732882938074247,0.0006779720216289063,-0.48720334179155106,-0.0007072001559188428,0.9999997422538206,0.00012393640224112306,0.48720330024216435,0.00023631807002538519,0.8732885481826229,left_images/camera_left_130.png,right_images/camera_right_130.png
2025-05-07 16:11:18,6.243745803833008,131,-0.08292381,0.26065937,0.11120359,-0.41008458,-0.41669473,0.40948606,3.672786e-06,0.03772209,-0.021044282,0.009303183,0.9124447978673783,-0.1997555354843008,0.35713053200215145,0.3044093344373092,0.9145941586023594,-0.26618129565744675,-0.27345831117776237,0.3515896060662529,0.8953241317835589,-0.0009048797,1.948873e-05,0.107087076,0.0007052334,0.00011424427,-0.014009031,1.0402057,-0.04523681,-4.3778145e-06,0.0047319075,0.8732882938074247,0.0006779720216289063,-0.48720334179155106,-0.0007072001559188428,0.9999997422538206,0.00012393640224112306,0.48720330024216435,0.00023631807002538519,0.8732885481826229,left_images/camera_left_131.png,right_images/camera_right_131.png
2025-05-07 16:11:18,6.298404216766357,132,-0.0801846,0.2652042,0.11178351,-0.40114558,-0.41310605,0.4193631,3.598996e-06,0.03786442,-0.021731954,0.008666165,0.9183187378126708,-0.19984043318328865,0.34169357185533755,0.29668949028100844,0.9189168261265849,-0.25993694046487353,-0.2620420617743239,0.3400818547446472,0.9031490961820767,-0.0009048823,1.9496072e-05,0.107087076,0.00070524175,0.000114207236,-0.014009031,1.0397794,-0.045236807,-4.3706464e-06,0.0047319075,0.8732882658421983,0.000677686751569686,-0.48720339231474225,-0.0007070864507547659,0.9999997423814585,0.00012355471565760577,0.48720335053350877,0.00023659603409425644,0.8732885200500689,left_images/camera_left_132.png,right_images/camera_right_132.png
2025-05-07 16:11:18,6.356748342514038,133,-0.07724098,0.2696895,0.112380035,-0.39406884,-0.40858635,0.4319053,4.0377245e-06,0.038035046,-0.022430595,0.008004171,0.9242516605480842,-0.20170294538799505,0.3241524175382883,0.29041706944012113,0.9225756397871289,-0.25399235155646316,-0.2478241185839691,0.32889224784597404,0.9112700453514873,-0.00090487575,1.94918e-05,0.107087076,0.0007052191,0.00011418092,-0.0140090585,1.0427017,-0.045236807,-4.3706464e-06,0.0047319075,0.8732882658421983,0.000677686751569686,-0.48720339231474225,-0.0007070864507547659,0.9999997423814585,0.00012355471565760577,0.48720335053350877,0.00023659603409425644,0.8732885200500689,left_images/camera_left_133.png,right_images/camera_right_133.png
2025-05-07 16:11:18,6.401288747787476,134,-0.074543454,0.27429911,0.1130028,-0.38958752,-0.40427193,0.44622,4.080365e-06,0.03817348,-0.023146031,0.007353303,0.9296048334939236,-0.2050101481938049,0.3062771501145472,0.28612104134397265,0.925247370329721,-0.2491024957686636,-0.23231358816258557,0.3191992212325878,0.9187721447233446,-0.0009048715,1.9485507e-05,0.107087076,0.0007052133,0.000114222436,-0.014009114,1.0406305,-0.045236807,-4.3706464e-06,0.0047319075,0.8732882658421983,0.000677686751569686,-0.48720339231474225,-0.0007070864507547659,0.9999997423814585,0.00012355471565760577,0.48720335053350877,0.00023659603409425644,0.8732885200500689,left_images/camera_left_134.png,right_images/camera_right_134.png
2025-05-07 16:11:18,6.455072641372681,135,-0.072754376,0.2785187,0.11357674,-0.38649046,-0.40115923,0.45953158,3.5055639e-06,0.03823206,-0.023792021,0.0068102013,0.9339176516141543,-0.20786218215597674,0.29084554875888813,0.2828414882388085,0.927199847531789,-0.24556289472940157,-0.21862870930954878,0.31159870982785337,0.924720353133453,-0.0009048786,1.9480418e-05,0.10708712,0.00070519146,0.00011419609,-0.014009118,1.0471977,-0.045236778,-4.370426e-06,0.0047318777,0.8732882660231456,0.000677425363747502,-0.4872033923539163,-0.0007068250629354219,0.9999997425746453,0.00012348673410869486,0.487203350588456,0.00023652805255626453,0.8732885200378294,left_images/camera_left_135.png,right_images/camera_right_135.png
2025-05-07 16:11:18,6.501504182815552,136,-0.07180299,0.28234598,0.11406156,-0.38477427,-0.39912388,0.47179335,2.9045018e-06,0.038236763,-0.024357757,0.0063998075,0.9372958315894497,-0.210402322503969,0.277862172254479,0.28055505316474194,0.928486945525772,-0.2433122564359448,-0.20679793574591304,0.30601120024136036,0.9292963785026127,-0.0009048651,1.9482593e-05,0.107087076,0.0007051627,0.00011417909,-0.014009146,1.0405508,-0.045236807,-4.370426e-06,0.0047319075,0.8732882660231456,0.000677425363747502,-0.4872033923539163,-0.0007068250629354219,0.9999997425746453,0.00012348673410869486,0.487203350588456,0.00023652805255626453,0.8732885200378294,left_images/camera_left_136.png,right_images/camera_right_136.png
