jiaqis7/OS_Teleop_Extension/demo_2/teleop_log.csv
Epoch Time (Seconds),Time (Seconds),Frame Number,PSM1_joint_1,PSM1_joint_2,PSM1_joint_3,PSM1_joint_4,PSM1_joint_5,PSM1_joint_6,PSM1_jaw_angle,PSM1_ee_x,PSM1_ee_y,PSM1_ee_z,"PSM1_Orientation_Matrix_[1,1]","PSM1_Orientation_Matrix_[1,2]","PSM1_Orientation_Matrix_[1,3]","PSM1_Orientation_Matrix_[2,1]","PSM1_Orientation_Matrix_[2,2]","PSM1_Orientation_Matrix_[2,3]","PSM1_Orientation_Matrix_[3,1]","PSM1_Orientation_Matrix_[3,2]","PSM1_Orientation_Matrix_[3,3]",PSM2_joint_1,PSM2_joint_2,PSM2_joint_3,PSM2_joint_4,PSM2_joint_5,PSM2_joint_6,PSM2_jaw_angle,PSM2_ee_x,PSM2_ee_y,PSM2_ee_z,"PSM2_Orientation_Matrix_[1,1]","PSM2_Orientation_Matrix_[1,2]","PSM2_Orientation_Matrix_[1,3]","PSM2_Orientation_Matrix_[2,1]","PSM2_Orientation_Matrix_[2,2]","PSM2_Orientation_Matrix_[2,3]","PSM2_Orientation_Matrix_[3,1]","PSM2_Orientation_Matrix_[3,2]","PSM2_Orientation_Matrix_[3,3]",Camera Left,Camera Right
2025-05-02 13:26:27,0.0008990764617919922,1,-0.06551905,-0.00060200074,0.11403263,3.1915228e-05,-0.00022132552,0.012589421,0.7999763,0.035163008,7.427844e-05,0.0028102472,0.8382512390560692,0.00048389168160786885,0.5452839866251392,-4.228812720184113e-05,0.9999996609320662,-0.0008224034695882222,-0.5452841996910224,0.0006663216887988069,0.8382509752948267,-0.0009029348,1.7843004e-05,0.1070866,0.00070932554,0.00011936663,-0.014026774,0.80597985,-0.04523718,-4.143301e-06,0.0047324477,0.8732958835617347,0.0006827990205694836,-0.4871897305358831,-0.0007110816530025361,0.9999997391322627,0.00012687903322154847,0.4871896900766801,0.00023562874149264502,0.8732961412728699,left_images/camera_left_1.png,right_images/camera_right_1.png
2025-05-02 13:26:27,0.0459284782409668,2,-0.06551905,-0.00060199376,0.11403263,3.1905904e-05,-0.0002213237,0.012589421,0.7999763,0.035163008,7.427844e-05,0.0028102472,0.8382512390560692,0.00048389168160786885,0.5452839866251392,-4.228812720184113e-05,0.9999996609320662,-0.0008224034695882222,-0.5452841996910224,0.0006663216887988069,0.8382509752948267,-0.0009029348,1.7842636e-05,0.1070866,0.00070931856,0.00011936899,-0.014026774,0.80597985,-0.04523718,-4.143301e-06,0.0047324477,0.8732958835617347,0.0006827990205694836,-0.4871897305358831,-0.0007110816530025361,0.9999997391322627,0.00012687903322154847,0.4871896900766801,0.00023562874149264502,0.8732961412728699,left_images/camera_left_2.png,right_images/camera_right_2.png
2025-05-02 13:26:27,0.09520363807678223,3,-0.06551905,-0.0006019868,0.11403263,3.189658e-05,-0.00022132188,0.012589421,0.7999763,0.035163008,7.427844e-05,0.0028102472,0.8382512390560692,0.00048389168160786885,0.5452839866251392,-4.228812720184113e-05,0.9999996609320662,-0.0008224034695882222,-0.5452841996910224,0.0006663216887988069,0.8382509752948267,-0.0009029622,1.7810333e-05,0.1070866,0.00070936204,0.000119424934,-0.014026774,0.80597985,-0.045237143,-4.1810677e-06,0.0047323266,0.873295967684613,0.0006830898436891697,-0.4871895793364847,-0.0007113316961308046,0.9999997389355589,0.00012702768299292902,0.4871895389199296,0.00023562062646463063,0.8732962256015464,left_images/camera_left_3.png,right_images/camera_right_3.png
2025-05-02 13:26:27,0.14614081382751465,4,-0.06551905,-0.0006019798,0.11403263,3.1887255e-05,-0.00022132006,0.012589421,0.7999763,0.035163008,7.427844e-05,0.0028102472,0.8382512390560692,0.00048389168160786885,0.5452839866251392,-4.228812720184113e-05,0.9999996609320662,-0.0008224034695882222,-0.5452841996910224,0.0006663216887988069,0.8382509752948267,-0.00090296066,1.7799044e-05,0.1070866,0.0007093433,0.00011946663,-0.014026774,0.80597985,-0.045237143,-4.1810677e-06,0.0047323266,0.873295967684613,0.0006830898436891697,-0.4871895793364847,-0.0007113316961308046,0.9999997389355589,0.00012702768299292902,0.4871895389199296,0.00023562062646463063,0.8732962256015464,left_images/camera_left_4.png,right_images/camera_right_4.png
2025-05-02 13:26:27,0.1918354034423828,5,-0.06551905,-0.0006019728,0.11403263,3.187793e-05,-0.00022131825,0.012589421,0.7999763,0.035163008,7.427844e-05,0.0028102472,0.8382512390560692,0.00048389168160786885,0.5452839866251392,-4.228812720184113e-05,0.9999996609320662,-0.0008224034695882222,-0.5452841996910224,0.0006663216887988069,0.8382509752948267,-0.0009029584,1.7795857e-05,0.1070866,0.0007093249,0.00011942168,-0.014026774,0.80597985,-0.045237143,-4.1810677e-06,0.0047323266,0.873295967684613,0.0006830898436891697,-0.4871895793364847,-0.0007113316961308046,0.9999997389355589,0.00012702768299292902,0.4871895389199296,0.00023562062646463063,0.8732962256015464,left_images/camera_left_5.png,right_images/camera_right_5.png
2025-05-02 13:26:27,0.23654484748840332,6,-0.06551905,-0.0006019658,0.11403263,3.1868607e-05,-0.00022131643,0.012589421,0.7999763,0.035163008,7.427844e-05,0.0028102472,0.8382512390560692,0.00048389168160786885,0.5452839866251392,-4.228812720184113e-05,0.9999996609320662,-0.0008224034695882222,-0.5452841996910224,0.0006663216887988069,0.8382509752948267,-0.0009029594,1.7786819e-05,0.1070866,0.00070935616,0.00011948335,-0.01402677,0.80597985,-0.04523714,-4.1887965e-06,0.004732323,0.8732959956142031,0.0006834238402187591,-0.48718952880378336,-0.0007114941330968722,0.9999997387698268,0.00012742204148713545,0.4871894886184393,0.00023535533286641921,0.8732962537349916,left_images/camera_left_6.png,right_images/camera_right_6.png
2025-05-02 13:26:27,0.2826716899871826,7,-0.06551905,-0.00060195883,0.11403263,3.1859283e-05,-0.0002213146,0.012589421,0.7999763,0.035163008,7.427844e-05,0.0028102472,0.8382512390560692,0.00048389168160786885,0.5452839866251392,-4.228812720184113e-05,0.9999996609320662,-0.0008224034695882222,-0.5452841996910224,0.0006663216887988069,0.8382509752948267,-0.0009029555,1.7787932e-05,0.1070866,0.00070936664,0.0001195331,-0.01402677,0.80597985,-0.04523714,-4.1887965e-06,0.004732323,0.8732959956142031,0.0006834238402187591,-0.48718952880378336,-0.0007114941330968722,0.9999997387698268,0.00012742204148713545,0.4871894886184393,0.00023535533286641921,0.8732962537349916,left_images/camera_left_7.png,right_images/camera_right_7.png
2025-05-02 13:26:27,0.3234119415283203,8,-0.06551905,-0.00060195185,0.11403263,3.184996e-05,-0.00022131279,0.012589421,0.7999763,0.035163008,7.427844e-05,0.0028102472,0.8382512390560692,0.00048389168160786885,0.5452839866251392,-4.228812720184113e-05,0.9999996609320662,-0.0008224034695882222,-0.5452841996910224,0.0006663216887988069,0.8382509752948267,-0.00090295484,1.77932e-05,0.1070866,0.0007093771,0.00011949622,-0.01402677,0.80597985,-0.04523714,-4.1887965e-06,0.004732323,0.8732959956142031,0.0006834238402187591,-0.48718952880378336,-0.0007114941330968722,0.9999997387698268,0.00012742204148713545,0.4871894886184393,0.00023535533286641921,0.8732962537349916,left_images/camera_left_8.png,right_images/camera_right_8.png
2025-05-02 13:26:27,0.367145299911499,9,-0.06551905,-0.00060194486,0.11403263,3.1840635e-05,-0.00022131097,0.012589421,0.7999763,0.035163008,7.427844e-05,0.0028102472,0.8382512390560692,0.00048389168160786885,0.5452839866251392,-4.228812720184113e-05,0.9999996609320662,-0.0008224034695882222,-0.5452841996910224,0.0006663216887988069,0.8382509752948267,-0.00090295484,1.7798959e-05,0.1070866,0.0007093876,0.00011945931,-0.01402677,0.80597985,-0.045237143,-4.1810677e-06,0.0047323266,0.873295967684613,0.0006830898436891697,-0.4871895793364847,-0.0007113316961308046,0.9999997389355589,0.00012702768299292902,0.4871895389199296,0.00023562062646463063,0.8732962256015464,left_images/camera_left_9.png,right_images/camera_right_9.png
2025-05-02 13:26:27,0.40936851501464844,10,-0.06551905,-0.0006019379,0.11403263,3.183131e-05,-0.00022130915,0.012589421,0.7999763,0.035162993,7.427348e-05,0.0028102747,0.8382512264560262,0.00048365402668622157,0.5452840062057116,-4.200436635326397e-05,0.9999996609437356,-0.000822403822566885,-0.5452842190826737,0.0006664767037455753,0.8382509625572776,-0.0009029531,1.7796601e-05,0.1070866,0.0007093692,0.000119414355,-0.01402677,0.80597985,-0.045237143,-4.1810677e-06,0.0047323266,0.873295967684613,0.0006830898436891697,-0.4871895793364847,-0.0007113316961308046,0.9999997389355589,0.00012702768299292902,0.4871895389199296,0.00023562062646463063,0.8732962256015464,left_images/camera_left_10.png,right_images/camera_right_10.png
2025-05-02 13:26:28,0.4498250484466553,11,-0.06551905,-0.0006019247,0.11403263,3.178874e-05,-0.00022131162,0.012589449,0.7999763,0.035162997,7.427293e-05,0.0028102747,0.8382514445749318,0.0004835908313353349,0.5452836709529704,-4.1999710276678214e-05,0.9999996610329484,-0.00082229557474039,-0.5452838837743729,0.0006663886971950776,0.8382511807459861,-0.00090294704,1.7790575e-05,0.1070866,0.00070935045,0.00011945606,-0.01402677,0.80597985,-0.045237143,-4.1810677e-06,0.0047323266,0.873295967684613,0.0006830898436891697,-0.4871895793364847,-0.0007113316961308046,0.9999997389355589,0.00012702768299292902,0.4871895389199296,0.00023562062646463063,0.8732962256015464,left_images/camera_left_11.png,right_images/camera_right_11.png
2025-05-02 13:26:28,0.4924492835998535,12,-0.06551905,-0.0006019267,0.11403263,3.17595e-05,-0.00022127951,0.012589449,0.7999763,0.035162997,7.427293e-05,0.0028102747,0.8382514445749318,0.0004835908313353349,0.5452836709529704,-4.1999710276678214e-05,0.9999996610329484,-0.00082229557474039,-0.5452838837743729,0.0006663886971950776,0.8382511807459861,-0.00090294477,1.778739e-05,0.1070866,0.00070933206,0.00011941111,-0.01402677,0.80597985,-0.045237143,-4.1810677e-06,0.0047323266,0.873295967684613,0.0006830898436891697,-0.4871895793364847,-0.0007113316961308046,0.9999997389355589,0.00012702768299292902,0.4871895389199296,0.00023562062646463063,0.8732962256015464,left_images/camera_left_12.png,right_images/camera_right_12.png
2025-05-02 13:26:28,0.5356347560882568,13,-0.06551905,-0.0006019302,0.11403263,3.1730266e-05,-0.0002212474,0.012589449,0.7999763,0.035162997,7.427293e-05,0.0028102747,0.8382514445749318,0.0004835908313353349,0.5452836709529704,-4.1999710276678214e-05,0.9999996610329484,-0.00082229557474039,-0.5452838837743729,0.0006663886971950776,0.8382511807459861,-0.0009029387,1.7781364e-05,0.1070866,0.0007093133,0.000119452816,-0.01402677,0.80597985,-0.045237154,-4.181409e-06,0.0047323545,0.8732960522199146,0.0006827690026834986,-0.48718942825517164,-0.0007110108463676519,0.9999997391743424,0.00012694417365111888,0.48718938785721555,0.00023553712202324062,0.8732963098980641,left_images/camera_left_13.png,right_images/camera_right_13.png
2025-05-02 13:26:28,0.5801875591278076,14,-0.06551905,-0.0006019337,0.11403263,3.170103e-05,-0.0002212153,0.012589449,0.7999763,0.035162997,7.427293e-05,0.0028102747,0.8382514445749318,0.0004835908313353349,0.5452836709529704,-4.1999710276678214e-05,0.9999996610329484,-0.00082229557474039,-0.5452838837743729,0.0006663886971950776,0.8382511807459861,-0.0009029594,1.7824404e-05,0.1070866,0.00070929056,0.000119370714,-0.014026788,0.80597985,-0.045237157,-4.1817107e-06,0.0047323527,0.8732962073456633,0.0006828056361031528,-0.4871891501379558,-0.0007110066907507635,0.9999997391668224,0.00012702666214391733,0.48718910979738245,0.00023546284312720288,0.8732964650404142,left_images/camera_left_14.png,right_images/camera_right_14.png
2025-05-02 13:26:28,0.6327133178710938,15,-0.06551905,-0.0006019372,0.11403263,3.1671796e-05,-0.0002211832,0.012589449,0.7999763,0.035162997,7.427293e-05,0.0028102747,0.8382514445749318,0.0004835908313353349,0.5452836709529704,-4.1999710276678214e-05,0.9999996610329484,-0.00082229557474039,-0.5452838837743729,0.0006663886971950776,0.8382511807459861,-0.00090296083,1.7837334e-05,0.1070866,0.0007092766,0.000119333876,-0.014026788,0.80597985,-0.045237157,-4.1817107e-06,0.0047323527,0.8732962073456633,0.0006828056361031528,-0.4871891501379558,-0.0007110066907507635,0.9999997391668224,0.00012702666214391733,0.48718910979738245,0.00023546284312720288,0.8732964650404142,left_images/camera_left_15.png,right_images/camera_right_15.png
2025-05-02 13:26:28,0.6782627105712891,16,-0.06551905,-0.0006019407,0.11403263,3.164256e-05,-0.0002211511,0.012589449,0.7999763,0.035162997,7.427293e-05,0.0028102747,0.8382514445749318,0.0004835908313353349,0.5452836709529704,-4.1999710276678214e-05,0.9999996610329484,-0.00082229557474039,-0.5452838837743729,0.0006663886971950776,0.8382511807459861,-0.00090295734,1.7843067e-05,0.1070866,0.0007092626,0.00011929703,-0.014026788,0.80597985,-0.045237157,-4.1817107e-06,0.0047323527,0.8732962073456633,0.0006828056361031528,-0.4871891501379558,-0.0007110066907507635,0.9999997391668224,0.00012702666214391733,0.48718910979738245,0.00023546284312720288,0.8732964650404142,left_images/camera_left_16.png,right_images/camera_right_16.png
2025-05-02 13:26:28,0.7342696189880371,17,-0.06551905,-0.00060194416,0.11403263,3.1613326e-05,-0.000221119,0.012589449,0.7999763,0.035162997,7.427293e-05,0.0028102747,0.8382514445749318,0.0004835908313353349,0.5452836709529704,-4.1999710276678214e-05,0.9999996610329484,-0.00082229557474039,-0.5452838837743729,0.0006663886971950776,0.8382511807459861,-0.00090295385,1.78488e-05,0.1070866,0.00070924865,0.000119260185,-0.014026788,0.80597985,-0.045237157,-4.1817107e-06,0.0047323527,0.8732962073456633,0.0006828056361031528,-0.4871891501379558,-0.0007110066907507635,0.9999997391668224,0.00012702666214391733,0.48718910979738245,0.00023546284312720288,0.8732964650404142,left_images/camera_left_17.png,right_images/camera_right_17.png
2025-05-02 13:26:28,0.788210391998291,18,-0.06551905,-0.00060194766,0.11403263,3.158409e-05,-0.0002210869,0.012589449,0.7999763,0.035162997,7.427293e-05,0.0028102747,0.8382514445749318,0.0004835908313353349,0.5452836709529704,-4.1999710276678214e-05,0.9999996610329484,-0.00082229557474039,-0.5452838837743729,0.0006663886971950776,0.8382511807459861,-0.00090295036,1.7854534e-05,0.1070866,0.0007092347,0.00011922334,-0.014026788,0.80597985,-0.045237157,-4.1817107e-06,0.0047323527,0.8732962073456633,0.0006828056361031528,-0.4871891501379558,-0.0007110066907507635,0.9999997391668224,0.00012702666214391733,0.48718910979738245,0.00023546284312720288,0.8732964650404142,left_images/camera_left_18.png,right_images/camera_right_18.png
2025-05-02 13:26:28,0.8434181213378906,19,-0.06551905,-0.00060195115,0.11403263,3.1554857e-05,-0.0002210548,0.012589449,0.7999763,0.035162997,7.427293e-05,0.0028102747,0.8382514445749318,0.0004835908313353349,0.5452836709529704,-4.1999710276678214e-05,0.9999996610329484,-0.00082229557474039,-0.5452838837743729,0.0006663886971950776,0.8382511807459861,-0.00090294686,1.7860268e-05,0.1070866,0.0007092207,0.000119186494,-0.014026788,0.80597985,-0.045237157,-4.1817107e-06,0.0047323527,0.8732962073456633,0.0006828056361031528,-0.4871891501379558,-0.0007110066907507635,0.9999997391668224,0.00012702666214391733,0.48718910979738245,0.00023546284312720288,0.8732964650404142,left_images/camera_left_19.png,right_images/camera_right_19.png
2025-05-02 13:26:28,0.8998701572418213,20,-0.06551905,-0.00060195464,0.11403263,3.1525622e-05,-0.0002210227,0.012589449,0.7999763,0.035162997,7.427293e-05,0.0028102747,0.8382514445749318,0.0004835908313353349,0.5452836709529704,-4.1999710276678214e-05,0.9999996610329484,-0.00082229557474039,-0.5452838837743729,0.0006663886971950776,0.8382511807459861,-0.0009029434,1.7866001e-05,0.1070866,0.00070920674,0.00011914965,-0.014026788,0.80597985,-0.045237157,-4.1817107e-06,0.0047323527,0.8732962073456633,0.0006828056361031528,-0.4871891501379558,-0.0007110066907507635,0.9999997391668224,0.00012702666214391733,0.48718910979738245,0.00023546284312720288,0.8732964650404142,left_images/camera_left_20.png,right_images/camera_right_20.png
2025-05-02 13:26:28,0.962343692779541,21,-0.06551905,-0.00060195813,0.11403263,3.1496387e-05,-0.0002209906,0.012589449,0.7999763,0.035162997,7.427293e-05,0.0028102747,0.8382514445749318,0.0004835908313353349,0.5452836709529704,-4.1999710276678214e-05,0.9999996610329484,-0.00082229557474039,-0.5452838837743729,0.0006663886971950776,0.8382511807459861,-0.0009029399,1.7871735e-05,0.1070866,0.00070919277,0.0001191128,-0.014026788,0.80597985,-0.045237157,-4.1817107e-06,0.0047323527,0.8732962073456633,0.0006828056361031528,-0.4871891501379558,-0.0007110066907507635,0.9999997391668224,0.00012702666214391733,0.48718910979738245,0.00023546284312720288,0.8732964650404142,left_images/camera_left_21.png,right_images/camera_right_21.png
2025-05-02 13:26:28,1.0040256977081299,22,-0.06551905,-0.0006019616,0.11403263,3.1467152e-05,-0.00022095849,0.012589449,0.7999763,0.035163,7.4266725e-05,0.002810272,0.8382515068862548,0.0004834415094705061,0.5452835752956712,-4.2044305374710496e-05,0.9999996613124531,-0.0008219533169608536,-0.545283787981267,0.0006660775373770459,0.8382512433068708,-0.0009029364,1.7877468e-05,0.1070866,0.0007091788,0.00011907596,-0.014026788,0.80597985,-0.045237154,-4.159857e-06,0.0047324477,0.8732960242838773,0.0006824440758895186,-0.48718947878629004,-0.0007108574791194037,0.999999739333062,0.00012655217392024514,0.48718943815688165,0.00023580477439448644,0.873296281764952,left_images/camera_left_22.png,right_images/camera_right_22.png
2025-05-02 13:26:28,1.0483248233795166,23,-0.06551905,-0.0006019618,0.11403263,3.148221e-05,-0.00022091893,0.012589477,0.7999763,0.035163,7.4266725e-05,0.002810272,0.8382515068862548,0.0004834415094705061,0.5452835752956712,-4.2044305374710496e-05,0.9999996613124531,-0.0008219533169608536,-0.545283787981267,0.0006660775373770459,0.8382512433068708,-0.0009029329,1.7883245e-05,0.1070866,0.00070919626,0.000119039025,-0.014026788,0.80597985,-0.045237154,-4.159857e-06,0.0047324477,0.8732960242838773,0.0006824440758895186,-0.48718947878629004,-0.0007108574791194037,0.999999739333062,0.00012655217392024514,0.48718943815688165,0.00023580477439448644,0.873296281764952,left_images/camera_left_23.png,right_images/camera_right_23.png
2025-05-02 13:26:28,1.0945982933044434,24,-0.06551905,-0.0006019618,0.11403263,3.149491e-05,-0.00022092897,0.012589477,0.7999763,0.035163,7.4266725e-05,0.002810272,0.8382515068862548,0.0004834415094705061,0.5452835752956712,-4.2044305374710496e-05,0.9999996613124531,-0.0008219533169608536,-0.545283787981267,0.0006660775373770459,0.8382512433068708,-0.0009029294,1.788903e-05,0.1070866,0.0007092137,0.00011900209,-0.014026788,0.80597985,-0.045237154,-4.159857e-06,0.0047324477,0.8732960242838773,0.0006824440758895186,-0.48718947878629004,-0.0007108574791194037,0.999999739333062,0.00012655217392024514,0.48718943815688165,0.00023580477439448644,0.873296281764952,left_images/camera_left_24.png,right_images/camera_right_24.png
2025-05-02 13:26:28,1.1376307010650635,25,-0.06551905,-0.0006019618,0.11403263,3.1507607e-05,-0.00022093901,0.012589477,0.7999763,0.035163,7.4266725e-05,0.002810272,0.8382515068862548,0.0004834415094705061,0.5452835752956712,-4.2044305374710496e-05,0.9999996613124531,-0.0008219533169608536,-0.545283787981267,0.0006660775373770459,0.8382512433068708,-0.0009029259,1.7894814e-05,0.1070866,0.0007092312,0.00011896516,-0.014026788,0.80597985,-0.045237154,-4.159857e-06,0.0047324477,0.8732960242838773,0.0006824440758895186,-0.48718947878629004,-0.0007108574791194037,0.999999739333062,0.00012655217392024514,0.48718943815688165,0.00023580477439448644,0.873296281764952,left_images/camera_left_25.png,right_images/camera_right_25.png
2025-05-02 13:26:28,1.1808788776397705,26,-0.06551905,-0.0006019618,0.11403263,3.1520303e-05,-0.00022094905,0.012589477,0.7999763,0.035163,7.4266725e-05,0.002810272,0.8382515068862548,0.0004834415094705061,0.5452835752956712,-4.2044305374710496e-05,0.9999996613124531,-0.0008219533169608536,-0.545283787981267,0.0006660775373770459,0.8382512433068708,-0.0009029224,1.7900598e-05,0.1070866,0.00070924865,0.00011892823,-0.014026788,0.80597985,-0.045237154,-4.159857e-06,0.0047324477,0.8732960242838773,0.0006824440758895186,-0.48718947878629004,-0.0007108574791194037,0.999999739333062,0.00012655217392024514,0.48718943815688165,0.00023580477439448644,0.873296281764952,left_images/camera_left_26.png,right_images/camera_right_26.png
2025-05-02 13:26:28,1.2265732288360596,27,-0.06551905,-0.0006019618,0.11403263,3.1533e-05,-0.00022095909,0.012589477,0.7999763,0.035163,7.4266725e-05,0.002810272,0.8382515068862548,0.0004834415094705061,0.5452835752956712,-4.2044305374710496e-05,0.9999996613124531,-0.0008219533169608536,-0.545283787981267,0.0006660775373770459,0.8382512433068708,-0.0009029189,1.7906383e-05,0.1070866,0.0007092661,0.000118891294,-0.014026788,0.80597985,-0.045237154,-4.159857e-06,0.0047324477,0.8732960242838773,0.0006824440758895186,-0.48718947878629004,-0.0007108574791194037,0.999999739333062,0.00012655217392024514,0.48718943815688165,0.00023580477439448644,0.873296281764952,left_images/camera_left_27.png,right_images/camera_right_27.png
2025-05-02 13:26:28,1.2706468105316162,28,-0.06551905,-0.0006019618,0.11403263,3.154806e-05,-0.00022091952,0.012589505,0.7999763,0.035163,7.4266725e-05,0.002810272,0.8382515068862548,0.0004834415094705061,0.5452835752956712,-4.2044305374710496e-05,0.9999996613124531,-0.0008219533169608536,-0.545283787981267,0.0006660775373770459,0.8382512433068708,-0.00090291543,1.7912167e-05,0.1070866,0.0007092836,0.00011885436,-0.014026788,0.80597985,-0.045237154,-4.159857e-06,0.0047324477,0.8732960242838773,0.0006824440758895186,-0.48718947878629004,-0.0007108574791194037,0.999999739333062,0.00012655217392024514,0.48718943815688165,0.00023580477439448644,0.873296281764952,left_images/camera_left_28.png,right_images/camera_right_28.png
2025-05-02 13:26:28,1.3140461444854736,29,-0.06551905,-0.0006019618,0.11403263,3.156076e-05,-0.00022092956,0.012589505,0.7999763,0.035163,7.4266725e-05,0.002810272,0.8382515068862548,0.0004834415094705061,0.5452835752956712,-4.2044305374710496e-05,0.9999996613124531,-0.0008219533169608536,-0.545283787981267,0.0006660775373770459,0.8382512433068708,-0.00090291194,1.7917951e-05,0.1070866,0.00070930104,0.00011881743,-0.014026788,0.80597985,-0.045237154,-4.159857e-06,0.0047324477,0.8732960242838773,0.0006824440758895186,-0.48718947878629004,-0.0007108574791194037,0.999999739333062,0.00012655217392024514,0.48718943815688165,0.00023580477439448644,0.873296281764952,left_images/camera_left_29.png,right_images/camera_right_29.png
2025-05-02 13:26:28,1.3627650737762451,30,-0.06551905,-0.0006019618,0.11403263,3.1573458e-05,-0.0002209396,0.012589505,0.7999763,0.035163,7.4266725e-05,0.002810272,0.8382515068862548,0.0004834415094705061,0.5452835752956712,-4.2044305374710496e-05,0.9999996613124531,-0.0008219533169608536,-0.545283787981267,0.0006660775373770459,0.8382512433068708,-0.00090290845,1.7923736e-05,0.1070866,0.0007093185,0.000118780496,-0.014026788,0.80597985,-0.04523718,-4.1354815e-06,0.0047324477,0.873296052217236,0.0006826541457781277,-0.4871894284209252,-0.0007111383220032632,0.9999997391425248,0.000126479917096257,0.4871893876759607,0.00023600466034006111,0.8732963098729565,left_images/camera_left_30.png,right_images/camera_right_30.png
2025-05-02 13:26:29,1.4178051948547363,31,-0.06551905,-0.0006019618,0.11403263,3.1586154e-05,-0.00022094965,0.012589505,0.7999763,0.035163,7.4266725e-05,0.002810272,0.8382515068862548,0.0004834415094705061,0.5452835752956712,-4.2044305374710496e-05,0.9999996613124531,-0.0008219533169608536,-0.545283787981267,0.0006660775373770459,0.8382512433068708,-0.000902904,1.7918086e-05,0.1070866,0.00070933095,0.00011882208,-0.014026844,0.80597985,-0.04523718,-4.1354815e-06,0.0047324477,0.873296052217236,0.0006826541457781277,-0.4871894284209252,-0.0007111383220032632,0.9999997391425248,0.000126479917096257,0.4871893876759607,0.00023600466034006111,0.8732963098729565,left_images/camera_left_31.png,right_images/camera_right_31.png
2025-05-02 13:26:29,1.4668221473693848,32,-0.06551905,-0.0006019618,0.11403263,3.159885e-05,-0.00022095969,0.012589505,0.7999763,0.035162997,7.427293e-05,0.0028102747,0.8382514445749318,0.0004835908313353349,0.5452836709529704,-4.1999710276678214e-05,0.9999996610329484,-0.00082229557474039,-0.5452838837743729,0.0006663886971950776,0.8382511807459861,-0.0009028988,1.791161e-05,0.1070866,0.0007093434,0.00011886367,-0.0140269,0.80597985,-0.04523718,-4.1354815e-06,0.0047324477,0.873296052217236,0.0006826541457781277,-0.4871894284209252,-0.0007111383220032632,0.9999997391425248,0.000126479917096257,0.4871893876759607,0.00023600466034006111,0.8732963098729565,left_images/camera_left_32.png,right_images/camera_right_32.png
2025-05-02 13:26:29,1.5118138790130615,33,-0.06551905,-0.0006019651,0.11403263,3.1567244e-05,-0.00022097722,0.012589505,0.7999763,0.035162997,7.427293e-05,0.0028102747,0.8382514445749318,0.0004835908313353349,0.5452836709529704,-4.1999710276678214e-05,0.9999996610329484,-0.00082229557474039,-0.5452838837743729,0.0006663886971950776,0.8382511807459861,-0.00090289355,1.7905135e-05,0.1070866,0.00070935587,0.00011890526,-0.014026956,0.80597985,-0.04523718,-4.1354815e-06,0.0047324477,0.873296052217236,0.0006826541457781277,-0.4871894284209252,-0.0007111383220032632,0.9999997391425248,0.000126479917096257,0.4871893876759607,0.00023600466034006111,0.8732963098729565,left_images/camera_left_33.png,right_images/camera_right_33.png
2025-05-02 13:26:29,1.5555779933929443,34,-0.06551905,-0.0006019686,0.11403263,3.153801e-05,-0.0002209451,0.012589505,0.7999763,0.035163,7.4266725e-05,0.002810272,0.8382515068862548,0.0004834415094705061,0.5452835752956712,-4.2044305374710496e-05,0.9999996613124531,-0.0008219533169608536,-0.545283787981267,0.0006660775373770459,0.8382512433068708,-0.0009028883,1.789866e-05,0.1070866,0.0007093683,0.000118946846,-0.014027012,0.80597985,-0.04523718,-4.1354815e-06,0.0047324477,0.873296052217236,0.0006826541457781277,-0.4871894284209252,-0.0007111383220032632,0.9999997391425248,0.000126479917096257,0.4871893876759607,0.00023600466034006111,0.8732963098729565,left_images/camera_left_34.png,right_images/camera_right_34.png
2025-05-02 13:26:29,1.5977134704589844,35,-0.06551905,-0.0006019688,0.11403263,3.1550702e-05,-0.00022095515,0.012589505,0.7999763,0.035163,7.4266725e-05,0.002810272,0.8382515068862548,0.0004834415094705061,0.5452835752956712,-4.2044305374710496e-05,0.9999996613124531,-0.0008219533169608536,-0.545283787981267,0.0006660775373770459,0.8382512433068708,-0.00090288307,1.7892184e-05,0.1070866,0.0007093808,0.000118988435,-0.014027067,0.80597985,-0.04523718,-4.1354815e-06,0.0047324477,0.873296052217236,0.0006826541457781277,-0.4871894284209252,-0.0007111383220032632,0.9999997391425248,0.000126479917096257,0.4871893876759607,0.00023600466034006111,0.8732963098729565,left_images/camera_left_35.png,right_images/camera_right_35.png
2025-05-02 13:26:29,1.643669843673706,36,-0.06551905,-0.0006019688,0.11403263,3.1565763e-05,-0.00022091558,0.012589533,0.7999763,0.035163,7.4266725e-05,0.002810272,0.8382515068862548,0.0004834415094705061,0.5452835752956712,-4.2044305374710496e-05,0.9999996613124531,-0.0008219533169608536,-0.545283787981267,0.0006660775373770459,0.8382512433068708,-0.00090287783,1.7885708e-05,0.1070866,0.00070939324,0.000119030025,-0.014027123,0.80597985,-0.04523718,-4.1354815e-06,0.0047324477,0.873296052217236,0.0006826541457781277,-0.4871894284209252,-0.0007111383220032632,0.9999997391425248,0.000126479917096257,0.4871893876759607,0.00023600466034006111,0.8732963098729565,left_images/camera_left_36.png,right_images/camera_right_36.png
2025-05-02 13:26:29,1.6879069805145264,37,-0.06551905,-0.0006019688,0.11403263,3.1578464e-05,-0.00022092562,0.012589533,0.7999763,0.035163,7.4266725e-05,0.002810272,0.8382515068862548,0.0004834415094705061,0.5452835752956712,-4.2044305374710496e-05,0.9999996613124531,-0.0008219533169608536,-0.545283787981267,0.0006660775373770459,0.8382512433068708,-0.0009028726,1.7879232e-05,0.1070866,0.0007094057,0.000119071614,-0.014027179,0.80597985,-0.045237184,-4.1350922e-06,0.004732446,0.8732961792320661,0.000682651531109743,-0.487189200748089,-0.0007111957017020931,0.9999997391154161,0.00012637156968840646,0.4871891599156827,0.00023612705651527495,0.8732964369013906,left_images/camera_left_37.png,right_images/camera_right_37.png
2025-05-02 13:26:29,1.7312681674957275,38,-0.06551905,-0.0006019688,0.11403263,3.159116e-05,-0.00022093566,0.012589533,0.7999763,0.035163,7.4266725e-05,0.002810272,0.8382515068862548,0.0004834415094705061,0.5452835752956712,-4.2044305374710496e-05,0.9999996613124531,-0.0008219533169608536,-0.545283787981267,0.0006660775373770459,0.8382512433068708,-0.0009028712,1.7868611e-05,0.1070866,0.0007094118,0.0001190844,-0.014027207,0.80597985,-0.045237184,-4.1350922e-06,0.004732446,0.8732961792320661,0.000682651531109743,-0.487189200748089,-0.0007111957017020931,0.9999997391154161,0.00012637156968840646,0.4871891599156827,0.00023612705651527495,0.8732964369013906,left_images/camera_left_38.png,right_images/camera_right_38.png
2025-05-02 13:26:29,1.7791094779968262,39,-0.06551905,-0.0006019688,0.11403263,3.1603857e-05,-0.0002209457,0.012589533,0.7999763,0.035163,7.4266725e-05,0.002810272,0.8382515068862548,0.0004834415094705061,0.5452835752956712,-4.2044305374710496e-05,0.9999996613124531,-0.0008219533169608536,-0.545283787981267,0.0006660775373770459,0.8382512433068708,-0.00090287,1.78578e-05,0.1070866,0.0007094179,0.00011909717,-0.014027235,0.80597985,-0.045237184,-4.142127e-06,0.004732443,0.8732962219352592,0.0006827822888638489,-0.4871891240185358,-0.0007111141255623764,0.9999997391209527,0.00012678614623483876,0.4871890834884364,0.00023572520540932526,0.8732964796467032,left_images/camera_left_39.png,right_images/camera_right_39.png
2025-05-02 13:26:29,1.8338441848754883,40,-0.06551905,-0.0006019688,0.11403263,3.1616553e-05,-0.00022095574,0.012589533,0.7999763,0.035163,7.4266725e-05,0.002810272,0.8382515068862548,0.0004834415094705061,0.5452835752956712,-4.2044305374710496e-05,0.9999996613124531,-0.0008219533169608536,-0.545283787981267,0.0006660775373770459,0.8382512433068708,-0.00090287,1.7851082e-05,0.1070866,0.000709393,0.00011913888,-0.014027291,0.80597985,-0.045237184,-4.142127e-06,0.004732443,0.8732962219352592,0.0006827822888638489,-0.4871891240185358,-0.0007111141255623764,0.9999997391209527,0.00012678614623483876,0.4871890834884364,0.00023572520540932526,0.8732964796467032,left_images/camera_left_40.png,right_images/camera_right_40.png
2025-05-02 13:26:29,1.8897082805633545,41,-0.06551905,-0.0006019688,0.11403263,3.1631615e-05,-0.00022091618,0.012589561,0.7999763,0.035163,7.4266725e-05,0.002810272,0.8382515068862548,0.0004834415094705061,0.5452835752956712,-4.2044305374710496e-05,0.9999996613124531,-0.0008219533169608536,-0.545283787981267,0.0006660775373770459,0.8382512433068708,-0.00090287,1.7844548e-05,0.1070866,0.0007093681,0.0001191806,-0.014027347,0.80597985,-0.045237184,-4.142127e-06,0.004732443,0.8732962219352592,0.0006827822888638489,-0.4871891240185358,-0.0007111141255623764,0.9999997391209527,0.00012678614623483876,0.4871890834884364,0.00023572520540932526,0.8732964796467032,left_images/camera_left_41.png,right_images/camera_right_41.png
2025-05-02 13:26:29,1.9372179508209229,42,-0.06551905,-0.0006019688,0.11403263,3.1644315e-05,-0.00022092622,0.012589561,0.7999763,0.035163,7.4266725e-05,0.002810272,0.8382515068862548,0.0004834415094705061,0.5452835752956712,-4.2044305374710496e-05,0.9999996613124531,-0.0008219533169608536,-0.545283787981267,0.0006660775373770459,0.8382512433068708,-0.00090287,1.7838014e-05,0.1070866,0.0007093432,0.00011922232,-0.014027403,0.80597985,-0.045237184,-4.142127e-06,0.004732443,0.8732962219352592,0.0006827822888638489,-0.4871891240185358,-0.0007111141255623764,0.9999997391209527,0.00012678614623483876,0.4871890834884364,0.00023572520540932526,0.8732964796467032,left_images/camera_left_42.png,right_images/camera_right_42.png
2025-05-02 13:26:29,1.9793293476104736,43,-0.06551905,-0.0006019688,0.11403263,3.165701e-05,-0.00022093626,0.012589561,0.7999763,0.035163,7.4266725e-05,0.002810272,0.8382515068862548,0.0004834415094705061,0.5452835752956712,-4.2044305374710496e-05,0.9999996613124531,-0.0008219533169608536,-0.545283787981267,0.0006660775373770459,0.8382512433068708,-0.00090287,1.783148e-05,0.1070866,0.00070931826,0.00011926404,-0.014027459,0.80597985,-0.045237184,-4.142127e-06,0.004732443,0.8732962219352592,0.0006827822888638489,-0.4871891240185358,-0.0007111141255623764,0.9999997391209527,0.00012678614623483876,0.4871890834884364,0.00023572520540932526,0.8732964796467032,left_images/camera_left_43.png,right_images/camera_right_43.png
2025-05-02 13:26:29,2.029038667678833,44,-0.06551905,-0.0006019688,0.11403263,3.1669708e-05,-0.0002209463,0.012589561,0.7999763,0.035163,7.4266725e-05,0.002810272,0.8382515068862548,0.0004834415094705061,0.5452835752956712,-4.2044305374710496e-05,0.9999996613124531,-0.0008219533169608536,-0.545283787981267,0.0006660775373770459,0.8382512433068708,-0.00090289745,1.779835e-05,0.1070866,0.0007093436,0.00011932,-0.014027459,0.80597985,-0.045237184,-4.142127e-06,0.004732443,0.8732962219352592,0.0006827822888638489,-0.4871891240185358,-0.0007111141255623764,0.9999997391209527,0.00012678614623483876,0.4871890834884364,0.00023572520540932526,0.8732964796467032,left_images/camera_left_44.png,right_images/camera_right_44.png
2025-05-02 13:26:29,2.0852582454681396,45,-0.06551905,-0.0006019688,0.11403263,3.1682404e-05,-0.00022095634,0.012589561,0.7999763,0.035163,7.4266725e-05,0.002810272,0.8382515068862548,0.0004834415094705061,0.5452835752956712,-4.2044305374710496e-05,0.9999996613124531,-0.0008219533169608536,-0.545283787981267,0.0006660775373770459,0.8382512433068708,-0.0009029026,1.7787484e-05,0.1070866,0.00070931873,0.000119361706,-0.0140275145,0.80597985,-0.045237184,-4.142127e-06,0.004732443,0.8732962219352592,0.0006827822888638489,-0.4871891240185358,-0.0007111141255623764,0.9999997391209527,0.00012678614623483876,0.4871890834884364,0.00023572520540932526,0.8732964796467032,left_images/camera_left_45.png,right_images/camera_right_45.png
2025-05-02 13:26:29,2.1401114463806152,46,-0.06551905,-0.0006019688,0.11403263,3.1697466e-05,-0.00022091677,0.012589589,0.7999763,0.035163,7.4266725e-05,0.002810272,0.8382515068862548,0.0004834415094705061,0.5452835752956712,-4.2044305374710496e-05,0.9999996613124531,-0.0008219533169608536,-0.545283787981267,0.0006660775373770459,0.8382512433068708,-0.00090293173,1.775565e-05,0.1070866,0.00070934417,0.00011939957,-0.014027441,0.80597985,-0.045237184,-4.142127e-06,0.004732443,0.8732962219352592,0.0006827822888638489,-0.4871891240185358,-0.0007111141255623764,0.9999997391209527,0.00012678614623483876,0.4871890834884364,0.00023572520540932526,0.8732964796467032,left_images/camera_left_46.png,right_images/camera_right_46.png
2025-05-02 13:26:29,2.1862189769744873,47,-0.06551905,-0.0006019688,0.11403263,3.1710166e-05,-0.00022092681,0.012589589,0.7999763,0.035163,7.4266725e-05,0.002810272,0.8382515068862548,0.0004834415094705061,0.5452835752956712,-4.2044305374710496e-05,0.9999996613124531,-0.0008219533169608536,-0.545283787981267,0.0006660775373770459,0.8382512433068708,-0.0009029032,1.7699907e-05,0.1070866,0.00070930284,0.00011946054,-0.014027469,0.80597985,-0.045237157,-4.165073e-06,0.004732446,0.8732962356118208,0.0006825380525444147,-0.48718909984525566,-0.0007108098801621924,0.9999997393316759,0.00012683018168234585,0.48718905941691454,0.00023553850545217662,0.8732964931259457,left_images/camera_left_47.png,right_images/camera_right_47.png
2025-05-02 13:26:29,2.231130838394165,48,-0.06551905,-0.0006019688,0.11403263,3.1722862e-05,-0.00022093685,0.012589589,0.7999763,0.035163,7.4266725e-05,0.002810272,0.8382515068862548,0.0004834415094705061,0.5452835752956712,-4.2044305374710496e-05,0.9999996613124531,-0.0008219533169608536,-0.545283787981267,0.0006660775373770459,0.8382512433068708,-0.00090289686,1.7697508e-05,0.1070866,0.000709319,0.000119423625,-0.014027469,0.80597985,-0.045237184,-4.142127e-06,0.004732443,0.8732962219352592,0.0006827822888638489,-0.4871891240185358,-0.0007111141255623764,0.9999997391209527,0.00012678614623483876,0.4871890834884364,0.00023572520540932526,0.8732964796467032,left_images/camera_left_48.png,right_images/camera_right_48.png
2025-05-02 13:26:29,2.275156021118164,49,-0.06551905,-0.0006019688,0.11403263,3.173556e-05,-0.0002209469,0.012589589,0.7999763,0.035163,7.4266725e-05,0.002810272,0.8382515068862548,0.0004834415094705061,0.5452835752956712,-4.2044305374710496e-05,0.9999996613124531,-0.0008219533169608536,-0.545283787981267,0.0006660775373770459,0.8382512433068708,-0.00090292434,1.7665205e-05,0.1070866,0.00070934434,0.00011947958,-0.014027469,0.80597985,-0.045237187,-4.150364e-06,0.004732446,0.8732962352683541,0.0006830949567689613,-0.4871890996804008,-0.0007112359990750587,0.9999997389805204,0.00012720945137925253,0.48718905941069024,0.0002354148910696143,0.8732964931627494,left_images/camera_left_49.png,right_images/camera_right_49.png
2025-05-02 13:26:29,2.315908670425415,50,-0.06551905,-0.0006019688,0.11403263,3.1748255e-05,-0.00022095694,0.012589589,0.7999763,0.035163,7.4266725e-05,0.002810272,0.8382515068862548,0.0004834415094705061,0.5452835752956712,-4.2044305374710496e-05,0.9999996613124531,-0.0008219533169608536,-0.545283787981267,0.0006660775373770459,0.8382512433068708,-0.0009029322,1.7663131e-05,0.1070866,0.00070936105,0.00011952855,-0.014027497,0.80597985,-0.045237187,-4.150364e-06,0.004732446,0.8732962352683541,0.0006830949567689613,-0.4871890996804008,-0.0007112359990750587,0.9999997389805204,0.00012720945137925253,0.48718905941069024,0.0002354148910696143,0.8732964931627494,left_images/camera_left_50.png,right_images/camera_right_50.png
2025-05-02 13:26:29,2.3611321449279785,51,-0.06551905,-0.0006019688,0.11403263,3.1763317e-05,-0.00022091737,0.012589617,0.7999763,0.035163,7.4266725e-05,0.002810272,0.8382515068862548,0.0004834415094705061,0.5452835752956712,-4.2044305374710496e-05,0.9999996613124531,-0.0008219533169608536,-0.545283787981267,0.0006660775373770459,0.8382512433068708,-0.0009029327,1.7668484e-05,0.1070866,0.00070936105,0.00011949172,-0.014027497,0.80597985,-0.045237187,-4.150364e-06,0.004732446,0.8732962352683541,0.0006830949567689613,-0.4871890996804008,-0.0007112359990750587,0.9999997389805204,0.00012720945137925253,0.48718905941069024,0.0002354148910696143,0.8732964931627494,left_images/camera_left_51.png,right_images/camera_right_51.png
2025-05-02 13:26:29,2.414299488067627,52,-0.06551905,-0.0006019688,0.11403263,3.1776017e-05,-0.00022092741,0.012589617,0.7999763,0.035163,7.4266725e-05,0.002810272,0.8382515068862548,0.0004834415094705061,0.5452835752956712,-4.2044305374710496e-05,0.9999996613124531,-0.0008219533169608536,-0.545283787981267,0.0006660775373770459,0.8382512433068708,-0.0009029327,1.7674232e-05,0.1070866,0.00070936105,0.000119454875,-0.014027497,0.80597985,-0.045237184,-4.142127e-06,0.004732443,0.8732962219352592,0.0006827822888638489,-0.4871891240185358,-0.0007111141255623764,0.9999997391209527,0.00012678614623483876,0.4871890834884364,0.00023572520540932526,0.8732964796467032,left_images/camera_left_52.png,right_images/camera_right_52.png
2025-05-02 13:26:30,2.4651618003845215,53,-0.06551905,-0.0006019688,0.11403263,3.1788713e-05,-0.00022093745,0.012589617,0.7999763,0.035163,7.4266725e-05,0.002810272,0.8382515068862548,0.0004834415094705061,0.5452835752956712,-4.2044305374710496e-05,0.9999996613124531,-0.0008219533169608536,-0.545283787981267,0.0006660775373770459,0.8382512433068708,-0.0009029312,1.7671193e-05,0.1070866,0.00070931995,0.00011941073,-0.014027525,0.80597985,-0.045237184,-4.142127e-06,0.004732443,0.8732962219352592,0.0006827822888638489,-0.4871891240185358,-0.0007111141255623764,0.9999997391209527,0.00012678614623483876,0.4871890834884364,0.00023572520540932526,0.8732964796467032,left_images/camera_left_53.png,right_images/camera_right_53.png
2025-05-02 13:26:30,2.518548011779785,54,-0.06551905,-0.0006019688,0.11403263,3.180141e-05,-0.00022094749,0.012589617,0.7999763,0.035163,7.4266725e-05,0.002810272,0.8382515068862548,0.0004834415094705061,0.5452835752956712,-4.2044305374710496e-05,0.9999996613124531,-0.0008219533169608536,-0.545283787981267,0.0006660775373770459,0.8382512433068708,-0.0009029602,1.7639757e-05,0.1070866,0.0007093454,0.00011944858,-0.014027451,0.80597985,-0.045237146,-4.1815383e-06,0.004732321,0.8732963487610348,0.0006831095201651914,-0.4871888962220186,-0.0007113813361459553,0.9999997389064667,0.00012697871165871647,0.487188855760515,0.00023568704268795538,0.8732966067003685,left_images/camera_left_54.png,right_images/camera_right_54.png
2025-05-02 13:26:30,2.5644352436065674,55,-0.06551905,-0.0006019688,0.11403263,3.1814106e-05,-0.00022095753,0.012589617,0.7999763,0.035163,7.4266725e-05,0.002810272,0.8382515068862548,0.0004834415094705061,0.5452835752956712,-4.2044305374710496e-05,0.9999996613124531,-0.0008219533169608536,-0.545283787981267,0.0006660775373770459,0.8382512433068708,-0.00090296025,1.763462e-05,0.1070866,0.0007093391,0.000119384524,-0.014027479,0.80597985,-0.045237146,-4.1815383e-06,0.004732321,0.8732963487610348,0.0006831095201651914,-0.4871888962220186,-0.0007113813361459553,0.9999997389064667,0.00012697871165871647,0.487188855760515,0.00023568704268795538,0.8732966067003685,left_images/camera_left_55.png,right_images/camera_right_55.png
2025-05-02 13:26:30,2.6048736572265625,56,-0.06551905,-0.0006019688,0.11403263,3.1829168e-05,-0.00022091797,0.012589645,0.7999763,0.035163,7.4266725e-05,0.002810272,0.8382515068862548,0.0004834415094705061,0.5452835752956712,-4.2044305374710496e-05,0.9999996613124531,-0.0008219533169608536,-0.545283787981267,0.0006660775373770459,0.8382512433068708,-0.00090295065,1.7628976e-05,0.1070866,0.0007093496,0.000119426106,-0.014027535,0.80597985,-0.045237146,-4.1815383e-06,0.004732321,0.8732963487610348,0.0006831095201651914,-0.4871888962220186,-0.0007113813361459553,0.9999997389064667,0.00012697871165871647,0.487188855760515,0.00023568704268795538,0.8732966067003685,left_images/camera_left_56.png,right_images/camera_right_56.png
2025-05-02 13:26:30,2.64898681640625,57,-0.06551905,-0.00060195936,0.11403263,3.1789397e-05,-0.00022096826,0.0125897005,0.7999763,0.035162997,7.427293e-05,0.0028102747,0.8382514445749318,0.0004835908313353349,0.5452836709529704,-4.1999710276678214e-05,0.9999996610329484,-0.00082229557474039,-0.5452838837743729,0.0006663886971950776,0.8382511807459861,-0.0009029419,1.7625905e-05,0.1070866,0.0007093428,0.00011946371,-0.014027507,0.80597985,-0.045237146,-4.1815383e-06,0.004732321,0.8732963487610348,0.0006831095201651914,-0.4871888962220186,-0.0007113813361459553,0.9999997389064667,0.00012697871165871647,0.487188855760515,0.00023568704268795538,0.8732966067003685,left_images/camera_left_57.png,right_images/camera_right_57.png
2025-05-02 13:26:30,2.6915571689605713,58,-0.06551905,-0.0006019613,0.11403263,3.1757787e-05,-0.00022098578,0.0125897005,0.7999763,0.035162997,7.427293e-05,0.0028102747,0.8382514445749318,0.0004835908313353349,0.5452836709529704,-4.1999710276678214e-05,0.9999996610329484,-0.00082229557474039,-0.5452838837743729,0.0006663886971950776,0.8382511807459861,-0.0009029365,1.762545e-05,0.1070866,0.00070933654,0.00011939965,-0.014027535,0.80597985,-0.045237146,-4.1815383e-06,0.004732321,0.8732963487610348,0.0006831095201651914,-0.4871888962220186,-0.0007113813361459553,0.9999997389064667,0.00012697871165871647,0.487188855760515,0.00023568704268795538,0.8732966067003685,left_images/camera_left_58.png,right_images/camera_right_58.png
2025-05-02 13:26:30,2.7315640449523926,59,-0.06551905,-0.00060196477,0.11403263,3.1728552e-05,-0.00022095366,0.0125897005,0.7999763,0.035163,7.4266725e-05,0.002810272,0.8382515068862548,0.0004834415094705061,0.5452835752956712,-4.2044305374710496e-05,0.9999996613124531,-0.0008219533169608536,-0.545283787981267,0.0006660775373770459,0.8382512433068708,-0.00090296014,1.7668537e-05,0.1070866,0.00070936326,0.00011940114,-0.014027519,0.80597985,-0.045237146,-4.1815383e-06,0.004732321,0.8732963487610348,0.0006831095201651914,-0.4871888962220186,-0.0007113813361459553,0.9999997389064667,0.00012697871165871647,0.487188855760515,0.00023568704268795538,0.8732966067003685,left_images/camera_left_59.png,right_images/camera_right_59.png
2025-05-02 13:26:30,2.776456117630005,60,-0.06551905,-0.00060196494,0.11403263,3.1741245e-05,-0.0002209637,0.0125897005,0.7999763,0.035162997,7.427293e-05,0.0028102747,0.8382514445749318,0.0004835908313353349,0.5452836709529704,-4.1999710276678214e-05,0.9999996610329484,-0.00082229557474039,-0.5452838837743729,0.0006663886971950776,0.8382511807459861,-0.0009029571,1.7673388e-05,0.1070866,0.0007093565,0.000119438766,-0.014027491,0.80597985,-0.045237146,-4.1815383e-06,0.004732321,0.8732963487610348,0.0006831095201651914,-0.4871888962220186,-0.0007113813361459553,0.9999997389064667,0.00012697871165871647,0.487188855760515,0.00023568704268795538,0.8732966067003685,left_images/camera_left_60.png,right_images/camera_right_60.png
2025-05-02 13:26:30,2.8217148780822754,61,-0.06551905,-0.00060196826,0.11403263,3.170964e-05,-0.00022098124,0.0125897005,0.7999763,0.035162997,7.427293e-05,0.0028102747,0.8382514445749318,0.0004835908313353349,0.5452836709529704,-4.1999710276678214e-05,0.9999996610329484,-0.00082229557474039,-0.5452838837743729,0.0006663886971950776,0.8382511807459861,-0.0009029469,1.7667466e-05,0.1070866,0.000709367,0.000119480355,-0.014027547,0.80597985,-0.045237146,-4.18817e-06,0.0047323164,0.8732965453085618,0.0006834413504996495,-0.48718854344088525,-0.0007115608243153496,0.9999997387330931,0.0001273378923268175,0.4871885031826225,0.00023546054011190743,0.8732968034551654,left_images/camera_left_61.png,right_images/camera_right_61.png
2025-05-02 13:26:30,2.866940975189209,62,-0.06551905,-0.00060197175,0.11403263,3.1680403e-05,-0.00022094912,0.0125897005,0.7999763,0.035163,7.4266725e-05,0.002810272,0.8382515068862548,0.0004834415094705061,0.5452835752956712,-4.2044305374710496e-05,0.9999996613124531,-0.0008219533169608536,-0.545283787981267,0.0006660775373770459,0.8382512433068708,-0.0009029464,1.7666709e-05,0.1070866,0.00070938095,0.00011948267,-0.014027547,0.80597985,-0.045237146,-4.18817e-06,0.0047323164,0.8732965453085618,0.0006834413504996495,-0.48718854344088525,-0.0007115608243153496,0.9999997387330931,0.0001273378923268175,0.4871885031826225,0.00023546054011190743,0.8732968034551654,left_images/camera_left_62.png,right_images/camera_right_62.png
2025-05-02 13:26:30,2.9231250286102295,63,-0.06551905,-0.00060197193,0.11403263,3.1693096e-05,-0.00022095916,0.0125897005,0.7999763,0.035162997,7.427293e-05,0.0028102747,0.8382514445749318,0.0004835908313353349,0.5452836709529704,-4.1999710276678214e-05,0.9999996610329484,-0.00082229557474039,-0.5452838837743729,0.0006663886971950776,0.8382511807459861,-0.0009029464,1.7666382e-05,0.1070866,0.0007093949,0.00011948498,-0.014027547,0.80597985,-0.045237146,-4.18817e-06,0.0047323164,0.8732965453085618,0.0006834413504996495,-0.48718854344088525,-0.0007115608243153496,0.9999997387330931,0.0001273378923268175,0.4871885031826225,0.00023546054011190743,0.8732968034551654,left_images/camera_left_63.png,right_images/camera_right_63.png
2025-05-02 13:26:30,2.964113235473633,64,-0.06551905,-0.00060197525,0.11403263,3.166149e-05,-0.0002209767,0.0125897005,0.7999763,0.035162997,7.427293e-05,0.0028102747,0.8382514445749318,0.0004835908313353349,0.5452836709529704,-4.1999710276678214e-05,0.9999996610329484,-0.00082229557474039,-0.5452838837743729,0.0006663886971950776,0.8382511807459861,-0.0009029464,1.7666054e-05,0.1070866,0.0007094089,0.0001194873,-0.014027547,0.80597985,-0.045237146,-4.18817e-06,0.0047323164,0.8732965453085618,0.0006834413504996495,-0.48718854344088525,-0.0007115608243153496,0.9999997387330931,0.0001273378923268175,0.4871885031826225,0.00023546054011190743,0.8732968034551654,left_images/camera_left_64.png,right_images/camera_right_64.png
2025-05-02 13:26:30,3.010605812072754,65,-0.06551905,-0.00060197874,0.11403263,3.1632255e-05,-0.00022094458,0.0125897005,0.7999763,0.035163,7.4266725e-05,0.002810272,0.8382515068862548,0.0004834415094705061,0.5452835752956712,-4.2044305374710496e-05,0.9999996613124531,-0.0008219533169608536,-0.545283787981267,0.0006660775373770459,0.8382512433068708,-0.0009029464,1.7665727e-05,0.1070866,0.00070942286,0.00011948961,-0.014027547,0.80597985,-0.045237146,-4.18817e-06,0.0047323164,0.8732965453085618,0.0006834413504996495,-0.48718854344088525,-0.0007115608243153496,0.9999997387330931,0.0001273378923268175,0.4871885031826225,0.00023546054011190743,0.8732968034551654,left_images/camera_left_65.png,right_images/camera_right_65.png
2025-05-02 13:26:30,3.053438901901245,66,-0.06551905,-0.0006019789,0.11403263,3.1644948e-05,-0.00022095462,0.0125897005,0.7999763,0.035163,7.4266725e-05,0.002810272,0.8382515068862548,0.0004834415094705061,0.5452835752956712,-4.2044305374710496e-05,0.9999996613124531,-0.0008219533169608536,-0.545283787981267,0.0006660775373770459,0.8382512433068708,-0.0009029464,1.76654e-05,0.1070866,0.00070943683,0.000119491924,-0.014027547,0.80597985,-0.045237146,-4.18817e-06,0.0047323164,0.8732965453085618,0.0006834413504996495,-0.48718854344088525,-0.0007115608243153496,0.9999997387330931,0.0001273378923268175,0.4871885031826225,0.00023546054011190743,0.8732968034551654,left_images/camera_left_66.png,right_images/camera_right_66.png
2025-05-02 13:26:30,3.095033645629883,67,-0.06551905,-0.0006019789,0.11403263,3.166001e-05,-0.00022091506,0.012589728,0.7999763,0.035163,7.4266725e-05,0.002810272,0.8382515068862548,0.0004834415094705061,0.5452835752956712,-4.2044305374710496e-05,0.9999996613124531,-0.0008219533169608536,-0.545283787981267,0.0006660775373770459,0.8382512433068708,-0.0009029464,1.7665072e-05,0.1070866,0.0007094508,0.00011949424,-0.014027547,0.80597985,-0.045237146,-4.18817e-06,0.0047323164,0.8732965453085618,0.0006834413504996495,-0.48718854344088525,-0.0007115608243153496,0.9999997387330931,0.0001273378923268175,0.4871885031826225,0.00023546054011190743,0.8732968034551654,left_images/camera_left_67.png,right_images/camera_right_67.png
2025-05-02 13:26:30,3.1360344886779785,68,-0.06551905,-0.0006019789,0.11403263,3.167271e-05,-0.0002209251,0.012589728,0.7999763,0.035163,7.4266725e-05,0.002810272,0.8382515068862548,0.0004834415094705061,0.5452835752956712,-4.2044305374710496e-05,0.9999996613124531,-0.0008219533169608536,-0.545283787981267,0.0006660775373770459,0.8382512433068708,-0.0009029464,1.7664745e-05,0.1070866,0.0007094648,0.00011949655,-0.014027547,0.80597985,-0.045237146,-4.18817e-06,0.0047323164,0.8732965453085618,0.0006834413504996495,-0.48718854344088525,-0.0007115608243153496,0.9999997387330931,0.0001273378923268175,0.4871885031826225,0.00023546054011190743,0.8732968034551654,left_images/camera_left_68.png,right_images/camera_right_68.png
2025-05-02 13:26:30,3.178959608078003,69,-0.06551905,-0.0006019789,0.11403263,3.1685406e-05,-0.00022093514,0.012589728,0.7999763,0.035163,7.4266725e-05,0.002810272,0.8382515068862548,0.0004834415094705061,0.5452835752956712,-4.2044305374710496e-05,0.9999996613124531,-0.0008219533169608536,-0.545283787981267,0.0006660775373770459,0.8382512433068708,-0.0009029464,1.7664417e-05,0.1070866,0.00070947874,0.000119498865,-0.014027547,0.80597985,-0.045237146,-4.18817e-06,0.0047323164,0.8732965453085618,0.0006834413504996495,-0.48718854344088525,-0.0007115608243153496,0.9999997387330931,0.0001273378923268175,0.4871885031826225,0.00023546054011190743,0.8732968034551654,left_images/camera_left_69.png,right_images/camera_right_69.png
2025-05-02 13:26:30,3.2207024097442627,70,-0.06551905,-0.0006019789,0.11403263,3.1698102e-05,-0.00022094518,0.012589728,0.7999763,0.035163,7.4266725e-05,0.002810272,0.8382515068862548,0.0004834415094705061,0.5452835752956712,-4.2044305374710496e-05,0.9999996613124531,-0.0008219533169608536,-0.545283787981267,0.0006660775373770459,0.8382512433068708,-0.0009029464,1.766409e-05,0.1070866,0.0007094927,0.00011950118,-0.014027547,0.80597985,-0.045237146,-4.18817e-06,0.0047323164,0.8732965453085618,0.0006834413504996495,-0.48718854344088525,-0.0007115608243153496,0.9999997387330931,0.0001273378923268175,0.4871885031826225,0.00023546054011190743,0.8732968034551654,left_images/camera_left_70.png,right_images/camera_right_70.png
2025-05-02 13:26:30,3.2614641189575195,71,-0.06551905,-0.0006019789,0.11403263,3.17108e-05,-0.00022095522,0.012589728,0.7999763,0.035163,7.4266725e-05,0.002810272,0.8382515068862548,0.0004834415094705061,0.5452835752956712,-4.2044305374710496e-05,0.9999996613124531,-0.0008219533169608536,-0.545283787981267,0.0006660775373770459,0.8382512433068708,-0.0009029464,1.7663762e-05,0.1070866,0.0007095067,0.00011950349,-0.014027547,0.80597985,-0.045237146,-4.18817e-06,0.0047323164,0.8732965453085618,0.0006834413504996495,-0.48718854344088525,-0.0007115608243153496,0.9999997387330931,0.0001273378923268175,0.4871885031826225,0.00023546054011190743,0.8732968034551654,left_images/camera_left_71.png,right_images/camera_right_71.png
2025-05-02 13:26:30,3.302699327468872,72,-0.06551905,-0.0006019789,0.11403263,3.172586e-05,-0.00022091565,0.012589756,0.7999763,0.035163,7.4266725e-05,0.002810272,0.8382515068862548,0.0004834415094705061,0.5452835752956712,-4.2044305374710496e-05,0.9999996613124531,-0.0008219533169608536,-0.545283787981267,0.0006660775373770459,0.8382512433068708,-0.0009029464,1.7663435e-05,0.1070866,0.00070952065,0.00011950581,-0.014027547,0.80597985,-0.045237146,-4.18817e-06,0.0047323164,0.8732965453085618,0.0006834413504996495,-0.48718854344088525,-0.0007115608243153496,0.9999997387330931,0.0001273378923268175,0.4871885031826225,0.00023546054011190743,0.8732968034551654,left_images/camera_left_72.png,right_images/camera_right_72.png
2025-05-02 13:26:30,3.3516409397125244,73,-0.06551905,-0.0006019789,0.11403263,3.173856e-05,-0.00022092569,0.012589756,0.7999763,0.035163,7.4266725e-05,0.002810272,0.8382515068862548,0.0004834415094705061,0.5452835752956712,-4.2044305374710496e-05,0.9999996613124531,-0.0008219533169608536,-0.545283787981267,0.0006660775373770459,0.8382512433068708,-0.0009029464,1.7663107e-05,0.1070866,0.0007095346,0.00011950812,-0.014027547,0.80597985,-0.045237146,-4.18817e-06,0.0047323164,0.8732965453085618,0.0006834413504996495,-0.48718854344088525,-0.0007115608243153496,0.9999997387330931,0.0001273378923268175,0.4871885031826225,0.00023546054011190743,0.8732968034551654,left_images/camera_left_73.png,right_images/camera_right_73.png
2025-05-02 13:26:30,3.39217209815979,74,-0.06551905,-0.0006019789,0.11403263,3.1751257e-05,-0.00022093573,0.012589756,0.7999763,0.035163,7.4266725e-05,0.002810272,0.8382515068862548,0.0004834415094705061,0.5452835752956712,-4.2044305374710496e-05,0.9999996613124531,-0.0008219533169608536,-0.545283787981267,0.0006660775373770459,0.8382512433068708,-0.0009029464,1.766278e-05,0.1070866,0.0007095486,0.000119510434,-0.014027547,0.80597985,-0.045237146,-4.18817e-06,0.0047323164,0.8732965453085618,0.0006834413504996495,-0.48718854344088525,-0.0007115608243153496,0.9999997387330931,0.0001273378923268175,0.4871885031826225,0.00023546054011190743,0.8732968034551654,left_images/camera_left_74.png,right_images/camera_right_74.png
2025-05-02 13:26:31,3.436427593231201,75,-0.06551905,-0.0006019789,0.11403263,3.1763953e-05,-0.00022094577,0.012589756,0.7999763,0.035163,7.4266725e-05,0.002810272,0.8382515068862548,0.0004834415094705061,0.5452835752956712,-4.2044305374710496e-05,0.9999996613124531,-0.0008219533169608536,-0.545283787981267,0.0006660775373770459,0.8382512433068708,-0.0009029464,1.7662453e-05,0.1070866,0.00070956256,0.00011951275,-0.014027547,0.80597985,-0.045237146,-4.18817e-06,0.0047323164,0.8732965453085618,0.0006834413504996495,-0.48718854344088525,-0.0007115608243153496,0.9999997387330931,0.0001273378923268175,0.4871885031826225,0.00023546054011190743,0.8732968034551654,left_images/camera_left_75.png,right_images/camera_right_75.png
2025-05-02 13:26:31,3.4848945140838623,76,-0.06551905,-0.0006019789,0.11403263,3.177665e-05,-0.00022095582,0.012589756,0.7999763,0.035163,7.4266725e-05,0.002810272,0.8382515068862548,0.0004834415094705061,0.5452835752956712,-4.2044305374710496e-05,0.9999996613124531,-0.0008219533169608536,-0.545283787981267,0.0006660775373770459,0.8382512433068708,-0.0009029464,1.7662125e-05,0.1070866,0.00070957653,0.00011951506,-0.014027547,0.80597985,-0.045237146,-4.18817e-06,0.0047323164,0.8732965453085618,0.0006834413504996495,-0.48718854344088525,-0.0007115608243153496,0.9999997387330931,0.0001273378923268175,0.4871885031826225,0.00023546054011190743,0.8732968034551654,left_images/camera_left_76.png,right_images/camera_right_76.png
2025-05-02 13:26:31,3.525702953338623,77,-0.06551905,-0.0006019789,0.11403263,3.179171e-05,-0.00022091625,0.012589784,0.7999763,0.035163,7.4266725e-05,0.002810272,0.8382515068862548,0.0004834415094705061,0.5452835752956712,-4.2044305374710496e-05,0.9999996613124531,-0.0008219533169608536,-0.545283787981267,0.0006660775373770459,0.8382512433068708,-0.0009029464,1.7661798e-05,0.1070866,0.0007095905,0.000119517375,-0.014027547,0.80597985,-0.045237146,-4.18817e-06,0.0047323164,0.8732965453085618,0.0006834413504996495,-0.48718854344088525,-0.0007115608243153496,0.9999997387330931,0.0001273378923268175,0.4871885031826225,0.00023546054011190743,0.8732968034551654,left_images/camera_left_77.png,right_images/camera_right_77.png
2025-05-02 13:26:31,3.576382637023926,78,-0.06551905,-0.0006019789,0.11403263,3.180441e-05,-0.00022092629,0.012589784,0.7999763,0.035163,7.4266725e-05,0.002810272,0.8382515068862548,0.0004834415094705061,0.5452835752956712,-4.2044305374710496e-05,0.9999996613124531,-0.0008219533169608536,-0.545283787981267,0.0006660775373770459,0.8382512433068708,-0.0009029464,1.766147e-05,0.1070866,0.0007096045,0.00011951969,-0.014027547,0.80597985,-0.045237146,-4.18817e-06,0.0047323164,0.8732965453085618,0.0006834413504996495,-0.48718854344088525,-0.0007115608243153496,0.9999997387330931,0.0001273378923268175,0.4871885031826225,0.00023546054011190743,0.8732968034551654,left_images/camera_left_78.png,right_images/camera_right_78.png
2025-05-02 13:26:31,3.6168243885040283,79,-0.06551905,-0.0006019789,0.11403263,3.1817108e-05,-0.00022093633,0.012589784,0.7999763,0.035163,7.4266725e-05,0.002810272,0.8382515068862548,0.0004834415094705061,0.5452835752956712,-4.2044305374710496e-05,0.9999996613124531,-0.0008219533169608536,-0.545283787981267,0.0006660775373770459,0.8382512433068708,-0.0009029464,1.7661143e-05,0.1070866,0.00070961844,0.000119522,-0.014027547,0.80597985,-0.045237146,-4.18817e-06,0.0047323164,0.8732965453085618,0.0006834413504996495,-0.48718854344088525,-0.0007115608243153496,0.9999997387330931,0.0001273378923268175,0.4871885031826225,0.00023546054011190743,0.8732968034551654,left_images/camera_left_79.png,right_images/camera_right_79.png
2025-05-02 13:26:31,3.656020402908325,80,-0.06551905,-0.0006019789,0.11403263,3.1829804e-05,-0.00022094637,0.012589784,0.7999763,0.035163,7.4266725e-05,0.002810272,0.8382515068862548,0.0004834415094705061,0.5452835752956712,-4.2044305374710496e-05,0.9999996613124531,-0.0008219533169608536,-0.545283787981267,0.0006660775373770459,0.8382512433068708,-0.0009029464,1.7660816e-05,0.1070866,0.0007096324,0.00011952432,-0.014027547,0.80597985,-0.045237146,-4.18817e-06,0.0047323164,0.8732965453085618,0.0006834413504996495,-0.48718854344088525,-0.0007115608243153496,0.9999997387330931,0.0001273378923268175,0.4871885031826225,0.00023546054011190743,0.8732968034551654,left_images/camera_left_80.png,right_images/camera_right_80.png
2025-05-02 13:26:31,3.703468084335327,81,-0.06551905,-0.0006019695,0.11403263,3.179003e-05,-0.00022099666,0.01258984,0.7999763,0.035163,7.4271855e-05,0.0028102747,0.8382516003592393,0.0004835980719558032,0.5452834314630136,-4.205322928997344e-05,0.9999996610871442,-0.0008222269290351919,-0.5452836442868062,0.0006663021099508746,0.838251336601856,-0.0009029464,1.7660488e-05,0.1070866,0.0007096464,0.00011952663,-0.014027547,0.80597985,-0.045237146,-4.18817e-06,0.0047323164,0.8732965453085618,0.0006834413504996495,-0.48718854344088525,-0.0007115608243153496,0.9999997387330931,0.0001273378923268175,0.4871885031826225,0.00023546054011190743,0.8732968034551654,left_images/camera_left_81.png,right_images/camera_right_81.png
2025-05-02 13:26:31,3.7474992275238037,82,-0.06551905,-0.0006019614,0.11403263,3.178501e-05,-0.00022104426,0.012589899,0.7999763,0.035163,7.4271855e-05,0.0028102747,0.8382516003592393,0.0004835980719558032,0.5452834314630136,-4.205322928997344e-05,0.9999996610871442,-0.0008222269290351919,-0.5452836442868062,0.0006663021099508746,0.838251336601856,-0.0009029464,1.766016e-05,0.1070866,0.00070966035,0.000119528944,-0.014027547,0.80597985,-0.045237146,-4.18817e-06,0.0047323164,0.8732965453085618,0.0006834413504996495,-0.48718854344088525,-0.0007115608243153496,0.9999997387330931,0.0001273378923268175,0.4871885031826225,0.00023546054011190743,0.8732968034551654,left_images/camera_left_82.png,right_images/camera_right_82.png
2025-05-02 13:26:31,3.787066698074341,83,-0.06551905,-0.0006019544,0.11403263,3.1779997e-05,-0.00022109185,0.0125899585,0.7999763,0.035163,7.4271855e-05,0.0028102747,0.8382516003592393,0.0004835980719558032,0.5452834314630136,-4.205322928997344e-05,0.9999996610871442,-0.0008222269290351919,-0.5452836442868062,0.0006663021099508746,0.838251336601856,-0.0009029464,1.7659833e-05,0.1070866,0.0007096743,0.00011953126,-0.014027547,0.80597985,-0.045237146,-4.18817e-06,0.0047323164,0.8732965453085618,0.0006834413504996495,-0.48718854344088525,-0.0007115608243153496,0.9999997387330931,0.0001273378923268175,0.4871885031826225,0.00023546054011190743,0.8732968034551654,left_images/camera_left_83.png,right_images/camera_right_83.png
2025-05-02 13:26:31,3.832326650619507,84,-0.06551905,-0.0006019474,0.11403263,3.1774984e-05,-0.00022113943,0.012590018,0.7999763,0.035163,7.4271855e-05,0.0028102747,0.8382516003592393,0.0004835980719558032,0.5452834314630136,-4.205322928997344e-05,0.9999996610871442,-0.0008222269290351919,-0.5452836442868062,0.0006663021099508746,0.838251336601856,-0.0009029464,1.7659506e-05,0.1070866,0.0007096883,0.00011953357,-0.014027547,0.80597985,-0.045237146,-4.18817e-06,0.0047323164,0.8732965453085618,0.0006834413504996495,-0.48718854344088525,-0.0007115608243153496,0.9999997387330931,0.0001273378923268175,0.4871885031826225,0.00023546054011190743,0.8732968034551654,left_images/camera_left_84.png,right_images/camera_right_84.png
2025-05-02 13:26:31,3.8766610622406006,85,-0.06551905,-0.00060194044,0.11403263,3.176997e-05,-0.00022118702,0.012590078,0.7999763,0.035163,7.4271855e-05,0.0028102747,0.8382516003592393,0.0004835980719558032,0.5452834314630136,-4.205322928997344e-05,0.9999996610871442,-0.0008222269290351919,-0.5452836442868062,0.0006663021099508746,0.838251336601856,-0.0009029435,1.7661025e-05,0.1070866,0.0007096687,0.00011955035,-0.014027575,0.80597985,-0.045237146,-4.18817e-06,0.0047323164,0.8732965453085618,0.0006834413504996495,-0.48718854344088525,-0.0007115608243153496,0.9999997387330931,0.0001273378923268175,0.4871885031826225,0.00023546054011190743,0.8732968034551654,left_images/camera_left_85.png,right_images/camera_right_85.png
2025-05-02 13:26:31,3.9191603660583496,86,-0.06551905,-0.00060193345,0.11403263,3.1764957e-05,-0.0002212346,0.012590137,0.7999763,0.035163,7.4271855e-05,0.0028102747,0.8382516003592393,0.0004835980719558032,0.5452834314630136,-4.205322928997344e-05,0.9999996610871442,-0.0008222269290351919,-0.5452836442868062,0.0006663021099508746,0.838251336601856,-0.0009029432,1.7660986e-05,0.1070866,0.00070968264,0.000119552664,-0.014027575,0.80597985,-0.045237146,-4.18817e-06,0.0047323164,0.8732965453085618,0.0006834413504996495,-0.48718854344088525,-0.0007115608243153496,0.9999997387330931,0.0001273378923268175,0.4871885031826225,0.00023546054011190743,0.8732968034551654,left_images/camera_left_86.png,right_images/camera_right_86.png
2025-05-02 13:26:31,3.9657366275787354,87,-0.06551905,-0.00060192647,0.11403263,3.1759944e-05,-0.00022128219,0.012590197,0.7999763,0.035163004,7.427147e-05,0.0028102696,0.8382517931454101,0.0004835207217744127,0.5452831351657743,-4.198832409449597e-05,0.9999996611241113,-0.0008221852851202143,-0.5452833479260899,0.0006663027645471865,0.8382515293843136,-0.0009029432,1.7660659e-05,0.1070866,0.0007096966,0.00011955498,-0.014027575,0.80597985,-0.045237146,-4.1846056e-06,0.004732318,0.8732965451651757,0.0006836321915242834,-0.4871885434301539,-0.0007117816700112345,0.9999997385764523,0.00012733374031590714,0.4871885031170404,0.00023557175955221438,0.8732968034617576,left_images/camera_left_87.png,right_images/camera_right_87.png
2025-05-02 13:26:31,4.0066978931427,88,-0.06551905,-0.0006019256,0.11403263,3.177233e-05,-0.00022129218,0.012590197,0.7999763,0.035163004,7.427147e-05,0.0028102696,0.8382517931454101,0.0004835207217744127,0.5452831351657743,-4.198832409449597e-05,0.9999996611241113,-0.0008221852851202143,-0.5452833479260899,0.0006663027645471865,0.8382515293843136,-0.00090293586,1.765458e-05,0.1070866,0.0007097036,0.00011959664,-0.014027631,0.80597985,-0.04523716,-4.141548e-06,0.004732413,0.8732964745020829,0.0006833939368078608,-0.4871886704295983,-0.0007115541908172979,0.9999997387486791,0.0001272525322842504,0.4871886301145237,0.00023553195234758974,0.8732967326240452,left_images/camera_left_88.png,right_images/camera_right_88.png
2025-05-02 13:26:31,4.056411027908325,89,-0.06551905,-0.0006019256,0.11403263,3.1784723e-05,-0.00022130217,0.012590197,0.7999763,0.035163004,7.427147e-05,0.0028102696,0.8382517931454101,0.0004835207217744127,0.5452831351657743,-4.198832409449597e-05,0.9999996611241113,-0.0008221852851202143,-0.5452833479260899,0.0006663027645471865,0.8382515293843136,-0.0009028956,1.759833e-05,0.1070866,0.00070967263,0.00011966306,-0.014027707,0.80597985,-0.045237057,-4.2708843e-06,0.004732443,0.8732965028141088,0.0006830113482614855,-0.48718862021618037,-0.0007113431556616673,0.9999997389505342,0.00012684549116568066,0.4871885796727612,0.00023578456667430444,0.8732967606959708,left_images/camera_left_89.png,right_images/camera_right_89.png
2025-05-02 13:26:31,4.104130983352661,90,-0.06551905,-0.0006019256,0.11403263,3.1797113e-05,-0.00022131215,0.012590197,0.7999763,0.035163004,7.427147e-05,0.0028102696,0.8382517931454101,0.0004835207217744127,0.5452831351657743,-4.198832409449597e-05,0.9999996611241113,-0.0008221852851202143,-0.5452833479260899,0.0006663027645471865,0.8382515293843136,-0.00090288825,1.7583738e-05,0.1070866,0.0007096831,0.00011970467,-0.014027763,0.80597985,-0.045237057,-4.2708843e-06,0.004732443,0.8732965028141088,0.0006830113482614855,-0.48718862021618037,-0.0007113431556616673,0.9999997389505342,0.00012684549116568066,0.4871885796727612,0.00023578456667430444,0.8732967606959708,left_images/camera_left_90.png,right_images/camera_right_90.png
2025-05-02 13:26:31,4.145138740539551,91,-0.06551905,-0.0006019256,0.11403263,3.1809504e-05,-0.00022132213,0.012590197,0.7999763,0.035163004,7.427147e-05,0.0028102696,0.8382517931454101,0.0004835207217744127,0.5452831351657743,-4.198832409449597e-05,0.9999996611241113,-0.0008221852851202143,-0.5452833479260899,0.0006663027645471865,0.8382515293843136,-0.00090288825,1.7577251e-05,0.1070866,0.0007096936,0.00011974629,-0.014027819,0.80597985,-0.045237012,-4.2812735e-06,0.0047323797,0.8732964890366005,0.0006834148012247472,-0.487188644346886,-0.0007117766129610384,0.9999997386356132,0.00012689664721166999,0.48718860373617157,0.00023595108666583893,0.8732967472266714,left_images/camera_left_91.png,right_images/camera_right_91.png
2025-05-02 13:26:31,4.186790704727173,92,-0.06551905,-0.0006019256,0.11403263,3.1821895e-05,-0.00022133211,0.012590197,0.7999763,0.035163004,7.427147e-05,0.0028102696,0.8382517931454101,0.0004835207217744127,0.5452831351657743,-4.198832409449597e-05,0.9999996611241113,-0.0008221852851202143,-0.5452833479260899,0.0006663027645471865,0.8382515293843136,-0.0009028806,1.7589777e-05,0.1070866,0.0007097324,0.000119733195,-0.014027852,0.80597985,-0.045237012,-4.2812735e-06,0.0047323797,0.8732964890366005,0.0006834148012247472,-0.487188644346886,-0.0007117766129610384,0.9999997386356132,0.00012689664721166999,0.48718860373617157,0.00023595108666583893,0.8732967472266714,left_images/camera_left_92.png,right_images/camera_right_92.png
2025-05-02 13:26:31,4.228868246078491,93,-0.06551905,-0.00060192717,0.11403263,3.1820568e-05,-0.00022125524,0.012590197,0.7999763,0.035163004,7.427147e-05,0.0028102696,0.8382517931454101,0.0004835207217744127,0.5452831351657743,-4.198832409449597e-05,0.9999996611241113,-0.0008221852851202143,-0.5452833479260899,0.0006663027645471865,0.8382515293843136,-0.00090287934,1.7591534e-05,0.1070866,0.0007097045,0.000119735654,-0.014027861,0.80597985,-0.045237012,-4.2812735e-06,0.0047323797,0.8732964890366005,0.0006834148012247472,-0.487188644346886,-0.0007117766129610384,0.9999997386356132,0.00012689664721166999,0.48718860373617157,0.00023595108666583893,0.8732967472266714,left_images/camera_left_93.png,right_images/camera_right_93.png
2025-05-02 13:26:31,4.269352436065674,94,-0.06551905,-0.0006019273,0.11403263,3.1832955e-05,-0.0002212652,0.012590197,0.7999763,0.035163004,7.427147e-05,0.0028102696,0.8382517931454101,0.0004835207217744127,0.5452831351657743,-4.198832409449597e-05,0.9999996611241113,-0.0008221852851202143,-0.5452833479260899,0.0006663027645471865,0.8382515293843136,-0.0009028717,1.760446e-05,0.1070866,0.0007097433,0.00011972255,-0.014027894,0.80597985,-0.04523716,-4.141548e-06,0.004732413,0.8732964745020829,0.0006833939368078608,-0.4871886704295983,-0.0007115541908172979,0.9999997387486791,0.0001272525322842504,0.4871886301145237,0.00023553195234758974,0.8732967326240452,left_images/camera_left_94.png,right_images/camera_right_94.png
2025-05-02 13:26:31,4.318882465362549,95,-0.06551905,-0.00060192135,0.11403263,3.1795436e-05,-0.00022126098,0.012590253,0.7999763,0.035163004,7.427147e-05,0.0028102696,0.8382517931454101,0.0004835207217744127,0.5452831351657743,-4.198832409449597e-05,0.9999996611241113,-0.0008221852851202143,-0.5452833479260899,0.0006663027645471865,0.8382515293843136,-0.00090287364,1.7607166e-05,0.1070866,0.00070972915,0.00011972337,-0.014027866,0.80597985,-0.04523716,-4.141548e-06,0.004732413,0.8732964745020829,0.0006833939368078608,-0.4871886704295983,-0.0007115541908172979,0.9999997387486791,0.0001272525322842504,0.4871886301145237,0.00023553195234758974,0.8732967326240452,left_images/camera_left_95.png,right_images/camera_right_95.png
2025-05-02 13:26:31,4.377360105514526,96,-0.06551905,-0.00060192,0.11403263,3.1807816e-05,-0.00022127097,0.012590253,0.7999763,0.035163004,7.427147e-05,0.0028102696,0.8382517931454101,0.0004835207217744127,0.5452831351657743,-4.198832409449597e-05,0.9999996611241113,-0.0008221852851202143,-0.5452833479260899,0.0006663027645471865,0.8382515293843136,-0.00090287713,1.7601707e-05,0.1070866,0.0007097152,0.000119765085,-0.01402792,0.80597985,-0.045237012,-4.2803504e-06,0.0047323797,0.8732966295770769,0.0006833695510157865,-0.48718839248834217,-0.0007117613527530149,0.9999997386548054,0.00012683098150678514,0.4871883518364278,0.00023600080060724116,0.8732968877412352,left_images/camera_left_96.png,right_images/camera_right_96.png
2025-05-02 13:26:32,4.427476644515991,97,-0.06551905,-0.00060192,0.11403263,3.1820207e-05,-0.00022128095,0.012590253,0.7999763,0.035163004,7.427147e-05,0.0028102696,0.8382517931454101,0.0004835207217744127,0.5452831351657743,-4.198832409449597e-05,0.9999996611241113,-0.0008221852851202143,-0.5452833479260899,0.0006663027645471865,0.8382515293843136,-0.00090287725,1.7595235e-05,0.1070866,0.00070973614,0.00011980666,-0.014027964,0.80597985,-0.045237012,-4.2803504e-06,0.0047323797,0.8732966295770769,0.0006833695510157865,-0.48718839248834217,-0.0007117613527530149,0.9999997386548054,0.00012683098150678514,0.4871883518364278,0.00023600080060724116,0.8732968877412352,left_images/camera_left_97.png,right_images/camera_right_97.png
2025-05-02 13:26:32,4.469855070114136,98,-0.06551905,-0.00060192,0.11403263,3.18326e-05,-0.00022129093,0.012590253,0.7999763,0.035163004,7.427147e-05,0.0028102696,0.8382517931454101,0.0004835207217744127,0.5452831351657743,-4.198832409449597e-05,0.9999996611241113,-0.0008221852851202143,-0.5452833479260899,0.0006663027645471865,0.8382515293843136,-0.00090287725,1.7588767e-05,0.1070866,0.0007097571,0.000119848235,-0.014028009,0.80597985,-0.045237012,-4.2874644e-06,0.0047323816,0.8732965733158364,0.0006835303981100552,-0.4871884931122786,-0.0007117506494739034,0.9999997386180481,0.00012718037696425046,0.48718845270165306,0.0002356905389929804,0.8732968315550783,left_images/camera_left_98.png,right_images/camera_right_98.png
2025-05-02 13:26:32,4.513353586196899,99,-0.06551905,-0.0006019141,0.11403263,3.179508e-05,-0.00022128671,0.012590309,0.7999763,0.035163004,7.427147e-05,0.0028102696,0.8382517931454101,0.0004835207217744127,0.5452831351657743,-4.198832409449597e-05,0.9999996611241113,-0.0008221852851202143,-0.5452833479260899,0.0006663027645471865,0.8382515293843136,-0.00090288674,1.7587947e-05,0.1070866,0.0007097402,0.00011985066,-0.014028009,0.80597985,-0.045237012,-4.2874644e-06,0.0047323816,0.8732965733158364,0.0006835303981100552,-0.4871884931122786,-0.0007117506494739034,0.9999997386180481,0.00012718037696425046,0.48718845270165306,0.0002356905389929804,0.8732968315550783,left_images/camera_left_99.png,right_images/camera_right_99.png
2025-05-02 13:26:32,4.5587217807769775,100,-0.06551905,-0.00060191273,0.11403263,3.180746e-05,-0.0002212967,0.012590309,0.7999763,0.035163004,7.427147e-05,0.0028102696,0.8382517931454101,0.0004835207217744127,0.5452831351657743,-4.198832409449597e-05,0.9999996611241113,-0.0008221852851202143,-0.5452833479260899,0.0006663027645471865,0.8382515293843136,-0.0009028972,1.7587521e-05,0.1070866,0.00070972333,0.00011985307,-0.014028009,0.80597985,-0.045237012,-4.2874644e-06,0.0047323816,0.8732965733158364,0.0006835303981100552,-0.4871884931122786,-0.0007117506494739034,0.9999997386180481,0.00012718037696425046,0.48718845270165306,0.0002356905389929804,0.8732968315550783,left_images/camera_left_100.png,right_images/camera_right_100.png
2025-05-02 13:26:32,4.602137088775635,101,-0.06551905,-0.00060191273,0.11403263,3.181985e-05,-0.00022130668,0.012590309,0.7999763,0.035163004,7.427147e-05,0.0028102696,0.8382517931454101,0.0004835207217744127,0.5452831351657743,-4.198832409449597e-05,0.9999996611241113,-0.0008221852851202143,-0.5452833479260899,0.0006663027645471865,0.8382515293843136,-0.0009029077,1.7587095e-05,0.1070866,0.00070970645,0.00011985549,-0.014028009,0.80597985,-0.045237012,-4.2874644e-06,0.0047323816,0.8732965733158364,0.0006835303981100552,-0.4871884931122786,-0.0007117506494739034,0.9999997386180481,0.00012718037696425046,0.48718845270165306,0.0002356905389929804,0.8732968315550783,left_images/camera_left_101.png,right_images/camera_right_101.png
2025-05-02 13:26:32,4.647780656814575,102,-0.06551905,-0.00060191273,0.11403263,3.183224e-05,-0.00022131666,0.012590309,0.7999763,0.035163004,7.427147e-05,0.0028102696,0.8382517931454101,0.0004835207217744127,0.5452831351657743,-4.198832409449597e-05,0.9999996611241113,-0.0008221852851202143,-0.5452833479260899,0.0006663027645471865,0.8382515293843136,-0.00090291817,1.758667e-05,0.1070866,0.0007096896,0.000119857905,-0.014028009,0.80597985,-0.045237057,-4.275966e-06,0.00473244,0.8732966298629019,0.0006830584193815622,-0.4871883924123124,-0.0007112486602503027,0.9999997389839875,0.0001271113681396461,0.4871883520728312,0.00023550616197914035,0.8732968877428836,left_images/camera_left_102.png,right_images/camera_right_102.png
2025-05-02 13:26:32,4.688526153564453,103,-0.06551905,-0.0006019068,0.11403263,3.1794723e-05,-0.00022131244,0.012590365,0.7999763,0.035163004,7.427147e-05,0.0028102696,0.8382517931454101,0.0004835207217744127,0.5452831351657743,-4.198832409449597e-05,0.9999996611241113,-0.0008221852851202143,-0.5452833479260899,0.0006663027645471865,0.8382515293843136,-0.00090291863,1.7580554e-05,0.1070866,0.0007096677,0.000119899625,-0.014028009,0.80597985,-0.045237057,-4.275966e-06,0.00473244,0.8732966298629019,0.0006830584193815622,-0.4871883924123124,-0.0007112486602503027,0.9999997389839875,0.0001271113681396461,0.4871883520728312,0.00023550616197914035,0.8732968877428836,left_images/camera_left_103.png,right_images/camera_right_103.png
2025-05-02 13:26:32,4.729307413101196,104,-0.06551905,-0.00060190546,0.11403263,3.1807103e-05,-0.00022132242,0.012590365,0.7999763,0.035163004,7.427147e-05,0.0028102696,0.8382517931454101,0.0004835207217744127,0.5452831351657743,-4.198832409449597e-05,0.9999996611241113,-0.0008221852851202143,-0.5452833479260899,0.0006663027645471865,0.8382515293843136,-0.00090291863,1.7574028e-05,0.1070866,0.0007096458,0.000119941345,-0.014028009,0.80597985,-0.045237057,-4.275966e-06,0.00473244,0.8732966298629019,0.0006830584193815622,-0.4871883924123124,-0.0007112486602503027,0.9999997389839875,0.0001271113681396461,0.4871883520728312,0.00023550616197914035,0.8732968877428836,left_images/camera_left_104.png,right_images/camera_right_104.png
2025-05-02 13:26:32,4.773261308670044,105,-0.06551905,-0.00060190546,0.11403263,3.1819494e-05,-0.0002213324,0.012590365,0.7999763,0.035163004,7.427147e-05,0.0028102696,0.8382517931454101,0.0004835207217744127,0.5452831351657743,-4.198832409449597e-05,0.9999996611241113,-0.0008221852851202143,-0.5452833479260899,0.0006663027645471865,0.8382515293843136,-0.00090291863,1.7567501e-05,0.1070866,0.0007096239,0.000119983066,-0.014028009,0.80597985,-0.045237057,-4.275966e-06,0.00473244,0.8732966298629019,0.0006830584193815622,-0.4871883924123124,-0.0007112486602503027,0.9999997389839875,0.0001271113681396461,0.4871883520728312,0.00023550616197914035,0.8732968877428836,left_images/camera_left_105.png,right_images/camera_right_105.png
2025-05-02 13:26:32,4.822933197021484,106,-0.06551905,-0.000601907,0.11403263,3.1818166e-05,-0.00022125553,0.012590365,0.7999763,0.035163004,7.427147e-05,0.0028102696,0.8382517931454101,0.0004835207217744127,0.5452831351657743,-4.198832409449597e-05,0.9999996611241113,-0.0008221852851202143,-0.5452833479260899,0.0006663027645471865,0.8382515293843136,-0.00090291863,1.7560975e-05,0.1070866,0.000709602,0.000120024786,-0.014028009,0.80597985,-0.045237057,-4.275966e-06,0.00473244,0.8732966298629019,0.0006830584193815622,-0.4871883924123124,-0.0007112486602503027,0.9999997389839875,0.0001271113681396461,0.4871883520728312,0.00023550616197914035,0.8732968877428836,left_images/camera_left_106.png,right_images/camera_right_106.png
2025-05-02 13:26:32,4.869989395141602,107,-0.06551905,-0.00060190714,0.11403263,3.1830554e-05,-0.0002212655,0.012590365,0.7999763,0.035163004,7.427147e-05,0.0028102696,0.8382517931454101,0.0004835207217744127,0.5452831351657743,-4.198832409449597e-05,0.9999996611241113,-0.0008221852851202143,-0.5452833479260899,0.0006663027645471865,0.8382515293843136,-0.00090291863,1.7554448e-05,0.1070866,0.00070958014,0.00012006651,-0.014028009,0.80597985,-0.045237057,-4.275966e-06,0.00473244,0.8732966298629019,0.0006830584193815622,-0.4871883924123124,-0.0007112486602503027,0.9999997389839875,0.0001271113681396461,0.4871883520728312,0.00023550616197914035,0.8732968877428836,left_images/camera_left_107.png,right_images/camera_right_107.png
2025-05-02 13:26:32,4.915428161621094,108,-0.06551905,-0.0006019012,0.11403263,3.1793035e-05,-0.00022126127,0.01259042,0.7999763,0.035163004,7.427147e-05,0.0028102696,0.8382517931454101,0.0004835207217744127,0.5452831351657743,-4.198832409449597e-05,0.9999996611241113,-0.0008221852851202143,-0.5452833479260899,0.0006663027645471865,0.8382515293843136,-0.00090291863,1.7547922e-05,0.1070866,0.00070955826,0.00012010823,-0.014028009,0.80597985,-0.045237057,-4.275966e-06,0.00473244,0.8732966298629019,0.0006830584193815622,-0.4871883924123124,-0.0007112486602503027,0.9999997389839875,0.0001271113681396461,0.4871883520728312,0.00023550616197914035,0.8732968877428836,left_images/camera_left_108.png,right_images/camera_right_108.png
2025-05-02 13:26:32,4.965002536773682,109,-0.06551905,-0.00060189987,0.11403263,3.1805415e-05,-0.00022127126,0.01259042,0.7999763,0.035163004,7.427147e-05,0.0028102696,0.8382517931454101,0.0004835207217744127,0.5452831351657743,-4.198832409449597e-05,0.9999996611241113,-0.0008221852851202143,-0.5452833479260899,0.0006663027645471865,0.8382515293843136,-0.00090291863,1.7541395e-05,0.1070866,0.00070953637,0.00012014995,-0.014028009,0.80597985,-0.045237057,-4.275966e-06,0.00473244,0.8732966298629019,0.0006830584193815622,-0.4871883924123124,-0.0007112486602503027,0.9999997389839875,0.0001271113681396461,0.4871883520728312,0.00023550616197914035,0.8732968877428836,left_images/camera_left_109.png,right_images/camera_right_109.png
2025-05-02 13:26:32,5.006133556365967,110,-0.06551905,-0.00060189987,0.11403263,3.1817806e-05,-0.00022128124,0.01259042,0.7999763,0.035163004,7.427147e-05,0.0028102696,0.8382517931454101,0.0004835207217744127,0.5452831351657743,-4.198832409449597e-05,0.9999996611241113,-0.0008221852851202143,-0.5452833479260899,0.0006663027645471865,0.8382515293843136,-0.00090291863,1.7534869e-05,0.1070866,0.0007095145,0.00012019167,-0.014028009,0.80597985,-0.045237057,-4.275966e-06,0.00473244,0.8732966298629019,0.0006830584193815622,-0.4871883924123124,-0.0007112486602503027,0.9999997389839875,0.0001271113681396461,0.4871883520728312,0.00023550616197914035,0.8732968877428836,left_images/camera_left_110.png,right_images/camera_right_110.png
2025-05-02 13:26:32,5.054534673690796,111,-0.06551905,-0.00060189987,0.11403263,3.1830197e-05,-0.00022129122,0.01259042,0.7999763,0.035163004,7.427147e-05,0.0028102696,0.8382517931454101,0.0004835207217744127,0.5452831351657743,-4.198832409449597e-05,0.9999996611241113,-0.0008221852851202143,-0.5452833479260899,0.0006663027645471865,0.8382515293843136,-0.00090291863,1.7528342e-05,0.1070866,0.0007094926,0.00012023339,-0.014028009,0.80597985,-0.045237057,-4.2852334e-06,0.00473244,0.8732966297788778,0.000683297660835034,-0.4871883922274426,-0.0007112455697214833,0.9999997389229383,0.0001276079735285148,0.4871883522279584,0.00023507097237613665,0.8732968877735937,left_images/camera_left_111.png,right_images/camera_right_111.png
2025-05-02 13:26:32,5.0966877937316895,112,-0.06551905,-0.00060189393,0.11403263,3.179268e-05,-0.000221287,0.012590476,0.7999763,0.035163004,7.427147e-05,0.0028102696,0.8382517931454101,0.0004835207217744127,0.5452831351657743,-4.198832409449597e-05,0.9999996611241113,-0.0008221852851202143,-0.5452833479260899,0.0006663027645471865,0.8382515293843136,-0.0009029152,1.7521852e-05,0.1070866,0.0007095031,0.000120275006,-0.014028009,0.80597985,-0.045237057,-4.2852334e-06,0.00473244,0.8732966297788778,0.000683297660835034,-0.4871883922274426,-0.0007112455697214833,0.9999997389229383,0.0001276079735285148,0.4871883522279584,0.00023507097237613665,0.8732968877735937,left_images/camera_left_112.png,right_images/camera_right_112.png
2025-05-02 13:26:32,5.14188814163208,113,-0.06551905,-0.0006018926,0.11403263,3.180506e-05,-0.00022129698,0.012590476,0.7999763,0.035163004,7.427147e-05,0.0028102696,0.8382517931454101,0.0004835207217744127,0.5452831351657743,-4.198832409449597e-05,0.9999996611241113,-0.0008221852851202143,-0.5452833479260899,0.0006663027645471865,0.8382515293843136,-0.0009029117,1.7515362e-05,0.1070866,0.00070951355,0.000120316625,-0.014028009,0.80597985,-0.045237057,-4.2852334e-06,0.00473244,0.8732966297788778,0.000683297660835034,-0.4871883922274426,-0.0007112455697214833,0.9999997389229383,0.0001276079735285148,0.4871883522279584,0.00023507097237613665,0.8732968877735937,left_images/camera_left_113.png,right_images/camera_right_113.png
2025-05-02 13:26:32,5.18703556060791,114,-0.06551905,-0.0006018926,0.11403263,3.181745e-05,-0.00022130697,0.012590476,0.7999763,0.035163004,7.427147e-05,0.0028102696,0.8382517931454101,0.0004835207217744127,0.5452831351657743,-4.198832409449597e-05,0.9999996611241113,-0.0008221852851202143,-0.5452833479260899,0.0006663027645471865,0.8382515293843136,-0.0009029082,1.7508872e-05,0.1070866,0.000709524,0.00012035824,-0.014028009,0.80597985,-0.045237057,-4.2852334e-06,0.00473244,0.8732966297788778,0.000683297660835034,-0.4871883922274426,-0.0007112455697214833,0.9999997389229383,0.0001276079735285148,0.4871883522279584,0.00023507097237613665,0.8732968877735937,left_images/camera_left_114.png,right_images/camera_right_114.png
2025-05-02 13:26:32,5.230278491973877,115,-0.06551905,-0.0006018926,0.11403263,3.182984e-05,-0.00022131695,0.012590476,0.7999763,0.035163004,7.427147e-05,0.0028102696,0.8382517931454101,0.0004835207217744127,0.5452831351657743,-4.198832409449597e-05,0.9999996611241113,-0.0008221852851202143,-0.5452833479260899,0.0006663027645471865,0.8382515293843136,-0.0009029047,1.7502382e-05,0.1070866,0.0007095345,0.00012039986,-0.014028009,0.80597985,-0.045237057,-4.2852334e-06,0.00473244,0.8732966297788778,0.000683297660835034,-0.4871883922274426,-0.0007112455697214833,0.9999997389229383,0.0001276079735285148,0.4871883522279584,0.00023507097237613665,0.8732968877735937,left_images/camera_left_115.png,right_images/camera_right_115.png
2025-05-02 13:26:32,5.281385183334351,116,-0.06551905,-0.00060188666,0.11403263,3.1792322e-05,-0.00022131273,0.012590532,0.7999763,0.035163004,7.427147e-05,0.0028102696,0.8382517931454101,0.0004835207217744127,0.5452831351657743,-4.198832409449597e-05,0.9999996611241113,-0.0008221852851202143,-0.5452833479260899,0.0006663027645471865,0.8382515293843136,-0.0009029012,1.7495891e-05,0.1070866,0.000709545,0.00012044148,-0.014028009,0.80597985,-0.045237057,-4.2852334e-06,0.00473244,0.8732966297788778,0.000683297660835034,-0.4871883922274426,-0.0007112455697214833,0.9999997389229383,0.0001276079735285148,0.4871883522279584,0.00023507097237613665,0.8732968877735937,left_images/camera_left_116.png,right_images/camera_right_116.png
2025-05-02 13:26:32,5.328876495361328,117,-0.06551905,-0.0006018853,0.11403263,3.1804702e-05,-0.00022132271,0.012590532,0.7999763,0.035163004,7.427147e-05,0.0028102696,0.8382517931454101,0.0004835207217744127,0.5452831351657743,-4.198832409449597e-05,0.9999996611241113,-0.0008221852851202143,-0.5452833479260899,0.0006663027645471865,0.8382515293843136,-0.00090289774,1.7489401e-05,0.1070866,0.00070955546,0.0001204831,-0.014028009,0.80597985,-0.045237057,-4.2852334e-06,0.00473244,0.8732966297788778,0.000683297660835034,-0.4871883922274426,-0.0007112455697214833,0.9999997389229383,0.0001276079735285148,0.4871883522279584,0.00023507097237613665,0.8732968877735937,left_images/camera_left_117.png,right_images/camera_right_117.png
2025-05-02 13:26:32,5.369525671005249,118,-0.06551905,-0.0006018853,0.11403263,3.1817093e-05,-0.0002213327,0.012590532,0.7999763,0.035163004,7.427147e-05,0.0028102696,0.8382517931454101,0.0004835207217744127,0.5452831351657743,-4.198832409449597e-05,0.9999996611241113,-0.0008221852851202143,-0.5452833479260899,0.0006663027645471865,0.8382515293843136,-0.00090289424,1.7482911e-05,0.1070866,0.00070956594,0.00012052472,-0.014028009,0.80597985,-0.045237057,-4.2852334e-06,0.00473244,0.8732966297788778,0.000683297660835034,-0.4871883922274426,-0.0007112455697214833,0.9999997389229383,0.0001276079735285148,0.4871883522279584,0.00023507097237613665,0.8732968877735937,left_images/camera_left_118.png,right_images/camera_right_118.png
2025-05-02 13:26:32,5.412345886230469,119,-0.06551905,-0.0006018869,0.11403263,3.1815765e-05,-0.00022125582,0.012590532,0.7999763,0.035163004,7.427147e-05,0.0028102696,0.8382517931454101,0.0004835207217744127,0.5452831351657743,-4.198832409449597e-05,0.9999996611241113,-0.0008221852851202143,-0.5452833479260899,0.0006663027645471865,0.8382515293843136,-0.00090289075,1.747642e-05,0.1070866,0.0007095764,0.000120566336,-0.014028009,0.80597985,-0.045237057,-4.2852334e-06,0.00473244,0.8732966297788778,0.000683297660835034,-0.4871883922274426,-0.0007112455697214833,0.9999997389229383,0.0001276079735285148,0.4871883522279584,0.00023507097237613665,0.8732968877735937,left_images/camera_left_119.png,right_images/camera_right_119.png
2025-05-02 13:26:33,5.460763692855835,120,-0.06551905,-0.000601887,0.11403263,3.1828153e-05,-0.00022126579,0.012590532,0.7999763,0.035163004,7.427147e-05,0.0028102696,0.8382517931454101,0.0004835207217744127,0.5452831351657743,-4.198832409449597e-05,0.9999996611241113,-0.0008221852851202143,-0.5452833479260899,0.0006663027645471865,0.8382515293843136,-0.00090288726,1.746993e-05,0.1070866,0.0007095869,0.000120607954,-0.014028009,0.80597985,-0.045237057,-4.2950087e-06,0.004732441,0.8732966297336173,0.0006834960224981827,-0.48718839203032405,-0.0007111715929074841,0.9999997389065278,0.00012814773466432065,0.487188352417082,0.0002345635600158923,0.8732968878045231,left_images/camera_left_120.png,right_images/camera_right_120.png
2025-05-02 13:26:33,5.513557434082031,121,-0.06551905,-0.00060188107,0.11403263,3.1790634e-05,-0.00022126157,0.012590588,0.7999763,0.035163008,7.427257e-05,0.0028102696,0.8382520424246092,0.00048356906831313693,0.54528275191127,-4.1969178637775244e-05,0.9999996610273527,-0.0008223039388515527,-0.5452829647160815,0.0006664128870130531,0.8382517785750918,-0.0009028868,1.74715e-05,0.1070866,0.00070959306,0.00012067435,-0.014028037,0.80597985,-0.045237057,-4.2950087e-06,0.004732441,0.8732966297336173,0.0006834960224981827,-0.48718839203032405,-0.0007111715929074841,0.9999997389065278,0.00012814773466432065,0.487188352417082,0.0002345635600158923,0.8732968878045231,left_images/camera_left_121.png,right_images/camera_right_121.png
2025-05-02 13:26:33,5.56416916847229,122,-0.06551905,-0.00060188357,0.11403263,3.179414e-05,-0.00022123188,0.012590588,0.7999763,0.035163008,7.427257e-05,0.0028102696,0.8382520424246092,0.00048356906831313693,0.54528275191127,-4.1969178637775244e-05,0.9999996610273527,-0.0008223039388515527,-0.5452829647160815,0.0006664128870130531,0.8382517785750918,-0.0009028895,1.7476787e-05,0.1070866,0.0007096159,0.00012063753,-0.014028093,0.80597985,-0.045237057,-4.2950087e-06,0.004732441,0.8732966297336173,0.0006834960224981827,-0.48718839203032405,-0.0007111715929074841,0.9999997389065278,0.00012814773466432065,0.487188352417082,0.0002345635600158923,0.8732968878045231,left_images/camera_left_122.png,right_images/camera_right_122.png
2025-05-02 13:26:33,5.618319034576416,123,-0.06551905,-0.00060188706,0.11403263,3.1797656e-05,-0.0002212022,0.012590588,0.7999763,0.035163008,7.427257e-05,0.0028102696,0.8382520424246092,0.00048356906831313693,0.54528275191127,-4.1969178637775244e-05,0.9999996610273527,-0.0008223039388515527,-0.5452829647160815,0.0006664128870130531,0.8382517785750918,-0.00090289296,1.748256e-05,0.1070866,0.0007096387,0.000120600685,-0.014028149,0.80597985,-0.045237057,-4.2950087e-06,0.004732441,0.8732966297336173,0.0006834960224981827,-0.48718839203032405,-0.0007111715929074841,0.9999997389065278,0.00012814773466432065,0.487188352417082,0.0002345635600158923,0.8732968878045231,left_images/camera_left_123.png,right_images/camera_right_123.png
2025-05-02 13:26:33,5.6713457107543945,124,-0.06551905,-0.00060189056,0.11403263,3.180117e-05,-0.00022117251,0.012590588,0.7999763,0.035163008,7.427257e-05,0.0028102696,0.8382520424246092,0.00048356906831313693,0.54528275191127,-4.1969178637775244e-05,0.9999996610273527,-0.0008223039388515527,-0.5452829647160815,0.0006664128870130531,0.8382517785750918,-0.0009028932,1.7484956e-05,0.1070866,0.00070964487,0.000120667064,-0.014028177,0.80597985,-0.045237057,-4.2950087e-06,0.004732441,0.8732966297336173,0.0006834960224981827,-0.48718839203032405,-0.0007111715929074841,0.9999997389065278,0.00012814773466432065,0.487188352417082,0.0002345635600158923,0.8732968878045231,left_images/camera_left_124.png,right_images/camera_right_124.png
2025-05-02 13:26:33,5.713898420333862,125,-0.06551905,-0.00060189405,0.11403263,3.1804684e-05,-0.00022114282,0.012590588,0.7999763,0.035163008,7.427257e-05,0.0028102696,0.8382520424246092,0.00048356906831313693,0.54528275191127,-4.1969178637775244e-05,0.9999996610273527,-0.0008223039388515527,-0.5452829647160815,0.0006664128870130531,0.8382517785750918,-0.0009028959,1.7490242e-05,0.1070866,0.0007096677,0.00012063025,-0.014028233,0.80597985,-0.045237057,-4.2950087e-06,0.004732441,0.8732966297336173,0.0006834960224981827,-0.48718839203032405,-0.0007111715929074841,0.9999997389065278,0.00012814773466432065,0.487188352417082,0.0002345635600158923,0.8732968878045231,left_images/camera_left_125.png,right_images/camera_right_125.png
2025-05-02 13:26:33,5.757874488830566,126,-0.06551905,-0.00060189754,0.11403263,3.18082e-05,-0.00022111314,0.012590588,0.7999763,0.035163008,7.427257e-05,0.0028102696,0.8382520424246092,0.00048356906831313693,0.54528275191127,-4.1969178637775244e-05,0.9999996610273527,-0.0008223039388515527,-0.5452829647160815,0.0006664128870130531,0.8382517785750918,-0.00090289937,1.7496015e-05,0.1070866,0.0007096905,0.0001205934,-0.014028288,0.80597985,-0.04523706,-4.292577e-06,0.0047324384,0.8732968130098312,0.0006834158599635693,-0.4871880636157195,-0.0007111514192940404,0.999999738937341,0.00012801917405246439,0.487188023919442,0.00023466574619926612,0.8732970710368018,left_images/camera_left_126.png,right_images/camera_right_126.png
2025-05-02 13:26:33,5.797208070755005,127,-0.06551905,-0.00060190103,0.11403263,3.1811713e-05,-0.00022108345,0.012590588,0.7999763,0.035163008,7.427257e-05,0.0028102696,0.8382520424246092,0.00048356906831313693,0.54528275191127,-4.1969178637775244e-05,0.9999996610273527,-0.0008223039388515527,-0.5452829647160815,0.0006664128870130531,0.8382517785750918,-0.0009029141,1.7494722e-05,0.1070866,0.00070963596,0.000120581855,-0.014028288,0.80597985,-0.04523706,-4.285843e-06,0.0047324384,0.8732968130080785,0.0006833343069440566,-0.48718806373325535,-0.0007112414223569971,0.9999997389153606,0.0001276904459349152,0.4871880237911977,0.00023499667191845004,0.8732970710193593,left_images/camera_left_127.png,right_images/camera_right_127.png
2025-05-02 13:26:33,5.840304613113403,128,-0.06551905,-0.0006019045,0.11403263,3.1815227e-05,-0.00022105376,0.012590588,0.7999763,0.035163008,7.427257e-05,0.0028102696,0.8382520424246092,0.00048356906831313693,0.54528275191127,-4.1969178637775244e-05,0.9999996610273527,-0.0008223039388515527,-0.5452829647160815,0.0006664128870130531,0.8382517785750918,-0.00090291665,1.749884e-05,0.1070866,0.00070963945,0.000120545024,-0.014028288,0.80597985,-0.04523706,-4.285843e-06,0.0047324384,0.8732968130080785,0.0006833343069440566,-0.48718806373325535,-0.0007112414223569971,0.9999997389153606,0.0001276904459349152,0.4871880237911977,0.00023499667191845004,0.8732970710193593,left_images/camera_left_128.png,right_images/camera_right_128.png
2025-05-02 13:26:33,5.885927677154541,129,-0.06551905,-0.000601908,0.11403263,3.181874e-05,-0.00022102408,0.012590588,0.7999763,0.035163008,7.427257e-05,0.0028102696,0.8382520424246092,0.00048356906831313693,0.54528275191127,-4.1969178637775244e-05,0.9999996610273527,-0.0008223039388515527,-0.5452829647160815,0.0006664128870130531,0.8382517785750918,-0.00090291665,1.7504588e-05,0.1070866,0.00070964295,0.00012050818,-0.014028288,0.80597985,-0.04523706,-4.285843e-06,0.0047324384,0.8732968130080785,0.0006833343069440566,-0.48718806373325535,-0.0007112414223569971,0.9999997389153606,0.0001276904459349152,0.4871880237911977,0.00023499667191845004,0.8732970710193593,left_images/camera_left_129.png,right_images/camera_right_129.png
2025-05-02 13:26:33,5.9283061027526855,130,-0.06551905,-0.0006019115,0.11403263,3.1822256e-05,-0.00022099439,0.012590588,0.7999763,0.035163008,7.427257e-05,0.0028102696,0.8382520424246092,0.00048356906831313693,0.54528275191127,-4.1969178637775244e-05,0.9999996610273527,-0.0008223039388515527,-0.5452829647160815,0.0006664128870130531,0.8382517785750918,-0.00090291665,1.7510336e-05,0.1070866,0.00070964644,0.00012047133,-0.014028288,0.80597985,-0.04523706,-4.285843e-06,0.0047324384,0.8732968130080785,0.0006833343069440566,-0.48718806373325535,-0.0007112414223569971,0.9999997389153606,0.0001276904459349152,0.4871880237911977,0.00023499667191845004,0.8732970710193593,left_images/camera_left_130.png,right_images/camera_right_130.png
2025-05-02 13:26:33,5.975614547729492,131,-0.06551905,-0.000601915,0.11403263,3.182577e-05,-0.0002209647,0.012590588,0.7999763,0.035163008,7.427257e-05,0.0028102696,0.8382520424246092,0.00048356906831313693,0.54528275191127,-4.1969178637775244e-05,0.9999996610273527,-0.0008223039388515527,-0.5452829647160815,0.0006664128870130531,0.8382517785750918,-0.00090291665,1.7516084e-05,0.1070866,0.00070964993,0.00012043449,-0.014028288,0.80597985,-0.04523706,-4.285843e-06,0.0047324384,0.8732968130080785,0.0006833343069440566,-0.48718806373325535,-0.0007112414223569971,0.9999997389153606,0.0001276904459349152,0.4871880237911977,0.00023499667191845004,0.8732970710193593,left_images/camera_left_131.png,right_images/camera_right_131.png
2025-05-02 13:26:33,6.02938437461853,132,-0.06551905,-0.0006019225,0.11403263,3.181096e-05,-0.000220963,0.012590588,0.7999763,0.035163008,7.427257e-05,0.0028102696,0.8382520424246092,0.00048356906831313693,0.54528275191127,-4.1969178637775244e-05,0.9999996610273527,-0.0008223039388515527,-0.5452829647160815,0.0006664128870130531,0.8382517785750918,-0.00090291665,1.7521832e-05,0.1070866,0.0007096534,0.00012039764,-0.014028288,0.80597985,-0.04523706,-4.285843e-06,0.0047324384,0.8732968130080785,0.0006833343069440566,-0.48718806373325535,-0.0007112414223569971,0.9999997389153606,0.0001276904459349152,0.4871880237911977,0.00023499667191845004,0.8732970710193593,left_images/camera_left_132.png,right_images/camera_right_132.png
2025-05-02 13:26:33,6.082494258880615,133,-0.06551905,-0.00060193083,0.11403263,3.1796146e-05,-0.0002209613,0.012590588,0.7999763,0.035163008,7.427257e-05,0.0028102696,0.8382520424246092,0.00048356906831313693,0.54528275191127,-4.1969178637775244e-05,0.9999996610273527,-0.0008223039388515527,-0.5452829647160815,0.0006664128870130531,0.8382517785750918,-0.00090291665,1.752758e-05,0.1070866,0.0007096569,0.0001203608,-0.014028288,0.80597985,-0.04523706,-4.285843e-06,0.0047324384,0.8732968130080785,0.0006833343069440566,-0.48718806373325535,-0.0007112414223569971,0.9999997389153606,0.0001276904459349152,0.4871880237911977,0.00023499667191845004,0.8732970710193593,left_images/camera_left_133.png,right_images/camera_right_133.png
2025-05-02 13:26:33,6.122912883758545,134,-0.06551905,-0.00060193916,0.11403263,3.1781332e-05,-0.0002209596,0.012590588,0.7999763,0.035163008,7.427257e-05,0.0028102696,0.8382520424246092,0.00048356906831313693,0.54528275191127,-4.1969178637775244e-05,0.9999996610273527,-0.0008223039388515527,-0.5452829647160815,0.0006664128870130531,0.8382517785750918,-0.00090291665,1.7533328e-05,0.1070866,0.0007096604,0.00012032395,-0.014028288,0.80597985,-0.04523706,-4.285843e-06,0.0047324384,0.8732968130080785,0.0006833343069440566,-0.48718806373325535,-0.0007112414223569971,0.9999997389153606,0.0001276904459349152,0.4871880237911977,0.00023499667191845004,0.8732970710193593,left_images/camera_left_134.png,right_images/camera_right_134.png
2025-05-02 13:26:33,6.168790340423584,135,-0.06551905,-0.0006019475,0.11403263,3.1766518e-05,-0.0002209579,0.012590588,0.7999763,0.035163008,7.426564e-05,0.002810265,0.8382520920565709,0.00048339846619685327,0.5452826757643277,-4.203858916639039e-05,0.9999996613692738,-0.000821884477733053,-0.5452828884125551,0.0006660234685025474,0.8382518285200458,-0.00090291665,1.7539076e-05,0.1070866,0.0007096639,0.000120287106,-0.014028288,0.80597985,-0.04523706,-4.285843e-06,0.0047324384,0.8732968130080785,0.0006833343069440566,-0.48718806373325535,-0.0007112414223569971,0.9999997389153606,0.0001276904459349152,0.4871880237911977,0.00023499667191845004,0.8732970710193593,left_images/camera_left_135.png,right_images/camera_right_135.png
