jiaqis7/OS_Teleop_Extension/demo_1/teleop_log.csv
Epoch Time (Seconds),Time (Seconds),Frame Number,PSM1_joint_1,PSM1_joint_2,PSM1_joint_3,PSM1_joint_4,PSM1_joint_5,PSM1_joint_6,PSM1_jaw_angle,PSM1_ee_x,PSM1_ee_y,PSM1_ee_z,"PSM1_Orientation_Matrix_[1,1]","PSM1_Orientation_Matrix_[1,2]","PSM1_Orientation_Matrix_[1,3]","PSM1_Orientation_Matrix_[2,1]","PSM1_Orientation_Matrix_[2,2]","PSM1_Orientation_Matrix_[2,3]","PSM1_Orientation_Matrix_[3,1]","PSM1_Orientation_Matrix_[3,2]","PSM1_Orientation_Matrix_[3,3]",PSM2_joint_1,PSM2_joint_2,PSM2_joint_3,PSM2_joint_4,PSM2_joint_5,PSM2_joint_6,PSM2_jaw_angle,PSM2_ee_x,PSM2_ee_y,PSM2_ee_z,"PSM2_Orientation_Matrix_[1,1]","PSM2_Orientation_Matrix_[1,2]","PSM2_Orientation_Matrix_[1,3]","PSM2_Orientation_Matrix_[2,1]","PSM2_Orientation_Matrix_[2,2]","PSM2_Orientation_Matrix_[2,3]","PSM2_Orientation_Matrix_[3,1]","PSM2_Orientation_Matrix_[3,2]","PSM2_Orientation_Matrix_[3,3]",Camera Left,Camera Right
2025-05-02 13:27:17,0.001209259033203125,1,-0.06551905,-0.0006025244,0.11403263,3.2263833e-05,-0.00022078403,0.012602219,0.7999763,0.03516309,7.430595e-05,0.0028102687,0.838258280439367,0.00048413159425693734,0.545273161719367,-4.271827796266763e-05,0.9999996610827762,-0.0008221979576886285,-0.5452733749689088,0.0006659211157049186,0.8382580170204658,-0.00090330094,1.6111786e-05,0.1070866,0.00070935016,0.00012256362,-0.01403462,0.80597985,-0.045237176,-4.134398e-06,0.0047322586,0.8732998277650758,0.0006840181705247879,-0.4871826587068053,-0.0007112833909762013,0.9999997387153783,0.00012901594062589573,0.48718261966271625,0.00023385533478223385,0.8733000861160244,left_images/camera_left_1.png,right_images/camera_right_1.png
2025-05-02 13:27:18,0.048807382583618164,2,-0.06551905,-0.0006025244,0.11403263,3.2266773e-05,-0.00022079323,0.012602219,0.7999763,0.03516309,7.430595e-05,0.0028102687,0.838258280439367,0.00048413159425693734,0.545273161719367,-4.271827796266763e-05,0.9999996610827762,-0.0008221979576886285,-0.5452733749689088,0.0006659211157049186,0.8382580170204658,-0.00090330094,1.611135e-05,0.1070866,0.0007093349,0.00012256624,-0.01403462,0.80597985,-0.045237176,-4.134398e-06,0.0047322586,0.8732998277650758,0.0006840181705247879,-0.4871826587068053,-0.0007112833909762013,0.9999997387153783,0.00012901594062589573,0.48718261966271625,0.00023385533478223385,0.8733000861160244,left_images/camera_left_2.png,right_images/camera_right_2.png
2025-05-02 13:27:18,0.09493684768676758,3,-0.06551905,-0.0006025244,0.11403263,3.2269712e-05,-0.00022080242,0.012602219,0.7999763,0.03516309,7.430595e-05,0.0028102687,0.838258280439367,0.00048413159425693734,0.545273161719367,-4.271827796266763e-05,0.9999996610827762,-0.0008221979576886285,-0.5452733749689088,0.0006659211157049186,0.8382580170204658,-0.00090330094,1.6110913e-05,0.1070866,0.00070931966,0.00012256886,-0.01403462,0.80597985,-0.045237176,-4.134398e-06,0.0047322586,0.8732998277650758,0.0006840181705247879,-0.4871826587068053,-0.0007112833909762013,0.9999997387153783,0.00012901594062589573,0.48718261966271625,0.00023385533478223385,0.8733000861160244,left_images/camera_left_3.png,right_images/camera_right_3.png
2025-05-02 13:27:18,0.14666748046875,4,-0.06551905,-0.0006025244,0.11403263,3.2272652e-05,-0.00022081162,0.012602219,0.7999763,0.03516309,7.430595e-05,0.0028102687,0.838258280439367,0.00048413159425693734,0.545273161719367,-4.271827796266763e-05,0.9999996610827762,-0.0008221979576886285,-0.5452733749689088,0.0006659211157049186,0.8382580170204658,-0.0009033549,1.6151835e-05,0.1070866,0.00070938776,0.00012255639,-0.014034588,0.80597985,-0.045237184,-4.250155e-06,0.0047322502,0.8733000392150033,0.0006838594602148002,-0.4871822798946119,-0.000711133125785311,0.9999997388295514,0.00012895931885927608,0.4871822408470476,0.00023383127931172367,0.8733002974499561,left_images/camera_left_4.png,right_images/camera_right_4.png
2025-05-02 13:27:18,0.1908719539642334,5,-0.06551905,-0.0006025244,0.11403263,3.227559e-05,-0.00022082082,0.012602219,0.7999763,0.03516309,7.430595e-05,0.0028102687,0.838258280439367,0.00048413159425693734,0.545273161719367,-4.271827796266763e-05,0.9999996610827762,-0.0008221979576886285,-0.5452733749689088,0.0006659211157049186,0.8382580170204658,-0.00090336363,1.6163885e-05,0.1070866,0.0007093767,0.00012251963,-0.014034644,0.80597985,-0.045237184,-4.250155e-06,0.0047322502,0.8733000392150033,0.0006838594602148002,-0.4871822798946119,-0.000711133125785311,0.9999997388295514,0.00012895931885927608,0.4871822408470476,0.00023383127931172367,0.8733002974499561,left_images/camera_left_5.png,right_images/camera_right_5.png
2025-05-02 13:27:18,0.23075008392333984,6,-0.06551905,-0.0006025244,0.11403263,3.227853e-05,-0.00022083001,0.012602219,0.7999763,0.03516309,7.430595e-05,0.0028102687,0.838258280439367,0.00048413159425693734,0.545273161719367,-4.271827796266763e-05,0.9999996610827762,-0.0008221979576886285,-0.5452733749689088,0.0006659211157049186,0.8382580170204658,-0.00090336363,1.616913e-05,0.1070866,0.0007093657,0.0001224834,-0.014034644,0.80597985,-0.045237184,-4.250155e-06,0.0047322502,0.8733000392150033,0.0006838594602148002,-0.4871822798946119,-0.000711133125785311,0.9999997388295514,0.00012895931885927608,0.4871822408470476,0.00023383127931172367,0.8733002974499561,left_images/camera_left_6.png,right_images/camera_right_6.png
2025-05-02 13:27:18,0.2741096019744873,7,-0.06551905,-0.0006025244,0.11403263,3.228147e-05,-0.00022083921,0.012602219,0.7999763,0.03516309,7.430595e-05,0.0028102687,0.838258280439367,0.00048413159425693734,0.545273161719367,-4.271827796266763e-05,0.9999996610827762,-0.0008221979576886285,-0.5452733749689088,0.0006659211157049186,0.8382580170204658,-0.00090336363,1.6174294e-05,0.1070866,0.0007093547,0.00012244716,-0.014034644,0.80597985,-0.045237184,-4.24288e-06,0.0047322502,0.873300039301238,0.0006836517206833369,-0.48718228003159264,-0.0007110969401425943,0.9999997389018431,0.00012859777331300352,0.4871822407452862,0.00023412938813386036,0.873300297426854,left_images/camera_left_7.png,right_images/camera_right_7.png
2025-05-02 13:27:18,0.3175010681152344,8,-0.06551905,-0.0006025244,0.11403263,3.228441e-05,-0.00022084841,0.012602219,0.7999763,0.03516309,7.430595e-05,0.0028102687,0.838258280439367,0.00048413159425693734,0.545273161719367,-4.271827796266763e-05,0.9999996610827762,-0.0008221979576886285,-0.5452733749689088,0.0006659211157049186,0.8382580170204658,-0.000903367,1.6174215e-05,0.1070866,0.00070933317,0.00012244978,-0.014034644,0.80597985,-0.045237184,-4.24288e-06,0.0047322502,0.873300039301238,0.0006836517206833369,-0.48718228003159264,-0.0007110969401425943,0.9999997389018431,0.00012859777331300352,0.4871822407452862,0.00023412938813386036,0.873300297426854,left_images/camera_left_8.png,right_images/camera_right_8.png
2025-05-02 13:27:18,0.3573596477508545,9,-0.06551905,-0.0006025244,0.11403263,3.228735e-05,-0.0002208576,0.012602219,0.7999763,0.03516309,7.430595e-05,0.0028102687,0.838258280439367,0.00048413159425693734,0.545273161719367,-4.271827796266763e-05,0.9999996610827762,-0.0008221979576886285,-0.5452733749689088,0.0006659211157049186,0.8382580170204658,-0.0009033705,1.6173779e-05,0.1070866,0.00070931163,0.0001224524,-0.014034644,0.80597985,-0.045237184,-4.224227e-06,0.004732253,0.8733000249473042,0.0006833082994939072,-0.4871823062435721,-0.0007106827473005676,0.9999997391914572,0.0001286353373899608,0.4871822670798584,0.00023389481648565064,0.8733002827986169,left_images/camera_left_9.png,right_images/camera_right_9.png
2025-05-02 13:27:18,0.40128421783447266,10,-0.06551905,-0.0006025244,0.11403263,3.229029e-05,-0.0002208668,0.012602219,0.7999763,0.03516309,7.430595e-05,0.0028102687,0.838258280439367,0.00048413159425693734,0.545273161719367,-4.271827796266763e-05,0.9999996610827762,-0.0008221979576886285,-0.5452733749689088,0.0006659211157049186,0.8382580170204658,-0.00090337,1.6164535e-05,0.1070866,0.0007093171,0.00012246464,-0.014034644,0.80597985,-0.045237184,-4.250155e-06,0.0047322502,0.8733000392150033,0.0006838594602148002,-0.4871822798946119,-0.000711133125785311,0.9999997388295514,0.00012895931885927608,0.4871822408470476,0.00023383127931172367,0.8733002974499561,left_images/camera_left_10.png,right_images/camera_right_10.png
2025-05-02 13:27:18,0.45180511474609375,11,-0.06551905,-0.0006025244,0.11403263,3.229323e-05,-0.000220876,0.012602219,0.7999763,0.03516309,7.430595e-05,0.0028102687,0.838258280439367,0.00048413159425693734,0.545273161719367,-4.271827796266763e-05,0.9999996610827762,-0.0008221979576886285,-0.5452733749689088,0.0006659211157049186,0.8382580170204658,-0.00090337335,1.6193611e-05,0.1070866,0.0007093719,0.00012244878,-0.014034644,0.80597985,-0.045237184,-4.24288e-06,0.0047322502,0.873300039301238,0.0006836517206833369,-0.48718228003159264,-0.0007110969401425943,0.9999997389018431,0.00012859777331300352,0.4871822407452862,0.00023412938813386036,0.873300297426854,left_images/camera_left_11.png,right_images/camera_right_11.png
2025-05-02 13:27:18,0.5009701251983643,12,-0.06551905,-0.0006025244,0.11403263,3.2296168e-05,-0.0002208852,0.012602219,0.7999763,0.03516309,7.430595e-05,0.0028102687,0.838258280439367,0.00048413159425693734,0.545273161719367,-4.271827796266763e-05,0.9999996610827762,-0.0008221979576886285,-0.5452733749689088,0.0006659211157049186,0.8382580170204658,-0.00090337725,1.6197653e-05,0.1070866,0.0007093504,0.0001224514,-0.014034644,0.80597985,-0.045237184,-4.24288e-06,0.0047322502,0.873300039301238,0.0006836517206833369,-0.48718228003159264,-0.0007110969401425943,0.9999997389018431,0.00012859777331300352,0.4871822407452862,0.00023412938813386036,0.873300297426854,left_images/camera_left_12.png,right_images/camera_right_12.png
2025-05-02 13:27:18,0.5543501377105713,13,-0.06551905,-0.0006025244,0.11403263,3.2299107e-05,-0.00022089439,0.012602219,0.7999763,0.03516309,7.430595e-05,0.0028102687,0.838258280439367,0.00048413159425693734,0.545273161719367,-4.271827796266763e-05,0.9999996610827762,-0.0008221979576886285,-0.5452733749689088,0.0006659211157049186,0.8382580170204658,-0.00090338074,1.6197217e-05,0.1070866,0.00070932886,0.00012245402,-0.014034644,0.80597985,-0.045237184,-4.24288e-06,0.0047322502,0.873300039301238,0.0006836517206833369,-0.48718228003159264,-0.0007110969401425943,0.9999997389018431,0.00012859777331300352,0.4871822407452862,0.00023412938813386036,0.873300297426854,left_images/camera_left_13.png,right_images/camera_right_13.png
2025-05-02 13:27:18,0.6022157669067383,14,-0.06551905,-0.0006025244,0.11403263,3.2302047e-05,-0.00022090359,0.012602219,0.7999763,0.03516309,7.430595e-05,0.0028102687,0.838258280439367,0.00048413159425693734,0.545273161719367,-4.271827796266763e-05,0.9999996610827762,-0.0008221979576886285,-0.5452733749689088,0.0006659211157049186,0.8382580170204658,-0.00090338424,1.619678e-05,0.1070866,0.0007093073,0.00012245664,-0.014034644,0.80597985,-0.045237184,-4.224227e-06,0.004732253,0.8733000249473042,0.0006833082994939072,-0.4871823062435721,-0.0007106827473005676,0.9999997391914572,0.0001286353373899608,0.4871822670798584,0.00023389481648565064,0.8733002827986169,left_images/camera_left_14.png,right_images/camera_right_14.png
2025-05-02 13:27:18,0.6579728126525879,15,-0.06551905,-0.0006025244,0.11403263,3.2304986e-05,-0.00022091279,0.012602219,0.7999763,0.03516309,7.430595e-05,0.0028102687,0.838258280439367,0.00048413159425693734,0.545273161719367,-4.271827796266763e-05,0.9999996610827762,-0.0008221979576886285,-0.5452733749689088,0.0006659211157049186,0.8382580170204658,-0.0009033837,1.6187536e-05,0.1070866,0.0007093128,0.00012246887,-0.014034644,0.80597985,-0.045237184,-4.2307647e-06,0.004732255,0.8732999967855495,0.0006834559829272785,-0.48718235651784314,-0.0007106996502041767,0.9999997391443072,0.00012890820360157227,0.487182317536635,0.00023366479657199363,0.8733002547122017,left_images/camera_left_15.png,right_images/camera_right_15.png
2025-05-02 13:27:18,0.7106263637542725,16,-0.06551905,-0.0006025244,0.11403263,3.2307926e-05,-0.00022092198,0.012602219,0.7999763,0.03516309,7.430595e-05,0.0028102687,0.838258280439367,0.00048413159425693734,0.545273161719367,-4.271827796266763e-05,0.9999996610827762,-0.0008221979576886285,-0.5452733749689088,0.0006659211157049186,0.8382580170204658,-0.0009033823,1.6180415e-05,0.1070866,0.0007093222,0.00012251062,-0.014034616,0.80597985,-0.045237184,-4.250155e-06,0.0047322502,0.8733000392150033,0.0006838594602148002,-0.4871822798946119,-0.000711133125785311,0.9999997388295514,0.00012895931885927608,0.4871822408470476,0.00023383127931172367,0.8733002974499561,left_images/camera_left_16.png,right_images/camera_right_16.png
2025-05-02 13:27:18,0.7570412158966064,17,-0.06551905,-0.0006025244,0.11403263,3.2310865e-05,-0.00022093118,0.012602219,0.7999763,0.03516309,7.430595e-05,0.0028102687,0.838258280439367,0.00048413159425693734,0.545273161719367,-4.271827796266763e-05,0.9999996610827762,-0.0008221979576886285,-0.5452733749689088,0.0006659211157049186,0.8382580170204658,-0.0009033825,1.6185299e-05,0.1070866,0.00070931116,0.00012247385,-0.014034672,0.80597985,-0.045237184,-4.2308375e-06,0.004732251,0.8733002227211426,0.0006834902995775307,-0.4871819514680447,-0.0007107339445105319,0.9999997391188061,0.0001289169457981476,0.48718191248491766,0.00023367355258317022,0.8733004806732949,left_images/camera_left_17.png,right_images/camera_right_17.png
2025-05-02 13:27:18,0.7994861602783203,18,-0.06551905,-0.0006025244,0.11403263,3.2313805e-05,-0.00022094038,0.012602219,0.7999763,0.03516309,7.430595e-05,0.0028102687,0.838258280439367,0.00048413159425693734,0.545273161719367,-4.271827796266763e-05,0.9999996610827762,-0.0008221979576886285,-0.5452733749689088,0.0006659211157049186,0.8382580170204658,-0.000903378,1.61597e-05,0.1070866,0.0007092835,0.00012250563,-0.014034728,0.80597985,-0.045237184,-4.2308375e-06,0.004732251,0.8733002227211426,0.0006834902995775307,-0.4871819514680447,-0.0007107339445105319,0.9999997391188061,0.0001289169457981476,0.48718191248491766,0.00023367355258317022,0.8733004806732949,left_images/camera_left_18.png,right_images/camera_right_18.png
2025-05-02 13:27:18,0.8447372913360596,19,-0.06551905,-0.0006025244,0.11403263,3.2316744e-05,-0.00022094957,0.012602219,0.7999763,0.03516309,7.430595e-05,0.0028102687,0.838258280439367,0.00048413159425693734,0.545273161719367,-4.271827796266763e-05,0.9999996610827762,-0.0008221979576886285,-0.5452733749689088,0.0006659211157049186,0.8382580170204658,-0.0009033769,1.6149985e-05,0.1070866,0.00070932263,0.00012254725,-0.0140347835,0.80597985,-0.045237187,-4.2505353e-06,0.0047322502,0.8733002640189456,0.0006838938061347439,-0.48718187687320835,-0.0007111674491430678,0.999999738804014,0.00012896807001393828,0.48718183782372193,0.0002338400430514655,0.8733005222794357,left_images/camera_left_19.png,right_images/camera_right_19.png
2025-05-02 13:27:18,0.9036083221435547,20,-0.06551905,-0.0006025244,0.11403263,3.2319684e-05,-0.00022095877,0.012602219,0.7999763,0.03516309,7.430595e-05,0.0028102687,0.838258280439367,0.00048413159425693734,0.545273161719367,-4.271827796266763e-05,0.9999996610827762,-0.0008221979576886285,-0.5452733749689088,0.0006659211157049186,0.8382580170204658,-0.0009033735,1.61549e-05,0.1070866,0.0007093261,0.00012251046,-0.014034839,0.80597985,-0.045237187,-4.2505353e-06,0.0047322502,0.8733002640189456,0.0006838938061347439,-0.48718187687320835,-0.0007111674491430678,0.999999738804014,0.00012896807001393828,0.48718183782372193,0.0002338400430514655,0.8733005222794357,left_images/camera_left_20.png,right_images/camera_right_20.png
2025-05-02 13:27:18,0.949444055557251,21,-0.06551905,-0.0006025244,0.11403263,3.2324984e-05,-0.00022091846,0.012602219,0.7999763,0.03516309,7.430595e-05,0.0028102687,0.838258280439367,0.00048413159425693734,0.545273161719367,-4.271827796266763e-05,0.9999996610827762,-0.0008221979576886285,-0.5452733749689088,0.0006659211157049186,0.8382580170204658,-0.00090337003,1.6160644e-05,0.1070866,0.0007093296,0.00012247368,-0.014034895,0.80597985,-0.045237187,-4.2505353e-06,0.0047322502,0.8733002640189456,0.0006838938061347439,-0.48718187687320835,-0.0007111674491430678,0.999999738804014,0.00012896807001393828,0.48718183782372193,0.0002338400430514655,0.8733005222794357,left_images/camera_left_21.png,right_images/camera_right_21.png
2025-05-02 13:27:18,0.9934260845184326,22,-0.06551905,-0.00060252426,0.11403263,3.2327927e-05,-0.00022092764,0.012602219,0.7999763,0.03516309,7.430595e-05,0.0028102687,0.838258280439367,0.00048413159425693734,0.545273161719367,-4.271827796266763e-05,0.9999996610827762,-0.0008221979576886285,-0.5452733749689088,0.0006659211157049186,0.8382580170204658,-0.0009033683,1.6169308e-05,0.1070866,0.0007093486,0.00012246658,-0.014034923,0.80597985,-0.045237187,-4.2505353e-06,0.0047322502,0.8733002640189456,0.0006838938061347439,-0.48718187687320835,-0.0007111674491430678,0.999999738804014,0.00012896807001393828,0.48718183782372193,0.0002338400430514655,0.8733005222794357,left_images/camera_left_22.png,right_images/camera_right_22.png
2025-05-02 13:27:19,1.042487382888794,23,-0.06551905,-0.00060252426,0.11403263,3.2330867e-05,-0.00022093684,0.012602219,0.7999763,0.03516309,7.430595e-05,0.0028102687,0.838258280439367,0.00048413159425693734,0.545273161719367,-4.271827796266763e-05,0.9999996610827762,-0.0008221979576886285,-0.5452733749689088,0.0006659211157049186,0.8382580170204658,-0.0009033672,1.6178463e-05,0.1070866,0.00070936757,0.00012245947,-0.014034951,0.80597985,-0.045237187,-4.2441297e-06,0.004732251,0.8733002359740545,0.0006837257137462456,-0.4871819273811469,-0.0007111709133389626,0.9999997388467838,0.0001286168579551076,0.4871818880906727,0.00023414848385544954,0.8733004941547294,left_images/camera_left_23.png,right_images/camera_right_23.png
2025-05-02 13:27:19,1.0971646308898926,24,-0.06551905,-0.00060252426,0.11403263,3.2333806e-05,-0.00022094604,0.012602219,0.7999763,0.03516309,7.430595e-05,0.0028102687,0.838258280439367,0.00048413159425693734,0.545273161719367,-4.271827796266763e-05,0.9999996610827762,-0.0008221979576886285,-0.5452733749689088,0.0006659211157049186,0.8382580170204658,-0.0009033672,1.6184727e-05,0.1070866,0.00070938654,0.00012242266,-0.014034951,0.80597985,-0.045237187,-4.2441297e-06,0.004732251,0.8733002359740545,0.0006837257137462456,-0.4871819273811469,-0.0007111709133389626,0.9999997388467838,0.0001286168579551076,0.4871818880906727,0.00023414848385544954,0.8733004941547294,left_images/camera_left_24.png,right_images/camera_right_24.png
2025-05-02 13:27:19,1.149719476699829,25,-0.06551905,-0.00060252426,0.11403263,3.2336746e-05,-0.00022095523,0.012602219,0.7999763,0.03516309,7.430595e-05,0.0028102687,0.838258280439367,0.00048413159425693734,0.545273161719367,-4.271827796266763e-05,0.9999996610827762,-0.0008221979576886285,-0.5452733749689088,0.0006659211157049186,0.8382580170204658,-0.0009033672,1.6190497e-05,0.1070866,0.0007094055,0.00012238584,-0.014034951,0.80597985,-0.045237187,-4.2441297e-06,0.004732251,0.8733002359740545,0.0006837257137462456,-0.4871819273811469,-0.0007111709133389626,0.9999997388467838,0.0001286168579551076,0.4871818880906727,0.00023414848385544954,0.8733004941547294,left_images/camera_left_25.png,right_images/camera_right_25.png
2025-05-02 13:27:19,1.1975908279418945,26,-0.06551905,-0.00060252426,0.11403263,3.2342046e-05,-0.00022091492,0.012602219,0.7999763,0.03516309,7.430595e-05,0.0028102687,0.838258280439367,0.00048413159425693734,0.545273161719367,-4.271827796266763e-05,0.9999996610827762,-0.0008221979576886285,-0.5452733749689088,0.0006659211157049186,0.8382580170204658,-0.0009033672,1.6196267e-05,0.1070866,0.0007094245,0.00012234903,-0.014034951,0.80597985,-0.045237187,-4.2441297e-06,0.004732251,0.8733002359740545,0.0006837257137462456,-0.4871819273811469,-0.0007111709133389626,0.9999997388467838,0.0001286168579551076,0.4871818880906727,0.00023414848385544954,0.8733004941547294,left_images/camera_left_26.png,right_images/camera_right_26.png
2025-05-02 13:27:19,1.2413887977600098,27,-0.06551905,-0.00060252415,0.11403263,3.234499e-05,-0.0002209241,0.012602219,0.7999763,0.03516309,7.430595e-05,0.0028102687,0.838258280439367,0.00048413159425693734,0.545273161719367,-4.271827796266763e-05,0.9999996610827762,-0.0008221979576886285,-0.5452733749689088,0.0006659211157049186,0.8382580170204658,-0.0009033672,1.6202037e-05,0.1070866,0.00070944347,0.00012231221,-0.014034951,0.80597985,-0.045237187,-4.2441297e-06,0.004732251,0.8733002359740545,0.0006837257137462456,-0.4871819273811469,-0.0007111709133389626,0.9999997388467838,0.0001286168579551076,0.4871818880906727,0.00023414848385544954,0.8733004941547294,left_images/camera_left_27.png,right_images/camera_right_27.png
2025-05-02 13:27:19,1.2823331356048584,28,-0.06551905,-0.00060252415,0.11403263,3.234793e-05,-0.0002209333,0.012602219,0.7999763,0.03516309,7.430595e-05,0.0028102687,0.838258280439367,0.00048413159425693734,0.545273161719367,-4.271827796266763e-05,0.9999996610827762,-0.0008221979576886285,-0.5452733749689088,0.0006659211157049186,0.8382580170204658,-0.0009033672,1.6207807e-05,0.1070866,0.00070946245,0.00012227539,-0.014034951,0.80597985,-0.045237187,-4.2441297e-06,0.004732251,0.8733002359740545,0.0006837257137462456,-0.4871819273811469,-0.0007111709133389626,0.9999997388467838,0.0001286168579551076,0.4871818880906727,0.00023414848385544954,0.8733004941547294,left_images/camera_left_28.png,right_images/camera_right_28.png
2025-05-02 13:27:19,1.3289682865142822,29,-0.06551905,-0.00060252415,0.11403263,3.235087e-05,-0.0002209425,0.012602219,0.7999763,0.03516309,7.430595e-05,0.0028102687,0.838258280439367,0.00048413159425693734,0.545273161719367,-4.271827796266763e-05,0.9999996610827762,-0.0008221979576886285,-0.5452733749689088,0.0006659211157049186,0.8382580170204658,-0.0009033672,1.6213577e-05,0.1070866,0.0007094814,0.00012223858,-0.014034951,0.80597985,-0.045237187,-4.2441297e-06,0.004732251,0.8733002359740545,0.0006837257137462456,-0.4871819273811469,-0.0007111709133389626,0.9999997388467838,0.0001286168579551076,0.4871818880906727,0.00023414848385544954,0.8733004941547294,left_images/camera_left_29.png,right_images/camera_right_29.png
2025-05-02 13:27:19,1.3700916767120361,30,-0.06551905,-0.00060252415,0.11403263,3.2353808e-05,-0.0002209517,0.012602219,0.7999763,0.03516309,7.430595e-05,0.0028102687,0.838258280439367,0.00048413159425693734,0.545273161719367,-4.271827796266763e-05,0.9999996610827762,-0.0008221979576886285,-0.5452733749689088,0.0006659211157049186,0.8382580170204658,-0.0009033672,1.6219346e-05,0.1070866,0.0007095004,0.00012220176,-0.014034951,0.80597985,-0.045237187,-4.2441297e-06,0.004732251,0.8733002359740545,0.0006837257137462456,-0.4871819273811469,-0.0007111709133389626,0.9999997388467838,0.0001286168579551076,0.4871818880906727,0.00023414848385544954,0.8733004941547294,left_images/camera_left_30.png,right_images/camera_right_30.png
2025-05-02 13:27:19,1.4103000164031982,31,-0.06551905,-0.00060252415,0.11403263,3.2356747e-05,-0.0002209609,0.012602219,0.7999763,0.035163097,7.4312265e-05,0.0028102687,0.8382582804596633,0.000484232652749624,0.545273161598429,-4.262553425429195e-05,0.9999996608170713,-0.0008225258696829094,-0.545273374944965,0.0006662465613263247,0.8382580167774403,-0.0009033672,1.6225116e-05,0.1070866,0.0007095194,0.00012216494,-0.014034951,0.80597985,-0.045237187,-4.2441297e-06,0.004732251,0.8733002359740545,0.0006837257137462456,-0.4871819273811469,-0.0007111709133389626,0.9999997388467838,0.0001286168579551076,0.4871818880906727,0.00023414848385544954,0.8733004941547294,left_images/camera_left_31.png,right_images/camera_right_31.png
2025-05-02 13:27:19,1.4545137882232666,32,-0.06551905,-0.00060252746,0.11403263,3.2333966e-05,-0.0002209788,0.012602191,0.7999763,0.035163097,7.4312265e-05,0.0028102687,0.8382582804596633,0.000484232652749624,0.545273161598429,-4.262553425429195e-05,0.9999996608170713,-0.0008225258696829094,-0.545273374944965,0.0006662465613263247,0.8382580167774403,-0.0009033672,1.6230886e-05,0.1070866,0.00070953835,0.00012212813,-0.014034951,0.80597985,-0.045237187,-4.2441297e-06,0.004732251,0.8733002359740545,0.0006837257137462456,-0.4871819273811469,-0.0007111709133389626,0.9999997388467838,0.0001286168579551076,0.4871818880906727,0.00023414848385544954,0.8733004941547294,left_images/camera_left_32.png,right_images/camera_right_32.png
2025-05-02 13:27:19,1.494215726852417,33,-0.06551905,-0.00060253096,0.11403263,3.2313546e-05,-0.00022094721,0.012602191,0.7999763,0.03516309,7.430595e-05,0.0028102687,0.838258280439367,0.00048413159425693734,0.545273161719367,-4.271827796266763e-05,0.9999996610827762,-0.0008221979576886285,-0.5452733749689088,0.0006659211157049186,0.8382580170204658,-0.0009033672,1.6236656e-05,0.1070866,0.0007095573,0.00012209131,-0.014034951,0.80597985,-0.045237187,-4.2441297e-06,0.004732251,0.8733002359740545,0.0006837257137462456,-0.4871819273811469,-0.0007111709133389626,0.9999997388467838,0.0001286168579551076,0.4871818880906727,0.00023414848385544954,0.8733004941547294,left_images/camera_left_33.png,right_images/camera_right_33.png
2025-05-02 13:27:19,1.5362529754638672,34,-0.06551905,-0.00060253113,0.11403263,3.2316486e-05,-0.00022095641,0.012602191,0.7999763,0.03516309,7.430595e-05,0.0028102687,0.838258280439367,0.00048413159425693734,0.545273161719367,-4.271827796266763e-05,0.9999996610827762,-0.0008221979576886285,-0.5452733749689088,0.0006659211157049186,0.8382580170204658,-0.0009033703,1.6239128e-05,0.1070866,0.00070955954,0.00012214106,-0.014034951,0.80597985,-0.045237187,-4.2441297e-06,0.004732251,0.8733002359740545,0.0006837257137462456,-0.4871819273811469,-0.0007111709133389626,0.9999997388467838,0.0001286168579551076,0.4871818880906727,0.00023414848385544954,0.8733004941547294,left_images/camera_left_34.png,right_images/camera_right_34.png
2025-05-02 13:27:19,1.5807085037231445,35,-0.06551905,-0.00060253113,0.11403263,3.2321786e-05,-0.0002209161,0.012602191,0.7999763,0.03516309,7.430595e-05,0.0028102687,0.838258280439367,0.00048413159425693734,0.545273161719367,-4.271827796266763e-05,0.9999996610827762,-0.0008221979576886285,-0.5452733749689088,0.0006659211157049186,0.8382580170204658,-0.00090337085,1.624441e-05,0.1070866,0.0007095785,0.00012210426,-0.014034951,0.80597985,-0.045237187,-4.2441297e-06,0.004732251,0.8733002359740545,0.0006837257137462456,-0.4871819273811469,-0.0007111709133389626,0.9999997388467838,0.0001286168579551076,0.4871818880906727,0.00023414848385544954,0.8733004941547294,left_images/camera_left_35.png,right_images/camera_right_35.png
2025-05-02 13:27:19,1.6212749481201172,36,-0.06551905,-0.000602531,0.11403263,3.232473e-05,-0.00022092529,0.012602191,0.7999763,0.03516309,7.430595e-05,0.0028102687,0.838258280439367,0.00048413159425693734,0.545273161719367,-4.271827796266763e-05,0.9999996610827762,-0.0008221979576886285,-0.5452733749689088,0.0006659211157049186,0.8382580170204658,-0.000903374,1.6246882e-05,0.1070866,0.0007095807,0.00012215402,-0.014034951,0.80597985,-0.045237187,-4.2441297e-06,0.004732251,0.8733002359740545,0.0006837257137462456,-0.4871819273811469,-0.0007111709133389626,0.9999997388467838,0.0001286168579551076,0.4871818880906727,0.00023414848385544954,0.8733004941547294,left_images/camera_left_36.png,right_images/camera_right_36.png
2025-05-02 13:27:19,1.662475824356079,37,-0.06551905,-0.000602531,0.11403263,3.232767e-05,-0.00022093448,0.012602191,0.7999763,0.03516309,7.430595e-05,0.0028102687,0.838258280439367,0.00048413159425693734,0.545273161719367,-4.271827796266763e-05,0.9999996610827762,-0.0008221979576886285,-0.5452733749689088,0.0006659211157049186,0.8382580170204658,-0.0009033745,1.6252165e-05,0.1070866,0.0007095997,0.00012211721,-0.014034951,0.80597985,-0.045237187,-4.2441297e-06,0.004732251,0.8733002359740545,0.0006837257137462456,-0.4871819273811469,-0.0007111709133389626,0.9999997388467838,0.0001286168579551076,0.4871818880906727,0.00023414848385544954,0.8733004941547294,left_images/camera_left_37.png,right_images/camera_right_37.png
2025-05-02 13:27:19,1.707303524017334,38,-0.06551905,-0.000602531,0.11403263,3.233061e-05,-0.00022094368,0.012602191,0.7999763,0.03516309,7.430595e-05,0.0028102687,0.838258280439367,0.00048413159425693734,0.545273161719367,-4.271827796266763e-05,0.9999996610827762,-0.0008221979576886285,-0.5452733749689088,0.0006659211157049186,0.8382580170204658,-0.0009033745,1.6257934e-05,0.1070866,0.0007096187,0.0001220804,-0.014034951,0.80597985,-0.045237184,-4.2363517e-06,0.0047322502,0.8733002225469567,0.0006835372537501833,-0.4871819517144065,-0.00071119478279709,0.9999997388849711,0.0001281872469980366,0.4871819121246359,0.00023453531100112266,0.8733004806432727,left_images/camera_left_38.png,right_images/camera_right_38.png
2025-05-02 13:27:19,1.7524397373199463,39,-0.06551905,-0.000602531,0.11403263,3.2333548e-05,-0.00022095288,0.012602191,0.7999763,0.03516309,7.430595e-05,0.0028102687,0.838258280439367,0.00048413159425693734,0.545273161719367,-4.271827796266763e-05,0.9999996610827762,-0.0008221979576886285,-0.5452733749689088,0.0006659211157049186,0.8382580170204658,-0.0009033714,1.6255557e-05,0.1070866,0.0007096356,0.000122035526,-0.01403499,0.80597985,-0.045237184,-4.2363517e-06,0.0047322502,0.8733002225469567,0.0006835372537501833,-0.4871819517144065,-0.00071119478279709,0.9999997388849711,0.0001281872469980366,0.4871819121246359,0.00023453531100112266,0.8733004806432727,left_images/camera_left_39.png,right_images/camera_right_39.png
2025-05-02 13:27:19,1.7960829734802246,40,-0.06551905,-0.000602531,0.11403263,3.2336487e-05,-0.00022096207,0.012602191,0.7999763,0.035163097,7.4312265e-05,0.0028102687,0.8382582804596633,0.000484232652749624,0.545273161598429,-4.262553425429195e-05,0.9999996608170713,-0.0008225258696829094,-0.545273374944965,0.0006662465613263247,0.8382580167774403,-0.0009033709,1.6249553e-05,0.1070866,0.0007096356,0.00012207722,-0.014035044,0.80597985,-0.04523719,-4.2355805e-06,0.0047322502,0.8733004046888362,0.0006834775060492418,-0.4871816252988344,-0.0007111542525392851,0.9999997389202249,0.00012813708035489232,0.48718158568437725,0.00023455912046069327,0.8733006627456977,left_images/camera_left_40.png,right_images/camera_right_40.png
2025-05-02 13:27:19,1.842449426651001,41,-0.06551905,-0.00060253433,0.11403263,3.2313706e-05,-0.00022097999,0.0126021635,0.7999763,0.035163097,7.4312265e-05,0.0028102687,0.8382582804596633,0.000484232652749624,0.545273161598429,-4.262553425429195e-05,0.9999996608170713,-0.0008225258696829094,-0.545273374944965,0.0006662465613263247,0.8382580167774403,-0.0009033742,1.6248721e-05,0.1070866,0.00070962025,0.00012207984,-0.014035044,0.80597985,-0.04523719,-4.2355805e-06,0.0047322502,0.8733004046888362,0.0006834775060492418,-0.4871816252988344,-0.0007111542525392851,0.9999997389202249,0.00012813708035489232,0.48718158568437725,0.00023455912046069327,0.8733006627456977,left_images/camera_left_41.png,right_images/camera_right_41.png
2025-05-02 13:27:19,1.8827791213989258,42,-0.06551905,-0.0006025378,0.11403263,3.2293286e-05,-0.0002209484,0.0126021635,0.7999763,0.03516309,7.430595e-05,0.0028102687,0.838258280439367,0.00048413159425693734,0.545273161719367,-4.271827796266763e-05,0.9999996610827762,-0.0008221979576886285,-0.5452733749689088,0.0006659211157049186,0.8382580170204658,-0.0009033777,1.6248288e-05,0.1070866,0.0007096049,0.00012208246,-0.014035044,0.80597985,-0.04523719,-4.2355805e-06,0.0047322502,0.8733004046888362,0.0006834775060492418,-0.4871816252988344,-0.0007111542525392851,0.9999997389202249,0.00012813708035489232,0.48718158568437725,0.00023455912046069327,0.8733006627456977,left_images/camera_left_42.png,right_images/camera_right_42.png
2025-05-02 13:27:19,1.9233925342559814,43,-0.06551905,-0.000602538,0.11403263,3.2296226e-05,-0.00022095759,0.0126021635,0.7999763,0.03516309,7.430595e-05,0.0028102687,0.838258280439367,0.00048413159425693734,0.545273161719367,-4.271827796266763e-05,0.9999996610827762,-0.0008221979576886285,-0.5452733749689088,0.0006659211157049186,0.8382580170204658,-0.0009033812,1.6247855e-05,0.1070866,0.0007095895,0.00012208508,-0.014035044,0.80597985,-0.04523719,-4.2355805e-06,0.0047322502,0.8733004046888362,0.0006834775060492418,-0.4871816252988344,-0.0007111542525392851,0.9999997389202249,0.00012813708035489232,0.48718158568437725,0.00023455912046069327,0.8733006627456977,left_images/camera_left_43.png,right_images/camera_right_43.png
2025-05-02 13:27:19,1.9673967361450195,44,-0.06551905,-0.000602538,0.11403263,3.2301527e-05,-0.00022091728,0.0126021635,0.7999763,0.03516309,7.430595e-05,0.0028102687,0.838258280439367,0.00048413159425693734,0.545273161719367,-4.271827796266763e-05,0.9999996610827762,-0.0008221979576886285,-0.5452733749689088,0.0006659211157049186,0.8382580170204658,-0.0009033847,1.6247423e-05,0.1070866,0.00070957415,0.0001220877,-0.014035044,0.80597985,-0.04523719,-4.2355805e-06,0.0047322502,0.8733004046888362,0.0006834775060492418,-0.4871816252988344,-0.0007111542525392851,0.9999997389202249,0.00012813708035489232,0.48718158568437725,0.00023455912046069327,0.8733006627456977,left_images/camera_left_44.png,right_images/camera_right_44.png
2025-05-02 13:27:19,2.009122133255005,45,-0.06551905,-0.0006025379,0.11403263,3.230447e-05,-0.00022092646,0.0126021635,0.7999763,0.03516309,7.430595e-05,0.0028102687,0.838258280439367,0.00048413159425693734,0.545273161719367,-4.271827796266763e-05,0.9999996610827762,-0.0008221979576886285,-0.5452733749689088,0.0006659211157049186,0.8382580170204658,-0.0009033882,1.624699e-05,0.1070866,0.0007095588,0.00012209032,-0.014035044,0.80597985,-0.045237187,-4.2425204e-06,0.0047322484,0.8733003911629118,0.0006836388846721865,-0.4871816493183838,-0.0007111033048430512,0.9999997389022166,0.0001285596696561569,0.48718161000472415,0.0002341652710906946,0.8733006492839855,left_images/camera_left_45.png,right_images/camera_right_45.png
2025-05-02 13:27:20,2.050631046295166,46,-0.06551905,-0.0006025379,0.11403263,3.230741e-05,-0.00022093566,0.0126021635,0.7999763,0.03516309,7.430595e-05,0.0028102687,0.838258280439367,0.00048413159425693734,0.545273161719367,-4.271827796266763e-05,0.9999996610827762,-0.0008221979576886285,-0.5452733749689088,0.0006659211157049186,0.8382580170204658,-0.0009033917,1.6246553e-05,0.1070866,0.00070953666,0.00012209294,-0.014035044,0.80597985,-0.045237187,-4.2425204e-06,0.0047322484,0.8733003911629118,0.0006836388846721865,-0.4871816493183838,-0.0007111033048430512,0.9999997389022166,0.0001285596696561569,0.48718161000472415,0.0002341652710906946,0.8733006492839855,left_images/camera_left_46.png,right_images/camera_right_46.png
2025-05-02 13:27:20,2.097334146499634,47,-0.06551905,-0.0006025379,0.11403263,3.231035e-05,-0.00022094486,0.0126021635,0.7999763,0.03516309,7.430595e-05,0.0028102687,0.838258280439367,0.00048413159425693734,0.545273161719367,-4.271827796266763e-05,0.9999996610827762,-0.0008221979576886285,-0.5452733749689088,0.0006659211157049186,0.8382580170204658,-0.0009033952,1.6246117e-05,0.1070866,0.00070951454,0.00012209556,-0.014035044,0.80597985,-0.045237187,-4.2425204e-06,0.0047322484,0.8733003911629118,0.0006836388846721865,-0.4871816493183838,-0.0007111033048430512,0.9999997389022166,0.0001285596696561569,0.48718161000472415,0.0002341652710906946,0.8733006492839855,left_images/camera_left_47.png,right_images/camera_right_47.png
2025-05-02 13:27:20,2.1408252716064453,48,-0.06551905,-0.0006025379,0.11403263,3.2313288e-05,-0.00022095405,0.0126021635,0.7999763,0.03516309,7.430595e-05,0.0028102687,0.838258280439367,0.00048413159425693734,0.545273161719367,-4.271827796266763e-05,0.9999996610827762,-0.0008221979576886285,-0.5452733749689088,0.0006659211157049186,0.8382580170204658,-0.0009033987,1.624568e-05,0.1070866,0.0007094924,0.00012209818,-0.014035044,0.80597985,-0.045237187,-4.2425204e-06,0.0047322484,0.8733003911629118,0.0006836388846721865,-0.4871816493183838,-0.0007111033048430512,0.9999997389022166,0.0001285596696561569,0.48718161000472415,0.0002341652710906946,0.8733006492839855,left_images/camera_left_48.png,right_images/camera_right_48.png
2025-05-02 13:27:20,2.180004358291626,49,-0.06551905,-0.0006025379,0.11403263,3.2316228e-05,-0.00022096325,0.0126021635,0.7999763,0.035163097,7.4312265e-05,0.0028102687,0.8382582804596633,0.000484232652749624,0.545273161598429,-4.262553425429195e-05,0.9999996608170713,-0.0008225258696829094,-0.545273374944965,0.0006662465613263247,0.8382580167774403,-0.00090340216,1.6245243e-05,0.1070866,0.0007094703,0.0001221008,-0.014035044,0.80597985,-0.045237187,-4.2425204e-06,0.0047322484,0.8733003911629118,0.0006836388846721865,-0.4871816493183838,-0.0007111033048430512,0.9999997389022166,0.0001285596696561569,0.48718161000472415,0.0002341652710906946,0.8733006492839855,left_images/camera_left_49.png,right_images/camera_right_49.png
2025-05-02 13:27:20,2.2259557247161865,50,-0.06551905,-0.0006025412,0.11403263,3.2293447e-05,-0.00022098116,0.012602136,0.7999763,0.03516309,7.4313706e-05,0.002810272,0.8382581188315915,0.00048435934408667545,0.5452734099595794,-4.2705952190305667e-05,0.99999966072451,-0.0008226342242558931,-0.5452736234122492,0.0006662933971348517,0.8382578551161843,-0.00090340566,1.6244807e-05,0.1070866,0.0007094482,0.00012210342,-0.014035044,0.80597985,-0.045237187,-4.2425204e-06,0.0047322484,0.8733003911629118,0.0006836388846721865,-0.4871816493183838,-0.0007111033048430512,0.9999997389022166,0.0001285596696561569,0.48718161000472415,0.0002341652710906946,0.8733006492839855,left_images/camera_left_50.png,right_images/camera_right_50.png
2025-05-02 13:27:20,2.267338514328003,51,-0.06551905,-0.0006025447,0.11403263,3.2312582e-05,-0.0002209526,0.012602136,0.7999763,0.035163086,7.430617e-05,0.0028102705,0.8382581061266786,0.0004842678348898949,0.5452734295723369,-4.284212438094453e-05,0.9999996610289041,-0.0008222570335817226,-0.5452736429330383,0.0006659029516281934,0.8382578427284726,-0.00090340915,1.624437e-05,0.1070866,0.00070942607,0.00012210604,-0.014035044,0.80597985,-0.045237187,-4.2425204e-06,0.0047322484,0.8733003911629118,0.0006836388846721865,-0.4871816493183838,-0.0007111033048430512,0.9999997389022166,0.0001285596696561569,0.48718161000472415,0.0002341652710906946,0.8733006492839855,left_images/camera_left_51.png,right_images/camera_right_51.png
2025-05-02 13:27:20,2.3075690269470215,52,-0.06551905,-0.0006025549,0.11403263,3.226437e-05,-0.00022088001,0.012602136,0.7999763,0.035163086,7.430617e-05,0.0028102705,0.8382581061266786,0.0004842678348898949,0.5452734295723369,-4.284212438094453e-05,0.9999996610289041,-0.0008222570335817226,-0.5452736429330383,0.0006659029516281934,0.8382578427284726,-0.00090341264,1.6243934e-05,0.1070866,0.00070940395,0.00012210866,-0.014035044,0.80597985,-0.045237187,-4.2425204e-06,0.0047322484,0.8733003911629118,0.0006836388846721865,-0.4871816493183838,-0.0007111033048430512,0.9999997389022166,0.0001285596696561569,0.48718161000472415,0.0002341652710906946,0.8733006492839855,left_images/camera_left_52.png,right_images/camera_right_52.png
2025-05-02 13:27:20,2.3509268760681152,53,-0.06551905,-0.00060256536,0.11403263,3.221615e-05,-0.00022080743,0.012602136,0.7999763,0.035163086,7.430617e-05,0.0028102705,0.8382581061266786,0.0004842678348898949,0.5452734295723369,-4.284212438094453e-05,0.9999996610289041,-0.0008222570335817226,-0.5452736429330383,0.0006659029516281934,0.8382578427284726,-0.00090341613,1.6243497e-05,0.1070866,0.0007093818,0.00012211128,-0.014035044,0.80597985,-0.045237187,-4.2425204e-06,0.0047322484,0.8733003911629118,0.0006836388846721865,-0.4871816493183838,-0.0007111033048430512,0.9999997389022166,0.0001285596696561569,0.48718161000472415,0.0002341652710906946,0.8733006492839855,left_images/camera_left_53.png,right_images/camera_right_53.png
2025-05-02 13:27:20,2.3914551734924316,54,-0.06551905,-0.00060258346,0.11403263,3.2251854e-05,-0.00022074854,0.012602208,0.7999763,0.035163157,7.4325886e-05,0.0028101774,0.838258311590367,0.0004843397822433376,0.5452731136454859,-4.273270254910095e-05,0.9999996607863512,-0.0008225576571372605,-0.5452733270787998,0.0006662147990841731,0.8382580479388542,-0.0009034196,1.624306e-05,0.1070866,0.0007093597,0.0001221139,-0.014035044,0.80597985,-0.045237187,-4.2425204e-06,0.0047322484,0.8733003911629118,0.0006836388846721865,-0.4871816493183838,-0.0007111033048430512,0.9999997389022166,0.0001285596696561569,0.48718161000472415,0.0002341652710906946,0.8733006492839855,left_images/camera_left_54.png,right_images/camera_right_54.png
2025-05-02 13:27:20,2.431499719619751,55,-0.06551905,-0.00060258515,0.11403263,3.224268e-05,-0.00022075677,0.012602264,0.7999763,0.035163157,7.4325886e-05,0.0028101774,0.838258311590367,0.0004843397822433376,0.5452731136454859,-4.273270254910095e-05,0.9999996607863512,-0.0008225576571372605,-0.5452733270787998,0.0006662147990841731,0.8382580479388542,-0.0009034231,1.6242624e-05,0.1070866,0.0007093376,0.00012211651,-0.014035044,0.80597985,-0.045237187,-4.2425204e-06,0.0047322484,0.8733003911629118,0.0006836388846721865,-0.4871816493183838,-0.0007111033048430512,0.9999997389022166,0.0001285596696561569,0.48718161000472415,0.0002341652710906946,0.8733006492839855,left_images/camera_left_55.png,right_images/camera_right_55.png
2025-05-02 13:27:20,2.4769718647003174,56,-0.06551905,-0.00060258515,0.11403263,3.2233496e-05,-0.00022076501,0.01260232,0.7999763,0.035163157,7.4325886e-05,0.0028101774,0.838258311590367,0.0004843397822433376,0.5452731136454859,-4.273270254910095e-05,0.9999996607863512,-0.0008225576571372605,-0.5452733270787998,0.0006662147990841731,0.8382580479388542,-0.0009034266,1.6242187e-05,0.1070866,0.00070931547,0.00012211913,-0.014035044,0.80597985,-0.045237187,-4.224136e-06,0.0047322502,0.8733003768103456,0.0006832882775622144,-0.48718167553802594,-0.0007106926924637813,0.9999997391920121,0.00012857606592246544,0.487181636331672,0.00023395092988825501,0.873300634654617,left_images/camera_left_56.png,right_images/camera_right_56.png
2025-05-02 13:27:20,2.5279343128204346,57,-0.06551905,-0.00060258515,0.11403263,3.2224314e-05,-0.00022077325,0.012602376,0.7999763,0.035163157,7.4325886e-05,0.0028101774,0.838258311590367,0.0004843397822433376,0.5452731136454859,-4.273270254910095e-05,0.9999996607863512,-0.0008225576571372605,-0.5452733270787998,0.0006662147990841731,0.8382580479388542,-0.00090342836,1.6218266e-05,0.1070866,0.00070927094,0.00012214908,-0.014035044,0.80597985,-0.045237187,-4.224136e-06,0.0047322502,0.8733003768103456,0.0006832882775622144,-0.48718167553802594,-0.0007106926924637813,0.9999997391920121,0.00012857606592246544,0.487181636331672,0.00023395092988825501,0.873300634654617,left_images/camera_left_57.png,right_images/camera_right_57.png
2025-05-02 13:27:20,2.5729315280914307,58,-0.06551905,-0.00060258515,0.11403263,3.221513e-05,-0.00022078148,0.012602432,0.7999763,0.035163157,7.4325886e-05,0.0028101774,0.838258311590367,0.0004843397822433376,0.5452731136454859,-4.273270254910095e-05,0.9999996607863512,-0.0008225576571372605,-0.5452733270787998,0.0006662147990841731,0.8382580479388542,-0.0009034284,1.6214106e-05,0.1070866,0.0007093098,0.0001221517,-0.014035044,0.80597985,-0.045237187,-4.224136e-06,0.0047322502,0.8733003768103456,0.0006832882775622144,-0.48718167553802594,-0.0007106926924637813,0.9999997391920121,0.00012857606592246544,0.487181636331672,0.00023395092988825501,0.873300634654617,left_images/camera_left_58.png,right_images/camera_right_58.png
2025-05-02 13:27:20,2.618600606918335,59,-0.06551905,-0.00060258515,0.11403263,3.220595e-05,-0.00022078972,0.012602488,0.7999763,0.03516309,7.4308904e-05,0.0028101495,0.8382582805075458,0.00048409319210276523,0.545273161648649,-4.243999012189034e-05,0.9999996608007165,-0.0008225553471186132,-0.545273374885827,0.0006663724433038357,0.838258016715848,-0.0009034298,1.6190186e-05,0.1070866,0.0007092653,0.00012218165,-0.014035044,0.80597985,-0.045237187,-4.224136e-06,0.0047322502,0.8733003768103456,0.0006832882775622144,-0.48718167553802594,-0.0007106926924637813,0.9999997391920121,0.00012857606592246544,0.487181636331672,0.00023395092988825501,0.873300634654617,left_images/camera_left_59.png,right_images/camera_right_59.png
2025-05-02 13:27:20,2.6599230766296387,60,-0.06551905,-0.0006025949,0.11403263,3.21694e-05,-0.00022071798,0.012602543,0.7999763,0.03516309,7.430894e-05,0.0028101471,0.8382585170909153,0.0004841667151677979,0.5452727978793106,-4.2492117770841025e-05,0.9999996607530711,-0.0008226105777320829,-0.5452730111778499,0.0006663905270882733,0.8382582532875569,-0.0009034299,1.6186026e-05,0.1070866,0.0007093042,0.00012218427,-0.014035044,0.80597985,-0.045237187,-4.224136e-06,0.0047322502,0.8733003768103456,0.0006832882775622144,-0.48718167553802594,-0.0007106926924637813,0.9999997391920121,0.00012857606592246544,0.487181636331672,0.00023395092988825501,0.873300634654617,left_images/camera_left_60.png,right_images/camera_right_60.png
2025-05-02 13:27:20,2.7138173580169678,61,-0.06551905,-0.00060259545,0.11403263,3.2131633e-05,-0.00022072397,0.012602568,0.7999763,0.03516309,7.430894e-05,0.0028101471,0.8382585170909153,0.0004841667151677979,0.5452727978793106,-4.2492117770841025e-05,0.9999996607530711,-0.0008226105777320829,-0.5452730111778499,0.0006663905270882733,0.8382582532875569,-0.00090343127,1.6162106e-05,0.1070866,0.00070925965,0.00012221422,-0.014035044,0.80597985,-0.045237187,-4.224136e-06,0.0047322502,0.8733003768103456,0.0006832882775622144,-0.48718167553802594,-0.0007106926924637813,0.9999997391920121,0.00012857606592246544,0.487181636331672,0.00023395092988825501,0.873300634654617,left_images/camera_left_61.png,right_images/camera_right_61.png
2025-05-02 13:27:20,2.7643163204193115,62,-0.06551905,-0.00060259545,0.11403263,3.2093863e-05,-0.00022072997,0.012602592,0.7999763,0.03516309,7.430894e-05,0.0028101471,0.8382585170909153,0.0004841667151677979,0.5452727978793106,-4.2492117770841025e-05,0.9999996607530711,-0.0008226105777320829,-0.5452730111778499,0.0006663905270882733,0.8382582532875569,-0.0009034313,1.6157946e-05,0.1070866,0.00070929853,0.00012221684,-0.014035044,0.80597985,-0.045237187,-4.224136e-06,0.0047322502,0.8733003768103456,0.0006832882775622144,-0.48718167553802594,-0.0007106926924637813,0.9999997391920121,0.00012857606592246544,0.487181636331672,0.00023395092988825501,0.873300634654617,left_images/camera_left_62.png,right_images/camera_right_62.png
2025-05-02 13:27:20,2.8171346187591553,63,-0.06551905,-0.00060259545,0.11403263,3.2056094e-05,-0.00022073596,0.012602616,0.7999763,0.03516309,7.430894e-05,0.0028101471,0.8382585170909153,0.0004841667151677979,0.5452727978793106,-4.2492117770841025e-05,0.9999996607530711,-0.0008226105777320829,-0.5452730111778499,0.0006663905270882733,0.8382582532875569,-0.0009034327,1.6134027e-05,0.1070866,0.000709254,0.00012224678,-0.014035044,0.80597985,-0.045237187,-4.224136e-06,0.0047322502,0.8733003768103456,0.0006832882775622144,-0.48718167553802594,-0.0007106926924637813,0.9999997391920121,0.00012857606592246544,0.487181636331672,0.00023395092988825501,0.873300634654617,left_images/camera_left_63.png,right_images/camera_right_63.png
2025-05-02 13:27:20,2.8651726245880127,64,-0.06551905,-0.00060259545,0.11403263,3.2018324e-05,-0.00022074196,0.01260264,0.7999763,0.03516309,7.430894e-05,0.0028101471,0.8382585170909153,0.0004841667151677979,0.5452727978793106,-4.2492117770841025e-05,0.9999996607530711,-0.0008226105777320829,-0.5452730111778499,0.0006663905270882733,0.8382582532875569,-0.0009034328,1.6129867e-05,0.1070866,0.0007092929,0.0001222494,-0.014035044,0.80597985,-0.045237187,-4.224136e-06,0.0047322502,0.8733003768103456,0.0006832882775622144,-0.48718167553802594,-0.0007106926924637813,0.9999997391920121,0.00012857606592246544,0.487181636331672,0.00023395092988825501,0.873300634654617,left_images/camera_left_64.png,right_images/camera_right_64.png
2025-05-02 13:27:20,2.925809621810913,65,-0.06551905,-0.00060259545,0.11403263,3.1980555e-05,-0.00022074796,0.0126026645,0.7999763,0.03516309,7.430894e-05,0.0028101471,0.8382585170909153,0.0004841667151677979,0.5452727978793106,-4.2492117770841025e-05,0.9999996607530711,-0.0008226105777320829,-0.5452730111778499,0.0006663905270882733,0.8382582532875569,-0.0009034328,1.612954e-05,0.1070866,0.00070933177,0.00012225202,-0.014035044,0.80597985,-0.045237187,-4.2425204e-06,0.0047322484,0.8733003911629118,0.0006836388846721865,-0.4871816493183838,-0.0007111033048430512,0.9999997389022166,0.0001285596696561569,0.48718161000472415,0.0002341652710906946,0.8733006492839855,left_images/camera_left_65.png,right_images/camera_right_65.png
2025-05-02 13:27:20,2.9705636501312256,66,-0.06551905,-0.00060259545,0.11403263,3.1942785e-05,-0.00022075395,0.012602689,0.7999763,0.03516309,7.430894e-05,0.0028101471,0.8382585170909153,0.0004841667151677979,0.5452727978793106,-4.2492117770841025e-05,0.9999996607530711,-0.0008226105777320829,-0.5452730111778499,0.0006663905270882733,0.8382582532875569,-0.0009034362,1.612911e-05,0.1070866,0.00070930965,0.00012225464,-0.014035044,0.80597985,-0.045237187,-4.224136e-06,0.0047322502,0.8733003768103456,0.0006832882775622144,-0.48718167553802594,-0.0007106926924637813,0.9999997391920121,0.00012857606592246544,0.487181636331672,0.00023395092988825501,0.873300634654617,left_images/camera_left_66.png,right_images/camera_right_66.png
2025-05-02 13:27:21,3.0251200199127197,67,-0.06551905,-0.00060259545,0.11403263,3.1905016e-05,-0.00022075995,0.012602713,0.7999763,0.03516309,7.430894e-05,0.0028101471,0.8382585170909153,0.0004841667151677979,0.5452727978793106,-4.2492117770841025e-05,0.9999996607530711,-0.0008226105777320829,-0.5452730111778499,0.0006663905270882733,0.8382582532875569,-0.00090343796,1.6105188e-05,0.1070866,0.0007092651,0.00012228459,-0.014035044,0.80597985,-0.045237187,-4.224136e-06,0.0047322502,0.8733003768103456,0.0006832882775622144,-0.48718167553802594,-0.0007106926924637813,0.9999997391920121,0.00012857606592246544,0.487181636331672,0.00023395092988825501,0.873300634654617,left_images/camera_left_67.png,right_images/camera_right_67.png
2025-05-02 13:27:21,3.08172607421875,68,-0.06551905,-0.00060259545,0.11403263,3.1867246e-05,-0.00022076594,0.012602737,0.7999763,0.03516309,7.430894e-05,0.0028101471,0.8382585170909153,0.0004841667151677979,0.5452727978793106,-4.2492117770841025e-05,0.9999996607530711,-0.0008226105777320829,-0.5452730111778499,0.0006663905270882733,0.8382582532875569,-0.0009035536,1.6169999e-05,0.1070866,0.0007092701,0.0001223062,-0.014034926,0.80597985,-0.045237184,-4.224678e-06,0.004732255,0.8733001935370784,0.0006833330524659494,-0.4871820040026528,-0.0007107482538242195,0.9999997391534892,0.0001285685556639207,0.48718196477807046,0.00023398481409538482,0.8733004514175438,left_images/camera_left_68.png,right_images/camera_right_68.png
2025-05-02 13:27:21,3.1241257190704346,69,-0.06551905,-0.00060259545,0.11403263,3.1829477e-05,-0.00022077194,0.012602761,0.7999763,0.035163134,7.431937e-05,0.002810176,0.8382585483540589,0.00048380178099987405,0.5452727501417824,-4.20933219192077e-05,0.9999996608161027,-0.0008225544552851422,-0.5452729631473563,0.0006665609622239973,0.8382582843950817,-0.0009035669,1.618659e-05,0.1070866,0.00070926314,0.00012226946,-0.014034982,0.80597985,-0.045237184,-4.224678e-06,0.004732255,0.8733001935370784,0.0006833330524659494,-0.4871820040026528,-0.0007107482538242195,0.9999997391534892,0.0001285685556639207,0.48718196477807046,0.00023398481409538482,0.8733004514175438,left_images/camera_left_69.png,right_images/camera_right_69.png
2025-05-02 13:27:21,3.1667447090148926,70,-0.06551905,-0.00060259545,0.11403263,3.1831984e-05,-0.00022078102,0.012602793,0.7999763,0.035163134,7.431937e-05,0.002810176,0.8382585483540589,0.00048380178099987405,0.5452727501417824,-4.20933219192077e-05,0.9999996608161027,-0.0008225544552851422,-0.5452729631473563,0.0006665609622239973,0.8382582843950817,-0.0009035599,1.6192324e-05,0.1070866,0.00070925616,0.00012223267,-0.014035038,0.80597985,-0.045237187,-4.224136e-06,0.0047322502,0.8733003768103456,0.0006832882775622144,-0.48718167553802594,-0.0007106926924637813,0.9999997391920121,0.00012857606592246544,0.487181636331672,0.00023395092988825501,0.873300634654617,left_images/camera_left_70.png,right_images/camera_right_70.png
2025-05-02 13:27:21,3.2149887084960938,71,-0.06551905,-0.00060260773,0.11403263,3.176685e-05,-0.00022077048,0.012602809,0.7999763,0.035163134,7.431937e-05,0.002810176,0.8382585483540589,0.00048380178099987405,0.5452727501417824,-4.20933219192077e-05,0.9999996608161027,-0.0008225544552851422,-0.5452729631473563,0.0006665609622239973,0.8382582843950817,-0.0009035596,1.6192413e-05,0.1070866,0.00070929504,0.00012223529,-0.014035038,0.80597985,-0.045237187,-4.224136e-06,0.0047322502,0.8733003768103456,0.0006832882775622144,-0.48718167553802594,-0.0007106926924637813,0.9999997391920121,0.00012857606592246544,0.487181636331672,0.00023395092988825501,0.873300634654617,left_images/camera_left_71.png,right_images/camera_right_71.png
2025-05-02 13:27:21,3.256502151489258,72,-0.06551905,-0.00060260925,0.11403263,3.1769345e-05,-0.00022077956,0.012602841,0.7999763,0.035163134,7.431937e-05,0.002810176,0.8382585483540589,0.00048380178099987405,0.5452727501417824,-4.20933219192077e-05,0.9999996608161027,-0.0008225544552851422,-0.5452729631473563,0.0006665609622239973,0.8382582843950817,-0.0009035596,1.6192085e-05,0.1070866,0.0007093339,0.0001222379,-0.014035038,0.80597985,-0.045237187,-4.2425204e-06,0.0047322484,0.8733003911629118,0.0006836388846721865,-0.4871816493183838,-0.0007111033048430512,0.9999997389022166,0.0001285596696561569,0.48718161000472415,0.0002341652710906946,0.8733006492839855,left_images/camera_left_72.png,right_images/camera_right_72.png
2025-05-02 13:27:21,3.2962210178375244,73,-0.06551905,-0.00060260925,0.11403263,3.1771855e-05,-0.00022078864,0.012602872,0.7999763,0.035163134,7.431937e-05,0.002810176,0.8382585483540589,0.00048380178099987405,0.5452727501417824,-4.20933219192077e-05,0.9999996608161027,-0.0008225544552851422,-0.5452729631473563,0.0006665609622239973,0.8382582843950817,-0.00090356305,1.6191656e-05,0.1070866,0.0007093118,0.00012224053,-0.014035038,0.80597985,-0.045237187,-4.224136e-06,0.0047322502,0.8733003768103456,0.0006832882775622144,-0.48718167553802594,-0.0007106926924637813,0.9999997391920121,0.00012857606592246544,0.487181636331672,0.00023395092988825501,0.873300634654617,left_images/camera_left_73.png,right_images/camera_right_73.png
2025-05-02 13:27:21,3.345794439315796,74,-0.06551905,-0.00060260925,0.11403263,3.1774365e-05,-0.00022079772,0.012602904,0.7999763,0.035163134,7.431937e-05,0.002810176,0.8382585483540589,0.00048380178099987405,0.5452727501417824,-4.20933219192077e-05,0.9999996608161027,-0.0008225544552851422,-0.5452729631473563,0.0006665609622239973,0.8382582843950817,-0.0009035648,1.6167734e-05,0.1070866,0.0007092673,0.00012227047,-0.014035038,0.80597985,-0.045237187,-4.224136e-06,0.0047322502,0.8733003768103456,0.0006832882775622144,-0.48718167553802594,-0.0007106926924637813,0.9999997391920121,0.00012857606592246544,0.487181636331672,0.00023395092988825501,0.873300634654617,left_images/camera_left_74.png,right_images/camera_right_74.png
2025-05-02 13:27:21,3.3863720893859863,75,-0.06551905,-0.0006026076,0.11403263,3.1777094e-05,-0.0002208073,0.012602864,0.7999763,0.035163134,7.431937e-05,0.002810176,0.8382585483540589,0.00048380178099987405,0.5452727501417824,-4.20933219192077e-05,0.9999996608161027,-0.0008225544552851422,-0.5452729631473563,0.0006665609622239973,0.8382582843950817,-0.00090356485,1.6163574e-05,0.1070866,0.00070930616,0.0001222731,-0.014035038,0.80597985,-0.045237187,-4.224136e-06,0.0047322502,0.8733003768103456,0.0006832882775622144,-0.48718167553802594,-0.0007106926924637813,0.9999997391920121,0.00012857606592246544,0.487181636331672,0.00023395092988825501,0.873300634654617,left_images/camera_left_75.png,right_images/camera_right_75.png
2025-05-02 13:27:21,3.426435708999634,76,-0.06551905,-0.0006026073,0.11403263,3.1779604e-05,-0.00022081638,0.0126028955,0.7999763,0.035163134,7.431937e-05,0.002810176,0.8382585483540589,0.00048380178099987405,0.5452727501417824,-4.20933219192077e-05,0.9999996608161027,-0.0008225544552851422,-0.5452729631473563,0.0006665609622239973,0.8382582843950817,-0.00090356625,1.6139655e-05,0.1070866,0.0007092616,0.00012230304,-0.014035038,0.80597985,-0.045237187,-4.224136e-06,0.0047322502,0.8733003768103456,0.0006832882775622144,-0.48718167553802594,-0.0007106926924637813,0.9999997391920121,0.00012857606592246544,0.487181636331672,0.00023395092988825501,0.873300634654617,left_images/camera_left_76.png,right_images/camera_right_76.png
2025-05-02 13:27:21,3.4863996505737305,77,-0.06551905,-0.0006026057,0.11403263,3.1782332e-05,-0.00022082595,0.012602855,0.7999763,0.035163134,7.431937e-05,0.002810176,0.8382585483540589,0.00048380178099987405,0.5452727501417824,-4.20933219192077e-05,0.9999996608161027,-0.0008225544552851422,-0.5452729631473563,0.0006665609622239973,0.8382582843950817,-0.0009035663,1.6135495e-05,0.1070866,0.0007093005,0.00012230566,-0.014035038,0.80597985,-0.045237187,-4.224136e-06,0.0047322502,0.8733003768103456,0.0006832882775622144,-0.48718167553802594,-0.0007106926924637813,0.9999997391920121,0.00012857606592246544,0.487181636331672,0.00023395092988825501,0.873300634654617,left_images/camera_left_77.png,right_images/camera_right_77.png
2025-05-02 13:27:21,3.531386137008667,78,-0.06551905,-0.0006026054,0.11403263,3.1784843e-05,-0.00022083503,0.012602887,0.7999763,0.035163134,7.431937e-05,0.002810176,0.8382585483540589,0.00048380178099987405,0.5452727501417824,-4.20933219192077e-05,0.9999996608161027,-0.0008225544552851422,-0.5452729631473563,0.0006665609622239973,0.8382582843950817,-0.0009035677,1.6111575e-05,0.1070866,0.000709256,0.00012233561,-0.014035038,0.80597985,-0.045237187,-4.224136e-06,0.0047322502,0.8733003768103456,0.0006832882775622144,-0.48718167553802594,-0.0007106926924637813,0.9999997391920121,0.00012857606592246544,0.487181636331672,0.00023395092988825501,0.873300634654617,left_images/camera_left_78.png,right_images/camera_right_78.png
2025-05-02 13:27:21,3.583021402359009,79,-0.06551905,-0.0006026054,0.11403263,3.1787353e-05,-0.00022084411,0.012602919,0.7999763,0.03516314,7.4319745e-05,0.002810175,0.8382588287822946,0.00048382883936335286,0.5452723190096762,-4.209904515412014e-05,0.999999660781763,-0.0008225959090875501,-0.5452725320389853,0.0006665928393335565,0.8382585647983446,-0.00090356776,1.6107415e-05,0.1070866,0.00070929487,0.00012233823,-0.014035038,0.80597985,-0.045237187,-4.224136e-06,0.0047322502,0.8733003768103456,0.0006832882775622144,-0.48718167553802594,-0.0007106926924637813,0.9999997391920121,0.00012857606592246544,0.487181636331672,0.00023395092988825501,0.873300634654617,left_images/camera_left_79.png,right_images/camera_right_79.png
2025-05-02 13:27:21,3.627146005630493,80,-0.06551905,-0.0006026054,0.11403263,3.180261e-05,-0.00022085413,0.012602919,0.7999763,0.03516314,7.4319745e-05,0.002810175,0.8382588287822946,0.00048382883936335286,0.5452723190096762,-4.209904515412014e-05,0.999999660781763,-0.0008225959090875501,-0.5452725320389853,0.0006665928393335565,0.8382585647983446,-0.00090356776,1.6107088e-05,0.1070866,0.00070933375,0.00012234085,-0.014035038,0.80597985,-0.045237187,-4.2425204e-06,0.0047322484,0.8733003911629118,0.0006836388846721865,-0.4871816493183838,-0.0007111033048430512,0.9999997389022166,0.0001285596696561569,0.48718161000472415,0.0002341652710906946,0.8733006492839855,left_images/camera_left_80.png,right_images/camera_right_80.png
2025-05-02 13:27:21,3.6685829162597656,81,-0.06551905,-0.0006026054,0.11403263,3.1817868e-05,-0.00022086414,0.012602919,0.7999763,0.03516314,7.4319745e-05,0.002810175,0.8382588287822946,0.00048382883936335286,0.5452723190096762,-4.209904515412014e-05,0.999999660781763,-0.0008225959090875501,-0.5452725320389853,0.0006665928393335565,0.8382585647983446,-0.0009035712,1.6106658e-05,0.1070866,0.00070931163,0.00012234347,-0.014035038,0.80597985,-0.045237187,-4.224136e-06,0.0047322502,0.8733003768103456,0.0006832882775622144,-0.48718167553802594,-0.0007106926924637813,0.9999997391920121,0.00012857606592246544,0.487181636331672,0.00023395092988825501,0.873300634654617,left_images/camera_left_81.png,right_images/camera_right_81.png
2025-05-02 13:27:21,3.712494134902954,82,-0.06551905,-0.0006026054,0.11403263,3.1833126e-05,-0.00022087415,0.012602919,0.7999763,0.035163097,7.4309006e-05,0.0028101453,0.838258797495294,0.0004842109140533628,0.5452723667686953,-4.259493223807538e-05,0.9999996608115185,-0.0008225342057863196,-0.5452725800986288,0.0006662706947273794,0.8382585337924964,-0.00090357295,1.6082737e-05,0.1070866,0.0007092671,0.00012237341,-0.014035038,0.80597985,-0.045237143,-4.157699e-06,0.0047323694,0.8733003352450684,0.0006831001729996648,-0.4871817503098867,-0.0007108176990583473,0.9999997391814273,0.00012796591807680578,0.48718171065737864,0.0002345447316220745,0.8733005930318146,left_images/camera_left_82.png,right_images/camera_right_82.png
2025-05-02 13:27:21,3.7728493213653564,83,-0.06551905,-0.00060258794,0.11403263,3.188424e-05,-0.00022092123,0.012603003,0.7999763,0.035163097,7.4309006e-05,0.0028101453,0.838258797495294,0.0004842109140533628,0.5452723667686953,-4.259493223807538e-05,0.9999996608115185,-0.0008225342057863196,-0.5452725800986288,0.0006662706947273794,0.8382585337924964,-0.00090357644,1.60671e-05,0.1070866,0.0007092636,0.00012245434,-0.014035043,0.80597985,-0.045237143,-4.157699e-06,0.0047323694,0.8733003352450684,0.0006831001729996648,-0.4871817503098867,-0.0007108176990583473,0.9999997391814273,0.00012796591807680578,0.48718171065737864,0.0002345447316220745,0.8733005930318146,left_images/camera_left_83.png,right_images/camera_right_83.png
2025-05-02 13:27:21,3.8263368606567383,84,-0.06551905,-0.00060257915,0.11403263,3.1850446e-05,-0.00022096645,0.012603114,0.7999763,0.03516313,7.4306845e-05,0.0028102049,0.8382587664300348,0.0004840334396847721,0.5452724146835465,-4.2223617133224764e-05,0.9999996606254824,-0.0008227794880550072,-0.5452726278847696,0.0006666787450300189,0.838258502384013,-0.00090357836,1.606037e-05,0.1070866,0.0007092778,0.00012242909,-0.014035074,0.80597985,-0.045237143,-4.157699e-06,0.0047323694,0.8733003352450684,0.0006831001729996648,-0.4871817503098867,-0.0007108176990583473,0.9999997391814273,0.00012796591807680578,0.48718171065737864,0.0002345447316220745,0.8733005930318146,left_images/camera_left_84.png,right_images/camera_right_84.png
2025-05-02 13:27:21,3.867969274520874,85,-0.06551905,-0.00060257217,0.11403263,3.1832507e-05,-0.00022101282,0.01260317,0.7999763,0.035163127,7.43017e-05,0.0028102645,0.8382587041756373,0.0004837923945825162,0.5452725106024516,-4.198249439132747e-05,0.9999996606944775,-0.0008227079677772645,-0.5452727236083352,0.000666750214865829,0.8382584400606411,-0.0009035801,1.6054539e-05,0.1070866,0.000709292,0.00012240383,-0.014035105,0.80597985,-0.045237143,-4.157699e-06,0.0047323694,0.8733003352450684,0.0006831001729996648,-0.4871817503098867,-0.0007108176990583473,0.9999997391814273,0.00012796591807680578,0.48718171065737864,0.0002345447316220745,0.8733005930318146,left_images/camera_left_85.png,right_images/camera_right_85.png
2025-05-02 13:27:21,3.910512685775757,86,-0.06551905,-0.00060256943,0.11403263,3.1819905e-05,-0.00022098885,0.012603254,0.7999763,0.035163127,7.43017e-05,0.0028102645,0.8382587041756373,0.0004837923945825162,0.5452725106024516,-4.198249439132747e-05,0.9999996606944775,-0.0008227079677772645,-0.5452727236083352,0.000666750214865829,0.8382584400606411,-0.0009035834,1.6042814e-05,0.1070866,0.0007092885,0.00012248475,-0.01403511,0.80597985,-0.045237143,-4.1655067e-06,0.0047323694,0.8733003767291647,0.0006833553439865076,-0.48718167558947967,-0.0007108605378346511,0.9999997390936832,0.00012841285568917927,0.48718163623231414,0.00023417523268249584,0.8733006346499272,left_images/camera_left_86.png,right_images/camera_right_86.png
2025-05-02 13:27:21,3.9513003826141357,87,-0.06551905,-0.00060257217,0.11403263,3.1841413e-05,-0.00022096036,0.01260331,0.7999763,0.035163134,7.4305935e-05,0.002810203,0.8382589095652324,0.00048393531469516186,0.5452721947258259,-4.217174816290153e-05,0.9999996607098586,-0.0008226795923396472,-0.5452724078440532,0.0006666234163199922,0.8382586455606466,-0.00090358144,1.6041638e-05,0.1070866,0.0007093076,0.00012248738,-0.0140352,0.80597985,-0.045237143,-4.1655067e-06,0.0047323694,0.8733003767291647,0.0006833553439865076,-0.48718167558947967,-0.0007108605378346511,0.9999997390936832,0.00012841285568917927,0.48718163623231414,0.00023417523268249584,0.8733006346499272,left_images/camera_left_87.png,right_images/camera_right_87.png
2025-05-02 13:27:21,3.9930965900421143,88,-0.06551905,-0.0006025835,0.11403263,3.1834064e-05,-0.00022098732,0.01260331,0.7999763,0.035163105,7.431696e-05,0.002810148,0.8382589221979981,0.00048423880257035957,0.545272175035764,-4.231528985204963e-05,0.9999996604273682,-0.000823015531358822,-0.5452723884123117,0.000666826762134163,0.838258658038915,-0.0009035313,1.6047845e-05,0.1070866,0.0007092766,0.00012249894,-0.014035322,0.80597985,-0.045237143,-4.1655067e-06,0.0047323694,0.8733003767291647,0.0006833553439865076,-0.48718167558947967,-0.0007108605378346511,0.9999997390936832,0.00012841285568917927,0.48718163623231414,0.00023417523268249584,0.8733006346499272,left_images/camera_left_88.png,right_images/camera_right_88.png
2025-05-02 13:27:22,4.035057306289673,89,-0.06551905,-0.0006025695,0.11403263,3.1872427e-05,-0.00022103204,0.012603366,0.7999763,0.035163134,7.4305935e-05,0.002810203,0.8382589095652324,0.00048393531469516186,0.5452721947258259,-4.217174816290153e-05,0.9999996607098586,-0.0008226795923396472,-0.5452724078440532,0.0006666234163199922,0.8382586455606466,-0.0009035218,1.6048569e-05,0.1070866,0.0007092957,0.00012250156,-0.014035411,0.80597985,-0.045237146,-4.1649355e-06,0.0047323685,0.8733005598869292,0.0006834560868196601,-0.487181347127487,-0.000710991264627068,0.9999997390043062,0.00012838512667986613,0.4871813077208497,0.00023426287908620924,0.8733008178905513,left_images/camera_left_89.png,right_images/camera_right_89.png
2025-05-02 13:27:22,4.075488805770874,90,-0.06551905,-0.0006025705,0.11403263,3.1850584e-05,-0.00022100029,0.012603422,0.7999763,0.035163134,7.4305935e-05,0.002810203,0.8382589095652324,0.00048393531469516186,0.5452721947258259,-4.217174816290153e-05,0.9999996607098586,-0.0008226795923396472,-0.5452724078440532,0.0006666234163199922,0.8382586455606466,-0.00090347044,1.6057586e-05,0.1070866,0.00070931186,0.00012249325,-0.014035523,0.80597985,-0.045237146,-4.1649355e-06,0.0047323685,0.8733005598869292,0.0006834560868196601,-0.487181347127487,-0.000710991264627068,0.9999997390043062,0.00012838512667986613,0.4871813077208497,0.00023426287908620924,0.8733008178905513,left_images/camera_left_90.png,right_images/camera_right_90.png
2025-05-02 13:27:22,4.117736339569092,91,-0.06551905,-0.000602574,0.11403263,3.1828728e-05,-0.00022096853,0.012603478,0.7999763,0.035163134,7.4301075e-05,0.0028102645,0.8382588911459158,0.00048372801821022104,0.5452722232261826,-4.19183508882038e-05,0.9999996607128276,-0.0008226889334269655,-0.5452724361799992,0.0006667694007097182,0.8382586270125079,-0.0009034102,1.6068123e-05,0.1070866,0.00070932804,0.00012248494,-0.014035635,0.80597985,-0.045237176,-4.1575977e-06,0.004732336,0.8733005743334892,0.000683686495023398,-0.48718132090790867,-0.0007112516738468697,0.999999738818337,0.00012839125497325727,0.48718128144444817,0.0002343843732551359,0.8733008325165568,left_images/camera_left_91.png,right_images/camera_right_91.png
2025-05-02 13:27:22,4.1644675731658936,92,-0.06551905,-0.00060258043,0.11403263,3.177638e-05,-0.0002209988,0.0126035055,0.7999763,0.035163134,7.4301075e-05,0.0028102645,0.8382588911459158,0.00048372801821022104,0.5452722232261826,-4.19183508882038e-05,0.9999996607128276,-0.0008226889334269655,-0.5452724361799992,0.0006667694007097182,0.8382586270125079,-0.0009033922,1.6063612e-05,0.1070866,0.00070937525,0.0001225265,-0.014035691,0.80597985,-0.045237176,-4.1575977e-06,0.004732336,0.8733005743334892,0.000683686495023398,-0.48718132090790867,-0.0007112516738468697,0.999999738818337,0.00012839125497325727,0.48718128144444817,0.0002343843732551359,0.8733008325165568,left_images/camera_left_92.png,right_images/camera_right_92.png
2025-05-02 13:27:22,4.211224317550659,93,-0.06551905,-0.00060255965,0.11403263,3.1744872e-05,-0.00022096287,0.012603645,0.7999763,0.035163134,7.4301075e-05,0.0028102645,0.8382588911459158,0.00048372801821022104,0.5452722232261826,-4.19183508882038e-05,0.9999996607128276,-0.0008226889334269655,-0.5452724361799992,0.0006667694007097182,0.8382586270125079,-0.00090338173,1.6057176e-05,0.1070866,0.0007094225,0.00012256806,-0.014035746,0.80597985,-0.045237176,-4.1575977e-06,0.004732336,0.8733005743334892,0.000683686495023398,-0.48718132090790867,-0.0007112516738468697,0.999999738818337,0.00012839125497325727,0.48718128144444817,0.0002343843732551359,0.8733008325165568,left_images/camera_left_93.png,right_images/camera_right_93.png
2025-05-02 13:27:22,4.264487266540527,94,-0.06551905,-0.000602563,0.11403263,3.1693162e-05,-0.00022097552,0.012603604,0.7999763,0.035163134,7.4301075e-05,0.0028102645,0.8382588911459158,0.00048372801821022104,0.5452722232261826,-4.19183508882038e-05,0.9999996607128276,-0.0008226889334269655,-0.5452724361799992,0.0006667694007097182,0.8382586270125079,-0.00090337126,1.605074e-05,0.1070866,0.0007094698,0.00012260962,-0.014035802,0.80597985,-0.04523718,-4.15986e-06,0.004732336,0.8733007294580379,0.0006837157149111778,-0.48718104279711105,-0.0007112508757885976,0.9999997388110383,0.00012845250980833236,0.48718100337579984,0.00023433027284071502,0.873300987654928,left_images/camera_left_94.png,right_images/camera_right_94.png
2025-05-02 13:27:22,4.318739414215088,95,-0.06551905,-0.00060256745,0.11403263,3.1660937e-05,-0.00022094297,0.01260366,0.7999763,0.03516313,7.429261e-05,0.0028102584,0.8382591958211292,0.0004836887128525022,0.5452717548769084,-4.2131476147054666e-05,0.99999966103208,-0.0008222898904510012,-0.5452719677796145,0.0006663189583670414,0.8382589320566725,-0.0009033643,1.604423e-05,0.1070866,0.0007094607,0.00012265136,-0.014035802,0.80597985,-0.04523718,-4.15986e-06,0.004732336,0.8733007294580379,0.0006837157149111778,-0.48718104279711105,-0.0007112508757885976,0.9999997388110383,0.00012845250980833236,0.48718100337579984,0.00023433027284071502,0.873300987654928,left_images/camera_left_95.png,right_images/camera_right_95.png
2025-05-02 13:27:22,4.37331485748291,96,-0.06551905,-0.0006025676,0.11403263,3.1672414e-05,-0.0002209528,0.012603716,0.7999763,0.03516313,7.429261e-05,0.0028102584,0.8382591958211292,0.0004836887128525022,0.5452717548769084,-4.2131476147054666e-05,0.99999966103208,-0.0008222898904510012,-0.5452719677796145,0.0006663189583670414,0.8382589320566725,-0.0009033573,1.6037719e-05,0.1070866,0.0007094516,0.00012269309,-0.014035802,0.80597985,-0.04523718,-4.15986e-06,0.004732336,0.8733007294580379,0.0006837157149111778,-0.48718104279711105,-0.0007112508757885976,0.9999997388110383,0.00012845250980833236,0.48718100337579984,0.00023433027284071502,0.873300987654928,left_images/camera_left_96.png,right_images/camera_right_96.png
2025-05-02 13:27:22,4.418229103088379,97,-0.06551905,-0.0006025676,0.11403263,3.1683896e-05,-0.00022096264,0.012603772,0.7999763,0.035163134,7.4302225e-05,0.0028102607,0.838259177365702,0.00048381713683033677,0.5452717831349381,-4.199828029997777e-05,0.9999996606755757,-0.0008227301368596845,-0.5452719961618433,0.0006667606105302007,0.8382589132433769,-0.0009033503,1.6031207e-05,0.1070866,0.00070944254,0.00012273483,-0.014035802,0.80597985,-0.04523718,-4.15986e-06,0.004732336,0.8733007294580379,0.0006837157149111778,-0.48718104279711105,-0.0007112508757885976,0.9999997388110383,0.00012845250980833236,0.48718100337579984,0.00023433027284071502,0.873300987654928,left_images/camera_left_97.png,right_images/camera_right_97.png
2025-05-02 13:27:22,4.471048355102539,98,-0.06551905,-0.0006025676,0.11403263,3.171849e-05,-0.00022097414,0.012603772,0.7999763,0.035163134,7.4302225e-05,0.0028102607,0.838259177365702,0.00048381713683033677,0.5452717831349381,-4.199828029997777e-05,0.9999996606755757,-0.0008227301368596845,-0.5452719961618433,0.0006667606105302007,0.8382589132433769,-0.0009033433,1.6024695e-05,0.1070866,0.00070943346,0.00012277656,-0.014035802,0.80597985,-0.04523718,-4.15986e-06,0.004732336,0.8733007294580379,0.0006837157149111778,-0.48718104279711105,-0.0007112508757885976,0.9999997388110383,0.00012845250980833236,0.48718100337579984,0.00023433027284071502,0.873300987654928,left_images/camera_left_98.png,right_images/camera_right_98.png
2025-05-02 13:27:22,4.512772798538208,99,-0.06551905,-0.0006025676,0.11403263,3.1753087e-05,-0.00022098563,0.012603772,0.7999763,0.035163134,7.4302225e-05,0.0028102607,0.838259177365702,0.00048381713683033677,0.5452717831349381,-4.199828029997777e-05,0.9999996606755757,-0.0008227301368596845,-0.5452719961618433,0.0006667606105302007,0.8382589132433769,-0.00090333633,1.6018183e-05,0.1070866,0.0007094244,0.0001228183,-0.014035802,0.80597985,-0.04523718,-4.15986e-06,0.004732336,0.8733007294580379,0.0006837157149111778,-0.48718104279711105,-0.0007112508757885976,0.9999997388110383,0.00012845250980833236,0.48718100337579984,0.00023433027284071502,0.873300987654928,left_images/camera_left_99.png,right_images/camera_right_99.png
2025-05-02 13:27:22,4.55311918258667,100,-0.06551905,-0.0006025676,0.11403263,3.1787684e-05,-0.00022099713,0.012603772,0.7999763,0.035163134,7.4302225e-05,0.0028102607,0.838259177365702,0.00048381713683033677,0.5452717831349381,-4.199828029997777e-05,0.9999996606755757,-0.0008227301368596845,-0.5452719961618433,0.0006667606105302007,0.8382589132433769,-0.0009033325,1.6020644e-05,0.1070866,0.0007094323,0.00012276681,-0.01403583,0.80597985,-0.04523718,-4.15986e-06,0.004732336,0.8733007294580379,0.0006837157149111778,-0.48718104279711105,-0.0007112508757885976,0.9999997388110383,0.00012845250980833236,0.48718100337579984,0.00023433027284071502,0.873300987654928,left_images/camera_left_100.png,right_images/camera_right_100.png
2025-05-02 13:27:22,4.6019606590271,101,-0.06551905,-0.0006025676,0.11403263,3.182228e-05,-0.00022100862,0.012603772,0.7999763,0.035163134,7.4302225e-05,0.0028102607,0.838259177365702,0.00048381713683033677,0.5452717831349381,-4.199828029997777e-05,0.9999996606755757,-0.0008227301368596845,-0.5452719961618433,0.0006667606105302007,0.8382589132433769,-0.000903326,1.6015541e-05,0.1070866,0.0007094232,0.00012280853,-0.01403583,0.80597985,-0.04523718,-4.15986e-06,0.004732336,0.8733007294580379,0.0006837157149111778,-0.48718104279711105,-0.0007112508757885976,0.9999997388110383,0.00012845250980833236,0.48718100337579984,0.00023433027284071502,0.873300987654928,left_images/camera_left_101.png,right_images/camera_right_101.png
2025-05-02 13:27:22,4.643198013305664,102,-0.06551905,-0.0006025644,0.11403263,3.180643e-05,-0.00022100285,0.012603828,0.7999763,0.035163134,7.4302225e-05,0.0028102607,0.838259177365702,0.00048381713683033677,0.5452717831349381,-4.199828029997777e-05,0.9999996606755757,-0.0008227301368596845,-0.5452719961618433,0.0006667606105302007,0.8382589132433769,-0.00090331904,1.600903e-05,0.1070866,0.00070941413,0.00012285027,-0.01403583,0.80597985,-0.04523718,-4.163191e-06,0.0047323434,0.8733006720185968,0.0006839099862435909,-0.4871811454879975,-0.00071134437382583,0.9999997387148052,0.0001286837317698209,0.48718110620286637,0.00023417397744446484,0.8733009303335817,left_images/camera_left_102.png,right_images/camera_right_102.png
2025-05-02 13:27:22,4.685081243515015,103,-0.06551905,-0.00060256326,0.11403263,3.184102e-05,-0.00022101433,0.012603828,0.7999763,0.035163134,7.430661e-05,0.0028102011,0.8382592084504445,0.00048406772591067784,0.5452717351252226,-4.228280860282756e-05,0.9999996606453,-0.0008227523619329448,-0.5452719483525613,0.0006666241232518125,0.8382589444509854,-0.000903309,1.6010703e-05,0.1070866,0.0007094144,0.00012286736,-0.01403583,0.80597985,-0.04523711,-4.1444164e-06,0.004732283,0.8733005181575241,0.0006837209510467221,-0.4871814215581924,-0.0007111253519481006,0.9999997388699711,0.00012868847497283698,0.48718138232750013,0.0002340633479934654,0.8733007763238364,left_images/camera_left_103.png,right_images/camera_right_103.png
2025-05-02 13:27:22,4.727436065673828,104,-0.06551905,-0.0006025665,0.11403263,3.1869775e-05,-0.00022098645,0.012603884,0.7999763,0.035163134,7.430661e-05,0.0028102011,0.8382592084504445,0.00048406772591067784,0.5452717351252226,-4.228280860282756e-05,0.9999996606453,-0.0008227523619329448,-0.5452719483525613,0.0006666241232518125,0.8382589444509854,-0.0009033048,1.6003987e-05,0.1070866,0.0007093923,0.00012290911,-0.01403583,0.80597985,-0.04523711,-4.1444164e-06,0.004732283,0.8733005181575241,0.0006837209510467221,-0.4871814215581924,-0.0007111253519481006,0.9999997388699711,0.00012868847497283698,0.48718138232750013,0.0002340633479934654,0.8733007763238364,left_images/camera_left_104.png,right_images/camera_right_104.png
2025-05-02 13:27:22,4.769176006317139,105,-0.06551905,-0.00060257,0.11403263,3.189853e-05,-0.00022095857,0.0126039395,0.7999763,0.03516313,7.42976e-05,0.002810203,0.8382591772569001,0.000483916560060431,0.5452717832139747,-4.2439322864867537e-05,0.9999996610646501,-0.0008222344489078783,-0.545271996294958,0.0006661046073968789,0.8382589136783237,-0.0009033013,1.5997442e-05,0.1070866,0.0007093702,0.00012295085,-0.01403583,0.80597985,-0.04523711,-4.1444164e-06,0.004732283,0.8733005181575241,0.0006837209510467221,-0.4871814215581924,-0.0007111253519481006,0.9999997388699711,0.00012868847497283698,0.48718138232750013,0.0002340633479934654,0.8733007763238364,left_images/camera_left_105.png,right_images/camera_right_105.png
2025-05-02 13:27:22,4.810359477996826,106,-0.06551905,-0.000602571,0.11403263,3.1923362e-05,-0.0002208846,0.012603995,0.7999763,0.03516313,7.42976e-05,0.002810203,0.8382591772569001,0.000483916560060431,0.5452717832139747,-4.2439322864867537e-05,0.9999996610646501,-0.0008222344489078783,-0.545271996294958,0.0006661046073968789,0.8382589136783237,-0.0009032978,1.5990898e-05,0.1070866,0.00070934807,0.00012299258,-0.01403583,0.80597985,-0.04523711,-4.1444164e-06,0.004732283,0.8733005181575241,0.0006837209510467221,-0.4871814215581924,-0.0007111253519481006,0.9999997388699711,0.00012868847497283698,0.48718138232750013,0.0002340633479934654,0.8733007763238364,left_images/camera_left_106.png,right_images/camera_right_106.png
2025-05-02 13:27:22,4.859581470489502,107,-0.06551905,-0.000602571,0.11403263,3.1911826e-05,-0.00022089273,0.012604051,0.7999763,0.035163138,7.429661e-05,0.0028102016,0.8382593204016271,0.00048386634867917506,0.545271563198705,-4.234316752611009e-05,0.9999996610226323,-0.0008222905063947951,-0.5452717762426905,0.0006662041559154638,0.8382590567391229,-0.0009032943,1.5984353e-05,0.1070866,0.00070932595,0.00012303432,-0.01403583,0.80597985,-0.04523711,-4.1444164e-06,0.004732283,0.8733005181575241,0.0006837209510467221,-0.4871814215581924,-0.0007111253519481006,0.9999997388699711,0.00012868847497283698,0.48718138232750013,0.0002340633479934654,0.8733007763238364,left_images/camera_left_107.png,right_images/camera_right_107.png
2025-05-02 13:27:22,4.8985326290130615,108,-0.06551905,-0.0006025643,0.11403263,3.191152e-05,-0.00022094056,0.012604159,0.7999763,0.035163138,7.429661e-05,0.0028102016,0.8382593204016271,0.00048386634867917506,0.545271563198705,-4.234316752611009e-05,0.9999996610226323,-0.0008222905063947951,-0.5452717762426905,0.0006662041559154638,0.8382590567391229,-0.0009032723,1.5978434e-05,0.1070866,0.00070937065,0.00012302563,-0.014035858,0.80597985,-0.04523711,-4.1444164e-06,0.004732283,0.8733005181575241,0.0006837209510467221,-0.4871814215581924,-0.0007111253519481006,0.9999997388699711,0.00012868847497283698,0.48718138232750013,0.0002340633479934654,0.8733007763238364,left_images/camera_left_108.png,right_images/camera_right_108.png
2025-05-02 13:27:22,4.939124345779419,109,-0.06551905,-0.0006025573,0.11403263,3.191366e-05,-0.00022090547,0.012604241,0.7999763,0.035163138,7.429661e-05,0.0028102016,0.8382593204016271,0.00048386634867917506,0.545271563198705,-4.234316752611009e-05,0.9999996610226323,-0.0008222905063947951,-0.5452717762426905,0.0006662041559154638,0.8382590567391229,-0.00090326555,1.5971962e-05,0.1070866,0.00070934853,0.00012306735,-0.014035858,0.80597985,-0.04523711,-4.1444164e-06,0.004732283,0.8733005181575241,0.0006837209510467221,-0.4871814215581924,-0.0007111253519481006,0.9999997388699711,0.00012868847497283698,0.48718138232750013,0.0002340633479934654,0.8733007763238364,left_images/camera_left_109.png,right_images/camera_right_109.png
2025-05-02 13:27:22,4.983503103256226,110,-0.06551905,-0.00060255034,0.11403263,3.1913354e-05,-0.00022095328,0.012604349,0.7999763,0.035163138,7.429661e-05,0.0028102016,0.8382593204016271,0.00048386634867917506,0.545271563198705,-4.234316752611009e-05,0.9999996610226323,-0.0008222905063947951,-0.5452717762426905,0.0006662041559154638,0.8382590567391229,-0.00090326206,1.5965417e-05,0.1070866,0.0007093264,0.00012310909,-0.014035858,0.80597985,-0.04523711,-4.1444164e-06,0.004732283,0.8733005181575241,0.0006837209510467221,-0.4871814215581924,-0.0007111253519481006,0.9999997388699711,0.00012868847497283698,0.48718138232750013,0.0002340633479934654,0.8733007763238364,left_images/camera_left_110.png,right_images/camera_right_110.png
2025-05-02 13:27:23,5.024966239929199,111,-0.06551905,-0.00060254335,0.11403263,3.1915493e-05,-0.00022091818,0.012604431,0.7999763,0.035163138,7.429748e-05,0.0028102007,0.838259569653088,0.0004839594779237015,0.5452711799354918,-4.241495586894368e-05,0.9999996609694359,-0.0008223514971873988,-0.5452713930566974,0.0006662163591023108,0.8382593059845931,-0.00090324006,1.5959498e-05,0.1070866,0.0007093711,0.0001231004,-0.014035886,0.80597985,-0.04523711,-4.1444164e-06,0.004732283,0.8733005181575241,0.0006837209510467221,-0.4871814215581924,-0.0007111253519481006,0.9999997388699711,0.00012868847497283698,0.48718138232750013,0.0002340633479934654,0.8733007763238364,left_images/camera_left_111.png,right_images/camera_right_111.png
2025-05-02 13:27:23,5.069125413894653,112,-0.06551905,-0.00060254266,0.11403263,3.1897045e-05,-0.00022092568,0.012604487,0.7999763,0.035163138,7.429748e-05,0.0028102007,0.838259569653088,0.0004839594779237015,0.5452711799354918,-4.241495586894368e-05,0.9999996609694359,-0.0008223514971873988,-0.5452713930566974,0.0006662163591023108,0.8382593059845931,-0.0009032333,1.5953026e-05,0.1070866,0.000709349,0.00012314212,-0.014035886,0.80597985,-0.04523711,-4.1444164e-06,0.004732283,0.8733005181575241,0.0006837209510467221,-0.4871814215581924,-0.0007111253519481006,0.9999997388699711,0.00012868847497283698,0.48718138232750013,0.0002340633479934654,0.8733007763238364,left_images/camera_left_112.png,right_images/camera_right_112.png
2025-05-02 13:27:23,5.118319034576416,113,-0.06551905,-0.00060254266,0.11403263,3.1878593e-05,-0.00022093319,0.012604543,0.7999763,0.035163138,7.429748e-05,0.0028102007,0.838259569653088,0.0004839594779237015,0.5452711799354918,-4.241495586894368e-05,0.9999996609694359,-0.0008223514971873988,-0.5452713930566974,0.0006662163591023108,0.8382593059845931,-0.0009032298,1.5946482e-05,0.1070866,0.0007093269,0.00012318385,-0.014035886,0.80597985,-0.04523711,-4.1444164e-06,0.004732283,0.8733005181575241,0.0006837209510467221,-0.4871814215581924,-0.0007111253519481006,0.9999997388699711,0.00012868847497283698,0.48718138232750013,0.0002340633479934654,0.8733007763238364,left_images/camera_left_113.png,right_images/camera_right_113.png
2025-05-02 13:27:23,5.1573028564453125,114,-0.06551905,-0.00060254266,0.11403263,3.186014e-05,-0.0002209407,0.012604599,0.7999763,0.035163138,7.429748e-05,0.0028102007,0.838259569653088,0.0004839594779237015,0.5452711799354918,-4.241495586894368e-05,0.9999996609694359,-0.0008223514971873988,-0.5452713930566974,0.0006662163591023108,0.8382593059845931,-0.0009032078,1.5940563e-05,0.1070866,0.0007093716,0.00012317517,-0.014035914,0.80597985,-0.04523711,-4.1444164e-06,0.004732283,0.8733005181575241,0.0006837209510467221,-0.4871814215581924,-0.0007111253519481006,0.9999997388699711,0.00012868847497283698,0.48718138232750013,0.0002340633479934654,0.8733007763238364,left_images/camera_left_114.png,right_images/camera_right_114.png
2025-05-02 13:27:23,5.198373794555664,115,-0.06551905,-0.00060254266,0.11403263,3.184169e-05,-0.0002209482,0.012604655,0.7999763,0.035163138,7.429748e-05,0.0028102007,0.838259569653088,0.0004839594779237015,0.5452711799354918,-4.241495586894368e-05,0.9999996609694359,-0.0008223514971873988,-0.5452713930566974,0.0006662163591023108,0.8382593059845931,-0.00090320106,1.593409e-05,0.1070866,0.00070934946,0.00012321689,-0.014035914,0.80597985,-0.04523711,-4.153999e-06,0.004732283,0.8733005315443901,0.0006839818162291439,-0.4871813971952962,-0.0007111438855461679,0.9999997387920349,0.00012919069709552925,0.48718135830372233,0.00023363376732315783,0.8733007898408217,left_images/camera_left_115.png,right_images/camera_right_115.png
2025-05-02 13:27:23,5.25083327293396,116,-0.06551905,-0.0006025458,0.11403263,3.18728e-05,-0.0002209708,0.012604655,0.7999763,0.03516314,7.430515e-05,0.0028101965,0.8382595881564017,0.0004840565313868104,0.5452711514037162,-4.233037509626997e-05,0.9999996607196381,-0.0008226595579216861,-0.5452713646176547,0.0006665207298482656,0.8382593242416797,-0.00090319756,1.5933321e-05,0.1070866,0.00070935715,0.0001232195,-0.014035914,0.80597985,-0.04523711,-4.153999e-06,0.004732283,0.8733005315443901,0.0006839818162291439,-0.4871813971952962,-0.0007111438855461679,0.9999997387920349,0.00012919069709552925,0.48718135830372233,0.00023363376732315783,0.8733007898408217,left_images/camera_left_116.png,right_images/camera_right_116.png
2025-05-02 13:27:23,5.297460317611694,117,-0.06551905,-0.00060255185,0.11403263,3.1840507e-05,-0.0002209861,0.012604711,0.7999763,0.03516314,7.430515e-05,0.0028101965,0.8382595881564017,0.0004840565313868104,0.5452711514037162,-4.233037509626997e-05,0.9999996607196381,-0.0008226595579216861,-0.5452713646176547,0.0006665207298482656,0.8382593242416797,-0.0009031941,1.5932994e-05,0.1070866,0.00070936483,0.00012322213,-0.014035914,0.80597985,-0.04523711,-4.153999e-06,0.004732283,0.8733005315443901,0.0006839818162291439,-0.4871813971952962,-0.0007111438855461679,0.9999997387920349,0.00012919069709552925,0.48718135830372233,0.00023363376732315783,0.8733007898408217,left_images/camera_left_117.png,right_images/camera_right_117.png
2025-05-02 13:27:23,5.340796709060669,118,-0.06551905,-0.0006025609,0.11403263,3.1860513e-05,-0.0002209518,0.012604739,0.7999763,0.035163138,7.429748e-05,0.0028102007,0.838259569653088,0.0004839594779237015,0.5452711799354918,-4.241495586894368e-05,0.9999996609694359,-0.0008223514971873988,-0.5452713930566974,0.0006662163591023108,0.8382593059845931,-0.0009031906,1.5932666e-05,0.1070866,0.0007093725,0.00012322475,-0.014035914,0.80597985,-0.04523711,-4.153999e-06,0.004732283,0.8733005315443901,0.0006839818162291439,-0.4871813971952962,-0.0007111438855461679,0.9999997387920349,0.00012919069709552925,0.48718135830372233,0.00023363376732315783,0.8733007898408217,left_images/camera_left_118.png,right_images/camera_right_118.png
2025-05-02 13:27:23,5.390085697174072,119,-0.06551905,-0.0006025617,0.11403263,3.184207e-05,-0.00022095931,0.012604794,0.7999763,0.03516315,7.430456e-05,0.0028101965,0.8382598062822768,0.00048400285455780373,0.5452708161206103,-4.2276969898850605e-05,0.9999996607349366,-0.0008226437074815188,-0.5452710292911751,0.0006665367569929392,0.8382595423521846,-0.0009031871,1.5932339e-05,0.1070866,0.0007093802,0.00012322736,-0.014035914,0.80597985,-0.04523711,-4.153999e-06,0.004732283,0.8733005315443901,0.0006839818162291439,-0.4871813971952962,-0.0007111438855461679,0.9999997387920349,0.00012919069709552925,0.48718135830372233,0.00023363376732315783,0.8733007898408217,left_images/camera_left_119.png,right_images/camera_right_119.png
2025-05-02 13:27:23,5.430591344833374,120,-0.06551905,-0.0006025617,0.11403263,3.18405e-05,-0.00022096804,0.012604794,0.7999763,0.03516315,7.430456e-05,0.0028101965,0.8382598062822768,0.00048400285455780373,0.5452708161206103,-4.2276969898850605e-05,0.9999996607349366,-0.0008226437074815188,-0.5452710292911751,0.0006665367569929392,0.8382595423521846,-0.0009031836,1.5932012e-05,0.1070866,0.0007093879,0.00012322998,-0.014035914,0.80597985,-0.04523711,-4.153999e-06,0.004732283,0.8733005315443901,0.0006839818162291439,-0.4871813971952962,-0.0007111438855461679,0.9999997387920349,0.00012919069709552925,0.48718135830372233,0.00023363376732315783,0.8733007898408217,left_images/camera_left_120.png,right_images/camera_right_120.png
2025-05-02 13:27:23,5.472700119018555,121,-0.06551905,-0.0006025617,0.11403263,3.183893e-05,-0.00022097677,0.012604794,0.7999763,0.03516315,7.430456e-05,0.0028101965,0.8382598062822768,0.00048400285455780373,0.5452708161206103,-4.2276969898850605e-05,0.9999996607349366,-0.0008226437074815188,-0.5452710292911751,0.0006665367569929392,0.8382595423521846,-0.0009031801,1.5931684e-05,0.1070866,0.00070939556,0.0001232326,-0.014035914,0.80597985,-0.04523711,-4.153999e-06,0.004732283,0.8733005315443901,0.0006839818162291439,-0.4871813971952962,-0.0007111438855461679,0.9999997387920349,0.00012919069709552925,0.48718135830372233,0.00023363376732315783,0.8733007898408217,left_images/camera_left_121.png,right_images/camera_right_121.png
2025-05-02 13:27:23,5.518544435501099,122,-0.06551905,-0.0006025617,0.11403263,3.1837357e-05,-0.0002209855,0.012604794,0.7999763,0.03516315,7.430456e-05,0.0028101965,0.8382598062822768,0.00048400285455780373,0.5452708161206103,-4.2276969898850605e-05,0.9999996607349366,-0.0008226437074815188,-0.5452710292911751,0.0006665367569929392,0.8382595423521846,-0.0009031766,1.5931357e-05,0.1070866,0.00070940325,0.00012323522,-0.014035914,0.80597985,-0.04523711,-4.153999e-06,0.004732283,0.8733005315443901,0.0006839818162291439,-0.4871813971952962,-0.0007111438855461679,0.9999997387920349,0.00012919069709552925,0.48718135830372233,0.00023363376732315783,0.8733007898408217,left_images/camera_left_122.png,right_images/camera_right_122.png
2025-05-02 13:27:23,5.559144973754883,123,-0.06551905,-0.0006025617,0.11403263,3.1835785e-05,-0.00022099423,0.012604794,0.7999763,0.03516315,7.430456e-05,0.0028101965,0.8382598062822768,0.00048400285455780373,0.5452708161206103,-4.2276969898850605e-05,0.9999996607349366,-0.0008226437074815188,-0.5452710292911751,0.0006665367569929392,0.8382595423521846,-0.0009031731,1.593103e-05,0.1070866,0.00070941093,0.00012323784,-0.014035914,0.80597985,-0.04523711,-4.153999e-06,0.004732283,0.8733005315443901,0.0006839818162291439,-0.4871813971952962,-0.0007111438855461679,0.9999997387920349,0.00012919069709552925,0.48718135830372233,0.00023363376732315783,0.8733007898408217,left_images/camera_left_123.png,right_images/camera_right_123.png
2025-05-02 13:27:23,5.5987937450408936,124,-0.06551905,-0.0006025617,0.11403263,3.1834214e-05,-0.00022100296,0.012604794,0.7999763,0.03516315,7.430456e-05,0.0028101965,0.8382598062822768,0.00048400285455780373,0.5452708161206103,-4.2276969898850605e-05,0.9999996607349366,-0.0008226437074815188,-0.5452710292911751,0.0006665367569929392,0.8382595423521846,-0.0009031696,1.5930702e-05,0.1070866,0.0007094186,0.00012324046,-0.014035914,0.80597985,-0.04523711,-4.153999e-06,0.004732283,0.8733005315443901,0.0006839818162291439,-0.4871813971952962,-0.0007111438855461679,0.9999997387920349,0.00012919069709552925,0.48718135830372233,0.00023363376732315783,0.8733007898408217,left_images/camera_left_124.png,right_images/camera_right_124.png
2025-05-02 13:27:23,5.643988609313965,125,-0.06551905,-0.0006025617,0.11403263,3.1832642e-05,-0.0002210117,0.012604794,0.7999763,0.03516314,7.430155e-05,0.002810256,0.8382597751938035,0.00048379778741280293,0.5452708640957585,-4.2004063265431305e-05,0.9999996607107384,-0.0008226871013532146,-0.5452710771054091,0.0006667219127629127,0.8382595111027361,-0.00090316613,1.5930375e-05,0.1070866,0.0007094263,0.00012324308,-0.014035914,0.80597985,-0.04523711,-4.153999e-06,0.004732283,0.8733005315443901,0.0006839818162291439,-0.4871813971952962,-0.0007111438855461679,0.9999997387920349,0.00012919069709552925,0.48718135830372233,0.00023363376732315783,0.8733007898408217,left_images/camera_left_125.png,right_images/camera_right_125.png
2025-05-02 13:27:23,5.687643527984619,126,-0.06551905,-0.0006025653,0.11403263,3.1810192e-05,-0.00022096456,0.012604826,0.7999763,0.03516314,7.430155e-05,0.002810256,0.8382597751938035,0.00048379778741280293,0.5452708640957585,-4.2004063265431305e-05,0.9999996607107384,-0.0008226871013532146,-0.5452710771054091,0.0006667219127629127,0.8382595111027361,-0.00090316264,1.5930047e-05,0.1070866,0.000709434,0.0001232457,-0.014035914,0.80597985,-0.04523711,-4.153999e-06,0.004732283,0.8733005315443901,0.0006839818162291439,-0.4871813971952962,-0.0007111438855461679,0.9999997387920349,0.00012919069709552925,0.48718135830372233,0.00023363376732315783,0.8733007898408217,left_images/camera_left_126.png,right_images/camera_right_126.png
2025-05-02 13:27:23,5.72760272026062,127,-0.06551905,-0.0006025763,0.11403263,3.1802407e-05,-0.00022096012,0.012604854,0.7999763,0.03516314,7.430155e-05,0.002810256,0.8382597751938035,0.00048379778741280293,0.5452708640957585,-4.2004063265431305e-05,0.9999996607107384,-0.0008226871013532146,-0.5452710771054091,0.0006667219127629127,0.8382595111027361,-0.00090315915,1.592972e-05,0.1070866,0.00070944167,0.00012324832,-0.014035914,0.80597985,-0.04523711,-4.153999e-06,0.004732283,0.8733005315443901,0.0006839818162291439,-0.4871813971952962,-0.0007111438855461679,0.9999997387920349,0.00012919069709552925,0.48718135830372233,0.00023363376732315783,0.8733007898408217,left_images/camera_left_127.png,right_images/camera_right_127.png
2025-05-02 13:27:23,5.771458387374878,128,-0.06551905,-0.00060258823,0.11403263,3.179462e-05,-0.00022095568,0.012604882,0.7999763,0.03516316,7.4319774e-05,0.0028101685,0.8382598063428673,0.00048377249392686863,0.5452708162318911,-4.204660925335576e-05,0.9999996608008583,-0.0008225753771329912,-0.5452710292158398,0.0006666050873905516,0.8382595423468535,-0.00090315565,1.5929392e-05,0.1070866,0.00070944935,0.00012325094,-0.014035914,0.80597985,-0.04523711,-4.153999e-06,0.004732283,0.8733005315443901,0.0006839818162291439,-0.4871813971952962,-0.0007111438855461679,0.9999997387920349,0.00012919069709552925,0.48718135830372233,0.00023363376732315783,0.8733007898408217,left_images/camera_left_128.png,right_images/camera_right_128.png
2025-05-02 13:27:23,5.814091682434082,129,-0.06551905,-0.0006025857,0.11403263,3.1815547e-05,-0.00022091893,0.012604882,0.7999763,0.03516316,7.4319774e-05,0.0028101685,0.8382598063428673,0.00048377249392686863,0.5452708162318911,-4.204660925335576e-05,0.9999996608008583,-0.0008225753771329912,-0.5452710292158398,0.0006666050873905516,0.8382595423468535,-0.00090315216,1.5929065e-05,0.1070866,0.00070945703,0.00012325356,-0.014035914,0.80597985,-0.04523711,-4.153999e-06,0.004732283,0.8733005315443901,0.0006839818162291439,-0.4871813971952962,-0.0007111438855461679,0.9999997387920349,0.00012919069709552925,0.48718135830372233,0.00023363376732315783,0.8733007898408217,left_images/camera_left_129.png,right_images/camera_right_129.png
2025-05-02 13:27:23,5.855137348175049,130,-0.06551905,-0.00060258486,0.11403263,3.1818458e-05,-0.00022092802,0.012604882,0.7999763,0.03516316,7.4319774e-05,0.0028101685,0.8382598063428673,0.00048377249392686863,0.5452708162318911,-4.204660925335576e-05,0.9999996608008583,-0.0008225753771329912,-0.5452710292158398,0.0006666050873905516,0.8382595423468535,-0.00090314867,1.5928737e-05,0.1070866,0.0007094647,0.00012325618,-0.014035914,0.80597985,-0.04523711,-4.153999e-06,0.004732283,0.8733005315443901,0.0006839818162291439,-0.4871813971952962,-0.0007111438855461679,0.9999997387920349,0.00012919069709552925,0.48718135830372233,0.00023363376732315783,0.8733007898408217,left_images/camera_left_130.png,right_images/camera_right_130.png
2025-05-02 13:27:23,5.898488998413086,131,-0.06551905,-0.00060258486,0.11403263,3.182136e-05,-0.00022093713,0.012604882,0.7999763,0.03516316,7.4319774e-05,0.0028101685,0.8382598063428673,0.00048377249392686863,0.5452708162318911,-4.204660925335576e-05,0.9999996608008583,-0.0008225753771329912,-0.5452710292158398,0.0006666050873905516,0.8382595423468535,-0.0009031452,1.592841e-05,0.1070866,0.0007094724,0.0001232588,-0.014035914,0.80597985,-0.04523711,-4.153999e-06,0.004732283,0.8733005315443901,0.0006839818162291439,-0.4871813971952962,-0.0007111438855461679,0.9999997387920349,0.00012919069709552925,0.48718135830372233,0.00023363376732315783,0.8733007898408217,left_images/camera_left_131.png,right_images/camera_right_131.png
2025-05-02 13:27:23,5.939841985702515,132,-0.06551905,-0.00060258486,0.11403263,3.1824264e-05,-0.00022094624,0.012604882,0.7999763,0.03516316,7.4319774e-05,0.0028101685,0.8382598063428673,0.00048377249392686863,0.5452708162318911,-4.204660925335576e-05,0.9999996608008583,-0.0008225753771329912,-0.5452710292158398,0.0006666050873905516,0.8382595423468535,-0.0009031417,1.5928083e-05,0.1070866,0.0007094801,0.00012326142,-0.014035914,0.80597985,-0.04523711,-4.153999e-06,0.004732283,0.8733005315443901,0.0006839818162291439,-0.4871813971952962,-0.0007111438855461679,0.9999997387920349,0.00012919069709552925,0.48718135830372233,0.00023363376732315783,0.8733007898408217,left_images/camera_left_132.png,right_images/camera_right_132.png
2025-05-02 13:27:23,5.982744932174683,133,-0.06551905,-0.00060258486,0.11403263,3.1827167e-05,-0.00022095535,0.012604882,0.7999763,0.03516316,7.4319774e-05,0.0028101685,0.8382598063428673,0.00048377249392686863,0.5452708162318911,-4.204660925335576e-05,0.9999996608008583,-0.0008225753771329912,-0.5452710292158398,0.0006666050873905516,0.8382595423468535,-0.0009031382,1.5927755e-05,0.1070866,0.00070948777,0.00012326404,-0.014035914,0.80597985,-0.04523711,-4.153999e-06,0.004732283,0.8733005315443901,0.0006839818162291439,-0.4871813971952962,-0.0007111438855461679,0.9999997387920349,0.00012919069709552925,0.48718135830372233,0.00023363376732315783,0.8733007898408217,left_images/camera_left_133.png,right_images/camera_right_133.png
2025-05-02 13:27:24,6.033110857009888,134,-0.06551905,-0.0006025817,0.11403263,3.1848096e-05,-0.00022091858,0.012604882,0.7999763,0.03516314,7.429637e-05,0.002810197,0.8382597624363557,0.00048384350275647536,0.5452708836675668,-4.234525951513714e-05,0.9999996610588251,-0.0008222463825042003,-0.5452710966913827,0.0006661664201871726,0.8382594988040858,-0.0009031347,1.5927428e-05,0.1070866,0.00070949545,0.00012326665,-0.014035914,0.80597985,-0.04523711,-4.153999e-06,0.004732283,0.8733005315443901,0.0006839818162291439,-0.4871813971952962,-0.0007111438855461679,0.9999997387920349,0.00012919069709552925,0.48718135830372233,0.00023363376732315783,0.8733007898408217,left_images/camera_left_134.png,right_images/camera_right_134.png
2025-05-02 13:27:24,6.0737624168396,135,-0.06551905,-0.00060258055,0.11403263,3.183028e-05,-0.00022082705,0.012604938,0.7999763,0.035163138,7.429239e-05,0.0028102538,0.8382597625015993,0.0004836153180523328,0.5452708837696971,-4.20954236064817e-05,0.999999661097658,-0.0008222119825282165,-0.545271096610427,0.0006662738123675059,0.8382594987713943,-0.0009031312,1.59271e-05,0.1070866,0.00070950313,0.00012326927,-0.014035914,0.80597985,-0.04523711,-4.153999e-06,0.004732283,0.8733005315443901,0.0006839818162291439,-0.4871813971952962,-0.0007111438855461679,0.9999997387920349,0.00012919069709552925,0.48718135830372233,0.00023363376732315783,0.8733007898408217,left_images/camera_left_135.png,right_images/camera_right_135.png
