jiaqis7/OS_Teleop_Extension/demo_1/teleop_log.csv
Epoch Time (Seconds),Time (Seconds),Frame Number,PSM1_joint_1,PSM1_joint_2,PSM1_joint_3,PSM1_joint_4,PSM1_joint_5,PSM1_joint_6,PSM1_jaw_angle,PSM1_ee_x,PSM1_ee_y,PSM1_ee_z,"PSM1_Orientation_Matrix_[1,1]","PSM1_Orientation_Matrix_[1,2]","PSM1_Orientation_Matrix_[1,3]","PSM1_Orientation_Matrix_[2,1]","PSM1_Orientation_Matrix_[2,2]","PSM1_Orientation_Matrix_[2,3]","PSM1_Orientation_Matrix_[3,1]","PSM1_Orientation_Matrix_[3,2]","PSM1_Orientation_Matrix_[3,3]",PSM2_joint_1,PSM2_joint_2,PSM2_joint_3,PSM2_joint_4,PSM2_joint_5,PSM2_joint_6,PSM2_jaw_angle,PSM2_ee_x,PSM2_ee_y,PSM2_ee_z,"PSM2_Orientation_Matrix_[1,1]","PSM2_Orientation_Matrix_[1,2]","PSM2_Orientation_Matrix_[1,3]","PSM2_Orientation_Matrix_[2,1]","PSM2_Orientation_Matrix_[2,2]","PSM2_Orientation_Matrix_[2,3]","PSM2_Orientation_Matrix_[3,1]","PSM2_Orientation_Matrix_[3,2]","PSM2_Orientation_Matrix_[3,3]",PSM3_joint_1,PSM3_joint_2,PSM3_joint_3,PSM3_joint_4,PSM3_joint_5,PSM3_joint_6,PSM3_jaw_angle,PSM3_ee_x,PSM3_ee_y,PSM3_ee_z,"PSM3_Orientation_Matrix_[1,1]","PSM3_Orientation_Matrix_[1,2]","PSM3_Orientation_Matrix_[1,3]","PSM3_Orientation_Matrix_[2,1]","PSM3_Orientation_Matrix_[2,2]","PSM3_Orientation_Matrix_[2,3]","PSM3_Orientation_Matrix_[3,1]","PSM3_Orientation_Matrix_[3,2]","PSM3_Orientation_Matrix_[3,3]",Camera Left,Camera Right
2025-05-30 14:57:57,0.0020339488983154297,1,-0.03493174,-8.893683e-05,0.11432712,-0.00119392,0.0007912621,-0.05889911,1.0471802,0.05745428,-5.0065923e-06,0.0019883914,0.8152533144224794,-0.001384248854648466,0.5791028554395757,0.0011500170727422672,0.9999990412377507,0.0007713522616777324,-0.5791033679611043,3.71306827092623e-05,0.8152541246981937,0.016858391,0.00083842315,0.112121545,0.00048369766,8.56657e-05,-0.011215659,1.0471792,-0.060939662,-9.8210054e-05,0.0024163602,0.8630892145611696,0.0008898667609141871,-0.5050507062120903,-0.000493785747922708,0.9999994566373721,0.0009180961799566647,0.5050512487696851,-0.0005430120701445791,0.86308918499427,0.0026660694,0.019334318,0.090639085,-0.0001678379,-0.012031046,-0.0062329173,0.5235896,0.0001909845,-0.011351345,0.00234887,0.9999936202043284,-0.000148111168816023,0.0035689793672027174,0.0010418553543899358,0.9677904589697591,-0.2517549246082862,-0.0034167364636997944,0.2517570368235712,0.967784438974792,left_images/camera_left_1.png,right_images/camera_right_1.png
2025-05-30 14:57:57,0.0554957389831543,2,-0.03493174,-8.8946064e-05,0.11432712,-0.0011938954,0.000791266,-0.05889911,1.0471802,0.05745428,-5.0065923e-06,0.0019883914,0.8152533144224794,-0.001384248854648466,0.5791028554395757,0.0011500170727422672,0.9999990412377507,0.0007713522616777324,-0.5791033679611043,3.71306827092623e-05,0.8152541246981937,0.016858391,0.00083842664,0.112121545,0.0004837029,8.5647276e-05,-0.011215659,1.0471792,-0.060939662,-9.8210054e-05,0.0024163602,0.8630892145611696,0.0008898667609141871,-0.5050507062120903,-0.000493785747922708,0.9999994566373721,0.0009180961799566647,0.5050512487696851,-0.0005430120701445791,0.86308918499427,0.0026660694,0.019334318,0.090639085,-0.0001678295,-0.012031046,-0.0062329173,0.5235896,0.0001909845,-0.011351345,0.00234887,0.9999936202043284,-0.000148111168816023,0.0035689793672027174,0.0010418553543899358,0.9677904589697591,-0.2517549246082862,-0.0034167364636997944,0.2517570368235712,0.967784438974792,left_images/camera_left_2.png,right_images/camera_right_2.png
2025-05-30 14:57:57,0.1071937084197998,3,-0.03493174,-8.895191e-05,0.11432712,-0.0011939233,0.0007912995,-0.05889911,1.0471802,0.05745428,-5.0065923e-06,0.0019883914,0.8152533144224794,-0.001384248854648466,0.5791028554395757,0.0011500170727422672,0.9999990412377507,0.0007713522616777324,-0.5791033679611043,3.71306827092623e-05,0.8152541246981937,0.016858391,0.00083843013,0.112121545,0.00048370814,8.562885e-05,-0.011215659,1.0471792,-0.060939662,-9.8210054e-05,0.0024163602,0.8630892145611696,0.0008898667609141871,-0.5050507062120903,-0.000493785747922708,0.9999994566373721,0.0009180961799566647,0.5050512487696851,-0.0005430120701445791,0.86308918499427,0.0026660694,0.019334318,0.090639085,-0.00016782108,-0.012031046,-0.0062329173,0.5235896,0.0001909845,-0.011351345,0.00234887,0.9999936202043284,-0.000148111168816023,0.0035689793672027174,0.0010418553543899358,0.9677904589697591,-0.2517549246082862,-0.0034167364636997944,0.2517570368235712,0.967784438974792,left_images/camera_left_3.png,right_images/camera_right_3.png
2025-05-30 14:57:57,0.1633751392364502,4,-0.03493174,-8.896158e-05,0.11432712,-0.0011938986,0.0007913034,-0.05889911,1.0471802,0.05745428,-5.0065923e-06,0.0019883914,0.8152533144224794,-0.001384248854648466,0.5791028554395757,0.0011500170727422672,0.9999990412377507,0.0007713522616777324,-0.5791033679611043,3.71306827092623e-05,0.8152541246981937,0.016858391,0.0008384336,0.112121545,0.00048371337,8.561043e-05,-0.011215659,1.0471792,-0.060939662,-9.8210054e-05,0.0024163602,0.8630892145611696,0.0008898667609141871,-0.5050507062120903,-0.000493785747922708,0.9999994566373721,0.0009180961799566647,0.5050512487696851,-0.0005430120701445791,0.86308918499427,0.0026660694,0.019334318,0.090639085,-0.00016781267,-0.012031046,-0.0062329173,0.5235896,0.0001909845,-0.011351345,0.00234887,0.9999936202043284,-0.000148111168816023,0.0035689793672027174,0.0010418553543899358,0.9677904589697591,-0.2517549246082862,-0.0034167364636997944,0.2517570368235712,0.967784438974792,left_images/camera_left_4.png,right_images/camera_right_4.png
2025-05-30 14:57:57,0.22865533828735352,5,-0.03493174,-8.896742e-05,0.11432712,-0.0011939266,0.00079133693,-0.05889911,1.0471802,0.05745428,-5.0141734e-06,0.0019883923,0.8152533143681566,-0.001384424674115765,0.5791028550957567,0.0011499494994163541,0.9999990410078138,0.0007717509968660657,-0.5791033681717661,3.676648026595806e-05,0.8152541245650594,0.016858391,0.0008384371,0.112121545,0.0004837186,8.559201e-05,-0.011215659,1.0471792,-0.060939662,-9.8210054e-05,0.0024163602,0.8630892145611696,0.0008898667609141871,-0.5050507062120903,-0.000493785747922708,0.9999994566373721,0.0009180961799566647,0.5050512487696851,-0.0005430120701445791,0.86308918499427,0.0026660694,0.019334318,0.090639085,-0.00016780426,-0.012031046,-0.0062329173,0.5235896,0.0001909845,-0.011351345,0.00234887,0.9999936202043284,-0.000148111168816023,0.0035689793672027174,0.0010418553543899358,0.9677904589697591,-0.2517549246082862,-0.0034167364636997944,0.2517570368235712,0.967784438974792,left_images/camera_left_5.png,right_images/camera_right_5.png
2025-05-30 14:57:57,0.29428720474243164,6,-0.03493174,-8.896955e-05,0.11432712,-0.0011938835,0.0007913492,-0.05889911,1.0471802,0.05745428,-5.0141734e-06,0.0019883923,0.8152533143681566,-0.001384424674115765,0.5791028550957567,0.0011499494994163541,0.9999990410078138,0.0007717509968660657,-0.5791033681717661,3.676648026595806e-05,0.8152541245650594,0.016858391,0.0008384406,0.112121545,0.00048372385,8.5573585e-05,-0.011215659,1.0471792,-0.060939662,-9.8210054e-05,0.0024163602,0.8630892145611696,0.0008898667609141871,-0.5050507062120903,-0.000493785747922708,0.9999994566373721,0.0009180961799566647,0.5050512487696851,-0.0005430120701445791,0.86308918499427,0.0026660694,0.019334318,0.090639085,-0.00016779585,-0.012031046,-0.0062329173,0.5235896,0.0001909845,-0.011351345,0.00234887,0.9999936202043284,-0.000148111168816023,0.0035689793672027174,0.0010418553543899358,0.9677904589697591,-0.2517549246082862,-0.0034167364636997944,0.2517570368235712,0.967784438974792,left_images/camera_left_6.png,right_images/camera_right_6.png
2025-05-30 14:57:57,0.36028480529785156,7,-0.03493174,-8.8967594e-05,0.11432712,-0.0011938927,0.00079139107,-0.05889911,1.0471802,0.05745428,-5.0141734e-06,0.0019883923,0.8152533143681566,-0.001384424674115765,0.5791028550957567,0.0011499494994163541,0.9999990410078138,0.0007717509968660657,-0.5791033681717661,3.676648026595806e-05,0.8152541245650594,0.016858391,0.0008384441,0.112121545,0.0004837291,8.555516e-05,-0.011215659,1.0471792,-0.060939662,-9.8210054e-05,0.0024163602,0.8630892145611696,0.0008898667609141871,-0.5050507062120903,-0.000493785747922708,0.9999994566373721,0.0009180961799566647,0.5050512487696851,-0.0005430120701445791,0.86308918499427,0.0026660694,0.019334318,0.090639085,-0.00016778744,-0.012031046,-0.0062329173,0.5235896,0.0001909845,-0.011351345,0.00234887,0.9999936202043284,-0.000148111168816023,0.0035689793672027174,0.0010418553543899358,0.9677904589697591,-0.2517549246082862,-0.0034167364636997944,0.2517570368235712,0.967784438974792,left_images/camera_left_7.png,right_images/camera_right_7.png
2025-05-30 14:57:57,0.42067956924438477,8,-0.03493174,-8.8961555e-05,0.11432712,-0.0011938997,0.0007913464,-0.05889911,1.0471802,0.05745428,-5.0141734e-06,0.0019883923,0.8152533143681566,-0.001384424674115765,0.5791028550957567,0.0011499494994163541,0.9999990410078138,0.0007717509968660657,-0.5791033681717661,3.676648026595806e-05,0.8152541245650594,0.016858391,0.0008384476,0.112121545,0.00048373433,8.553674e-05,-0.011215659,1.0471792,-0.060939662,-9.8210054e-05,0.0024163602,0.8630892145611696,0.0008898667609141871,-0.5050507062120903,-0.000493785747922708,0.9999994566373721,0.0009180961799566647,0.5050512487696851,-0.0005430120701445791,0.86308918499427,0.0026660694,0.019334318,0.090639085,-0.00016777903,-0.012031046,-0.0062329173,0.5235896,0.00019098826,-0.0113513395,0.0023488682,0.9999936209229694,-0.00014775802117197108,0.003568792643949496,0.0010414664715956224,0.9677904666247408,-0.2517548967902209,-0.003416644692804749,0.25175700760422426,0.9677844468998298,left_images/camera_left_8.png,right_images/camera_right_8.png
2025-05-30 14:57:57,0.49022436141967773,9,-0.03493174,-8.895839e-05,0.11432712,-0.0011939089,0.0007913883,-0.05889911,1.0471802,0.05745428,-5.0141734e-06,0.0019883923,0.8152533143681566,-0.001384424674115765,0.5791028550957567,0.0011499494994163541,0.9999990410078138,0.0007717509968660657,-0.5791033681717661,3.676648026595806e-05,0.8152541245650594,0.016858391,0.0008384511,0.112121545,0.00048373957,8.551832e-05,-0.011215659,1.0471792,-0.060939662,-9.8210054e-05,0.0024163602,0.8630892145611696,0.0008898667609141871,-0.5050507062120903,-0.000493785747922708,0.9999994566373721,0.0009180961799566647,0.5050512487696851,-0.0005430120701445791,0.86308918499427,0.0026660694,0.019334318,0.090639085,-0.00016778681,-0.012031018,-0.0062329033,0.5235896,0.00019098722,-0.011351349,0.0023488682,0.9999936206836649,-0.00014809718445428185,0.0035688456394941965,0.0010418071436006622,0.967790533403443,-0.25175463867137554,-0.0034166108719201043,0.2517567506977783,0.967784513850189,left_images/camera_left_9.png,right_images/camera_right_9.png
2025-05-30 14:57:57,0.556809663772583,10,-0.03493174,-8.895235e-05,0.11432712,-0.0011939158,0.0007913436,-0.05889911,1.0471802,0.05745428,-5.0141734e-06,0.0019883923,0.8152533143681566,-0.001384424674115765,0.5791028550957567,0.0011499494994163541,0.9999990410078138,0.0007717509968660657,-0.5791033681717661,3.676648026595806e-05,0.8152541245650594,0.016858391,0.0008384546,0.112121545,0.0004837448,8.5499894e-05,-0.011215659,1.0471792,-0.060939662,-9.8210054e-05,0.0024163602,0.8630892145611696,0.0008898667609141871,-0.5050507062120903,-0.000493785747922708,0.9999994566373721,0.0009180961799566647,0.5050512487696851,-0.0005430120701445791,0.86308918499427,0.002666075,0.019334318,0.090639085,-0.00016782063,-0.012031018,-0.006232961,0.5235896,0.00019098434,-0.011351349,0.002348871,0.9999936195282889,-0.0001480988680238527,0.003569169292295916,0.00104189050834942,0.9677905147032108,-0.2517547102134599,-0.0034169235988516723,0.25175682258326154,0.9677844940460143,left_images/camera_left_10.png,right_images/camera_right_10.png
2025-05-30 14:57:57,0.6307079792022705,11,-0.03493174,-8.8949186e-05,0.11432712,-0.001193925,0.0007913855,-0.05889911,1.0471802,0.05745428,-5.0141734e-06,0.0019883923,0.8152533143681566,-0.001384424674115765,0.5791028550957567,0.0011499494994163541,0.9999990410078138,0.0007717509968660657,-0.5791033681717661,3.676648026595806e-05,0.8152541245650594,0.016858391,0.0008384581,0.112121545,0.00048375005,8.548147e-05,-0.011215659,1.0471792,-0.060939662,-9.8210054e-05,0.0024163602,0.8630892145611696,0.0008898667609141871,-0.5050507062120903,-0.000493785747922708,0.9999994566373721,0.0009180961799566647,0.5050512487696851,-0.0005430120701445791,0.86308918499427,0.0026660755,0.019334318,0.090639085,-0.00016782814,-0.012031018,-0.0062329937,0.5235896,0.00019098434,-0.011351349,0.002348871,0.9999936195282889,-0.0001480988680238527,0.003569169292295916,0.00104189050834942,0.9677905147032108,-0.2517547102134599,-0.0034169235988516723,0.25175682258326154,0.9677844940460143,left_images/camera_left_11.png,right_images/camera_right_11.png
2025-05-30 14:57:57,0.7021920680999756,12,-0.03493174,-8.895263e-05,0.11432712,-0.0011938988,0.0007913667,-0.05889911,1.0471802,0.05745428,-5.0141734e-06,0.0019883923,0.8152533143681566,-0.001384424674115765,0.5791028550957567,0.0011499494994163541,0.9999990410078138,0.0007717509968660657,-0.5791033681717661,3.676648026595806e-05,0.8152541245650594,0.016858391,0.00083846156,0.112121545,0.00048375528,8.546305e-05,-0.011215659,1.0471792,-0.060939662,-9.8210054e-05,0.0024163602,0.8630892145611696,0.0008898667609141871,-0.5050507062120903,-0.000493785747922708,0.9999994566373721,0.0009180961799566647,0.5050512487696851,-0.0005430120701445791,0.86308918499427,0.0026660755,0.019334318,0.090639085,-0.00016783562,-0.012031018,-0.0062330263,0.5235896,0.00019098434,-0.011351349,0.002348871,0.9999936195282889,-0.0001480988680238527,0.003569169292295916,0.00104189050834942,0.9677905147032108,-0.2517547102134599,-0.0034169235988516723,0.25175682258326154,0.9677844940460143,left_images/camera_left_12.png,right_images/camera_right_12.png
2025-05-30 14:57:57,0.7703671455383301,13,-0.03493174,-8.894761e-05,0.11432712,-0.0011939058,0.000791322,-0.05889911,1.0471802,0.05745428,-5.0065923e-06,0.0019883914,0.8152533144224794,-0.001384248854648466,0.5791028554395757,0.0011500170727422672,0.9999990412377507,0.0007713522616777324,-0.5791033679611043,3.71306827092623e-05,0.8152541246981937,0.016858391,0.00083846506,0.112121545,0.00048376052,8.5444626e-05,-0.011215659,1.0471792,-0.060939662,-9.8210054e-05,0.0024163602,0.8630892145611696,0.0008898667609141871,-0.5050507062120903,-0.000493785747922708,0.9999994566373721,0.0009180961799566647,0.5050512487696851,-0.0005430120701445791,0.86308918499427,0.0026660755,0.019334318,0.090639085,-0.0001678431,-0.012031018,-0.006233059,0.5235896,0.00019098434,-0.011351349,0.002348871,0.9999936195282889,-0.0001480988680238527,0.003569169292295916,0.00104189050834942,0.9677905147032108,-0.2517547102134599,-0.0034169235988516723,0.25175682258326154,0.9677844940460143,left_images/camera_left_13.png,right_images/camera_right_13.png
2025-05-30 14:57:57,0.8360781669616699,14,-0.03493174,-8.894858e-05,0.11432712,-0.001193932,0.00079126895,-0.05889911,1.0471802,0.05745428,-5.015033e-06,0.0019884184,0.8152533678933769,-0.0013845874991076474,0.5791027793543766,0.0011503065285309608,0.9999990407680718,0.0007715295374175612,-0.5791032921106536,3.715365397287824e-05,0.8152541785763563,0.016858391,0.00083846855,0.112121545,0.00048376576,8.54262e-05,-0.011215659,1.0471792,-0.060939662,-9.8210054e-05,0.0024163602,0.8630892145611696,0.0008898667609141871,-0.5050507062120903,-0.000493785747922708,0.9999994566373721,0.0009180961799566647,0.5050512487696851,-0.0005430120701445791,0.86308918499427,0.0026660755,0.019334318,0.090639085,-0.00016785058,-0.012031018,-0.0062330915,0.5235896,0.00019098434,-0.011351349,0.002348871,0.9999936195282889,-0.0001480988680238527,0.003569169292295916,0.00104189050834942,0.9677905147032108,-0.2517547102134599,-0.0034169235988516723,0.25175682258326154,0.9677844940460143,left_images/camera_left_14.png,right_images/camera_right_14.png
2025-05-30 14:57:58,0.8964598178863525,15,-0.03493174,-8.894269e-05,0.11432712,-0.001193962,0.0007912913,-0.05889911,1.0471802,0.05745428,-5.015033e-06,0.0019884184,0.8152533678933769,-0.0013845874991076474,0.5791027793543766,0.0011503065285309608,0.9999990407680718,0.0007715295374175612,-0.5791032921106536,3.715365397287824e-05,0.8152541785763563,0.016858391,0.00083847204,0.112121545,0.000483771,8.540778e-05,-0.011215659,1.0471792,-0.060939662,-9.8210054e-05,0.0024163602,0.8630892145611696,0.0008898667609141871,-0.5050507062120903,-0.000493785747922708,0.9999994566373721,0.0009180961799566647,0.5050512487696851,-0.0005430120701445791,0.86308918499427,0.0026660755,0.019334318,0.090639085,-0.00016785806,-0.012031018,-0.006233124,0.5235896,0.00019098434,-0.011351349,0.002348871,0.9999936195282889,-0.0001480988680238527,0.003569169292295916,0.00104189050834942,0.9677905147032108,-0.2517547102134599,-0.0034169235988516723,0.25175682258326154,0.9677844940460143,left_images/camera_left_15.png,right_images/camera_right_15.png
2025-05-30 14:57:58,0.9687469005584717,16,-0.03493174,-8.894068e-05,0.11432712,-0.001193941,0.0007912843,-0.05889911,1.0471802,0.05745428,-5.015033e-06,0.0019884184,0.8152533678933769,-0.0013845874991076474,0.5791027793543766,0.0011503065285309608,0.9999990407680718,0.0007715295374175612,-0.5791032921106536,3.715365397287824e-05,0.8152541785763563,0.016858391,0.00083847553,0.112121545,0.00048377624,8.538936e-05,-0.011215659,1.0471792,-0.060939662,-9.8210054e-05,0.0024163602,0.8630892145611696,0.0008898667609141871,-0.5050507062120903,-0.000493785747922708,0.9999994566373721,0.0009180961799566647,0.5050512487696851,-0.0005430120701445791,0.86308918499427,0.0026660755,0.019334318,0.090639085,-0.00016786554,-0.012031018,-0.0062331567,0.5235896,0.00019098434,-0.011351349,0.002348871,0.9999936195282889,-0.0001480988680238527,0.003569169292295916,0.00104189050834942,0.9677905147032108,-0.2517547102134599,-0.0034169235988516723,0.25175682258326154,0.9677844940460143,left_images/camera_left_16.png,right_images/camera_right_16.png
2025-05-30 14:57:58,1.0364711284637451,17,-0.03493174,-8.893937e-05,0.11432712,-0.00119392,0.0007912773,-0.05889911,1.0471802,0.05745428,-5.0065923e-06,0.0019883914,0.8152533144224794,-0.001384248854648466,0.5791028554395757,0.0011500170727422672,0.9999990412377507,0.0007713522616777324,-0.5791033679611043,3.71306827092623e-05,0.8152541246981937,0.016858391,0.00083847606,0.112121545,0.0004837806,8.542316e-05,-0.011215659,1.0471792,-0.060939662,-9.8210054e-05,0.0024163602,0.8630892145611696,0.0008898667609141871,-0.5050507062120903,-0.000493785747922708,0.9999994566373721,0.0009180961799566647,0.5050512487696851,-0.0005430120701445791,0.86308918499427,0.0026660755,0.019334318,0.090639085,-0.00016787302,-0.012031018,-0.0062331893,0.5235896,0.00019098434,-0.011351349,0.002348871,0.9999936195282889,-0.0001480988680238527,0.003569169292295916,0.00104189050834942,0.9677905147032108,-0.2517547102134599,-0.0034169235988516723,0.25175682258326154,0.9677844940460143,left_images/camera_left_17.png,right_images/camera_right_17.png
2025-05-30 14:57:58,1.097156286239624,18,-0.03493174,-8.8948604e-05,0.11432712,-0.0011938954,0.0007912812,-0.05889911,1.0471802,0.05745428,-5.0065923e-06,0.0019883914,0.8152533144224794,-0.001384248854648466,0.5791028554395757,0.0011500170727422672,0.9999990412377507,0.0007713522616777324,-0.5791033679611043,3.71306827092623e-05,0.8152541246981937,0.016858391,0.00083847914,0.112121545,0.00048378584,8.540473e-05,-0.011215659,1.0471792,-0.060939662,-9.8210054e-05,0.0024163602,0.8630892145611696,0.0008898667609141871,-0.5050507062120903,-0.000493785747922708,0.9999994566373721,0.0009180961799566647,0.5050512487696851,-0.0005430120701445791,0.86308918499427,0.0026660755,0.019334318,0.090639085,-0.0001678805,-0.012031018,-0.006233222,0.5235896,0.00019098434,-0.011351349,0.002348871,0.9999936195282889,-0.0001480988680238527,0.003569169292295916,0.00104189050834942,0.9677905147032108,-0.2517547102134599,-0.0034169235988516723,0.25175682258326154,0.9677844940460143,left_images/camera_left_18.png,right_images/camera_right_18.png
2025-05-30 14:57:58,1.1546974182128906,19,-0.03493174,-8.8954446e-05,0.11432712,-0.0011939233,0.00079131476,-0.05889911,1.0471802,0.05745428,-5.0065923e-06,0.0019883914,0.8152533144224794,-0.001384248854648466,0.5791028554395757,0.0011500170727422672,0.9999990412377507,0.0007713522616777324,-0.5791033679611043,3.71306827092623e-05,0.8152541246981937,0.016858391,0.00083848264,0.112121545,0.00048379108,8.538631e-05,-0.011215659,1.0471792,-0.060939662,-9.8205666e-05,0.0024163611,0.8630892860100967,0.0008897255774501491,-0.5050505843605949,-0.0004937806648773359,0.9999994568883783,0.0009178254754860634,0.5050511266745542,-0.0005427811209768824,0.8630892565855621,0.0026660755,0.019334318,0.090639085,-0.00016788798,-0.012031018,-0.0062332544,0.5235896,0.00019098434,-0.011351349,0.002348871,0.9999936195282889,-0.0001480988680238527,0.003569169292295916,0.00104189050834942,0.9677905147032108,-0.2517547102134599,-0.0034169235988516723,0.25175682258326154,0.9677844940460143,left_images/camera_left_19.png,right_images/camera_right_19.png
2025-05-30 14:57:58,1.2115800380706787,20,-0.03493174,-8.8964116e-05,0.11432712,-0.0011938986,0.00079131866,-0.05889911,1.0471802,0.05745428,-5.0065923e-06,0.0019883914,0.8152533144224794,-0.001384248854648466,0.5791028554395757,0.0011500170727422672,0.9999990412377507,0.0007713522616777324,-0.5791033679611043,3.71306827092623e-05,0.8152541246981937,0.016858391,0.0008384861,0.112121545,0.00048382132,8.536834e-05,-0.011215715,1.0471792,-0.060939662,-9.8205666e-05,0.0024163611,0.8630892860100967,0.0008897255774501491,-0.5050505843605949,-0.0004937806648773359,0.9999994568883783,0.0009178254754860634,0.5050511266745542,-0.0005427811209768824,0.8630892565855621,0.0026660755,0.019334318,0.090639085,-0.00016789546,-0.012031018,-0.006233287,0.5235896,0.00019098434,-0.011351349,0.002348871,0.9999936195282889,-0.0001480988680238527,0.003569169292295916,0.00104189050834942,0.9677905147032108,-0.2517547102134599,-0.0034169235988516723,0.25175682258326154,0.9677844940460143,left_images/camera_left_20.png,right_images/camera_right_20.png
2025-05-30 14:57:58,1.264298439025879,21,-0.03493174,-8.896661e-05,0.11432712,-0.0011939248,0.00079126563,-0.05889911,1.0471802,0.05745428,-5.0065923e-06,0.0019883914,0.8152533144224794,-0.001384248854648466,0.5791028554395757,0.0011500170727422672,0.9999990412377507,0.0007713522616777324,-0.5791033679611043,3.71306827092623e-05,0.8152541246981937,0.016858391,0.0008384852,0.112121545,0.0004838347,8.537089e-05,-0.011215691,1.0471792,-0.060939662,-9.8205666e-05,0.0024163611,0.8630892860100967,0.0008897255774501491,-0.5050505843605949,-0.0004937806648773359,0.9999994568883783,0.0009178254754860634,0.5050511266745542,-0.0005427811209768824,0.8630892565855621,0.0026660755,0.019334318,0.090639085,-0.00016788613,-0.012031046,-0.0062333033,0.5235896,0.00019098012,-0.011351344,0.0023488738,0.9999936182144611,-0.0001481752380064402,0.0035695342062398217,0.0010420573498695143,0.9677904364195786,-0.25175501045913895,-0.0034172572086773544,0.25175712347200907,0.9677844145956626,left_images/camera_left_21.png,right_images/camera_right_21.png
2025-05-30 14:57:58,1.3174047470092773,22,-0.03493174,-8.8975794e-05,0.11432712,-0.0011939001,0.00079126953,-0.05889911,1.0471802,0.05745428,-5.0065923e-06,0.0019883914,0.8152533144224794,-0.001384248854648466,0.5791028554395757,0.0011500170727422672,0.9999990412377507,0.0007713522616777324,-0.5791033679611043,3.71306827092623e-05,0.8152541246981937,0.016858391,0.00083848793,0.112121545,0.00048386495,8.5352905e-05,-0.011215747,1.0471792,-0.060939666,-9.820932e-05,0.0024163257,0.8630894334598481,0.0008900887722918775,-0.505050331741239,-0.0004941952774125494,0.9999994566735587,0.0009178363769892204,0.5050508742898937,-0.0005425813898223041,0.8630894043982056,0.0026660755,0.019334318,0.090639085,-0.00016791667,-0.012031046,-0.006233359,0.5235896,0.00019098012,-0.011351344,0.0023488738,0.9999936182144611,-0.0001481752380064402,0.0035695342062398217,0.0010420573498695143,0.9677904364195786,-0.25175501045913895,-0.0034172572086773544,0.25175712347200907,0.9677844145956626,left_images/camera_left_22.png,right_images/camera_right_22.png
2025-05-30 14:57:58,1.3716230392456055,23,-0.03493174,-8.898164e-05,0.11432712,-0.0011939281,0.00079130306,-0.05889911,1.0471802,0.05745428,-5.0065923e-06,0.0019883914,0.8152533144224794,-0.001384248854648466,0.5791028554395757,0.0011500170727422672,0.9999990412377507,0.0007713522616777324,-0.5791033679611043,3.71306827092623e-05,0.8152541246981937,0.016858391,0.0008384856,0.112121545,0.0004838956,8.538962e-05,-0.011215719,1.0471792,-0.060939662,-9.821551e-05,0.0024163285,0.8630892432873141,0.0008903014632320106,-0.5050506563554157,-0.0004942828689595888,0.9999994563814635,0.0009181074137266502,0.5050511991928909,-0.000542770745576529,0.8630892141567642,0.0026660755,0.019334318,0.090639085,-0.00016794723,-0.012031046,-0.006233415,0.5235896,0.00019098012,-0.011351344,0.0023488738,0.9999936182144611,-0.0001481752380064402,0.0035695342062398217,0.0010420573498695143,0.9677904364195786,-0.25175501045913895,-0.0034172572086773544,0.25175712347200907,0.9677844145956626,left_images/camera_left_23.png,right_images/camera_right_23.png
2025-05-30 14:57:58,1.433089017868042,24,-0.03493174,-8.8991306e-05,0.11432712,-0.0011939034,0.00079130696,-0.05889911,1.0471802,0.05745428,-5.0065923e-06,0.0019883914,0.8152533144224794,-0.001384248854648466,0.5791028554395757,0.0011500170727422672,0.9999990412377507,0.0007713522616777324,-0.5791033679611043,3.71306827092623e-05,0.8152541246981937,0.016858391,0.0008384928,0.112121545,0.00048389006,8.538168e-05,-0.011215691,1.0471792,-0.060939662,-9.820995e-05,0.0024163295,0.8630892276118045,0.000890102833666704,-0.5050506834936513,-0.0004942202230209242,0.9999994566752057,0.0009178211507169035,0.5050512260422996,-0.0005425552866249273,0.8630891985808484,0.0026660755,0.019334318,0.090639085,-0.00016797779,-0.012031046,-0.006233471,0.5235896,0.00019098012,-0.011351344,0.0023488738,0.9999936182144611,-0.0001481752380064402,0.0035695342062398217,0.0010420573498695143,0.9677904364195786,-0.25175501045913895,-0.0034172572086773544,0.25175712347200907,0.9677844145956626,left_images/camera_left_24.png,right_images/camera_right_24.png
2025-05-30 14:57:58,1.5035381317138672,25,-0.03493174,-8.899715e-05,0.11432712,-0.0011939313,0.0007913405,-0.05889911,1.0471802,0.057454284,-5.020408e-06,0.0019884254,0.8152532930080122,-0.0013846964815722464,0.579102884516427,0.0011502705143554373,0.999999040625151,0.0007717684377002967,-0.5791033976047248,3.6938212562611966e-05,0.8152541036500415,0.016858391,0.00083849346,0.112121545,0.00048389297,8.533201e-05,-0.011215719,1.0471792,-0.060939662,-9.820995e-05,0.0024163295,0.8630892276118045,0.000890102833666704,-0.5050506834936513,-0.0004942202230209242,0.9999994566752057,0.0009178211507169035,0.5050512260422996,-0.0005425552866249273,0.8630891985808484,0.0026660755,0.019334318,0.090639085,-0.00016800835,-0.012031046,-0.006233527,0.5235896,0.00019098012,-0.011351344,0.0023488738,0.9999936182144611,-0.0001481752380064402,0.0035695342062398217,0.0010420573498695143,0.9677904364195786,-0.25175501045913895,-0.0034172572086773544,0.25175712347200907,0.9677844145956626,left_images/camera_left_25.png,right_images/camera_right_25.png
2025-05-30 14:57:58,1.56862473487854,26,-0.03493174,-8.899708e-05,0.11432712,-0.0011939714,0.000791337,-0.05889911,1.0471802,0.057454284,-5.020408e-06,0.0019884254,0.8152532930080122,-0.0013846964815722464,0.579102884516427,0.0011502705143554373,0.999999040625151,0.0007717684377002967,-0.5791033976047248,3.6938212562611966e-05,0.8152541036500415,0.016858391,0.00083849055,0.112121545,0.00048391143,8.535268e-05,-0.011215719,1.0471792,-0.060939662,-9.820995e-05,0.0024163295,0.8630892276118045,0.000890102833666704,-0.5050506834936513,-0.0004942202230209242,0.9999994566752057,0.0009178211507169035,0.5050512260422996,-0.0005425552866249273,0.8630891985808484,0.0026660755,0.019334318,0.090639085,-0.00016803891,-0.012031046,-0.0062335827,0.5235896,0.00019098012,-0.011351344,0.0023488738,0.9999936182144611,-0.0001481752380064402,0.0035695342062398217,0.0010420573498695143,0.9677904364195786,-0.25175501045913895,-0.0034172572086773544,0.25175712347200907,0.9677844145956626,left_images/camera_left_26.png,right_images/camera_right_26.png
2025-05-30 14:57:58,1.6212201118469238,27,-0.03493174,-8.899665e-05,0.11432712,-0.0011940114,0.0007913335,-0.05889911,1.0471802,0.057454284,-5.020408e-06,0.0019884254,0.8152532930080122,-0.0013846964815722464,0.579102884516427,0.0011502705143554373,0.999999040625151,0.0007717684377002967,-0.5791033976047248,3.6938212562611966e-05,0.8152541036500415,0.016858391,0.00083848706,0.112121545,0.00048392988,8.537336e-05,-0.011215719,1.0471792,-0.060939662,-9.820995e-05,0.0024163295,0.8630892276118045,0.000890102833666704,-0.5050506834936513,-0.0004942202230209242,0.9999994566752057,0.0009178211507169035,0.5050512260422996,-0.0005425552866249273,0.8630891985808484,0.0026660755,0.019334318,0.090639085,-0.00016806947,-0.012031046,-0.0062336386,0.5235896,0.00019098012,-0.011351344,0.0023488738,0.9999936182144611,-0.0001481752380064402,0.0035695342062398217,0.0010420573498695143,0.9677904364195786,-0.25175501045913895,-0.0034172572086773544,0.25175712347200907,0.9677844145956626,left_images/camera_left_27.png,right_images/camera_right_27.png
2025-05-30 14:57:58,1.6746699810028076,28,-0.03493174,-8.899452e-05,0.11432712,-0.0011940349,0.00079136,-0.05889911,1.0471802,0.057454284,-5.020408e-06,0.0019884254,0.8152532930080122,-0.0013846964815722464,0.579102884516427,0.0011502705143554373,0.999999040625151,0.0007717684377002967,-0.5791033976047248,3.6938212562611966e-05,0.8152541036500415,0.016858391,0.00083848357,0.112121545,0.00048394833,8.539404e-05,-0.011215719,1.0471792,-0.060939662,-9.821551e-05,0.0024163285,0.8630892432873141,0.0008903014632320106,-0.5050506563554157,-0.0004942828689595888,0.9999994563814635,0.0009181074137266502,0.5050511991928909,-0.000542770745576529,0.8630892141567642,0.0026660755,0.019334318,0.090639085,-0.00016810003,-0.012031046,-0.0062336945,0.5235896,0.00019097552,-0.011351345,0.0023488682,0.9999936169704888,-0.0001481758730691677,0.0035698826577314656,0.001042145384072126,0.9677904589145647,-0.2517549236200451,-0.0034175943699902194,0.25175703699767144,0.967784435900307,left_images/camera_left_28.png,right_images/camera_right_28.png
2025-05-30 14:57:58,1.7287638187408447,29,-0.03493174,-8.8993795e-05,0.11432712,-0.001194075,0.0007913565,-0.05889911,1.0471802,0.057454284,-5.020408e-06,0.0019884254,0.8152532930080122,-0.0013846964815722464,0.579102884516427,0.0011502705143554373,0.999999040625151,0.0007717684377002967,-0.5791033976047248,3.6938212562611966e-05,0.8152541036500415,0.016858391,0.0008384907,0.112121545,0.0004839428,8.5386106e-05,-0.011215691,1.0471792,-0.060939662,-9.820995e-05,0.0024163295,0.8630892276118045,0.000890102833666704,-0.5050506834936513,-0.0004942202230209242,0.9999994566752057,0.0009178211507169035,0.5050512260422996,-0.0005425552866249273,0.8630891985808484,0.0026660755,0.019334318,0.090639085,-0.00016809393,-0.012031046,-0.0062337224,0.5235896,0.00019097552,-0.011351345,0.0023488682,0.9999936169704888,-0.0001481758730691677,0.0035698826577314656,0.001042145384072126,0.9677904589145647,-0.2517549236200451,-0.0034175943699902194,0.25175703699767144,0.967784435900307,left_images/camera_left_29.png,right_images/camera_right_29.png
2025-05-30 14:57:58,1.7829813957214355,30,-0.03493174,-8.899336e-05,0.11432712,-0.001194115,0.000791353,-0.05889911,1.0471802,0.057454284,-5.020408e-06,0.0019884254,0.8152532930080122,-0.0013846964815722464,0.579102884516427,0.0011502705143554373,0.999999040625151,0.0007717684377002967,-0.5791033976047248,3.6938212562611966e-05,0.8152541036500415,0.016858391,0.00083849137,0.112121545,0.0004839457,8.533643e-05,-0.011215719,1.0471792,-0.060939662,-9.820995e-05,0.0024163295,0.8630892276118045,0.000890102833666704,-0.5050506834936513,-0.0004942202230209242,0.9999994566752057,0.0009178211507169035,0.5050512260422996,-0.0005425552866249273,0.8630891985808484,0.0026660755,0.019334318,0.090639085,-0.00016808782,-0.012031046,-0.0062337504,0.5235896,0.00019097552,-0.011351345,0.0023488682,0.9999936169704888,-0.0001481758730691677,0.0035698826577314656,0.001042145384072126,0.9677904589145647,-0.2517549236200451,-0.0034175943699902194,0.25175703699767144,0.967784435900307,left_images/camera_left_30.png,right_images/camera_right_30.png
2025-05-30 14:57:58,1.833589792251587,31,-0.03493174,-8.899292e-05,0.11432712,-0.0011941551,0.0007913495,-0.05889911,1.0471802,0.057454284,-5.020408e-06,0.0019884254,0.8152532930080122,-0.0013846964815722464,0.579102884516427,0.0011502705143554373,0.999999040625151,0.0007717684377002967,-0.5791033976047248,3.6938212562611966e-05,0.8152541036500415,0.016858391,0.00083848846,0.112121545,0.00048396416,8.5357104e-05,-0.011215719,1.0471792,-0.060939662,-9.820995e-05,0.0024163295,0.8630892276118045,0.000890102833666704,-0.5050506834936513,-0.0004942202230209242,0.9999994566752057,0.0009178211507169035,0.5050512260422996,-0.0005425552866249273,0.8630891985808484,0.0026660755,0.019334318,0.090639085,-0.00016808171,-0.012031046,-0.0062337783,0.5235896,0.00019097552,-0.011351345,0.0023488682,0.9999936169704888,-0.0001481758730691677,0.0035698826577314656,0.001042145384072126,0.9677904589145647,-0.2517549236200451,-0.0034175943699902194,0.25175703699767144,0.967784435900307,left_images/camera_left_31.png,right_images/camera_right_31.png
2025-05-30 14:57:59,1.8897459506988525,32,-0.03493174,-8.8992485e-05,0.11432712,-0.0011941951,0.000791346,-0.05889911,1.0471802,0.057454284,-5.020408e-06,0.0019884254,0.8152532930080122,-0.0013846964815722464,0.579102884516427,0.0011502705143554373,0.999999040625151,0.0007717684377002967,-0.5791033976047248,3.6938212562611966e-05,0.8152541036500415,0.016858391,0.00083848496,0.112121545,0.0004839826,8.537778e-05,-0.011215719,1.0471792,-0.060939662,-9.820995e-05,0.0024163295,0.8630892276118045,0.000890102833666704,-0.5050506834936513,-0.0004942202230209242,0.9999994566752057,0.0009178211507169035,0.5050512260422996,-0.0005425552866249273,0.8630891985808484,0.0026660755,0.019334318,0.090639085,-0.0001680756,-0.012031046,-0.0062338063,0.5235896,0.00019097552,-0.011351345,0.0023488682,0.9999936169704888,-0.0001481758730691677,0.0035698826577314656,0.001042145384072126,0.9677904589145647,-0.2517549236200451,-0.0034175943699902194,0.25175703699767144,0.967784435900307,left_images/camera_left_32.png,right_images/camera_right_32.png
2025-05-30 14:57:59,1.9556467533111572,33,-0.03493174,-8.899205e-05,0.11432712,-0.0011942352,0.0007913425,-0.05889911,1.0471802,0.057454284,-5.020408e-06,0.0019884254,0.8152532930080122,-0.0013846964815722464,0.579102884516427,0.0011502705143554373,0.999999040625151,0.0007717684377002967,-0.5791033976047248,3.6938212562611966e-05,0.8152541036500415,0.016858391,0.00083848473,0.112121545,0.00048398552,8.532811e-05,-0.011215747,1.0471792,-0.060939666,-9.820932e-05,0.0024163257,0.8630894334598481,0.0008900887722918775,-0.505050331741239,-0.0004941952774125494,0.9999994566735587,0.0009178363769892204,0.5050508742898937,-0.0005425813898223041,0.8630894043982056,0.0026660755,0.019334318,0.090639085,-0.00016806948,-0.012031046,-0.006233834,0.5235896,0.00019097552,-0.011351345,0.0023488682,0.9999936169704888,-0.0001481758730691677,0.0035698826577314656,0.001042145384072126,0.9677904589145647,-0.2517549236200451,-0.0034175943699902194,0.25175703699767144,0.967784435900307,left_images/camera_left_33.png,right_images/camera_right_33.png
2025-05-30 14:57:59,2.0088558197021484,34,-0.03493174,-8.899161e-05,0.11432712,-0.0011942752,0.000791339,-0.05889911,1.0471802,0.057454284,-5.020408e-06,0.0019884254,0.8152532930080122,-0.0013846964815722464,0.579102884516427,0.0011502705143554373,0.999999040625151,0.0007717684377002967,-0.5791033976047248,3.6938212562611966e-05,0.8152541036500415,0.016858391,0.0008384818,0.112121545,0.00048395037,8.53478e-05,-0.011215747,1.0471792,-0.060939666,-9.820932e-05,0.0024163257,0.8630894334598481,0.0008900887722918775,-0.505050331741239,-0.0004941952774125494,0.9999994566735587,0.0009178363769892204,0.5050508742898937,-0.0005425813898223041,0.8630894043982056,0.0026660755,0.019334318,0.090639085,-0.00016806337,-0.012031046,-0.006233862,0.5235896,0.00019097552,-0.011351345,0.0023488682,0.9999936169704888,-0.0001481758730691677,0.0035698826577314656,0.001042145384072126,0.9677904589145647,-0.2517549236200451,-0.0034175943699902194,0.25175703699767144,0.967784435900307,left_images/camera_left_34.png,right_images/camera_right_34.png
2025-05-30 14:57:59,2.0595576763153076,35,-0.03493174,-8.8991175e-05,0.11432712,-0.0011943153,0.00079133554,-0.05889911,1.0471802,0.057454266,-5.002482e-06,0.0019883914,0.8152533344110011,-0.0013850719186385945,0.5791028253320168,0.0011507676657459022,0.999999040092975,0.000771716857382617,-0.579103338330495,3.726806533182439e-05,0.815254145739577,0.016858391,0.0008384783,0.112121545,0.0004839152,8.53675e-05,-0.011215747,1.0471792,-0.060939666,-9.820932e-05,0.0024163257,0.8630894334598481,0.0008900887722918775,-0.505050331741239,-0.0004941952774125494,0.9999994566735587,0.0009178363769892204,0.5050508742898937,-0.0005425813898223041,0.8630894043982056,0.0026660755,0.019334318,0.090639085,-0.00016805726,-0.012031046,-0.00623389,0.5235896,0.00019097552,-0.011351345,0.0023488682,0.9999936169704888,-0.0001481758730691677,0.0035698826577314656,0.001042145384072126,0.9677904589145647,-0.2517549236200451,-0.0034175943699902194,0.25175703699767144,0.967784435900307,left_images/camera_left_35.png,right_images/camera_right_35.png
2025-05-30 14:57:59,2.1162614822387695,36,-0.03493174,-8.899539e-05,0.11432712,-0.0011942983,0.0007913672,-0.05889911,1.0471802,0.057454284,-5.020408e-06,0.0019884254,0.8152532930080122,-0.0013846964815722464,0.579102884516427,0.0011502705143554373,0.999999040625151,0.0007717684377002967,-0.5791033976047248,3.6938212562611966e-05,0.8152541036500415,0.016858391,0.00083847484,0.112121545,0.00048388005,8.5387204e-05,-0.011215747,1.0471792,-0.060939666,-9.820932e-05,0.0024163257,0.8630894334598481,0.0008900887722918775,-0.505050331741239,-0.0004941952774125494,0.9999994566735587,0.0009178363769892204,0.5050508742898937,-0.0005425813898223041,0.8630894043982056,0.0026660755,0.019334318,0.090639085,-0.00016805115,-0.012031046,-0.006233918,0.5235896,0.00019097552,-0.011351345,0.0023488682,0.9999936169704888,-0.0001481758730691677,0.0035698826577314656,0.001042145384072126,0.9677904589145647,-0.2517549236200451,-0.0034175943699902194,0.25175703699767144,0.967784435900307,left_images/camera_left_36.png,right_images/camera_right_36.png
2025-05-30 14:57:59,2.1851232051849365,37,-0.03493174,-8.897554e-05,0.11432712,-0.0011942518,0.0007913539,-0.05889911,1.0471802,0.057454284,-5.020408e-06,0.0019884254,0.8152532930080122,-0.0013846964815722464,0.579102884516427,0.0011502705143554373,0.999999040625151,0.0007717684377002967,-0.5791033976047248,3.6938212562611966e-05,0.8152541036500415,0.016858391,0.0008384776,0.112121545,0.0004839281,8.5351596e-05,-0.011215727,1.0471792,-0.060939662,-9.820995e-05,0.0024163295,0.8630892276118045,0.000890102833666704,-0.5050506834936513,-0.0004942202230209242,0.9999994566752057,0.0009178211507169035,0.5050512260422996,-0.0005425552866249273,0.8630891985808484,0.0026660755,0.019334318,0.090639085,-0.00016804504,-0.012031046,-0.006233946,0.5235896,0.00019097552,-0.011351345,0.0023488682,0.9999936169704888,-0.0001481758730691677,0.0035698826577314656,0.001042145384072126,0.9677904589145647,-0.2517549236200451,-0.0034175943699902194,0.25175703699767144,0.967784435900307,left_images/camera_left_37.png,right_images/camera_right_37.png
2025-05-30 14:57:59,2.2390010356903076,38,-0.03493174,-8.8971894e-05,0.11432712,-0.0011942919,0.0007913504,-0.05889911,1.0471802,0.057454284,-5.020408e-06,0.0019884254,0.8152532930080122,-0.0013846964815722464,0.579102884516427,0.0011502705143554373,0.999999040625151,0.0007717684377002967,-0.5791033976047248,3.6938212562611966e-05,0.8152541036500415,0.016858391,0.0008384751,0.112121545,0.00048394658,8.537226e-05,-0.011215727,1.0471792,-0.060939662,-9.820995e-05,0.0024163295,0.8630892276118045,0.000890102833666704,-0.5050506834936513,-0.0004942202230209242,0.9999994566752057,0.0009178211507169035,0.5050512260422996,-0.0005425552866249273,0.8630891985808484,0.0026660755,0.019334318,0.090639085,-0.00016803893,-0.012031046,-0.006233974,0.5235896,0.00019097552,-0.011351345,0.0023488682,0.9999936169704888,-0.0001481758730691677,0.0035698826577314656,0.001042145384072126,0.9677904589145647,-0.2517549236200451,-0.0034175943699902194,0.25175703699767144,0.967784435900307,left_images/camera_left_38.png,right_images/camera_right_38.png
2025-05-30 14:57:59,2.2925877571105957,39,-0.03493174,-8.895173e-05,0.11432712,-0.0011942454,0.00079133705,-0.05889911,1.0471802,0.057454284,-5.020408e-06,0.0019884254,0.8152532930080122,-0.0013846964815722464,0.579102884516427,0.0011502705143554373,0.999999040625151,0.0007717684377002967,-0.5791033976047248,3.6938212562611966e-05,0.8152541036500415,0.016858391,0.00083847163,0.112121545,0.00048396504,8.539294e-05,-0.011215727,1.0471792,-0.060939662,-9.821551e-05,0.0024163285,0.8630892432873141,0.0008903014632320106,-0.5050506563554157,-0.0004942828689595888,0.9999994563814635,0.0009181074137266502,0.5050511991928909,-0.000542770745576529,0.8630892141567642,0.0026660755,0.019334318,0.090639085,-0.00016803281,-0.012031046,-0.006234002,0.5235896,0.00019097552,-0.011351345,0.0023488682,0.9999936169704888,-0.0001481758730691677,0.0035698826577314656,0.001042145384072126,0.9677904589145647,-0.2517549236200451,-0.0034175943699902194,0.25175703699767144,0.967784435900307,left_images/camera_left_39.png,right_images/camera_right_39.png
2025-05-30 14:57:59,2.356703042984009,40,-0.03493174,-8.894809e-05,0.11432712,-0.0011942855,0.00079133356,-0.05889911,1.0471802,0.057454284,-5.020408e-06,0.0019884254,0.8152532930080122,-0.0013846964815722464,0.579102884516427,0.0011502705143554373,0.999999040625151,0.0007717684377002967,-0.5791033976047248,3.6938212562611966e-05,0.8152541036500415,0.016858391,0.0008384788,0.112121545,0.0004839595,8.538501e-05,-0.011215699,1.0471792,-0.060939662,-9.820995e-05,0.0024163295,0.8630892276118045,0.000890102833666704,-0.5050506834936513,-0.0004942202230209242,0.9999994566752057,0.0009178211507169035,0.5050512260422996,-0.0005425552866249273,0.8630891985808484,0.0026660755,0.019334318,0.090639085,-0.0001680267,-0.012031046,-0.00623403,0.5235896,0.00019097552,-0.011351345,0.0023488682,0.9999936169704888,-0.0001481758730691677,0.0035698826577314656,0.001042145384072126,0.9677904589145647,-0.2517549236200451,-0.0034175943699902194,0.25175703699767144,0.967784435900307,left_images/camera_left_40.png,right_images/camera_right_40.png
2025-05-30 14:57:59,2.407094717025757,41,-0.03493174,-8.892755e-05,0.11432712,-0.001194256,0.0007913535,-0.05889911,1.0471802,0.057454284,-5.020408e-06,0.0019884254,0.8152532930080122,-0.0013846964815722464,0.579102884516427,0.0011502705143554373,0.999999040625151,0.0007717684377002967,-0.5791033976047248,3.6938212562611966e-05,0.8152541036500415,0.016858391,0.00083847943,0.112121545,0.00048396242,8.5335334e-05,-0.011215727,1.0471792,-0.060939662,-9.820995e-05,0.0024163295,0.8630892276118045,0.000890102833666704,-0.5050506834936513,-0.0004942202230209242,0.9999994566752057,0.0009178211507169035,0.5050512260422996,-0.0005425552866249273,0.8630891985808484,0.0026660755,0.019334318,0.090639085,-0.00016802059,-0.012031046,-0.0062340577,0.5235896,0.00019097124,-0.011351343,0.00234887,0.9999936151943263,-0.00014818362493336181,0.0035703798390475552,0.0010422780056882678,0.9677904625343569,-0.25175490915589815,-0.003418073600821686,0.251757023078104,0.9677844378288538,left_images/camera_left_41.png,right_images/camera_right_41.png
2025-05-30 14:57:59,2.4616332054138184,42,-0.03493174,-8.892382e-05,0.11432712,-0.001194296,0.00079135003,-0.05889911,1.0471802,0.057454284,-5.020408e-06,0.0019884254,0.8152532930080122,-0.0013846964815722464,0.579102884516427,0.0011502705143554373,0.999999040625151,0.0007717684377002967,-0.5791033976047248,3.6938212562611966e-05,0.8152541036500415,0.016858391,0.0008384765,0.112121545,0.00048398087,8.5356005e-05,-0.011215727,1.0471792,-0.060939662,-9.820995e-05,0.0024163295,0.8630892276118045,0.000890102833666704,-0.5050506834936513,-0.0004942202230209242,0.9999994566752057,0.0009178211507169035,0.5050512260422996,-0.0005425552866249273,0.8630891985808484,0.0026660755,0.019334318,0.090639085,-0.00016800436,-0.012031046,-0.0062340945,0.5235896,0.00019097124,-0.011351343,0.00234887,0.9999936151943263,-0.00014818362493336181,0.0035703798390475552,0.0010422780056882678,0.9677904625343569,-0.25175490915589815,-0.003418073600821686,0.251757023078104,0.9677844378288538,left_images/camera_left_42.png,right_images/camera_right_42.png
2025-05-30 14:57:59,2.514521360397339,43,-0.03493174,-8.890366e-05,0.11432712,-0.0011942496,0.0007913367,-0.05889911,1.0471802,0.057454284,-5.020408e-06,0.0019884254,0.8152532930080122,-0.0013846964815722464,0.579102884516427,0.0011502705143554373,0.999999040625151,0.0007717684377002967,-0.5791033976047248,3.6938212562611966e-05,0.8152541036500415,0.016858391,0.00083847303,0.112121545,0.00048399932,8.537668e-05,-0.011215727,1.0471792,-0.060939662,-9.820995e-05,0.0024163295,0.8630892276118045,0.000890102833666704,-0.5050506834936513,-0.0004942202230209242,0.9999994566752057,0.0009178211507169035,0.5050512260422996,-0.0005425552866249273,0.8630891985808484,0.0026660755,0.019334318,0.090639085,-0.00016798815,-0.012031046,-0.0062341313,0.5235896,0.00019097124,-0.011351343,0.00234887,0.9999936151943263,-0.00014818362493336181,0.0035703798390475552,0.0010422780056882678,0.9677904625343569,-0.25175490915589815,-0.003418073600821686,0.251757023078104,0.9677844378288538,left_images/camera_left_43.png,right_images/camera_right_43.png
2025-05-30 14:57:59,2.5683038234710693,44,-0.03493174,-8.8900015e-05,0.11432712,-0.0011942897,0.0007913332,-0.05889911,1.0471802,0.05745428,-5.015033e-06,0.0019884184,0.8152533678933769,-0.0013845874991076474,0.5791027793543766,0.0011503065285309608,0.9999990407680718,0.0007715295374175612,-0.5791032921106536,3.715365397287824e-05,0.8152541785763563,0.016858391,0.00083846954,0.112121545,0.00048401777,8.539736e-05,-0.011215727,1.0471792,-0.060939662,-9.821551e-05,0.0024163285,0.8630892432873141,0.0008903014632320106,-0.5050506563554157,-0.0004942828689595888,0.9999994563814635,0.0009181074137266502,0.5050511991928909,-0.000542770745576529,0.8630892141567642,0.0026660755,0.019334318,0.090639085,-0.00016797194,-0.012031046,-0.006234168,0.5235896,0.00019097124,-0.011351343,0.00234887,0.9999936151943263,-0.00014818362493336181,0.0035703798390475552,0.0010422780056882678,0.9677904625343569,-0.25175490915589815,-0.003418073600821686,0.251757023078104,0.9677844378288538,left_images/camera_left_44.png,right_images/camera_right_44.png
2025-05-30 14:57:59,2.6213457584381104,45,-0.03493174,-8.889876e-05,0.11432712,-0.0011942687,0.0007913262,-0.05889911,1.0471802,0.05745428,-5.015033e-06,0.0019884184,0.8152533678933769,-0.0013845874991076474,0.5791027793543766,0.0011503065285309608,0.9999990407680718,0.0007715295374175612,-0.5791032921106536,3.715365397287824e-05,0.8152541785763563,0.016858391,0.0008384767,0.112121545,0.00048401224,8.538943e-05,-0.011215699,1.0471792,-0.060939662,-9.821551e-05,0.0024163285,0.8630892432873141,0.0008903014632320106,-0.5050506563554157,-0.0004942828689595888,0.9999994563814635,0.0009181074137266502,0.5050511991928909,-0.000542770745576529,0.8630892141567642,0.0026660755,0.019334318,0.090639085,-0.00016795573,-0.012031046,-0.006234205,0.5235896,0.00019097124,-0.011351343,0.00234887,0.9999936151943263,-0.00014818362493336181,0.0035703798390475552,0.0010422780056882678,0.9677904625343569,-0.25175490915589815,-0.003418073600821686,0.251757023078104,0.9677844378288538,left_images/camera_left_45.png,right_images/camera_right_45.png
2025-05-30 14:57:59,2.6745285987854004,46,-0.03493174,-8.8897454e-05,0.11432712,-0.0011942477,0.00079131924,-0.05889911,1.0471802,0.05745428,-5.015033e-06,0.0019884184,0.8152533678933769,-0.0013845874991076474,0.5791027793543766,0.0011503065285309608,0.9999990407680718,0.0007715295374175612,-0.5791032921106536,3.715365397287824e-05,0.8152541785763563,0.016858391,0.0008384818,0.112121545,0.0004840228,8.540223e-05,-0.011215727,1.0471792,-0.060939662,-9.821551e-05,0.0024163285,0.8630892432873141,0.0008903014632320106,-0.5050506563554157,-0.0004942828689595888,0.9999994563814635,0.0009181074137266502,0.5050511991928909,-0.000542770745576529,0.8630892141567642,0.0026660755,0.019334318,0.090639085,-0.00016793952,-0.012031046,-0.0062342416,0.5235896,0.00019097124,-0.011351343,0.00234887,0.9999936151943263,-0.00014818362493336181,0.0035703798390475552,0.0010422780056882678,0.9677904625343569,-0.25175490915589815,-0.003418073600821686,0.251757023078104,0.9677844378288538,left_images/camera_left_46.png,right_images/camera_right_46.png
2025-05-30 14:57:59,2.7252347469329834,47,-0.03493174,-8.8896144e-05,0.11432712,-0.0011942268,0.00079131225,-0.05889911,1.0471802,0.05745428,-5.015033e-06,0.0019884184,0.8152533678933769,-0.0013845874991076474,0.5791027793543766,0.0011503065285309608,0.9999990407680718,0.0007715295374175612,-0.5791032921106536,3.715365397287824e-05,0.8152541785763563,0.016858391,0.0008384892,0.112121545,0.00048401728,8.53943e-05,-0.011215699,1.0471792,-0.060939662,-9.821551e-05,0.0024163285,0.8630892432873141,0.0008903014632320106,-0.5050506563554157,-0.0004942828689595888,0.9999994563814635,0.0009181074137266502,0.5050511991928909,-0.000542770745576529,0.8630892141567642,0.0026660755,0.019334318,0.090639085,-0.00016792331,-0.012031046,-0.0062342784,0.5235896,0.00019097124,-0.011351343,0.00234887,0.9999936151943263,-0.00014818362493336181,0.0035703798390475552,0.0010422780056882678,0.9677904625343569,-0.25175490915589815,-0.003418073600821686,0.251757023078104,0.9677844378288538,left_images/camera_left_47.png,right_images/camera_right_47.png
2025-05-30 14:57:59,2.7822253704071045,48,-0.03493174,-8.8894834e-05,0.11432712,-0.0011942058,0.00079130527,-0.05889911,1.0471802,0.05745428,-5.015033e-06,0.0019884184,0.8152533678933769,-0.0013845874991076474,0.5791027793543766,0.0011503065285309608,0.9999990407680718,0.0007715295374175612,-0.5791032921106536,3.715365397287824e-05,0.8152541785763563,0.016858391,0.00083849434,0.112121545,0.00048402784,8.54071e-05,-0.011215727,1.0471792,-0.060939662,-9.821551e-05,0.0024163285,0.8630892432873141,0.0008903014632320106,-0.5050506563554157,-0.0004942828689595888,0.9999994563814635,0.0009181074137266502,0.5050511991928909,-0.000542770745576529,0.8630892141567642,0.0026660755,0.019334318,0.090639085,-0.0001679071,-0.012031046,-0.006234315,0.5235896,0.00019097124,-0.011351343,0.00234887,0.9999936151943263,-0.00014818362493336181,0.0035703798390475552,0.0010422780056882678,0.9677904625343569,-0.25175490915589815,-0.003418073600821686,0.251757023078104,0.9677844378288538,left_images/camera_left_48.png,right_images/camera_right_48.png
2025-05-30 14:57:59,2.8356738090515137,49,-0.03493174,-8.8893525e-05,0.11432712,-0.0011941849,0.0007912983,-0.05889911,1.0471802,0.05745428,-5.015033e-06,0.0019884184,0.8152533678933769,-0.0013845874991076474,0.5791027793543766,0.0011503065285309608,0.9999990407680718,0.0007715295374175612,-0.5791032921106536,3.715365397287824e-05,0.8152541785763563,0.016858391,0.0008385017,0.112121545,0.0004840223,8.5399166e-05,-0.011215699,1.0471792,-0.060939662,-9.821551e-05,0.0024163285,0.8630892432873141,0.0008903014632320106,-0.5050506563554157,-0.0004942828689595888,0.9999994563814635,0.0009181074137266502,0.5050511991928909,-0.000542770745576529,0.8630892141567642,0.0026660755,0.019334318,0.090639085,-0.00016789089,-0.012031046,-0.006234352,0.5235896,0.00019097124,-0.011351343,0.00234887,0.9999936151943263,-0.00014818362493336181,0.0035703798390475552,0.0010422780056882678,0.9677904625343569,-0.25175490915589815,-0.003418073600821686,0.251757023078104,0.9677844378288538,left_images/camera_left_49.png,right_images/camera_right_49.png
2025-05-30 14:58:00,2.8849737644195557,50,-0.03493174,-8.8892215e-05,0.11432712,-0.0011941639,0.0007912913,-0.05889911,1.0471802,0.05745428,-5.015033e-06,0.0019884184,0.8152533678933769,-0.0013845874991076474,0.5791027793543766,0.0011503065285309608,0.9999990407680718,0.0007715295374175612,-0.5791032921106536,3.715365397287824e-05,0.8152541785763563,0.016858391,0.00083850685,0.112121545,0.00048403288,8.5411964e-05,-0.011215727,1.0471792,-0.060939662,-9.821551e-05,0.0024163285,0.8630892432873141,0.0008903014632320106,-0.5050506563554157,-0.0004942828689595888,0.9999994563814635,0.0009181074137266502,0.5050511991928909,-0.000542770745576529,0.8630892141567642,0.0026660755,0.019334318,0.090639085,-0.00016787468,-0.012031046,-0.006234389,0.5235896,0.00019097124,-0.011351343,0.00234887,0.9999936151943263,-0.00014818362493336181,0.0035703798390475552,0.0010422780056882678,0.9677904625343569,-0.25175490915589815,-0.003418073600821686,0.251757023078104,0.9677844378288538,left_images/camera_left_50.png,right_images/camera_right_50.png
2025-05-30 14:58:00,2.9389243125915527,51,-0.03493174,-8.8890905e-05,0.11432712,-0.001194143,0.0007912843,-0.05889911,1.0471802,0.05745428,-5.015033e-06,0.0019884184,0.8152533678933769,-0.0013845874991076474,0.5791027793543766,0.0011503065285309608,0.9999990407680718,0.0007715295374175612,-0.5791032921106536,3.715365397287824e-05,0.8152541785763563,0.016858391,0.00083851424,0.112121545,0.00048402735,8.540403e-05,-0.011215699,1.0471792,-0.060939662,-9.821551e-05,0.0024163285,0.8630892432873141,0.0008903014632320106,-0.5050506563554157,-0.0004942828689595888,0.9999994563814635,0.0009181074137266502,0.5050511991928909,-0.000542770745576529,0.8630892141567642,0.0026660871,0.019334318,0.090639025,-0.00016784453,-0.012031064,-0.0062344377,0.4969216,0.00019096007,-0.011351353,0.0023489287,0.9999936139959067,-0.00014820143115496366,0.0035707147381859356,0.001042379196634571,0.9677904886530627,-0.25175480833198915,-0.0034183933384147147,0.2517569226635128,0.9677844628211294,left_images/camera_left_51.png,right_images/camera_right_51.png
2025-05-30 14:58:00,2.997093439102173,52,-0.03493174,-8.8889596e-05,0.11432712,-0.001194122,0.0007912773,-0.05889911,1.0471802,0.05745428,-5.015033e-06,0.0019884184,0.8152533678933769,-0.0013845874991076474,0.5791027793543766,0.0011503065285309608,0.9999990407680718,0.0007715295374175612,-0.5791032921106536,3.715365397287824e-05,0.8152541785763563,0.016858391,0.00083851937,0.112121545,0.0004840379,8.541683e-05,-0.011215727,1.0471792,-0.060939662,-9.821551e-05,0.0024163285,0.8630892432873141,0.0008903014632320106,-0.5050506563554157,-0.0004942828689595888,0.9999994563814635,0.0009181074137266502,0.5050511991928909,-0.000542770745576529,0.8630892141567642,0.0026660883,0.019334318,0.090639025,-0.00016784277,-0.012031064,-0.0062344098,0.47025508,0.00019096286,-0.011351351,0.0023489296,0.9999936151943263,-0.00014818362493336181,0.0035703798390475552,0.0010422780056882678,0.9677904625343569,-0.25175490915589815,-0.003418073600821686,0.251757023078104,0.9677844378288538,left_images/camera_left_52.png,right_images/camera_right_52.png
2025-05-30 14:58:00,3.0478553771972656,53,-0.03493174,-8.8888286e-05,0.11432712,-0.0011941011,0.00079127034,-0.05889911,1.0471802,0.05745428,-5.015033e-06,0.0019884184,0.8152533678933769,-0.0013845874991076474,0.5791027793543766,0.0011503065285309608,0.9999990407680718,0.0007715295374175612,-0.5791032921106536,3.715365397287824e-05,0.8152541785763563,0.016858516,0.0008385706,0.112121545,0.00048403352,8.5275526e-05,-0.011215839,1.0471792,-0.06093975,-9.8170385e-05,0.0024163593,0.8630893172542976,0.0008901769517245911,-0.505050530171492,-0.0004941161126233627,0.9999994564284373,0.0009181460108631384,0.5050510729528033,-0.0005428884090089171,0.8630892879542635,0.0026660883,0.019334318,0.090639025,-0.00016780976,-0.012031092,-0.0062344098,0.44358855,0.00019096286,-0.011351351,0.0023489296,0.9999936151943263,-0.00014818362493336181,0.0035703798390475552,0.0010422780056882678,0.9677904625343569,-0.25175490915589815,-0.003418073600821686,0.251757023078104,0.9677844378288538,left_images/camera_left_53.png,right_images/camera_right_53.png
2025-05-30 14:58:00,3.103119134902954,54,-0.03493174,-8.8886976e-05,0.11432712,-0.0011940801,0.00079126336,-0.05889911,1.0471802,0.05745428,-5.015033e-06,0.0019884184,0.8152533678933769,-0.0013845874991076474,0.5791027793543766,0.0011503065285309608,0.9999990407680718,0.0007715295374175612,-0.5791032921106536,3.715365397287824e-05,0.8152541785763563,0.016858535,0.0008385697,0.112121545,0.00048400633,8.533436e-05,-0.011215839,1.0471792,-0.06093975,-9.8170385e-05,0.0024163593,0.8630893172542976,0.0008901769517245911,-0.505050530171492,-0.0004941161126233627,0.9999994564284373,0.0009181460108631384,0.5050510729528033,-0.0005428884090089171,0.8630892879542635,0.0030544675,0.0020699091,0.09064036,0.027765011,0.08885133,-0.008629256,0.41692182,0.00015967144,-0.011596833,0.0023456728,0.9995775201399748,0.027928857796486475,0.008047368079214296,-0.02615159358360699,0.9850428306240899,-0.170313581340769,-0.012683666025899864,0.1700311757833384,0.9853570540052369,left_images/camera_left_54.png,right_images/camera_right_54.png
2025-05-30 14:58:00,3.152864933013916,55,-0.03493174,-8.888567e-05,0.11432712,-0.0011940592,0.0007912564,-0.05889911,1.0471802,0.05745428,-5.015033e-06,0.0019884184,0.8152533678933769,-0.0013845874991076474,0.5791027793543766,0.0011503065285309608,0.9999990407680718,0.0007715295374175612,-0.5791032921106536,3.715365397287824e-05,0.8152541785763563,0.016858535,0.00083856034,0.112121545,0.00048397915,8.539321e-05,-0.011215839,1.0471792,-0.06093975,-9.817689e-05,0.0024163611,0.8630893304962746,0.000890378725161679,-0.5050505071863787,-0.0004941396038867518,0.9999994560867879,0.0009185054056611926,0.5050510503004071,-0.0005431867580654476,0.863089301021975,0.0040617324,-0.012504193,0.090724014,0.046805512,0.1636405,-0.008710344,0.390255,0.00015782382,-0.011611895,0.0023992294,0.9988296425834955,0.04677462209271147,0.012307714028633645,-0.04512408276148163,0.992794151745517,-0.11101166341801352,-0.017411555113244607,0.11032636578798105,0.9937428896654078,left_images/camera_left_55.png,right_images/camera_right_55.png
2025-05-30 14:58:00,3.209399938583374,56,-0.03493174,-8.888436e-05,0.11432712,-0.0011940382,0.0007912494,-0.05889911,1.0471802,0.05745428,-5.015033e-06,0.0019884184,0.8152533678933769,-0.0013845874991076474,0.5791027793543766,0.0011503065285309608,0.9999990407680718,0.0007715295374175612,-0.5791032921106536,3.715365397287824e-05,0.8152541785763563,0.016858535,0.00083855813,0.112121545,0.0004839512,8.546249e-05,-0.011215839,1.0471792,-0.06093975,-9.817689e-05,0.0024163611,0.8630893304962746,0.000890378725161679,-0.5050505071863787,-0.0004941396038867518,0.9999994560867879,0.0009185054056611926,0.5050510503004071,-0.0005431867580654476,0.863089301021975,0.005180022,-0.023265991,0.090857334,0.028684339,0.21590807,-0.01387104,0.36358833,0.00024129543,-0.011559788,0.0024261428,0.999467815081967,0.029005725504863793,0.014924962419235051,-0.027900389964912786,0.9971857801289662,-0.06958511441674102,-0.01690132702141694,0.0691316699966205,0.9974643639491054,left_images/camera_left_56.png,right_images/camera_right_56.png
2025-05-30 14:58:00,3.2611773014068604,57,-0.03493174,-8.888305e-05,0.11432712,-0.0011940172,0.0007912424,-0.05889911,1.0471802,0.05745428,-5.015033e-06,0.0019884184,0.8152533678933769,-0.0013845874991076474,0.5791027793543766,0.0011503065285309608,0.9999990407680718,0.0007715295374175612,-0.5791032921106536,3.715365397287824e-05,0.8152541785763563,0.016858535,0.0008385607,0.112121545,0.0004839246,8.544364e-05,-0.011215839,1.0471792,-0.06093975,-9.817689e-05,0.0024163611,0.8630893304962746,0.000890378725161679,-0.5050505071863787,-0.0004941396038867518,0.9999994560867879,0.0009185054056611926,0.5050510503004071,-0.0005431867580654476,0.863089301021975,0.0049870606,-0.03152613,0.090911016,-0.026955495,0.24833173,-0.015861362,0.33691856,0.00043959115,-0.01139996,0.0025256993,0.9996766352448632,-0.025052018065897387,0.0043613457022352335,0.025221969604160017,0.9986839214006014,-0.04465733293876838,-0.0032368495169351227,0.04475289405997259,0.9989928434570796,left_images/camera_left_57.png,right_images/camera_right_57.png
2025-05-30 14:58:00,3.3125932216644287,58,-0.03493174,-8.888174e-05,0.11432712,-0.0011939963,0.0007912354,-0.05889911,1.0471802,0.05745428,-5.015033e-06,0.0019884184,0.8152533678933769,-0.0013845874991076474,0.5791027793543766,0.0011503065285309608,0.9999990407680718,0.0007715295374175612,-0.5791032921106536,3.715365397287824e-05,0.8152541785763563,0.016858535,0.0008385642,0.112121545,0.000483898,8.542476e-05,-0.011215839,1.0471792,-0.06093975,-9.817689e-05,0.0024163611,0.8630893304962746,0.000890378725161679,-0.5050505071863787,-0.0004941396038867518,0.9999994560867879,0.0009185054056611926,0.5050510503004071,-0.0005431867580654476,0.863089301021975,0.0041462104,-0.03825508,0.090927824,-0.08033741,0.27447283,-0.014906901,0.31025064,0.0006483403,-0.011260568,0.0026481906,0.9970269849185043,-0.0762753151903771,-0.010920972343404505,0.0759804702374005,0.9967893456155168,-0.025258040499874086,0.01281247387588654,0.024353167350437407,0.9996213101735983,left_images/camera_left_58.png,right_images/camera_right_58.png
2025-05-30 14:58:00,3.372335910797119,59,-0.03493174,-8.888043e-05,0.11432712,-0.0011939753,0.00079122843,-0.05889911,1.0471802,0.05745428,-5.015033e-06,0.0019884184,0.8152533678933769,-0.0013845874991076474,0.5791027793543766,0.0011503065285309608,0.9999990407680718,0.0007715295374175612,-0.5791032921106536,3.715365397287824e-05,0.8152541785763563,0.016858535,0.0008385677,0.112121545,0.0004838714,8.540589e-05,-0.011215839,1.0471792,-0.06093975,-9.817689e-05,0.0024163611,0.8630893304962746,0.000890378725161679,-0.5050505071863787,-0.0004941396038867518,0.9999994560867879,0.0009185054056611926,0.5050510503004071,-0.0005431867580654476,0.863089301021975,0.0029777333,-0.043494053,0.0909811,-0.12733373,0.29924643,-0.011864804,0.28358355,0.0008567176,-0.011203574,0.0027164882,0.9922917921882881,-0.12059086473229129,-0.02854544620204221,0.12044258561114148,0.9926965616162903,-0.006864410134734705,0.02916475144859485,0.003373410486913646,0.9995689257748205,left_images/camera_left_59.png,right_images/camera_right_59.png
2025-05-30 14:58:00,3.4317069053649902,60,-0.03493174,-8.887912e-05,0.11432712,-0.0011939544,0.00079122145,-0.05889911,1.0471802,0.05745428,-5.015033e-06,0.0019884184,0.8152533678933769,-0.0013845874991076474,0.5791027793543766,0.0011503065285309608,0.9999990407680718,0.0007715295374175612,-0.5791032921106536,3.715365397287824e-05,0.8152541785763563,0.016858494,0.0008385543,0.112121545,0.00048389405,8.5423926e-05,-0.011215839,1.0471792,-0.06093975,-9.817689e-05,0.0024163611,0.8630893304962746,0.000890378725161679,-0.5050505071863787,-0.0004941396038867518,0.9999994560867879,0.0009185054056611926,0.5050510503004071,-0.0005431867580654476,0.863089301021975,-0.0001369185,-0.047499057,0.09104813,-0.16969639,0.31994197,-0.004875153,0.25691628,0.00091986905,-0.0111584645,0.0027560936,0.9858838057286486,-0.16034958763787846,-0.04817812103391182,0.16087103788657567,0.9869497318955186,0.007122912372031993,0.04640722757601305,-0.014772828291361034,0.9988133623320133,left_images/camera_left_60.png,right_images/camera_right_60.png
2025-05-30 14:58:00,3.485154867172241,61,-0.03493174,-8.887781e-05,0.11432712,-0.0011939334,0.00079121446,-0.05889911,1.0471802,0.05745428,-5.015033e-06,0.0019884184,0.8152533678933769,-0.0013845874991076474,0.5791027793543766,0.0011503065285309608,0.9999990407680718,0.0007715295374175612,-0.5791032921106536,3.715365397287824e-05,0.8152541785763563,0.016858494,0.0008385548,0.112121545,0.00048386745,8.540506e-05,-0.011215839,1.0471792,-0.06093975,-9.817689e-05,0.0024163611,0.8630893304962746,0.000890378725161679,-0.5050505071863787,-0.0004941396038867518,0.9999994560867879,0.0009185054056611926,0.5050510503004071,-0.0005431867580654476,0.863089301021975,-0.0046890317,-0.050143782,0.09112883,-0.20454545,0.33610055,0.00016036676,0.23025183,0.00079776125,-0.01114221,0.002755898,0.9791804511173599,-0.19308175816006362,-0.06265044944310061,0.19450998922642332,0.9807443762760839,0.01750235681192676,0.05806469013729845,-0.029324103884927517,0.9978820514923623,left_images/camera_left_61.png,right_images/camera_right_61.png
2025-05-30 14:58:00,3.5459980964660645,62,-0.03493174,-8.887196e-05,0.11432712,-0.0011939633,0.0007912369,-0.05889911,1.0471802,0.05745428,-5.015033e-06,0.0019884184,0.8152533678933769,-0.0013845874991076474,0.5791027793543766,0.0011503065285309608,0.9999990407680718,0.0007715295374175612,-0.5791032921106536,3.715365397287824e-05,0.8152541785763563,0.016858453,0.0008385414,0.112121545,0.0004838901,8.54231e-05,-0.011215839,1.0471792,-0.06093975,-9.817689e-05,0.0024163611,0.8630893304962746,0.000890378725161679,-0.5050505071863787,-0.0004941396038867518,0.9999994560867879,0.0009185054056611926,0.5050510503004071,-0.0005431867580654476,0.863089301021975,-0.008464623,-0.051295597,0.09123474,-0.23794468,0.34555036,-0.0011169105,0.20358776,0.0006705978,-0.011134459,0.0026963549,0.9719716129245344,-0.22423095155536327,-0.07065170934560099,0.2263494613559605,0.9737636658204089,0.02345729037774017,0.06353821694653931,-0.03879179671754594,0.9972251959786611,left_images/camera_left_62.png,right_images/camera_right_62.png
2025-05-30 14:58:00,3.615460157394409,63,-0.03493174,-8.886995e-05,0.11432712,-0.0011939424,0.0007912299,-0.05889911,1.0471802,0.05745428,-5.015033e-06,0.0019884184,0.8152533678933769,-0.0013845874991076474,0.5791027793543766,0.0011503065285309608,0.9999990407680718,0.0007715295374175612,-0.5791032921106536,3.715365397287824e-05,0.8152541785763563,0.016858453,0.00083854195,0.112121545,0.0004838635,8.540423e-05,-0.011215839,1.0471792,-0.06093975,-9.817689e-05,0.0024163611,0.8630893304962746,0.000890378725161679,-0.5050505071863787,-0.0004941396038867518,0.9999994560867879,0.0009185054056611926,0.5050510503004071,-0.0005431867580654476,0.863089301021975,-0.012135696,-0.05170933,0.091298066,-0.28620043,0.3481001,-0.0046062083,0.17691958,0.0005998971,-0.011056412,0.0026641916,0.9598098985505731,-0.26892570568077095,-0.08027405227368327,0.27146189087289035,0.9621895997594659,0.02235208980014277,0.07122780670534239,-0.043245103061711636,0.9965221826999779,left_images/camera_left_63.png,right_images/camera_right_63.png
2025-05-30 14:58:00,3.6890249252319336,64,-0.03493174,-8.886864e-05,0.11432712,-0.0011939214,0.0007912229,-0.05889911,1.0471802,0.05745428,-5.0065923e-06,0.0019883914,0.8152533144224794,-0.001384248854648466,0.5791028554395757,0.0011500170727422672,0.9999990412377507,0.0007713522616777324,-0.5791033679611043,3.71306827092623e-05,0.8152541246981937,0.016858412,0.00083852856,0.112121545,0.00048388614,8.542227e-05,-0.011215839,1.0471792,-0.06093983,-9.818357e-05,0.0024163872,0.8630895047093493,0.0008905252137049739,-0.5050502092123259,-0.0004943175160103575,0.9999994560113674,0.0009184917870449305,0.5050507524108481,-0.0005430854566818659,0.8630894754006813,-0.015976805,-0.052574653,0.09131904,-0.35082698,0.35417807,0.0040709693,0.15024418,0.00074008986,-0.01093041,0.0027079135,0.9388266174181591,-0.327095687858839,-0.10776359965837404,0.33079023905429084,0.9435345969897073,0.017896425058528568,0.09582484110909056,-0.05244878709392041,0.9940154548893061,left_images/camera_left_64.png,right_images/camera_right_64.png
2025-05-30 14:58:00,3.753188371658325,65,-0.03493174,-8.8877874e-05,0.11432712,-0.0011938968,0.0007912268,-0.05889911,1.0471802,0.05745428,-5.0065923e-06,0.0019883914,0.8152533144224794,-0.001384248854648466,0.5791028554395757,0.0011500170727422672,0.9999990412377507,0.0007713522616777324,-0.5791033679611043,3.71306827092623e-05,0.8152541246981937,0.016858412,0.000838529,0.112121545,0.00048391227,8.5404405e-05,-0.01121589,1.0471792,-0.06093983,-9.818357e-05,0.0024163872,0.8630895047093493,0.0008905252137049739,-0.5050502092123259,-0.0004943175160103575,0.9999994560113674,0.0009184917870449305,0.5050507524108481,-0.0005430854566818659,0.8630894754006813,-0.019409832,-0.053650938,0.0913338,-0.40964305,0.36332843,0.017532812,0.12357567,0.0009460137,-0.010799645,0.002779021,0.915206310875391,-0.3782068029169303,-0.13912951793638828,0.3835165839423813,0.9234491053528368,0.012521168644022633,0.12374343770488967,-0.06481793000705846,0.9901950300696204,left_images/camera_left_65.png,right_images/camera_right_65.png
2025-05-30 14:58:00,3.817409038543701,66,-0.03493174,-8.888372e-05,0.11432712,-0.0011939247,0.00079126033,-0.05889911,1.0471802,0.05745428,-5.0065923e-06,0.0019883914,0.8152533144224794,-0.001384248854648466,0.5791028554395757,0.0011500170727422672,0.9999990412377507,0.0007713522616777324,-0.5791033679611043,3.71306827092623e-05,0.8152541246981937,0.016858412,0.0008385325,0.112121545,0.0004839384,8.5386535e-05,-0.011215942,1.0471792,-0.06093983,-9.817838e-05,0.002416389,0.863089504772999,0.0008903386624915619,-0.5050502094324543,-0.0004942781113227194,0.9999994563082136,0.0009181897550764302,0.505050752340642,-0.0005428446773551399,0.8630894755932367,-0.022241443,-0.055252716,0.09132629,-0.45766145,0.37164757,0.034582507,0.09690841,0.0011699605,-0.010594245,0.0028922101,0.8920552147332471,-0.41862189565001134,-0.17027390390077796,0.42536911624517887,0.9050132205751523,0.003490777705072584,0.15263881816895675,-0.07554322647717497,0.9853905886101219,left_images/camera_left_66.png,right_images/camera_right_66.png
2025-05-30 14:58:01,3.871744155883789,67,-0.03493174,-8.889339e-05,0.11432712,-0.0011939,0.00079126423,-0.05889911,1.0471802,0.05745428,-5.0065923e-06,0.0019883914,0.8152533144224794,-0.001384248854648466,0.5791028554395757,0.0011500170727422672,0.9999990412377507,0.0007713522616777324,-0.5791033679611043,3.71306827092623e-05,0.8152541246981937,0.016858412,0.000838536,0.112121545,0.00048395348,8.536836e-05,-0.011215942,1.0471792,-0.06093983,-9.817838e-05,0.002416389,0.863089504772999,0.0008903386624915619,-0.5050502094324543,-0.0004942781113227194,0.9999994563082136,0.0009181897550764302,0.505050752340642,-0.0005428446773551399,0.8630894755932367,-0.024156198,-0.056374516,0.091316625,-0.49064016,0.37577376,0.051856183,0.07024409,0.0013576141,-0.010384729,0.0029888628,0.8734544840114484,-0.44591817855689014,-0.19553578289612264,0.4532476641984116,0.8913481359237577,-0.008065697981332387,0.17788709694347724,-0.08158111679639846,0.980663398992373,left_images/camera_left_67.png,right_images/camera_right_67.png
2025-05-30 14:58:01,3.9457285404205322,68,-0.03493174,-8.889923e-05,0.11432712,-0.001193928,0.00079129776,-0.05889911,1.0471802,0.05745428,-5.0065923e-06,0.0019883914,0.8152533144224794,-0.001384248854648466,0.5791028554395757,0.0011500170727422672,0.9999990412377507,0.0007713522616777324,-0.5791033679611043,3.71306827092623e-05,0.8152541246981937,0.016858412,0.0008385395,0.112121545,0.00048396856,8.5350184e-05,-0.011215942,1.0471792,-0.06093983,-9.817838e-05,0.002416389,0.863089504772999,0.0008903386624915619,-0.5050502094324543,-0.0004942781113227194,0.9999994563082136,0.0009181897550764302,0.505050752340642,-0.0005428446773551399,0.8630894755932367,-0.024309613,-0.0571166,0.09129211,-0.49282914,0.37265733,0.07696885,0.043578453,0.0015339667,-0.010160856,0.003071758,0.8673154937296079,-0.44821314456285505,-0.21649205846322392,0.45435009060716486,0.8905146603711498,-0.023444292041284467,0.20329739177330294,-0.07802958865156966,0.9760028451767132,left_images/camera_left_68.png,right_images/camera_right_68.png
2025-05-30 14:58:01,4.005393981933594,69,-0.03493174,-8.89089e-05,0.11432712,-0.0011939033,0.00079130166,-0.05889911,1.0471802,0.05745428,-5.0065923e-06,0.0019883914,0.8152533144224794,-0.001384248854648466,0.5791028554395757,0.0011500170727422672,0.9999990412377507,0.0007713522616777324,-0.5791033679611043,3.71306827092623e-05,0.8152541246981937,0.016858412,0.000838543,0.112121545,0.00048398363,8.533201e-05,-0.011215942,1.0471792,-0.06093983,-9.817838e-05,0.002416389,0.863089504772999,0.0008903386624915619,-0.5050502094324543,-0.0004942781113227194,0.9999994563082136,0.0009181897550764302,0.505050752340642,-0.0005428446773551399,0.8630894755932367,-0.023111496,-0.05768657,0.09125474,-0.4701462,0.3648711,0.108225815,0.01691277,0.0017121162,-0.009947889,0.0031507667,0.8715676182476493,-0.4302038938876949,-0.23514781841638405,0.433711882101161,0.9001913161267381,-0.03936492975072634,0.228612970205954,-0.06767720483202538,0.9711621418690782,left_images/camera_left_69.png,right_images/camera_right_69.png
2025-05-30 14:58:01,4.073155403137207,70,-0.03493174,-8.891474e-05,0.11432712,-0.0011939312,0.0007913352,-0.05889911,1.0471802,0.057454284,-5.020408e-06,0.0019884254,0.8152532930080122,-0.0013846964815722464,0.579102884516427,0.0011502705143554373,0.999999040625151,0.0007717684377002967,-0.5791033976047248,3.6938212562611966e-05,0.8152541036500415,0.016858412,0.0008385465,0.112121545,0.0004839987,8.531383e-05,-0.011215942,1.0471792,-0.06093983,-9.817838e-05,0.002416389,0.863089504772999,0.0008903386624915619,-0.5050502094324543,-0.0004942781113227194,0.9999994563082136,0.0009181897550764302,0.505050752340642,-0.0005428446773551399,0.8630894755932367,-0.022240011,-0.057799973,0.091260366,-0.4535348,0.35977915,0.13518378,0.0013391541,0.0018839714,-0.009807493,0.003185301,0.8731113727016144,-0.41672737407497124,-0.25301151467014626,0.4180402228932965,0.9069813780096447,-0.051255750770513475,0.2508364066526739,-0.061017011073183636,0.9661045603128419,left_images/camera_left_70.png,right_images/camera_right_70.png
2025-05-30 14:58:01,4.13244366645813,71,-0.03493174,-8.8914676e-05,0.11432712,-0.0011939713,0.0007913317,-0.05889911,1.0471802,0.05745428,-5.015033e-06,0.0019884184,0.8152533678933769,-0.0013845874991076474,0.5791027793543766,0.0011503065285309608,0.9999990407680718,0.0007715295374175612,-0.5791032921106536,3.715365397287824e-05,0.8152541785763563,0.016858412,0.00083855,0.112121545,0.00048401378,8.529566e-05,-0.011215942,1.0471792,-0.06093983,-9.817838e-05,0.002416389,0.863089504772999,0.0008903386624915619,-0.5050502094324543,-0.0004942781113227194,0.9999994563082136,0.0009181897550764302,0.505050752340642,-0.0005428446773551399,0.8630894755932367,-0.025318142,-0.05707981,0.09151221,-0.5127084,0.37342185,0.130012,8.972967e-05,0.0019706574,-0.009801949,0.0029982096,0.8444080189332503,-0.4646353462443582,-0.26662537872754805,0.4686934725674097,0.8818097389406117,-0.052326026814508333,0.2594253771972315,-0.08078105798932815,0.9623787686437179,left_images/camera_left_71.png,right_images/camera_right_71.png
2025-05-30 14:58:01,4.20496392250061,72,-0.03493174,-8.8913424e-05,0.11432712,-0.0011939503,0.0007913247,-0.05889911,1.0471802,0.05745428,-5.015033e-06,0.0019884184,0.8152533678933769,-0.0013845874991076474,0.5791027793543766,0.0011503065285309608,0.9999990407680718,0.0007715295374175612,-0.5791032921106536,3.715365397287824e-05,0.8152541785763563,0.016858412,0.0008385535,0.112121545,0.00048402886,8.527748e-05,-0.011215942,1.0471792,-0.06093983,-9.817838e-05,0.002416389,0.863089504772999,0.0008903386624915619,-0.5050502094324543,-0.0004942781113227194,0.9999994563082136,0.0009181897550764302,0.505050752340642,-0.0005428446773551399,0.8630894755932367,-0.03128493,-0.05429803,0.091937505,-0.6265366,0.39135107,0.092150986,6.0326647e-06,0.0018740294,-0.009882161,0.0026045637,0.7893574018684787,-0.5523888399178017,-0.26792062565190866,0.5618884662089149,0.8258610889982531,-0.047273811143303236,0.2473787453619211,-0.11322557667278482,0.962280481528269,left_images/camera_left_72.png,right_images/camera_right_72.png
2025-05-30 14:58:01,4.2657904624938965,73,-0.03493174,-8.8912115e-05,0.11432712,-0.0011939293,0.0007913177,-0.05889911,1.0471802,0.05745428,-5.015033e-06,0.0019884184,0.8152533678933769,-0.0013845874991076474,0.5791027793543766,0.0011503065285309608,0.9999990407680718,0.0007715295374175612,-0.5791032921106536,3.715365397287824e-05,0.8152541785763563,0.016858412,0.00083855697,0.112121545,0.00048404394,8.525931e-05,-0.011215942,1.0471792,-0.06093983,-9.817838e-05,0.002416389,0.863089504772999,0.0008903386624915619,-0.5050502094324543,-0.0004942781113227194,0.9999994563082136,0.0009181897550764302,0.505050752340642,-0.0005428446773551399,0.8630894755932367,-0.03709314,-0.05042975,0.09229606,-0.7432333,0.39942715,0.041856937,1.3405077e-05,0.0016453435,-0.009964359,0.0022291439,0.7268439991197833,-0.6361135526296623,-0.25895433787529076,0.6499201204857176,0.7589439099568874,-0.040099607568932355,0.22203972151709891,-0.13915347534367142,0.9650568233883368,left_images/camera_left_73.png,right_images/camera_right_73.png
2025-05-30 14:58:01,4.334417104721069,74,-0.03493174,-8.8906265e-05,0.11432712,-0.0011939593,0.00079134014,-0.05889911,1.0471802,0.057454284,-5.020408e-06,0.0019884254,0.8152532930080122,-0.0013846964815722464,0.579102884516427,0.0011502705143554373,0.999999040625151,0.0007717684377002967,-0.5791033976047248,3.6938212562611966e-05,0.8152541036500415,0.016858412,0.00083856046,0.112121545,0.000484059,8.524113e-05,-0.011215942,1.0471792,-0.06093983,-9.817838e-05,0.002416389,0.863089504772999,0.0008903386624915619,-0.5050502094324543,-0.0004942781113227194,0.9999994563082136,0.0009181897550764302,0.505050752340642,-0.0005428446773551399,0.8630894755932367,-0.04140102,-0.046191648,0.09252496,-0.85932887,0.39757484,-0.007612431,7.838099e-06,0.0014542395,-0.009985554,0.0019659624,0.655751944296385,-0.712587954589087,-0.2494149043783313,0.7290616509850891,0.6835021361501314,-0.035971362791856955,0.19610837976590156,-0.15825055087660353,0.9677284053559886,left_images/camera_left_74.png,right_images/camera_right_74.png
2025-05-30 14:58:01,4.393018007278442,75,-0.03493174,-8.890497e-05,0.11432712,-0.0011939993,0.00079133664,-0.05889911,1.0471802,0.057454284,-5.020408e-06,0.0019884254,0.8152532930080122,-0.0013846964815722464,0.579102884516427,0.0011502705143554373,0.999999040625151,0.0007717684377002967,-0.5791033976047248,3.6938212562611966e-05,0.8152541036500415,0.016858412,0.00083856395,0.112121545,0.0004840741,8.522296e-05,-0.011215942,1.0471792,-0.06093983,-9.817838e-05,0.002416389,0.863089504772999,0.0008903386624915619,-0.5050502094324543,-0.0004942781113227194,0.9999994563082136,0.0009181897550764302,0.505050752340642,-0.0005428446773551399,0.8630894755932367,-0.044266928,-0.043914422,0.09258305,-0.9716129,0.39031717,-0.052385382,3.0085218e-06,0.0013336937,-0.009819561,0.0019158777,0.5785184245467601,-0.7787466010916804,-0.2426317451367201,0.7969209867949956,0.6030460457395153,-0.03538937020667625,0.17387746623880118,-0.17288492706447844,0.9694727581156083,left_images/camera_left_75.png,right_images/camera_right_75.png
2025-05-30 14:58:01,4.447359323501587,76,-0.03493174,-8.890453e-05,0.11432712,-0.0011940394,0.00079133315,-0.05889911,1.0471802,0.05745428,-5.015033e-06,0.0019884184,0.8152533678933769,-0.0013845874991076474,0.5791027793543766,0.0011503065285309608,0.9999990407680718,0.0007715295374175612,-0.5791032921106536,3.715365397287824e-05,0.8152541785763563,0.016858412,0.00083856744,0.112121545,0.00048408916,8.520478e-05,-0.011215942,1.0471792,-0.06093983,-9.817838e-05,0.002416389,0.863089504772999,0.0008903386624915619,-0.5050502094324543,-0.0004942781113227194,0.9999994563082136,0.0009181897550764302,0.505050752340642,-0.0005428446773551399,0.8630894755932367,-0.046087,-0.044298124,0.092406645,-1.0794291,0.3814037,-0.0965119,1.5475431e-06,0.0012682454,-0.009507633,0.0021552723,0.4983679670215792,-0.8337026636346782,-0.2378428853155395,0.8535696231529134,0.5198822000721679,-0.03378455976797301,0.15181655995763904,-0.1861783196201029,0.9707159035609045,left_images/camera_left_76.png,right_images/camera_right_76.png
2025-05-30 14:58:01,4.501101732254028,77,-0.03493174,-8.890328e-05,0.11432712,-0.0011940184,0.00079132617,-0.05889911,1.0471802,0.05745428,-5.015033e-06,0.0019884184,0.8152533678933769,-0.0013845874991076474,0.5791027793543766,0.0011503065285309608,0.9999990407680718,0.0007715295374175612,-0.5791032921106536,3.715365397287824e-05,0.8152541785763563,0.016858412,0.00083857094,0.112121545,0.00048410424,8.5186606e-05,-0.011215942,1.0471792,-0.06093983,-9.817838e-05,0.002416389,0.863089504772999,0.0008903386624915619,-0.5050502094324543,-0.0004942781113227194,0.9999994563082136,0.0009181897550764302,0.505050752340642,-0.0005428446773551399,0.8630894755932367,-0.04714983,-0.051382333,0.092013694,-1.1794493,0.37571338,-0.14566556,1.6987789e-06,0.0012792002,-0.008794585,0.0027740914,0.42196364705001405,-0.8753732356075256,-0.23594147356974482,0.8975694802888446,0.4400259174813402,-0.02731702763329133,0.12773295824596076,-0.20024707320387045,0.9713832410799659,left_images/camera_left_77.png,right_images/camera_right_77.png
2025-05-30 14:58:01,4.554034471511841,78,-0.03493174,-8.890197e-05,0.11432712,-0.0011939975,0.0007913192,-0.05889911,1.0471802,0.05745428,-5.015033e-06,0.0019884184,0.8152533678933769,-0.0013845874991076474,0.5791027793543766,0.0011503065285309608,0.9999990407680718,0.0007715295374175612,-0.5791032921106536,3.715365397287824e-05,0.8152541785763563,0.016858412,0.00083857443,0.112121545,0.00048411931,8.516843e-05,-0.011215942,1.0471792,-0.06093983,-9.817838e-05,0.002416389,0.863089504772999,0.0008903386624915619,-0.5050502094324543,-0.0004942781113227194,0.9999994563082136,0.0009181897550764302,0.505050752340642,-0.0005428446773551399,0.8630894755932367,-0.048321147,-0.06570794,0.091526546,-1.2664373,0.37695944,-0.19574262,1.5070173e-06,0.0013624161,-0.0076178457,0.0036964165,0.3560223478287964,-0.9028769070231681,-0.24095928828486518,0.9284297726057706,0.37104524272508155,-0.018536051097312253,0.10614257009168539,-0.21711452879842608,0.9703581999442108,left_images/camera_left_78.png,right_images/camera_right_78.png
2025-05-30 14:58:01,4.6064043045043945,79,-0.03493174,-8.890066e-05,0.11432712,-0.0011939765,0.0007913122,-0.05889911,1.0471802,0.05745428,-5.015033e-06,0.0019884184,0.8152533678933769,-0.0013845874991076474,0.5791027793543766,0.0011503065285309608,0.9999990407680718,0.0007715295374175612,-0.5791032921106536,3.715365397287824e-05,0.8152541785763563,0.016858412,0.0008385779,0.112121545,0.0004841344,8.5150255e-05,-0.011215942,1.0471792,-0.06093983,-9.817838e-05,0.002416389,0.863089504772999,0.0008903386624915619,-0.5050502094324543,-0.0004942781113227194,0.9999994563082136,0.0009181897550764302,0.505050752340642,-0.0005428446773551399,0.8630894755932367,-0.049187753,-0.08255523,0.09114571,-1.3432481,0.37801507,-0.24506526,1.0556608e-06,0.0014577437,-0.0062529086,0.0046066,0.2984172957999687,-0.9215810949686992,-0.2482647839781707,0.9505870091987095,0.31031855350097004,-0.0093130712291086,0.08562391903018009,-0.23321809695938986,0.968647440372685,left_images/camera_left_79.png,right_images/camera_right_79.png
2025-05-30 14:58:01,4.6662938594818115,80,-0.03493174,-8.889935e-05,0.11432712,-0.0011939555,0.0007913052,-0.05889911,1.0471802,0.05745428,-5.015033e-06,0.0019884184,0.8152533678933769,-0.0013845874991076474,0.5791027793543766,0.0011503065285309608,0.9999990407680718,0.0007715295374175612,-0.5791032921106536,3.715365397287824e-05,0.8152541785763563,0.016858412,0.0008385814,0.112121545,0.00048414947,8.513208e-05,-0.011215942,1.0471792,-0.06093983,-9.817838e-05,0.002416389,0.863089504772999,0.0008903386624915619,-0.5050502094324543,-0.0004942781113227194,0.9999994563082136,0.0009181897550764302,0.505050752340642,-0.0005428446773551399,0.8630894755932367,-0.04966357,-0.10180782,0.09091534,-1.4146934,0.3766902,-0.29511288,1.0702868e-06,0.0015472376,-0.004672352,0.0054665413,0.2454487735065749,-0.9348849877051321,-0.2564077989213537,0.9671973515837716,0.2540259166629558,-0.00034169121047290807,0.06545366814362966,-0.24791307635362897,0.9665686338276365,left_images/camera_left_80.png,right_images/camera_right_80.png
2025-05-30 14:58:01,4.716763973236084,81,-0.03493174,-8.889804e-05,0.11432712,-0.0011939346,0.0007912982,-0.05889911,1.0471802,0.05745428,-5.015033e-06,0.0019884184,0.8152533678933769,-0.0013845874991076474,0.5791027793543766,0.0011503065285309608,0.9999990407680718,0.0007715295374175612,-0.5791032921106536,3.715365397287824e-05,0.8152541785763563,0.016858412,0.0008385849,0.112121545,0.00048416454,8.5113905e-05,-0.011215942,1.0471792,-0.06093983,-9.817838e-05,0.002416389,0.863089504772999,0.0008903386624915619,-0.5050502094324543,-0.0004942781113227194,0.9999994563082136,0.0009181897550764302,0.505050752340642,-0.0005428446773551399,0.8630894755932367,-0.049698353,-0.1218293,0.09079532,-1.4762241,0.37279934,-0.34299403,9.679761e-07,0.0016219233,-0.003037376,0.0062649837,0.2007605427987183,-0.9434339671813319,-0.2638703356265296,0.9785476529721533,0.20584343385916365,0.0085423415851974,0.046256840768194,-0.25992466274973125,0.9645203338326177,left_images/camera_left_81.png,right_images/camera_right_81.png
2025-05-30 14:58:01,4.775208234786987,82,-0.03493174,-8.889219e-05,0.11432712,-0.0011939645,0.00079132064,-0.05889911,1.0471802,0.05745428,-5.015033e-06,0.0019884184,0.8152533678933769,-0.0013845874991076474,0.5791027793543766,0.0011503065285309608,0.9999990407680718,0.0007715295374175612,-0.5791032921106536,3.715365397287824e-05,0.8152541785763563,0.016858412,0.0008385884,0.112121545,0.00048417962,8.509573e-05,-0.011215942,1.0471792,-0.06093983,-9.817838e-05,0.002416389,0.863089504772999,0.0008903386624915619,-0.5050502094324543,-0.0004942781113227194,0.9999994563082136,0.0009181897550764302,0.505050752340642,-0.0005428446773551399,0.8630894755932367,-0.049446046,-0.14035416,0.090676755,-1.5253594,0.3679474,-0.38366434,5.359613e-07,0.0016934372,-0.0015583006,0.0070313234,0.165677657931447,-0.9482761441616747,-0.2707826953042194,0.9857051494498217,0.167752548147653,0.015634607064919814,0.03059856222856723,-0.2695022022244654,0.9625135276897194,left_images/camera_left_82.png,right_images/camera_right_82.png
2025-05-30 14:58:01,4.830556392669678,83,-0.03493174,-8.8890185e-05,0.11432712,-0.0011939435,0.00079131365,-0.05889911,1.0471802,0.05745428,-5.015033e-06,0.0019884184,0.8152533678933769,-0.0013845874991076474,0.5791027793543766,0.0011503065285309608,0.9999990407680718,0.0007715295374175612,-0.5791032921106536,3.715365397287824e-05,0.8152541785763563,0.016858412,0.0008385919,0.112121545,0.0004841947,8.5077554e-05,-0.011215942,1.0471792,-0.06093983,-9.817838e-05,0.002416389,0.863089504772999,0.0008903386624915619,-0.5050502094324543,-0.0004942781113227194,0.9999994563082136,0.0009181897550764302,0.505050752340642,-0.0005428446773551399,0.8630894755932367,-0.049377583,-0.15947798,0.09045002,-1.5683622,0.3646435,-0.42258826,6.9598e-07,0.0017751943,-0.00011826221,0.007946986,0.13676890994073476,-0.9504700505908813,-0.2791074133794921,0.9904681156344651,0.1358591690969505,0.022697975323758557,0.016345555516253524,-0.2795513711324874,0.9599915904385888,left_images/camera_left_83.png,right_images/camera_right_83.png
2025-05-30 14:58:02,4.885722637176514,84,-0.03493174,-8.8888875e-05,0.11432712,-0.0011939226,0.00079130667,-0.05889911,1.0471802,0.05745428,-5.0065923e-06,0.0019883914,0.8152533144224794,-0.001384248854648466,0.5791028554395757,0.0011500170727422672,0.9999990412377507,0.0007713522616777324,-0.5791033679611043,3.71306827092623e-05,0.8152541246981937,0.016858412,0.0008385954,0.112121545,0.00048420977,8.505938e-05,-0.011215942,1.0471792,-0.06093983,-9.817838e-05,0.002416389,0.863089504772999,0.0008903386624915619,-0.5050502094324543,-0.0004942781113227194,0.9999994563082136,0.0009181897550764302,0.505050752340642,-0.0005428446773551399,0.8630894755932367,-0.049420442,-0.17989467,0.09018202,-1.6079944,0.36269742,-0.46233404,9.038237e-07,0.0018729917,0.0013578846,0.008979289,0.11239473140090278,-0.9507074777505332,-0.28900296902028255,0.9936612449819787,0.10817387222676927,0.03058992625572468,0.0021804986088021783,-0.29060919654526773,0.956839349268795,left_images/camera_left_84.png,right_images/camera_right_84.png
2025-05-30 14:58:02,4.937422513961792,85,-0.03493174,-8.889811e-05,0.11432712,-0.0011938979,0.00079131057,-0.05889911,1.0471802,0.05745428,-5.0065923e-06,0.0019883914,0.8152533144224794,-0.001384248854648466,0.5791028554395757,0.0011500170727422672,0.9999990412377507,0.0007713522616777324,-0.5791033679611043,3.71306827092623e-05,0.8152541246981937,0.016858412,0.0008385989,0.112121545,0.00048422485,8.50412e-05,-0.011215942,1.0471792,-0.06093983,-9.817838e-05,0.002416389,0.863089504772999,0.0008903386624915619,-0.5050502094324543,-0.0004942781113227194,0.9999994563082136,0.0009181897550764302,0.505050752340642,-0.0005428446773551399,0.8630894755932367,-0.049447186,-0.19918357,0.08998678,-1.6420946,0.36080983,-0.49871993,6.896337e-07,0.001963631,0.0027441543,0.009928633,0.09273964105200894,-0.9498497802803249,-0.2986381654761546,0.9956346866980216,0.08529241150379963,0.037904817419408626,-0.010532313196859128,-0.3008497954815411,0.9536133760269085,left_images/camera_left_85.png,right_images/camera_right_85.png
2025-05-30 14:58:02,5.002217769622803,86,-0.03493174,-8.890395e-05,0.11432712,-0.0011939259,0.0007913441,-0.05889911,1.0471802,0.05745428,-5.0141734e-06,0.0019883923,0.8152533143681566,-0.001384424674115765,0.5791028550957567,0.0011499494994163541,0.9999990410078138,0.0007717509968660657,-0.5791033681717661,3.676648026595806e-05,0.8152541245650594,0.016858412,0.00083860237,0.112121545,0.00048423992,8.502303e-05,-0.011215942,1.0471792,-0.060939807,-9.813552e-05,0.0024164477,0.8630895045543511,0.0008906343610720551,-0.5050502092847402,-0.0004946049997771135,0.9999994561219253,0.00091821661280882,0.5050507523942709,-0.0005427027627720287,0.863089475651101,-0.049348157,-0.21911123,0.089897044,-1.6749022,0.36069107,-0.52359873,2.3140095e-05,0.002103548,0.004305617,0.0108468495,0.07231179413529704,-0.9474900172958807,-0.31150228177910033,0.9973146107534505,0.06505731654374042,0.03363201959176815,-0.011600500274899422,-0.3130977685784093,0.9496500490731272,left_images/camera_left_86.png,right_images/camera_right_86.png
2025-05-30 14:58:02,5.060942888259888,87,-0.03493174,-8.890608e-05,0.11432712,-0.0011938828,0.0007913564,-0.05889911,1.0471802,0.05745428,-5.0141734e-06,0.0019883923,0.8152533143681566,-0.001384424674115765,0.5791028550957567,0.0011499494994163541,0.9999990410078138,0.0007717509968660657,-0.5791033681717661,3.676648026595806e-05,0.8152541245650594,0.016858412,0.0008385993,0.112121545,0.00048424615,8.504361e-05,-0.011215942,1.0471792,-0.060939807,-9.813552e-05,0.0024164477,0.8630895045543511,0.0008906343610720551,-0.5050502092847402,-0.0004946049997771135,0.9999994561219253,0.00091821661280882,0.5050507523942709,-0.0005427027627720287,0.863089475651101,-0.049246415,-0.23919867,0.089941055,-1.7087046,0.3615174,-0.5235988,6.6617845e-06,0.0022742879,0.0061610015,0.011697872,0.043967447698154416,-0.9437726260034166,-0.3276585020253942,0.9989713582655951,0.04517514120238619,0.003928356187583221,0.011094544060127332,-0.32749417861079555,0.9447880577505932,left_images/camera_left_87.png,right_images/camera_right_87.png
2025-05-30 14:58:02,5.130605220794678,88,-0.03493174,-8.8900786e-05,0.11432712,-0.0011938898,0.0007913117,-0.05889911,1.0471802,0.05745428,-5.0065923e-06,0.0019883914,0.8152533144224794,-0.001384248854648466,0.5791028554395757,0.0011500170727422672,0.9999990412377507,0.0007713522616777324,-0.5791033679611043,3.71306827092623e-05,0.8152541246981937,0.016858412,0.0008385958,0.112121545,0.00048425238,8.50642e-05,-0.011215942,1.0471792,-0.060939807,-9.813552e-05,0.0024164477,0.8630895045543511,0.0008906343610720551,-0.5050502092847402,-0.0004946049997771135,0.9999994561219253,0.00091821661280882,0.5050507523942709,-0.0005427027627720287,0.863089475651101,-0.04906713,-0.25883314,0.09016365,-1.7411523,0.36192033,-0.5235988,6.5410386e-06,0.0024254562,0.008046102,0.0124130845,0.016539069031225873,-0.9393499544655911,-0.34256112190537946,0.9993257800867285,0.026761534364010464,-0.025135742132181754,0.03277871946296859,-0.34191443860120296,0.9391592368849877,left_images/camera_left_88.png,right_images/camera_right_88.png
2025-05-30 14:58:02,5.197630405426025,89,-0.03493174,-8.8905115e-05,0.11432712,-0.0011939177,0.0007913452,-0.05889911,1.0471802,0.05745428,-5.0141734e-06,0.0019883923,0.8152533143681566,-0.001384424674115765,0.5791028550957567,0.0011499494994163541,0.9999990410078138,0.0007717509968660657,-0.5791033681717661,3.676648026595806e-05,0.8152541245650594,0.016858412,0.0008385923,0.112121545,0.0004842586,8.5084794e-05,-0.011215942,1.0471792,-0.060939807,-9.813552e-05,0.0024164477,0.8630895045543511,0.0008906343610720551,-0.5050502092847402,-0.0004946049997771135,0.9999994561219253,0.00091821661280882,0.5050507523942709,-0.0005427027627720287,0.863089475651101,-0.048432905,-0.27815363,0.09050549,-1.7706114,0.35869738,-0.52359885,6.2724494e-06,0.002537699,0.009940589,0.0130263185,-0.009909630705359218,-0.9354620183469409,-0.35328828377056476,0.998549113591183,0.009443449322305675,-0.05301404541401883,0.0529288859276861,-0.35330105221349783,0.9340111881231881,left_images/camera_left_89.png,right_images/camera_right_89.png
2025-05-30 14:58:02,5.2534263134002686,90,-0.03493174,-8.890267e-05,0.11432712,-0.0011939269,0.00079138705,-0.05889911,1.0471802,0.05745428,-5.0141734e-06,0.0019883923,0.8152533143681566,-0.001384424674115765,0.5791028550957567,0.0011499494994163541,0.9999990410078138,0.0007717509968660657,-0.5791033681717661,3.676648026595806e-05,0.8152541245650594,0.016858412,0.0008385888,0.112121545,0.00048426483,8.5105385e-05,-0.011215942,1.0471792,-0.060939807,-9.813552e-05,0.0024164477,0.8630895045543511,0.0008906343610720551,-0.5050502092847402,-0.0004946049997771135,0.9999994561219253,0.00091821661280882,0.5050507523942709,-0.0005427027627720287,0.863089475651101,-0.04786249,-0.29783145,0.09086099,-1.798397,0.35441813,-0.5235988,6.0958596e-06,0.0026182684,0.011852286,0.0136755295,-0.03538566615452554,-0.9314601610420973,-0.3621185206838099,0.9967248236523768,-0.006529091305414569,-0.08060395078322308,0.07271506409224399,-0.3637847431629809,0.9286405009991247,left_images/camera_left_90.png,right_images/camera_right_90.png
2025-05-30 14:58:02,5.315239429473877,91,-0.03493174,-8.890611e-05,0.11432712,-0.0011939007,0.00079136825,-0.05889911,1.0471802,0.05745428,-5.0141734e-06,0.0019883923,0.8152533143681566,-0.001384424674115765,0.5791028550957567,0.0011499494994163541,0.9999990410078138,0.0007717509968660657,-0.5791033681717661,3.676648026595806e-05,0.8152541245650594,0.016858412,0.0008385853,0.112121545,0.00048427106,8.5125976e-05,-0.011215942,1.0471792,-0.060939807,-9.813552e-05,0.0024164477,0.8630895045543511,0.0008906343610720551,-0.5050502092847402,-0.0004946049997771135,0.9999994561219253,0.00091821661280882,0.5050507523942709,-0.0005427027627720287,0.863089475651101,-0.047575288,-0.31504083,0.0911503,-1.8234706,0.35083467,-0.52359885,5.3450367e-06,0.0026738402,0.01350909,0.014300978,-0.05830229675833337,-0.9272387769450947,-0.36990416694336964,0.9942638252128284,-0.020651812004070236,-0.10494259637584133,0.08966765339774113,-0.3739007263837737,0.923124021323153,left_images/camera_left_91.png,right_images/camera_right_91.png
2025-05-30 14:58:02,5.388521671295166,92,-0.03493174,-8.890109e-05,0.11432712,-0.0011939077,0.00079132355,-0.05889911,1.0471802,0.05745428,-5.0065923e-06,0.0019883914,0.8152533144224794,-0.001384248854648466,0.5791028554395757,0.0011500170727422672,0.9999990412377507,0.0007713522616777324,-0.5791033679611043,3.71306827092623e-05,0.8152541246981937,0.016858412,0.0008385818,0.112121545,0.0004842773,8.514657e-05,-0.011215942,1.0471792,-0.060939807,-9.813552e-05,0.0024164477,0.8630895045543511,0.0008906343610720551,-0.5050502092847402,-0.0004946049997771135,0.9999994561219253,0.00091821661280882,0.5050507523942709,-0.0005427027627720287,0.863089475651101,-0.047543805,-0.33240426,0.091418244,-1.8497481,0.34731963,-0.5235988,5.2054825e-06,0.0027106877,0.015164041,0.014988974,-0.08224598009113004,-0.9222267183089227,-0.3778008454146239,0.9909176651608341,-0.03520633689588981,-0.12977940789884296,0.10638505360740583,-0.3850433662323352,0.9167463261390368,left_images/camera_left_92.png,right_images/camera_right_92.png
2025-05-30 14:58:02,5.450088024139404,93,-0.03493174,-8.890207e-05,0.11432712,-0.0011939339,0.0007912705,-0.05889911,1.0471802,0.05745428,-5.015033e-06,0.0019884184,0.8152533678933769,-0.0013845874991076474,0.5791027793543766,0.0011503065285309608,0.9999990407680718,0.0007715295374175612,-0.5791032921106536,3.715365397287824e-05,0.8152541785763563,0.016858412,0.00083857833,0.112121545,0.00048428352,8.516716e-05,-0.011215942,1.0471792,-0.060939807,-9.813552e-05,0.0024164477,0.8630895045543511,0.0008906343610720551,-0.5050502092847402,-0.0004946049997771135,0.9999994561219253,0.00091821661280882,0.5050507523942709,-0.0005427027627720287,0.863089475651101,-0.047435854,-0.34853938,0.09175828,-1.8722992,0.34340668,-0.5235988,4.6386112e-06,0.002730108,0.016733121,0.015573076,-0.10308891618821364,-0.9176607774972341,-0.38375952470565655,0.9872374680268483,-0.04731261592540542,-0.15206478257056363,0.1213872196035364,-0.3945379751271948,0.9108265087816976,left_images/camera_left_93.png,right_images/camera_right_93.png
2025-05-30 14:58:02,5.510812044143677,94,-0.03493174,-8.889617e-05,0.11432712,-0.0011939638,0.00079129287,-0.05889911,1.0471802,0.05745428,-5.015033e-06,0.0019884184,0.8152533678933769,-0.0013845874991076474,0.5791027793543766,0.0011503065285309608,0.9999990407680718,0.0007715295374175612,-0.5791032921106536,3.715365397287824e-05,0.8152541785763563,0.016858412,0.00083857484,0.112121545,0.00048428975,8.518775e-05,-0.011215942,1.0471792,-0.060939807,-9.813552e-05,0.0024164477,0.8630895045543511,0.0008906343610720551,-0.5050502092847402,-0.0004946049997771135,0.9999994561219253,0.00091821661280882,0.5050507523942709,-0.0005427027627720287,0.863089475651101,-0.04794143,-0.36243168,0.09217199,-1.891674,0.3403602,-0.52359885,4.0020172e-06,0.002692883,0.018149473,0.016002197,-0.12087999678797678,-0.913504323465469,-0.38845575988320025,0.9835640897072764,-0.057345497956710456,-0.17121090882999676,0.13412571645599983,-0.4027671099705048,0.9054219719617875,left_images/camera_left_94.png,right_images/camera_right_94.png
2025-05-30 14:58:02,5.578988075256348,95,-0.03493174,-8.8894165e-05,0.11432712,-0.0011939429,0.0007912859,-0.05889911,1.0471802,0.05745428,-5.015033e-06,0.0019884184,0.8152533678933769,-0.0013845874991076474,0.5791027793543766,0.0011503065285309608,0.9999990407680718,0.0007715295374175612,-0.5791032921106536,3.715365397287824e-05,0.8152541785763563,0.016858412,0.00083857134,0.112121545,0.00048429598,8.520834e-05,-0.011215942,1.0471792,-0.060939807,-9.813552e-05,0.0024164477,0.8630895045543511,0.0008906343610720551,-0.5050502092847402,-0.0004946049997771135,0.9999994561219253,0.00091821661280882,0.5050507523942709,-0.0005427027627720287,0.863089475651101,-0.04943451,-0.3732837,0.09256294,-1.9083631,0.33845067,-0.5235988,3.4034251e-06,0.002575086,0.019303815,0.016306441,-0.13600256267554273,-0.9098545566070958,-0.39200508767998227,0.9801777192151778,-0.06603664270353848,-0.18679079360230122,0.14406575477821698,-0.40963867937702214,0.9008003167508503,left_images/camera_left_95.png,right_images/camera_right_95.png
