jiaqis7/OS_Teleop_Extension/demo_1/teleop_log.csv
Epoch Time (Seconds),Time (Seconds),Frame Number,PSM1_joint_1,PSM1_joint_2,PSM1_joint_3,PSM1_joint_4,PSM1_joint_5,PSM1_joint_6,PSM1_jaw_angle,PSM1_ee_x,PSM1_ee_y,PSM1_ee_z,"PSM1_Orientation_Matrix_[1,1]","PSM1_Orientation_Matrix_[1,2]","PSM1_Orientation_Matrix_[1,3]","PSM1_Orientation_Matrix_[2,1]","PSM1_Orientation_Matrix_[2,2]","PSM1_Orientation_Matrix_[2,3]","PSM1_Orientation_Matrix_[3,1]","PSM1_Orientation_Matrix_[3,2]","PSM1_Orientation_Matrix_[3,3]",PSM2_joint_1,PSM2_joint_2,PSM2_joint_3,PSM2_joint_4,PSM2_joint_5,PSM2_joint_6,PSM2_jaw_angle,PSM2_ee_x,PSM2_ee_y,PSM2_ee_z,"PSM2_Orientation_Matrix_[1,1]","PSM2_Orientation_Matrix_[1,2]","PSM2_Orientation_Matrix_[1,3]","PSM2_Orientation_Matrix_[2,1]","PSM2_Orientation_Matrix_[2,2]","PSM2_Orientation_Matrix_[2,3]","PSM2_Orientation_Matrix_[3,1]","PSM2_Orientation_Matrix_[3,2]","PSM2_Orientation_Matrix_[3,3]",Camera Left,Camera Right
2025-05-07 15:24:50,0.0030939579010009766,1,-0.10264312,0.00016657091,0.11000515,2.6615575e-05,-0.00020101412,0.012462794,3.8953582e-13,0.033960707,-1.521019e-05,0.008547125,0.8173623843612564,4.1746066734787025e-05,0.5761238850182725,-2.7099717486017016e-05,0.9999999990543562,-3.401313069115561e-05,-0.5761238858933789,1.2188259080372244e-05,0.8173623847196293,-0.0009207822,1.0250825e-05,0.103761636,0.0007106093,0.00011648615,-0.01401114,1.0421597,-0.046898983,-3.362632e-06,0.0076121623,0.8732970402006449,0.0006789284346300689,-0.48718766264446195,-0.0007122330171372531,0.9999997395328164,0.00011686928130178209,0.48718761509394176,0.00024492954142608844,0.8732972962906718,left_images/camera_left_1.png,right_images/camera_right_1.png
2025-05-07 15:24:50,0.05830502510070801,2,-0.10264312,0.00016657266,0.11000515,2.6609132e-05,-0.00020102614,0.012462794,3.9027307e-13,0.033960707,-1.521019e-05,0.008547125,0.8173623843612564,4.1746066734787025e-05,0.5761238850182725,-2.7099717486017016e-05,0.9999999990543562,-3.401313069115561e-05,-0.5761238858933789,1.2188259080372244e-05,0.8173623847196293,-0.0009207787,1.0250552e-05,0.103761636,0.0007106278,0.000116488,-0.01401114,1.0399084,-0.046898983,-3.362632e-06,0.0076121623,0.8732970402006449,0.0006789284346300689,-0.48718766264446195,-0.0007122330171372531,0.9999997395328164,0.00011686928130178209,0.48718761509394176,0.00024492954142608844,0.8732972962906718,left_images/camera_left_2.png,right_images/camera_right_2.png
2025-05-07 15:24:50,0.1083672046661377,3,-0.10264312,0.0001665744,0.11000515,2.660269e-05,-0.00020103816,0.012462794,3.8539647e-13,0.033960707,-1.521019e-05,0.008547125,0.8173623843612564,4.1746066734787025e-05,0.5761238850182725,-2.7099717486017016e-05,0.9999999990543562,-3.401313069115561e-05,-0.5761238858933789,1.2188259080372244e-05,0.8173623847196293,-0.00092077523,1.0250279e-05,0.103761636,0.00071064534,0.00011648987,-0.01401114,1.0397253,-0.046898983,-3.362632e-06,0.0076121623,0.8732970402006449,0.0006789284346300689,-0.48718766264446195,-0.0007122330171372531,0.9999997395328164,0.00011686928130178209,0.48718761509394176,0.00024492954142608844,0.8732972962906718,left_images/camera_left_3.png,right_images/camera_right_3.png
2025-05-07 15:24:50,0.16430282592773438,4,-0.10264312,0.00016657615,0.11000515,2.6596246e-05,-0.00020105018,0.012462794,3.8992553e-13,0.033960707,-1.521019e-05,0.008547125,0.8173623843612564,4.1746066734787025e-05,0.5761238850182725,-2.7099717486017016e-05,0.9999999990543562,-3.401313069115561e-05,-0.5761238858933789,1.2188259080372244e-05,0.8173623847196293,-0.00092077174,1.0250006e-05,0.103761636,0.00071066286,0.00011649175,-0.01401114,1.0396789,-0.046898983,-3.362632e-06,0.0076121623,0.8732970402006449,0.0006789284346300689,-0.48718766264446195,-0.0007122330171372531,0.9999997395328164,0.00011686928130178209,0.48718761509394176,0.00024492954142608844,0.8732972962906718,left_images/camera_left_4.png,right_images/camera_right_4.png
2025-05-07 15:24:50,0.2107377052307129,5,-0.10264312,0.0001665779,0.11000515,2.6589803e-05,-0.0002010622,0.012462794,3.8826342e-13,0.033960678,-1.5205935e-05,0.008547122,0.8173624171068468,4.1479310742493505e-05,0.5761238385804911,-2.672489330468551e-05,0.9999999990621025,-3.4081886567182096e-05,-0.5761238394538392,1.2460405067763848e-05,0.8173624174487748,-0.00092076825,1.0249733e-05,0.103761636,0.0007106803,0.00011649365,-0.01401114,1.0426263,-0.046898983,-3.362632e-06,0.0076121623,0.8732970402006449,0.0006789284346300689,-0.48718766264446195,-0.0007122330171372531,0.9999997395328164,0.00011686928130178209,0.48718761509394176,0.00024492954142608844,0.8732972962906718,left_images/camera_left_5.png,right_images/camera_right_5.png
2025-05-07 15:24:50,0.2523643970489502,6,-0.10264312,0.00016657627,0.11000515,2.6546004e-05,-0.00020108324,0.012462822,3.1687237e-12,0.033960678,-1.5205935e-05,0.008547122,0.8173624171068468,4.1479310742493505e-05,0.5761238385804911,-2.672489330468551e-05,0.9999999990621025,-3.4081886567182096e-05,-0.5761238394538392,1.2460405067763848e-05,0.8173624174487748,-0.00092076475,1.02494605e-05,0.103761636,0.00071069883,0.000116495496,-0.01401114,1.0400426,-0.046898983,-3.362632e-06,0.0076121623,0.8732970402006449,0.0006789284346300689,-0.48718766264446195,-0.0007122330171372531,0.9999997395328164,0.00011686928130178209,0.48718761509394176,0.00024492954142608844,0.8732972962906718,left_images/camera_left_6.png,right_images/camera_right_6.png
2025-05-07 15:24:50,0.3007059097290039,7,-0.10264312,0.00016657764,0.11000515,2.6554637e-05,-0.0002010971,0.012462822,1.0863131e-12,0.033960678,-1.5205935e-05,0.008547122,0.8173624171068468,4.1479310742493505e-05,0.5761238385804911,-2.672489330468551e-05,0.9999999990621025,-3.4081886567182096e-05,-0.5761238394538392,1.2460405067763848e-05,0.8173624174487748,-0.00092076126,1.0249188e-05,0.103761636,0.00071071653,0.000116497366,-0.01401114,1.0397341,-0.046898983,-3.362632e-06,0.0076121623,0.8732970402006449,0.0006789284346300689,-0.48718766264446195,-0.0007122330171372531,0.9999997395328164,0.00011686928130178209,0.48718761509394176,0.00024492954142608844,0.8732972962906718,left_images/camera_left_7.png,right_images/camera_right_7.png
2025-05-07 15:24:50,0.3559558391571045,8,-0.10264312,0.00016657938,0.11000515,2.6563277e-05,-0.00020111095,0.012462822,2.9595754e-13,0.033960678,-1.5201076e-05,0.008547128,0.8173623636116955,4.175786263054474e-05,0.5761239144553743,-2.686951706356303e-05,0.999999999048703,-3.43601959890094e-05,-0.5761239153421176,1.2604559657552415e-05,0.8173623639561547,-0.00092075777,1.0248915e-05,0.103761636,0.0007107341,0.00011649924,-0.01401114,1.0396451,-0.046898983,-3.362632e-06,0.0076121623,0.8732970402006449,0.0006789284346300689,-0.48718766264446195,-0.0007122330171372531,0.9999997395328164,0.00011686928130178209,0.48718761509394176,0.00024492954142608844,0.8732972962906718,left_images/camera_left_8.png,right_images/camera_right_8.png
2025-05-07 15:24:50,0.4160165786743164,9,-0.10264312,0.00016657653,0.11000515,2.6554417e-05,-0.0002011343,0.012462794,7.0839315e-12,0.033960678,-1.5201076e-05,0.008547128,0.8173623636116955,4.175786263054474e-05,0.5761239144553743,-2.686951706356303e-05,0.999999999048703,-3.43601959890094e-05,-0.5761239153421176,1.2604559657552415e-05,0.8173623639561547,-0.0009207543,1.0248642e-05,0.103761636,0.0007107515,0.00011650113,-0.01401114,1.0401882,-0.046898983,-3.362632e-06,0.0076121623,0.8732970402006449,0.0006789284346300689,-0.48718766264446195,-0.0007122330171372531,0.9999997395328164,0.00011686928130178209,0.48718761509394176,0.00024492954142608844,0.8732972962906718,left_images/camera_left_9.png,right_images/camera_right_9.png
2025-05-07 15:24:50,0.46428751945495605,10,-0.10264312,0.00016657208,0.11000515,2.6513695e-05,-0.00020110288,0.01246285,1.8428635e-12,0.03396068,-1.52065795e-05,0.0085471235,0.8173625807764333,4.1520148777535744e-05,0.576123606375026,-2.6765737286450342e-05,0.999999999060569,-3.409483037379121e-05,-0.5761236072494201,1.2447465452700433e-05,0.8173625811198948,-0.0009207508,1.0248369e-05,0.103761636,0.0007107697,0.000116503,-0.01401114,1.0397091,-0.046898983,-3.362632e-06,0.0076121623,0.8732970402006449,0.0006789284346300689,-0.48718766264446195,-0.0007122330171372531,0.9999997395328164,0.00011686928130178209,0.48718761509394176,0.00024492954142608844,0.8732972962906718,left_images/camera_left_10.png,right_images/camera_right_10.png
2025-05-07 15:24:50,0.5183875560760498,11,-0.10264312,0.00016657152,0.11000515,2.6533831e-05,-0.00020104885,0.012462878,2.709521e-12,0.03396068,-1.52065795e-05,0.0085471235,0.8173625807764333,4.1520148777535744e-05,0.576123606375026,-2.6765737286450342e-05,0.999999999060569,-3.409483037379121e-05,-0.5761236072494201,1.2447465452700433e-05,0.8173625811198948,-0.0009207473,1.0248096e-05,0.103761636,0.000710787,0.000116504874,-0.01401114,1.0400208,-0.046898983,-3.362632e-06,0.0076121623,0.8732970402006449,0.0006789284346300689,-0.48718766264446195,-0.0007122330171372531,0.9999997395328164,0.00011686928130178209,0.48718761509394176,0.00024492954142608844,0.8732972962906718,left_images/camera_left_11.png,right_images/camera_right_11.png
2025-05-07 15:24:50,0.5746896266937256,12,-0.10264312,0.00016657375,0.11000515,2.656767e-05,-0.00020106565,0.012462878,9.759509e-13,0.03396068,-1.52065795e-05,0.0085471235,0.8173625807764333,4.1520148777535744e-05,0.576123606375026,-2.6765737286450342e-05,0.999999999060569,-3.409483037379121e-05,-0.5761236072494201,1.2447465452700433e-05,0.8173625811198948,-0.0009207438,1.0247823e-05,0.103761636,0.0007108045,0.000116506766,-0.01401114,1.0419625,-0.046898983,-3.362632e-06,0.0076121623,0.8732970402006449,0.0006789284346300689,-0.48718766264446195,-0.0007122330171372531,0.9999997395328164,0.00011686928130178209,0.48718761509394176,0.00024492954142608844,0.8732972962906718,left_images/camera_left_12.png,right_images/camera_right_12.png
2025-05-07 15:24:50,0.6346108913421631,13,-0.10264312,0.00016657637,0.11000515,2.660151e-05,-0.00020108244,0.012462878,4.2753973e-13,0.03396071,-1.5210089e-05,0.008547125,0.8173625480287616,4.183932544429185e-05,0.5761236528119649,-2.7205910578047508e-05,0.999999999051091,-3.402435035846785e-05,-0.5761236536888319,1.213626112372018e-05,0.8173625483914359,-0.0009207403,1.0247551e-05,0.103761636,0.0007108227,0.00011650861,-0.01401114,1.04017,-0.046899028,-3.358255e-06,0.00761219,0.8732970399843144,0.0006791901904996425,-0.4871876626673956,-0.0007125955514376497,0.9999997392876917,0.00011675670795617867,0.4871876149515862,0.0002452044736756485,0.8732972962929356,left_images/camera_left_13.png,right_images/camera_right_13.png
2025-05-07 15:24:51,0.6798720359802246,14,-0.10264312,0.000166578,0.11000515,2.6657453e-05,-0.0002010678,0.012462822,6.20954e-12,0.033960707,-1.521019e-05,0.008547125,0.8173623843612564,4.1746066734787025e-05,0.5761238850182725,-2.7099717486017016e-05,0.9999999990543562,-3.401313069115561e-05,-0.5761238858933789,1.2188259080372244e-05,0.8173623847196293,-0.0009207464,1.0241368e-05,0.103761636,0.00071084016,0.00011654994,-0.01401114,1.0400515,-0.046899028,-3.358255e-06,0.00761219,0.8732970399843144,0.0006791901904996425,-0.4871876626673956,-0.0007125955514376497,0.9999997392876917,0.00011675670795617867,0.4871876149515862,0.0002452044736756485,0.8732972962929356,left_images/camera_left_14.png,right_images/camera_right_14.png
2025-05-07 15:24:51,0.733788013458252,15,-0.10264312,0.00016658027,0.11000515,2.6651027e-05,-0.00020107982,0.012462822,1.2088117e-12,0.033960707,-1.521019e-05,0.008547125,0.8173623843612564,4.1746066734787025e-05,0.5761238850182725,-2.7099717486017016e-05,0.9999999990543562,-3.401313069115561e-05,-0.5761238858933789,1.2188259080372244e-05,0.8173623847196293,-0.0009207534,1.0234755e-05,0.103761636,0.00071085786,0.00011659127,-0.01401114,1.0422733,-0.046899028,-3.358255e-06,0.00761219,0.8732970399843144,0.0006791901904996425,-0.4871876626673956,-0.0007125955514376497,0.9999997392876917,0.00011675670795617867,0.4871876149515862,0.0002452044736756485,0.8732972962929356,left_images/camera_left_15.png,right_images/camera_right_15.png
2025-05-07 15:24:51,0.7887225151062012,16,-0.10264312,0.00016658202,0.11000515,2.6644584e-05,-0.00020109184,0.012462822,3.9717394e-13,0.033960707,-1.521019e-05,0.008547125,0.8173623843612564,4.1746066734787025e-05,0.5761238850182725,-2.7099717486017016e-05,0.9999999990543562,-3.401313069115561e-05,-0.5761238858933789,1.2188259080372244e-05,0.8173623847196293,-0.0009207604,1.0228142e-05,0.103761636,0.0007108764,0.000116632626,-0.01401114,1.0398471,-0.046899028,-3.358255e-06,0.00761219,0.8732970399843144,0.0006791901904996425,-0.4871876626673956,-0.0007125955514376497,0.9999997392876917,0.00011675670795617867,0.4871876149515862,0.0002452044736756485,0.8732972962929356,left_images/camera_left_16.png,right_images/camera_right_16.png
2025-05-07 15:24:51,0.8495404720306396,17,-0.10264312,0.00016658376,0.11000515,2.6638141e-05,-0.00020110386,0.012462822,3.84027e-13,0.033960707,-1.521019e-05,0.008547125,0.8173623843612564,4.1746066734787025e-05,0.5761238850182725,-2.7099717486017016e-05,0.9999999990543562,-3.401313069115561e-05,-0.5761238858933789,1.2188259080372244e-05,0.8173623847196293,-0.0009207674,1.022153e-05,0.103761636,0.00071089366,0.00011667396,-0.01401114,1.0398585,-0.046899028,-3.358255e-06,0.00761219,0.8732970399843144,0.0006791901904996425,-0.4871876626673956,-0.0007125955514376497,0.9999997392876917,0.00011675670795617867,0.4871876149515862,0.0002452044736756485,0.8732972962929356,left_images/camera_left_17.png,right_images/camera_right_17.png
2025-05-07 15:24:51,0.9002256393432617,18,-0.10264312,0.00016658551,0.11000515,2.6631698e-05,-0.00020111588,0.012462822,3.8774789e-13,0.033960707,-1.5202921e-05,0.0085471235,0.8173624170906874,4.20014948897065e-05,0.5761238385655845,-2.7162102355680533e-05,0.999999999040531,-3.4367981134059025e-05,-0.5761238394563182,1.2442361457595656e-05,0.8173624174473024,-0.00092077436,1.0214916e-05,0.103761636,0.0007109113,0.00011671529,-0.01401114,1.041986,-0.046899028,-3.358255e-06,0.00761219,0.8732970399843144,0.0006791901904996425,-0.4871876626673956,-0.0007125955514376497,0.9999997392876917,0.00011675670795617867,0.4871876149515862,0.0002452044736756485,0.8732972962929356,left_images/camera_left_18.png,right_images/camera_right_18.png
2025-05-07 15:24:51,0.9416024684906006,19,-0.10264312,0.00016658321,0.11000515,2.6640762e-05,-0.0002011585,0.012462821,1.8017916e-12,0.033960707,-1.5202921e-05,0.0085471235,0.8173624170906874,4.20014948897065e-05,0.5761238385655845,-2.7162102355680533e-05,0.999999999040531,-3.4367981134059025e-05,-0.5761238394563182,1.2442361457595656e-05,0.8173624174473024,-0.00092078134,1.0208304e-05,0.103761636,0.0007109298,0.00011675665,-0.01401114,1.0397602,-0.046899028,-3.358255e-06,0.00761219,0.8732970399843144,0.0006791901904996425,-0.4871876626673956,-0.0007125955514376497,0.9999997392876917,0.00011675670795617867,0.4871876149515862,0.0002452044736756485,0.8732972962929356,left_images/camera_left_19.png,right_images/camera_right_19.png
2025-05-07 15:24:51,0.9854133129119873,20,-0.10264312,0.0001665791,0.11000515,2.6636431e-05,-0.00020113151,0.012462818,5.0468944e-13,0.033960707,-1.5202921e-05,0.0085471235,0.8173624170906874,4.20014948897065e-05,0.5761238385655845,-2.7162102355680533e-05,0.999999999040531,-3.4367981134059025e-05,-0.5761238394563182,1.2442361457595656e-05,0.8173624174473024,-0.0009207669,1.0201689e-05,0.10376167,0.0007109471,0.00011679801,-0.014011168,1.0453422,-0.046899028,-3.358255e-06,0.0076121604,0.8732970399843144,0.0006791901904996425,-0.4871876626673956,-0.0007125955514376497,0.9999997392876917,0.00011675670795617867,0.4871876149515862,0.0002452044736756485,0.8732972962929356,left_images/camera_left_20.png,right_images/camera_right_20.png
2025-05-07 15:24:51,1.0471673011779785,21,-0.10264312,0.00016657477,0.11000515,2.6632099e-05,-0.0002011045,0.012462814,2.966159e-13,0.033960707,-1.521019e-05,0.008547125,0.8173623843612564,4.1746066734787025e-05,0.5761238850182725,-2.7099717486017016e-05,0.9999999990543562,-3.401313069115561e-05,-0.5761238858933789,1.2188259080372244e-05,0.8173623847196293,-0.000920784,1.0195074e-05,0.103761636,0.000710965,0.00011683936,-0.01401114,1.0399816,-0.046899028,-3.358255e-06,0.00761219,0.8732970399843144,0.0006791901904996425,-0.4871876626673956,-0.0007125955514376497,0.9999997392876917,0.00011675670795617867,0.4871876149515862,0.0002452044736756485,0.8732972962929356,left_images/camera_left_21.png,right_images/camera_right_21.png
2025-05-07 15:24:51,1.1008975505828857,22,-0.10264312,0.00016657461,0.11000515,2.6612252e-05,-0.00020104686,0.012462814,1.8101669e-12,0.033960707,-1.521019e-05,0.008547125,0.8173623843612564,4.1746066734787025e-05,0.5761238850182725,-2.7099717486017016e-05,0.9999999990543562,-3.401313069115561e-05,-0.5761238858933789,1.2188259080372244e-05,0.8173623847196293,-0.00092079403,1.0190398e-05,0.103761636,0.0007109664,0.000116828814,-0.014011112,1.0395585,-0.046899028,-3.358255e-06,0.00761219,0.8732970399843144,0.0006791901904996425,-0.4871876626673956,-0.0007125955514376497,0.9999997392876917,0.00011675670795617867,0.4871876149515862,0.0002452044736756485,0.8732972962929356,left_images/camera_left_22.png,right_images/camera_right_22.png
2025-05-07 15:24:51,1.1562845706939697,23,-0.10264312,0.00016657618,0.11000515,2.6605807e-05,-0.00020105888,0.012462814,4.706887e-13,0.033960707,-1.521019e-05,0.008547125,0.8173623843612564,4.1746066734787025e-05,0.5761238850182725,-2.7099717486017016e-05,0.9999999990543562,-3.401313069115561e-05,-0.5761238858933789,1.2188259080372244e-05,0.8173623847196293,-0.000920801,1.0186011e-05,0.103761636,0.0007109681,0.00011681825,-0.014011084,1.0399425,-0.046899028,-3.358255e-06,0.00761219,0.8732970399843144,0.0006791901904996425,-0.4871876626673956,-0.0007125955514376497,0.9999997392876917,0.00011675670795617867,0.4871876149515862,0.0002452044736756485,0.8732972962929356,left_images/camera_left_23.png,right_images/camera_right_23.png
2025-05-07 15:24:51,1.2027294635772705,24,-0.10264312,0.00016657793,0.11000515,2.6599364e-05,-0.0002010709,0.012462814,3.8045446e-13,0.033960707,-1.521019e-05,0.008547125,0.8173623843612564,4.1746066734787025e-05,0.5761238850182725,-2.7099717486017016e-05,0.9999999990543562,-3.401313069115561e-05,-0.5761238858933789,1.2188259080372244e-05,0.8173623847196293,-0.000920808,1.0179689e-05,0.103761636,0.0007109864,0.000116859585,-0.014011084,1.0393157,-0.046899028,-3.3629628e-06,0.00761219,0.8732970814877051,0.0006793832719814497,-0.4871875880022256,-0.0007126470749084972,0.9999997392154443,0.00011706062626575725,0.48718754048025814,0.0002449641062465034,0.8732973379058152,left_images/camera_left_24.png,right_images/camera_right_24.png
2025-05-07 15:24:51,1.2565891742706299,25,-0.10264312,0.00016657967,0.11000515,2.6592921e-05,-0.00020108292,0.012462814,3.8410204e-13,0.033960707,-1.521019e-05,0.008547125,0.8173623843612564,4.1746066734787025e-05,0.5761238850182725,-2.7099717486017016e-05,0.9999999990543562,-3.401313069115561e-05,-0.5761238858933789,1.2188259080372244e-05,0.8173623847196293,-0.0009208116,1.0162224e-05,0.10376166,0.0007109946,0.000116946256,-0.01401114,1.0442832,-0.046899028,-3.3666881e-06,0.00761219,0.8732970814877051,0.0006793832719814497,-0.4871875880022256,-0.0007126470749084972,0.9999997392154443,0.00011706062626575725,0.48718754048025814,0.0002449641062465034,0.8732973379058152,left_images/camera_left_25.png,right_images/camera_right_25.png
2025-05-07 15:24:51,1.3050646781921387,26,-0.10264312,0.00016658488,0.11000515,2.6638918e-05,-0.00020108763,0.012462786,3.8695015e-12,0.033960707,-1.521019e-05,0.008547125,0.8173623843612564,4.1746066734787025e-05,0.5761238850182725,-2.7099717486017016e-05,0.9999999990543562,-3.401313069115561e-05,-0.5761238858933789,1.2188259080372244e-05,0.8173623847196293,-0.0009208151,1.0153376e-05,0.103761636,0.00071100355,0.000117021445,-0.014011196,1.0400833,-0.046899028,-3.3629628e-06,0.00761219,0.8732970814877051,0.0006793832719814497,-0.4871875880022256,-0.0007126470749084972,0.9999997392154443,0.00011706062626575725,0.48718754048025814,0.0002449641062465034,0.8732973379058152,left_images/camera_left_26.png,right_images/camera_right_26.png
2025-05-07 15:24:51,1.3541111946105957,27,-0.10264312,0.00016658726,0.11000515,2.6632486e-05,-0.00020109965,0.012462786,9.189856e-13,0.033960707,-1.521019e-05,0.008547125,0.8173623843612564,4.1746066734787025e-05,0.5761238850182725,-2.7099717486017016e-05,0.9999999990543562,-3.401313069115561e-05,-0.5761238858933789,1.2188259080372244e-05,0.8173623847196293,-0.0009208186,1.0136287e-05,0.103761666,0.0007110115,0.00011710811,-0.014011252,1.0448486,-0.046899028,-3.3666881e-06,0.00761219,0.8732970814877051,0.0006793832719814497,-0.4871875880022256,-0.0007126470749084972,0.9999997392154443,0.00011706062626575725,0.48718754048025814,0.0002449641062465034,0.8732973379058152,left_images/camera_left_27.png,right_images/camera_right_27.png
2025-05-07 15:24:51,1.3968439102172852,28,-0.10264312,0.000166589,0.11000515,2.6626043e-05,-0.00020111167,0.012462786,3.835475e-13,0.033960707,-1.5202921e-05,0.0085471235,0.8173624170906874,4.20014948897065e-05,0.5761238385655845,-2.7162102355680533e-05,0.999999999040531,-3.4367981134059025e-05,-0.5761238394563182,1.2442361457595656e-05,0.8173624174473024,-0.0009208221,1.0127439e-05,0.103761636,0.0007110205,0.00011718329,-0.014011308,1.0402583,-0.046899028,-3.3629628e-06,0.00761219,0.8732970814877051,0.0006793832719814497,-0.4871875880022256,-0.0007126470749084972,0.9999997392154443,0.00011706062626575725,0.48718754048025814,0.0002449641062465034,0.8732973379058152,left_images/camera_left_28.png,right_images/camera_right_28.png
2025-05-07 15:24:51,1.443873405456543,29,-0.10264312,0.0001665867,0.11000515,2.6635107e-05,-0.0002011543,0.0124627855,1.8016153e-12,0.033960707,-1.5202921e-05,0.0085471235,0.8173624170906874,4.20014948897065e-05,0.5761238385655845,-2.7162102355680533e-05,0.999999999040531,-3.4367981134059025e-05,-0.5761238394563182,1.2442361457595656e-05,0.8173624174473024,-0.00092081766,1.0111741e-05,0.103761636,0.0007110452,0.0001172186,-0.0140113635,1.0398171,-0.046899028,-3.3629628e-06,0.00761219,0.8732970814877051,0.0006793832719814497,-0.4871875880022256,-0.0007126470749084972,0.9999997392154443,0.00011706062626575725,0.48718754048025814,0.0002449641062465034,0.8732973379058152,left_images/camera_left_29.png,right_images/camera_right_29.png
2025-05-07 15:24:51,1.494720220565796,30,-0.10264312,0.0001665826,0.11000515,2.6630776e-05,-0.0002011273,0.012462783,5.0523745e-13,0.033960707,-1.5202921e-05,0.0085471235,0.8173624170906874,4.20014948897065e-05,0.5761238385655845,-2.7162102355680533e-05,0.999999999040531,-3.4367981134059025e-05,-0.5761238394563182,1.2442361457595656e-05,0.8173624174473024,-0.000920754,9.959819e-06,0.103761636,0.0007110536,0.00011742724,-0.014011502,1.0419147,-0.046899073,-3.4719615e-06,0.0076121585,0.8732972366801628,0.0006793576683639151,-0.48718730985109865,-0.0007125099036451534,0.9999997392905584,0.0001172537956825159,0.4871872624940324,0.00024472836743934625,0.8732974930523946,left_images/camera_left_30.png,right_images/camera_right_30.png
2025-05-07 15:24:51,1.5398774147033691,31,-0.09838607,0.021950776,0.11003895,0.11669649,-0.116868235,-0.07998497,1.9154875e-06,0.033917088,-0.00026004238,0.008699616,0.7605103268975177,0.14929009599010748,0.6319307793750003,-0.10852238904877345,0.9887454650930083,-0.10298201946532831,-0.6401928879309559,0.009740251396914971,0.7681524547544891,-0.0009207437,9.936085e-06,0.103761636,0.0007111015,0.00011742904,-0.014011502,1.0396864,-0.046899073,-3.4719615e-06,0.0076121585,0.8732972366801628,0.0006793576683639151,-0.48718730985109865,-0.0007125099036451534,0.9999997392905584,0.0001172537956825159,0.4871872624940324,0.00024472836743934625,0.8732974930523946,left_images/camera_left_31.png,right_images/camera_right_31.png
2025-05-07 15:24:51,1.5927839279174805,32,-0.10154099,0.038980037,0.11032191,0.23335283,-0.21535838,-0.1744321,5.481684e-06,0.03352462,-0.00022052159,0.009069756,0.6889770614398045,0.28646709370841167,0.66576813759148,-0.19811103432390637,0.9580285001900554,-0.20720379075370432,-0.6971819180736717,0.010862644514526426,0.7168119530708644,-0.0009207437,9.9358485e-06,0.103761636,0.0007111488,0.000117430856,-0.014011502,1.0424209,-0.046899073,-3.4719615e-06,0.0076121585,0.8732972366801628,0.0006793576683639151,-0.48718730985109865,-0.0007125099036451534,0.9999997392905584,0.0001172537956825159,0.4871872624940324,0.00024472836743934625,0.8732974930523946,left_images/camera_left_32.png,right_images/camera_right_32.png
2025-05-07 15:24:51,1.638549566268921,33,-0.108815596,0.049650818,0.110722624,0.34996924,-0.27073413,-0.2627736,9.829149e-06,0.03288877,-0.00022186176,0.009492602,0.6107958217449707,0.39781452694504893,0.684596279781283,-0.2779351216427075,0.9173237204410161,-0.28507763867709074,-0.7414044323419837,-0.016149119720266447,0.6708641245706326,-0.0009207437,9.935616e-06,0.103761636,0.0007111969,0.000117432646,-0.014011502,1.039789,-0.046899047,-3.455256e-06,0.0076121604,0.8732972509818483,0.000679806578290873,-0.48718728358872704,-0.0007129695816525634,0.9999997389514985,0.0001173512262396936,0.48718723618535237,0.0002448672104922301,0.8732975076903213,left_images/camera_left_33.png,right_images/camera_right_33.png
2025-05-07 15:24:52,1.6791987419128418,34,-0.116456404,0.055397086,0.11107716,0.4665566,-0.29603612,-0.3392917,1.259618e-05,0.032317795,-0.00019393023,0.009845832,0.5317029726154399,0.4907891365454532,0.6902303762953883,-0.3545622761644135,0.8691144395874183,-0.3448560326016612,-0.7691407811532391,-0.0613686756384422,0.6361260444419554,-0.0009207437,9.923506e-06,0.103761636,0.0007111966,0.000117513475,-0.014011502,1.0423253,-0.046899047,-3.455256e-06,0.0076121604,0.8732972509818483,0.000679806578290873,-0.48718728358872704,-0.0007129695816525634,0.9999997389514985,0.0001173512262396936,0.48718723618535237,0.0002448672104922301,0.8732975076903213,left_images/camera_left_34.png,right_images/camera_right_34.png
2025-05-07 15:24:52,1.7208304405212402,35,-0.12284635,0.057665035,0.1113381,0.58313566,-0.30090702,-0.40107387,1.2236916e-05,0.031926665,-0.0001317421,0.01007341,0.4541646834789893,0.5703238374295685,0.68444514808715,-0.4311644316105689,0.8129903295800838,-0.39133611758078496,-0.7796356028263233,-0.11737735926863396,0.6151348489044963,-0.0009207437,9.910532e-06,0.103761636,0.0007111973,0.00011759434,-0.014011502,1.039954,-0.046899047,-3.455256e-06,0.0076121604,0.8732972509818483,0.000679806578290873,-0.48718728358872704,-0.0007129695816525634,0.9999997389514985,0.0001173512262396936,0.48718723618535237,0.0002448672104922301,0.8732975076903213,left_images/camera_left_35.png,right_images/camera_right_35.png
2025-05-07 15:24:52,1.7760396003723145,36,-0.12758559,0.05781214,0.111518756,0.69972116,-0.2949622,-0.44750223,9.852119e-06,0.031744964,-3.9819162e-05,0.01015117,0.37926440599601263,0.6403368397509899,0.6679275724224949,-0.5074694201620393,0.7475571033499744,-0.42852440400915276,-0.7737139639071378,-0.17642876434615534,0.6084731655269553,-0.00092073804,9.906364e-06,0.103761636,0.0007112139,0.00011758219,-0.014011502,1.0426785,-0.046899047,-3.455256e-06,0.0076121604,0.8732972509818483,0.000679806578290873,-0.48718728358872704,-0.0007129695816525634,0.9999997389514985,0.0001173512262396936,0.48718723618535237,0.0002448672104922301,0.8732975076903213,left_images/camera_left_36.png,right_images/camera_right_36.png
2025-05-07 15:24:52,1.8290760517120361,37,-0.13141972,0.056592103,0.11167788,0.8163213,-0.28405398,-0.4791205,6.9760385e-06,0.03167584,6.75139e-05,0.010094081,0.30658667976086024,0.7024233351388036,0.6423441959305709,-0.5822383592663591,0.6722590669554771,-0.4572376186349603,-0.7529960828530451,-0.23381446736382944,0.6150834854386344,-0.00092073134,9.903589e-06,0.103761636,0.00071123114,0.000117570045,-0.014011502,1.0404577,-0.046899047,-3.455256e-06,0.0076121604,0.8732972509818483,0.000679806578290873,-0.48718728358872704,-0.0007129695816525634,0.9999997389514985,0.0001173512262396936,0.48718723618535237,0.0002448672104922301,0.8732975076903213,left_images/camera_left_37.png,right_images/camera_right_37.png
2025-05-07 15:24:52,1.8701932430267334,38,-0.13439582,0.054701302,0.11182563,0.932942,-0.27211955,-0.49963266,4.5357892e-06,0.03170989,0.00016260333,0.009923944,0.23449532754368985,0.7571408675448796,0.6097127586442365,-0.6527809015159174,0.5873987531757442,-0.4783720303107692,-0.720339528261669,-0.2858328383180779,0.6319893611151914,-0.0009207381,9.89589e-06,0.10376167,0.0007112478,0.00011756359,-0.0140115,1.0468295,-0.046899017,-3.4589814e-06,0.0076121306,0.8732972509818483,0.000679806578290873,-0.48718728358872704,-0.0007129695816525634,0.9999997389514985,0.0001173512262396936,0.48718723618535237,0.0002448672104922301,0.8732975076903213,left_images/camera_left_38.png,right_images/camera_right_38.png
2025-05-07 15:24:52,1.909830093383789,39,-0.13692464,0.052526772,0.11197497,1.0495267,-0.26133147,-0.51142484,2.210311e-06,0.03180508,0.00021992205,0.009672785,0.16203594984293623,0.8042778897266727,0.571735451983964,-0.7171266655683781,0.49397491976014707,-0.49164837453075727,-0.6778448911729563,-0.3303420269126627,0.6568108165719841,-0.0009207209,9.892308e-06,0.10376162,0.00071126583,0.00011755146,-0.014011528,1.0401491,-0.046899047,-3.4589814e-06,0.0076121604,0.8732972509818483,0.000679806578290873,-0.48718728358872704,-0.0007129695816525634,0.9999997389514985,0.0001173512262396936,0.48718723618535237,0.0002448672104922301,0.8732975076903213,left_images/camera_left_39.png,right_images/camera_right_39.png
2025-05-07 15:24:52,1.9514496326446533,40,-0.13940649,0.050316416,0.11214202,1.1473467,-0.25313067,-0.51769763,1.4199774e-06,0.031828426,0.00026403926,0.009440381,0.0987771094533203,0.8371958549692918,0.5379090843909248,-0.7644439876680705,0.40990579732719734,-0.49759685191497455,-0.6370780739957901,-0.36205018676944617,0.6804786476400443,-0.00092071755,9.880728e-06,0.10376162,0.00071126514,0.00011763228,-0.014011528,1.0423827,-0.046899047,-3.4626532e-06,0.0076121567,0.8732972228372298,0.0006799196871584873,-0.4871873338809224,-0.0007129711473388053,0.9999997389234371,0.0001175806157705682,0.4871872866331032,0.0002446676871940862,0.8732974796029116,left_images/camera_left_40.png,right_images/camera_right_40.png
2025-05-07 15:24:52,2.008557081222534,41,-0.14250964,0.0482542,0.11236221,1.217014,-0.24868324,-0.5194588,1.0867817e-06,0.031673156,0.00031787017,0.009271451,0.052496151981241856,0.8566800800300427,0.513169947002825,-0.7943070072540996,0.34727205691476565,-0.49847617466958594,-0.6052441922515226,-0.38144640379207617,0.6986974372215018,-0.00092071085,9.885528e-06,0.10376162,0.0007113158,0.0001175947,-0.014011528,1.0401294,-0.046899047,-3.4589814e-06,0.0076121604,0.8732972509818483,0.000679806578290873,-0.48718728358872704,-0.0007129695816525634,0.9999997389514985,0.0001173512262396936,0.48718723618535237,0.0002448672104922301,0.8732975076903213,left_images/camera_left_41.png,right_images/camera_right_41.png
2025-05-07 15:24:52,2.0553295612335205,42,-0.14558764,0.04652769,0.1125948,1.2672853,-0.2470744,-0.5196765,8.349517e-07,0.031455975,0.0003702552,0.0091383625,0.018721491730214646,0.8688610774365093,0.49470186361409985,-0.8135471098141502,0.300858428863927,-0.4976196397797944,-0.5811975618156346,-0.39314708939199505,0.7124919369664221,-0.0009207047,9.882652e-06,0.10376162,0.0007113327,0.000117582545,-0.014011528,1.0398431,-0.046899047,-3.4589814e-06,0.0076121604,0.8732972509818483,0.000679806578290873,-0.48718728358872704,-0.0007129695816525634,0.9999997389514985,0.0001173512262396936,0.48718723618535237,0.0002448672104922301,0.8732975076903213,left_images/camera_left_42.png,right_images/camera_right_42.png
2025-05-07 15:24:52,2.0965218544006348,43,-0.1488418,0.045140266,0.11283255,1.3030292,-0.24944063,-0.5185666,6.4822365e-07,0.03120834,0.00042226352,0.009032913,-0.0042731434614396435,0.8774037420355683,0.4797336904022274,-0.8260607866562009,0.2672687890459313,-0.49617635085809986,-0.5635648294507889,-0.3984094224085365,0.7236467474826374,-0.0009206981,9.879877e-06,0.10376162,0.00071135006,0.00011757038,-0.014011528,1.0394466,-0.046899047,-3.4589814e-06,0.0076121604,0.8732972509818483,0.000679806578290873,-0.48718728358872704,-0.0007129695816525634,0.9999997389514985,0.0001173512262396936,0.48718723618535237,0.0002448672104922301,0.8732975076903213,left_images/camera_left_43.png,right_images/camera_right_43.png
2025-05-07 15:24:52,2.1365201473236084,44,-0.15270925,0.044123102,0.11309,1.3274078,-0.25768518,-0.5164319,5.397709e-07,0.030928232,0.00047351187,0.008949811,-0.017534544602149316,0.8847547194718222,0.4657269866755979,-0.8339007350091392,0.24404978965729046,-0.4950245088068366,-0.5516358435569726,-0.3970501058312032,0.7335183089484663,-0.0009206915,9.877103e-06,0.10376162,0.0007113664,0.000117558215,-0.014011528,1.0398319,-0.046899047,-3.4589814e-06,0.0076121604,0.8732972509818483,0.000679806578290873,-0.48718728358872704,-0.0007129695816525634,0.9999997389514985,0.0001173512262396936,0.48718723618535237,0.0002448672104922301,0.8732975076903213,left_images/camera_left_44.png,right_images/camera_right_44.png
2025-05-07 15:24:52,2.1812992095947266,45,-0.15724629,0.043383278,0.11337414,1.3435825,-0.27167958,-0.514809,4.3637357e-07,0.030621188,0.00053662434,0.008886229,-0.023662687899389412,0.8920533599072501,0.45131018189219074,-0.8380532569234617,0.22843588193622377,-0.495463203885009,-0.5450750551633733,-0.38994595897663287,0.7421828166405092,-0.00092068495,9.874329e-06,0.10376162,0.0007113829,0.00011754605,-0.014011528,1.0401318,-0.046899047,-3.4589814e-06,0.0076121604,0.8732972509818483,0.000679806578290873,-0.48718728358872704,-0.0007129695816525634,0.9999997389514985,0.0001173512262396936,0.48718723618535237,0.0002448672104922301,0.8732975076903213,left_images/camera_left_45.png,right_images/camera_right_45.png
2025-05-07 15:24:52,2.2265899181365967,46,-0.1624185,0.042740595,0.113698184,1.3538432,-0.288378,-0.513097,3.1473803e-07,0.030247042,0.00060976483,0.008841658,-0.025131070786514387,0.8987617720615697,0.43771646800396985,-0.8401127649424691,0.2183299932590873,-0.49653051892527883,-0.5418292825806326,-0.3802095358144428,0.7495743708358251,-0.0009206839,9.862748e-06,0.10376162,0.0007113833,0.00011762688,-0.014011528,1.0398773,-0.046899047,-3.4626532e-06,0.0076121567,0.8732972228372298,0.0006799196871584873,-0.4871873338809224,-0.0007129711473388053,0.9999997389234371,0.0001175806157705682,0.4871872866331032,0.0002446676871940862,0.8732974796029116,left_images/camera_left_46.png,right_images/camera_right_46.png
2025-05-07 15:24:52,2.27862548828125,47,-0.16919191,0.041999456,0.11413386,1.3602054,-0.30831984,-0.5113122,2.0992317e-07,0.0296898,0.00071114954,0.008821465,-0.02358516982448411,0.9052134723585612,0.4243021437901374,-0.8406483163943446,0.21174641215685946,-0.49847152885801954,-0.5410676001274741,-0.3684454184804768,0.7559721064252584,-0.0009206772,9.867547e-06,0.10376162,0.0007114332,0.000117589305,-0.014011528,1.0396545,-0.046899047,-3.4589814e-06,0.0076121604,0.8732972509818483,0.000679806578290873,-0.48718728358872704,-0.0007129695816525634,0.9999997389514985,0.0001173512262396936,0.48718723618535237,0.0002448672104922301,0.8732975076903213,left_images/camera_left_47.png,right_images/camera_right_47.png
2025-05-07 15:24:52,2.332756519317627,48,-0.1762614,0.041105594,0.11462443,1.3667426,-0.32553592,-0.51059335,1.1825482e-07,0.029028684,0.000821566,0.008811681,-0.0240124648415454,0.9103907998813274,0.4130520463860102,-0.8410156251977574,0.20497838782899258,-0.5006761215558942,-0.5404776773424218,-0.3594056927964056,0.7607308514054606,-0.00092067104,9.864672e-06,0.10376162,0.0007114496,0.00011757715,-0.014011528,1.0400519,-0.046899047,-3.4589814e-06,0.0076121604,0.8732972509818483,0.000679806578290873,-0.48718728358872704,-0.0007129695816525634,0.9999997389514985,0.0001173512262396936,0.48718723618535237,0.0002448672104922301,0.8732975076903213,left_images/camera_left_48.png,right_images/camera_right_48.png
2025-05-07 15:24:52,2.387425661087036,49,-0.1840986,0.04001347,0.11519346,1.3748792,-0.33966997,-0.51073647,1.5262468e-07,0.028204307,0.0009374772,0.008824212,-0.027629649928531175,0.9143159032919884,0.40405820302548273,-0.8417691608457131,0.1967251607488016,-0.5027165115425017,-0.5391301162928397,-0.3540136157207991,0.7642074833383637,-0.0009206645,9.861898e-06,0.10376162,0.0007114666,0.00011756498,-0.014011528,1.041793,-0.046899047,-3.4589814e-06,0.0076121604,0.8732972509818483,0.000679806578290873,-0.48718728358872704,-0.0007129695816525634,0.9999997389514985,0.0001173512262396936,0.48718723618535237,0.0002448672104922301,0.8732975076903213,left_images/camera_left_49.png,right_images/camera_right_49.png
2025-05-07 15:24:52,2.4396603107452393,50,-0.19202398,0.03892881,0.11579298,1.3816801,-0.35182825,-0.51046187,9.869184e-08,0.027312286,0.0010452613,0.008844931,-0.031131484015308408,0.9171750934844292,0.3972665082722593,-0.8425351584347722,0.18975345109421915,-0.504111232367547,-0.5377409576220671,-0.35040473126038446,0.7668449561717414,-0.0009206579,9.8591245e-06,0.10376162,0.00071148376,0.00011755283,-0.014011528,1.0403988,-0.046899047,-3.4589814e-06,0.0076121604,0.8732972509818483,0.000679806578290873,-0.48718728358872704,-0.0007129695816525634,0.9999997389514985,0.0001173512262396936,0.48718723618535237,0.0002448672104922301,0.8732975076903213,left_images/camera_left_50.png,right_images/camera_right_50.png
2025-05-07 15:24:52,2.4812874794006348,51,-0.20094655,0.037772294,0.11647365,1.3874544,-0.36313462,-0.5105049,3.233683e-07,0.026255192,0.0011615737,0.008899876,-0.03504929440167831,0.9191644156110317,0.39231151402472886,-0.8428909622717553,0.1837194666137082,-0.5057489330762535,-0.5369416846199768,-0.34840197281531726,0.768316141087675,-0.00092065684,9.847544e-06,0.10376162,0.0007114841,0.00011763367,-0.014011528,1.0398607,-0.046899047,-3.4626532e-06,0.0076121567,0.8732972228372298,0.0006799196871584873,-0.4871873338809224,-0.0007129711473388053,0.9999997389234371,0.0001175806157705682,0.4871872866331032,0.0002446676871940862,0.8732974796029116,left_images/camera_left_51.png,right_images/camera_right_51.png
2025-05-07 15:24:52,2.5231525897979736,52,-0.20938209,0.0367291,0.11716663,1.3923769,-0.37237835,-0.51011443,2.3911122e-07,0.02519365,0.001258098,0.008935891,-0.03884961791442787,0.9204001410362533,0.3890427837248084,-0.843449943031881,0.17855967700323855,-0.5066642234735111,-0.535801176545386,-0.3478218252625102,0.7693744712970636,-0.00092065014,9.852343e-06,0.10376162,0.0007115339,0.000117596086,-0.014011528,1.0400311,-0.046899047,-3.4626532e-06,0.0076121567,0.8732972228372298,0.0006799196871584873,-0.4871873338809224,-0.0007129711473388053,0.9999997389234371,0.0001175806157705682,0.4871872866331032,0.0002446676871940862,0.8732974796029116,left_images/camera_left_52.png,right_images/camera_right_52.png
2025-05-07 15:24:52,2.5684525966644287,53,-0.21715719,0.03576474,0.117830455,1.3975655,-0.37952545,-0.5099577,1.3936271e-07,0.024176136,0.0013401664,0.008968902,-0.04342154040772128,0.9211109481709088,0.3868710262972788,-0.8442134399317576,0.17324553298757273,-0.5072372749891714,-0.534245484461225,-0.34862674375260005,0.7700916542030888,-0.0009206478,9.849625e-06,0.10376162,0.0007115672,0.0001176515,-0.01401152,1.0397677,-0.04689906,-3.4832688e-06,0.0076121585,0.8732972225537476,0.0006803067079784953,-0.48718733384879037,-0.0007133989373317358,0.9999997386151007,0.00011760818812620948,0.4871872865150176,0.0002448520222090113,0.8732974796171239,left_images/camera_left_53.png,right_images/camera_right_53.png
2025-05-07 15:24:52,2.6155436038970947,54,-0.2241518,0.034932792,0.1184522,1.4021323,-0.3850238,-0.51046026,2.6391243e-07,0.023225933,0.0014117169,0.00899926,-0.04809914612501354,0.9213697548680745,0.38569968493166895,-0.8446435491857666,0.1685990564915672,-0.5080862456011035,-0.5331639025299032,-0.3502172653717939,0.7701195492094628,-0.000920648,9.8483915e-06,0.10376162,0.00071160274,0.00011765339,-0.01401152,1.0400593,-0.04689906,-3.4832688e-06,0.0076121585,0.8732972225537476,0.0006803067079784953,-0.48718733384879037,-0.0007133989373317358,0.9999997386151007,0.00011760818812620948,0.4871872865150176,0.0002448520222090113,0.8732974796171239,left_images/camera_left_54.png,right_images/camera_right_54.png
2025-05-07 15:24:52,2.6628546714782715,55,-0.23079841,0.034218628,0.11905944,1.4059947,-0.3899081,-0.5117208,4.814621e-07,0.022302002,0.0014779165,0.009032486,-0.05264967179657659,0.9213964205124595,0.3850410995290501,-0.8445639893782572,0.16465856707598991,-0.5095088067285638,-0.5328599064530901,-0.35201731854456936,0.7695090171918035,-0.000920648,9.848119e-06,0.10376162,0.0007116382,0.00011765526,-0.01401152,1.0397011,-0.04689906,-3.4832688e-06,0.0076121585,0.8732972225537476,0.0006803067079784953,-0.48718733384879037,-0.0007133989373317358,0.9999997386151007,0.00011760818812620948,0.4871872865150176,0.0002448520222090113,0.8732974796171239,left_images/camera_left_55.png,right_images/camera_right_55.png
2025-05-07 15:24:53,2.7071213722229004,56,-0.23659469,0.03365058,0.11961327,1.4088166,-0.39357975,-0.5127685,4.233297e-07,0.02146546,0.0015295576,0.009056235,-0.0564926857053788,0.9211125660116699,0.38517556671885406,-0.8444150503304135,0.16176009135923475,-0.5106827739594682,-0.5327023552015502,-0.3540978870013899,0.76866305178789,-0.000920648,9.847846e-06,0.10376162,0.0007116737,0.00011765716,-0.01401152,1.0422845,-0.04689906,-3.4832688e-06,0.0076121585,0.8732972225537476,0.0006803067079784953,-0.48718733384879037,-0.0007133989373317358,0.9999997386151007,0.00011760818812620948,0.4871872865150176,0.0002448520222090113,0.8732974796171239,left_images/camera_left_56.png,right_images/camera_right_56.png
2025-05-07 15:24:53,2.76989483833313,57,-0.24158148,0.033201184,0.12010927,1.4111123,-0.3955223,-0.5143928,5.6094916e-07,0.020711055,0.0015717442,0.009079572,-0.060518997331866886,0.9203912983097001,0.3862865632632462,-0.843987886456579,0.15943927229046523,-0.5121167503275436,-0.5329370492623892,-0.35701397234179966,0.7671500016790891,-0.000920648,9.847573e-06,0.10376162,0.00071170914,0.000117659016,-0.01401152,1.0395393,-0.04689906,-3.4832688e-06,0.0076121585,0.8732972225537476,0.0006803067079784953,-0.48718733384879037,-0.0007133989373317358,0.9999997386151007,0.00011760818812620948,0.4871872865150176,0.0002448520222090113,0.8732974796171239,left_images/camera_left_57.png,right_images/camera_right_57.png
2025-05-07 15:24:53,2.824774742126465,58,-0.24602303,0.032749653,0.12057366,1.4145516,-0.39363602,-0.51869375,1.1497436e-06,0.019972809,0.0016196477,0.009120094,-0.06770269734311779,0.9185770352295412,0.38940027622149004,-0.8428474278772496,0.15619094069180123,-0.5149879642928705,-0.5338769128677234,-0.36307109550984196,0.7636457434649344,-0.0009206611,9.8473e-06,0.10376165,0.0007117442,0.0001176609,-0.01401152,1.0446752,-0.04689903,-3.4832688e-06,0.0076121287,0.8732972225537476,0.0006803067079784953,-0.48718733384879037,-0.0007133989373317358,0.9999997386151007,0.00011760818812620948,0.4871872865150176,0.0002448520222090113,0.8732974796171239,left_images/camera_left_58.png,right_images/camera_right_58.png
2025-05-07 15:24:53,2.879750967025757,59,-0.24987963,0.032311134,0.120997556,1.4183772,-0.38908592,-0.52359885,1.0660779e-05,0.019274704,0.001663354,0.009165498,-0.07626170776527402,0.9159688932780046,0.39393544963076266,-0.8417014354066641,0.15266270562708795,-0.5179119538541066,-0.5345304907702507,-0.37107288348474654,0.759330013616761,-0.00092064956,9.847029e-06,0.10376162,0.00071177987,0.000117662785,-0.014011548,1.0399382,-0.04689906,-3.4832688e-06,0.0076121585,0.8732972225537476,0.0006803067079784953,-0.48718733384879037,-0.0007133989373317358,0.9999997386151007,0.00011760818812620948,0.4871872865150176,0.0002448520222090113,0.8732974796171239,left_images/camera_left_59.png,right_images/camera_right_59.png
2025-05-07 15:24:53,2.931776285171509,60,-0.25326428,0.03196131,0.121378124,1.4213605,-0.38490564,-0.52359885,6.460066e-07,0.018648233,0.0016657268,0.009184331,-0.08192735779167049,0.9134960285241095,0.3985133798455896,-0.8428095559337342,0.149915242611458,-0.5169114744901006,-0.531939809068712,-0.37822007601848323,0.7576210224277804,-0.00092064694,9.846756e-06,0.10376162,0.0007118148,0.000117664655,-0.014011548,1.0395555,-0.04689906,-3.4832688e-06,0.0076121585,0.8732972225537476,0.0006803067079784953,-0.48718733384879037,-0.0007133989373317358,0.9999997386151007,0.00011760818812620948,0.4871872865150176,0.0002448520222090113,0.8732974796171239,left_images/camera_left_60.png,right_images/camera_right_60.png
2025-05-07 15:24:53,2.990662097930908,61,-0.25685892,0.031688232,0.121775754,1.423641,-0.38162223,-0.5235988,3.269469e-08,0.018000707,0.001665073,0.00920823,-0.08682475503517778,0.911144731316685,0.40283587291467376,-0.8436478005674605,0.14780788573138465,-0.5161503826534516,-0.529830020394058,-0.38466622870933675,0.7558518651030559,-0.00092066004,9.846483e-06,0.10376165,0.0007118501,0.00011766653,-0.014011548,1.0449508,-0.04689903,-3.4832688e-06,0.0076121287,0.8732972225537476,0.0006803067079784953,-0.48718733384879037,-0.0007133989373317358,0.9999997386151007,0.00011760818812620948,0.4871872865150176,0.0002448520222090113,0.8732974796171239,left_images/camera_left_61.png,right_images/camera_right_61.png
2025-05-07 15:24:53,3.038689613342285,62,-0.26077616,0.031360697,0.12221372,1.4282336,-0.37717086,-0.5235988,1.571027e-07,0.017285893,0.0016546261,0.009233251,-0.09378529571464456,0.9084235414796357,0.4073953701176699,-0.8452435823296066,0.1435762640895223,-0.5147321079170303,-0.52608706963613,-0.3926226250175763,0.7543738260875555,-0.0009206485,9.846212e-06,0.10376162,0.00071188586,0.000117668416,-0.014011576,1.0402306,-0.04689906,-3.4832688e-06,0.0076121585,0.8732972225537476,0.0006803067079784953,-0.48718733384879037,-0.0007133989373317358,0.9999997386151007,0.00011760818812620948,0.4871872865150176,0.0002448520222090113,0.8732974796171239,left_images/camera_left_62.png,right_images/camera_right_62.png
2025-05-07 15:24:53,3.081512689590454,63,-0.26468086,0.031046873,0.12266062,1.4335657,-0.37298688,-0.5235988,2.1751852e-07,0.016571894,0.0016392712,0.009250918,-0.10101480644024818,0.905816703388813,0.4114512227976265,-0.8470112681134324,0.13864421721690473,-0.5131760835436376,-0.5218888009611952,-0.4003422047375653,0.7532318358494622,-0.00092065916,9.8508735e-06,0.10376168,0.00071192137,0.00011766458,-0.014011577,1.0471976,-0.04689903,-3.4795435e-06,0.0076121287,0.8732972225537476,0.0006803067079784953,-0.48718733384879037,-0.0007133989373317358,0.9999997386151007,0.00011760818812620948,0.4871872865150176,0.0002448520222090113,0.8732974796171239,left_images/camera_left_63.png,right_images/camera_right_63.png
2025-05-07 15:24:53,3.1352319717407227,64,-0.26861757,0.03073592,0.12309382,1.4384888,-0.36958122,-0.5235988,1.9768717e-07,0.015873933,0.0016290664,0.009281535,-0.10764525444824974,0.9033941197916552,0.4150801892654385,-0.8485638270197885,0.1340565950552522,-0.5118283509104615,-0.5180269594029852,-0.4073179269907633,0.7521570153123915,-0.0009206475,9.844904e-06,0.10376163,0.00071189005,0.00011770721,-0.014011577,1.0402079,-0.04689906,-3.4832688e-06,0.0076121585,0.8732972225537476,0.0006803067079784953,-0.48718733384879037,-0.0007133989373317358,0.9999997386151007,0.00011760818812620948,0.4871872865150176,0.0002448520222090113,0.8732974796171239,left_images/camera_left_64.png,right_images/camera_right_64.png
2025-05-07 15:24:53,3.1908183097839355,65,-0.27325973,0.030526627,0.123581745,1.4413129,-0.36738405,-0.5235988,1.06474076e-07,0.015082121,0.0016195183,0.009337438,-0.11279598492195453,0.9008916730688021,0.41913155354945647,-0.8494404557173956,0.13141170955232345,-0.511059560895948,-0.5154880968326132,-0.41367276437763034,0.7504311201143381,-0.00092064484,9.8435885e-06,0.10376163,0.0007119249,0.00011770907,-0.014011577,1.0395393,-0.04689906,-3.4832688e-06,0.0076121585,0.8732972225537476,0.0006803067079784953,-0.48718733384879037,-0.0007133989373317358,0.9999997386151007,0.00011760818812620948,0.4871872865150176,0.0002448520222090113,0.8732974796171239,left_images/camera_left_65.png,right_images/camera_right_65.png
2025-05-07 15:24:53,3.2339038848876953,66,-0.27822915,0.03046773,0.12412662,1.4427664,-0.36633658,-0.5235988,6.093887e-08,0.014230769,0.0015997365,0.00938398,-0.1166983878360019,0.8985364001928008,0.4231002526648273,-0.8499032021164602,0.1300641417899306,-0.5106347677671742,-0.5138540972967571,-0.41918451372756066,0.7484906880799007,-0.0009206435,9.841737e-06,0.10376163,0.00071189355,0.00011774597,-0.0140115665,1.0421023,-0.04689906,-3.4832688e-06,0.0076121585,0.8732972225537476,0.0006803067079784953,-0.48718733384879037,-0.0007133989373317358,0.9999997386151007,0.00011760818812620948,0.4871872865150176,0.0002448520222090113,0.8732974796171239,left_images/camera_left_66.png,right_images/camera_right_66.png
2025-05-07 15:24:53,3.2813777923583984,67,-0.2827223,0.030471494,0.124647796,1.4442577,-0.3658556,-0.5235988,1.8475337e-08,0.013446758,0.0015744087,0.009407707,-0.12007252302336252,0.8965900030097799,0.42627333451405036,-0.8503642731198467,0.12869354232919666,-0.5102142443759468,-0.5123116163197543,-0.42375032585909206,0.746975547871652,-0.0009206434,9.841226e-06,0.10376163,0.0007119296,0.000117747826,-0.0140115665,1.0401793,-0.04689906,-3.4832688e-06,0.0076121585,0.8732972225537476,0.0006803067079784953,-0.48718733384879037,-0.0007133989373317358,0.9999997386151007,0.00011760818812620948,0.4871872865150176,0.0002448520222090113,0.8732974796171239,left_images/camera_left_67.png,right_images/camera_right_67.png
2025-05-07 15:24:53,3.325608968734741,68,-0.28657654,0.03047284,0.12511909,1.4473842,-0.3640125,-0.5235988,1.3496482e-07,0.012740711,0.0015385875,0.009419021,-0.12465435747802805,0.8944659223501629,0.4294089017661512,-0.8513727287109133,0.12582671539253837,-0.5092466146189474,-0.5095348545183866,-0.42906683797259054,0.7458390446893546,-0.0009206557,9.8393775e-06,0.10376167,0.00071189896,0.00011778472,-0.0140115395,1.0471976,-0.04689903,-3.4832688e-06,0.0076121287,0.8732972225537476,0.0006803067079784953,-0.48718733384879037,-0.0007133989373317358,0.9999997386151007,0.00011760818812620948,0.4871872865150176,0.0002448520222090113,0.8732974796171239,left_images/camera_left_68.png,right_images/camera_right_68.png
2025-05-07 15:24:53,3.378908157348633,69,-0.2898823,0.030435704,0.12554048,1.4519942,-0.36049736,-0.5235988,2.3467837e-07,0.012099226,0.0014976964,0.009427432,-0.13055510326680203,0.8919564405940947,0.43286149412220487,-0.852866360309654,0.12158693351070621,-0.5077751363070335,-0.5055436049077844,-0.4354656423670828,0.7448458483838558,-0.0009206442,9.838865e-06,0.10376162,0.0007119345,0.000117786636,-0.014011567,1.0398984,-0.04689906,-3.4832688e-06,0.0076121585,0.8732972225537476,0.0006803067079784953,-0.48718733384879037,-0.0007133989373317358,0.9999997386151007,0.00011760818812620948,0.4871872865150176,0.0002448520222090113,0.8732974796171239,left_images/camera_left_69.png,right_images/camera_right_69.png
2025-05-07 15:24:53,3.433406114578247,70,-0.29306886,0.030368462,0.12596914,1.460192,-0.35525632,-0.52359885,4.297686e-07,0.011449723,0.0014380666,0.009423539,-0.1392043809510246,0.8890074455804196,0.4362200156189755,-0.8553830542628063,0.11400022072099636,-0.5052957353427764,-0.4989408490032411,-0.4434745893263123,0.7445725739092084,-0.00092065404,9.837016e-06,0.10376167,0.0007119036,0.000117823525,-0.01401154,1.0471976,-0.04689903,-3.4832688e-06,0.0076121287,0.8732972225537476,0.0006803067079784953,-0.48718733384879037,-0.0007133989373317358,0.9999997386151007,0.00011760818812620948,0.4871872865150176,0.0002448520222090113,0.8732974796171239,left_images/camera_left_70.png,right_images/camera_right_70.png
2025-05-07 15:24:53,3.4744865894317627,71,-0.29594928,0.030340288,0.12638931,1.4689133,-0.34973973,-0.52359885,4.680049e-07,0.010830451,0.0013714177,0.009402426,-0.14806974503916998,0.8860065472364671,0.4393947528796278,-0.8579707010059112,0.10590049988595579,-0.5026642620470744,-0.4918959512127137,-0.4514171932680663,0.7444869984106646,-0.0009206426,9.836502e-06,0.10376163,0.000711939,0.00011782543,-0.014011568,1.0403794,-0.046899047,-3.4802738e-06,0.0076121287,0.8732972504543084,0.0006805637034019106,-0.48718728347729895,-0.0007137267067542619,0.9999997383882779,0.00011754813131700155,0.4871872360223865,0.00024506411553362826,0.8732975077260019,left_images/camera_left_71.png,right_images/camera_right_71.png
2025-05-07 15:24:53,3.517012596130371,72,-0.29854092,0.0302942,0.12678874,1.479216,-0.34286475,-0.52359885,5.447188e-07,0.010236767,0.0012981801,0.009378159,-0.15828178114550834,0.8825274183035757,0.442823027517575,-0.8608984953759856,0.0962726746240315,-0.49958518070505187,-0.4835293769945828,-0.4603009103436152,0.7445283161304678,-0.00092065753,9.830863e-06,0.10376168,0.0007119823,0.00011786565,-0.01401154,1.0468581,-0.046899017,-3.4765485e-06,0.007612099,0.8732972504543084,0.0006805637034019106,-0.48718728347729895,-0.0007137267067542619,0.9999997383882779,0.00011754813131700155,0.4871872360223865,0.00024506411553362826,0.8732975077260019,left_images/camera_left_72.png,right_images/camera_right_72.png
2025-05-07 15:24:53,3.563277244567871,73,-0.30095273,0.030127412,0.12719369,1.4953827,-0.33111426,-0.5235988,7.963107e-07,0.009602286,0.0012043032,0.009355621,-0.1739525836290785,0.8771067582128447,0.44768765154527423,-0.8651743266217804,0.08100999492513061,-0.4948845979385287,-0.47033379976705625,-0.4734143168722137,0.7447583509952056,-0.0009206636,9.813966e-06,0.10376165,0.00071195996,0.00011795234,-0.014011485,1.0424156,-0.046899017,-3.4802738e-06,0.007612099,0.8732972504543084,0.0006805637034019106,-0.48718728347729895,-0.0007137267067542619,0.9999997383882779,0.00011754813131700155,0.4871872360223865,0.00024506411553362826,0.8732975077260019,left_images/camera_left_73.png,right_images/camera_right_73.png
2025-05-07 15:24:53,3.6037919521331787,74,-0.3030983,0.029968664,0.1275801,1.5119779,-0.31870374,-0.52359885,7.620522e-07,0.008996012,0.0011121973,0.0093314,-0.18999392807437399,0.8711790590629435,0.4527133246824907,-0.8691618770270181,0.06518774967450514,-0.49021239153579627,-0.4565741328828653,-0.48661854089479445,0.7448103495787911,-0.00092066266,9.805102e-06,0.10376165,0.000711954,0.00011797784,-0.014011457,1.0398229,-0.04689902,-3.4827299e-06,0.007612099,0.8732973200804439,0.0006807000339904076,-0.4871871584799605,-0.0007137814852232765,0.9999997383278203,0.00011772969936353288,0.48718711113524527,0.00024493214261348445,0.873297577433912,left_images/camera_left_74.png,right_images/camera_right_74.png
2025-05-07 15:24:53,3.650608539581299,75,-0.3049581,0.029859522,0.12793288,1.5275708,-0.3061121,-0.52359885,6.5613676e-07,0.008433673,0.001024761,0.009314354,-0.20533828374570434,0.864894791874144,0.45803186375769706,-0.872556396142426,0.05018159852462378,-0.48592915401368453,-0.4432623656248185,-0.4994384908659868,0.7443652793233946,-0.00092066213,9.80479e-06,0.10376165,0.00071200606,0.00011797968,-0.014011477,1.0398912,-0.04689902,-3.4827299e-06,0.007612099,0.8732973200804439,0.0006807000339904076,-0.4871871584799605,-0.0007137814852232765,0.9999997383278203,0.00011772969936353288,0.48718711113524527,0.00024493214261348445,0.873297577433912,left_images/camera_left_75.png,right_images/camera_right_75.png
2025-05-07 15:24:54,3.6932625770568848,76,-0.30654058,0.029816853,0.12825263,1.5414411,-0.29314137,-0.52359885,5.3660597e-07,0.007909586,0.00094308145,0.009308408,-0.21964522667766218,0.8581549097699596,0.4640324614026815,-0.8752992468528104,0.0367009523156509,-0.4821869643178124,-0.43082154409525686,-0.5120773290596226,0.7430811572140298,-0.00092064455,9.8045575e-06,0.10376169,0.00071205944,0.00011798158,-0.014011514,1.0471977,-0.04689902,-3.4827299e-06,0.007612069,0.8732973200804439,0.0006807000339904076,-0.4871871584799605,-0.0007137814852232765,0.9999997383278203,0.00011772969936353288,0.48718711113524527,0.00024493214261348445,0.873297577433912,left_images/camera_left_76.png,right_images/camera_right_76.png
2025-05-07 15:24:54,3.7374660968780518,77,-0.30759993,0.02979036,0.12851296,1.5537208,-0.27918428,-0.52359885,4.3115875e-07,0.0074573373,0.0008732979,0.009312734,-0.23317321078435232,0.8508192665501273,0.47088940255607736,-0.8774799162271303,0.02461442709280004,-0.47898134263969183,-0.4191172275038866,-0.5248816110762471,0.7408373937399886,-0.00092067686,9.804327e-06,0.10376164,0.000712112,0.000117983436,-0.014011487,1.0402079,-0.04689902,-3.4827299e-06,0.0076121287,0.8732973200804439,0.0006807000339904076,-0.4871871584799605,-0.0007137814852232765,0.9999997383278203,0.00011772969936353288,0.48718711113524527,0.00024493214261348445,0.873297577433912,left_images/camera_left_77.png,right_images/camera_right_77.png
2025-05-07 15:24:54,3.781266927719116,78,-0.3080524,0.0297877,0.12870929,1.5649526,-0.26449144,-0.52359885,3.4939626e-07,0.0070947045,0.0008119636,0.009318497,-0.2460896480968821,0.8431021539700041,0.4781408192893515,-0.879236962333493,0.013423523209165511,-0.47619551981431407,-0.4078998028512939,-0.5375858694160335,0.7379831866906474,-0.0009206469,9.799169e-06,0.103761695,0.00071216346,0.00011799107,-0.014011562,1.0469496,-0.04689902,-3.4864552e-06,0.007612069,0.8732973200804439,0.0006807000339904076,-0.4871871584799605,-0.0007137814852232765,0.9999997383278203,0.00011772969936353288,0.48718711113524527,0.00024493214261348445,0.873297577433912,left_images/camera_left_78.png,right_images/camera_right_78.png
2025-05-07 15:24:54,3.8352696895599365,79,-0.30806875,0.029825628,0.12885311,1.5743259,-0.250365,-0.52359885,2.638472e-07,0.006813792,0.0007598186,0.0093234815,-0.2574399354100298,0.8356283888744528,0.48523177489027436,-0.8805177657699151,0.0039703482384478295,-0.4739965195003253,-0.39801148704482947,-0.5492808316716975,0.7347635157915857,-0.0009206461,9.8079745e-06,0.103761636,0.00071221683,0.00011798154,-0.014011563,1.0392306,-0.04689905,-3.4790046e-06,0.0076121287,0.8732973200804439,0.0006807000339904076,-0.4871871584799605,-0.0007137814852232765,0.9999997383278203,0.00011772969936353288,0.48718711113524527,0.00024493214261348445,0.873297577433912,left_images/camera_left_79.png,right_images/camera_right_79.png
2025-05-07 15:24:54,3.8805835247039795,80,-0.3077497,0.029879026,0.12895723,1.5829542,-0.23638332,-0.52359885,2.0737424e-07,0.0065939343,0.0007138385,0.009328046,-0.2681130055047814,0.8281913927869938,0.4921528555161825,-0.8815199822602432,-0.004818595492795785,-0.4721221261637475,-0.3886359957017539,-0.5604246586750231,0.7313591899975621,-0.000920647,9.809348e-06,0.103761636,0.00071226835,0.000117983385,-0.014011576,1.0401952,-0.04689905,-3.4790046e-06,0.0076121287,0.8732973200804439,0.0006807000339904076,-0.4871871584799605,-0.0007137814852232765,0.9999997383278203,0.00011772969936353288,0.48718711113524527,0.00024493214261348445,0.873297577433912,left_images/camera_left_80.png,right_images/camera_right_80.png
2025-05-07 15:24:54,3.9305543899536133,81,-0.30735537,0.029941637,0.12904085,1.5893949,-0.22549671,-0.52359885,1.5046238e-07,0.006434134,0.0006790268,0.009318825,-0.2761639492931701,0.822341452504647,0.4974816666002347,-0.8821554331530427,-0.011425087083922647,-0.4708197735266569,-0.38149084506625724,-0.568879603147865,0.7285881774040536,-0.000920647,9.80913e-06,0.103761636,0.00071232073,0.00011798523,-0.014011589,1.0401561,-0.04689905,-3.4851555e-06,0.0076121306,0.8732973344974592,0.0006809827612332811,-0.4871871322419263,-0.0007140749768908028,0.9999997381119039,0.00011778391739918618,0.487187084862233,0.0002450277590857718,0.8732975920640322,left_images/camera_left_81.png,right_images/camera_right_81.png
2025-05-07 15:24:54,3.9753177165985107,82,-0.30693507,0.029999994,0.12911122,1.5943931,-0.21706021,-0.52359885,1.0363939e-07,0.006317588,0.00065193954,0.009298385,-0.2823411384578308,0.8177940072823722,0.5014942105222906,-0.8825803023028322,-0.01657124277295413,-0.4698695605165343,-0.3759461284830278,-0.5752724185688024,0.7264476257188976,-0.00092065026,9.808858e-06,0.103761636,0.00071234617,0.0001179871,-0.014011533,1.0397418,-0.04689905,-3.4851555e-06,0.0076121306,0.8732973344974592,0.0006809827612332811,-0.4871871322419263,-0.0007140749768908028,0.9999997381119039,0.00011778391739918618,0.487187084862233,0.0002450277590857718,0.8732975920640322,left_images/camera_left_82.png,right_images/camera_right_82.png
2025-05-07 15:24:54,4.018162727355957,83,-0.30648363,0.030030852,0.12917724,1.5984676,-0.21094939,-0.52359885,7.470186e-08,0.006237056,0.00063269003,0.009258649,-0.28702472855942673,0.8145438111442659,0.5041182251436285,-0.8828794376084409,-0.02075490667086588,-0.4691408450532599,-0.3716728451791853,-0.5797306388105241,0.7251011533439671,-0.00092065375,9.808585e-06,0.103761636,0.0007123718,0.000117988966,-0.014011477,1.0390968,-0.04689905,-3.4851555e-06,0.0076121306,0.8732973344974592,0.0006809827612332811,-0.4871871322419263,-0.0007140749768908028,0.9999997381119039,0.00011778391739918618,0.487187084862233,0.0002450277590857718,0.8732975920640322,left_images/camera_left_83.png,right_images/camera_right_83.png
2025-05-07 15:24:54,4.061140537261963,84,-0.30591765,0.030033676,0.12924397,1.601713,-0.20702416,-0.52359885,5.57989e-08,0.006194632,0.0006198832,0.009189132,-0.2903073339418106,0.8125977910012292,0.5053775637278732,-0.8830908898693623,-0.024065692666195626,-0.4685843815858928,-0.3686083722453079,-0.5823278050174305,0.72458415343854,-0.00092065724,9.808312e-06,0.103761636,0.0007123971,0.00011799084,-0.014011421,1.0391227,-0.046899047,-3.4849002e-06,0.0076121343,0.8732971084775553,0.0006810656159470188,-0.4871875372732435,-0.0007141578595295856,0.9999997380501562,0.00011780564859993586,0.4871874898879208,0.0002450494765239028,0.8732973661058765,left_images/camera_left_84.png,right_images/camera_right_84.png
2025-05-07 15:24:54,4.108160734176636,85,-0.30529878,0.030003032,0.12931353,1.6044368,-0.20410913,-0.52359885,4.1851592e-08,0.0061674714,0.0006130631,0.009104291,-0.292877123052734,0.8112573258416355,0.5060479641897913,-0.883241176399559,-0.02684066064658225,-0.46815019304532807,-0.36620761202448626,-0.584072880901291,0.7243968903101323,-0.00092066673,9.80309e-06,0.103761666,0.00071240775,0.00011799853,-0.014011393,1.0445104,-0.046899017,-3.4886255e-06,0.0076121045,0.8732971084775553,0.0006810656159470188,-0.4871875372732435,-0.0007141578595295856,0.9999997380501562,0.00011780564859993586,0.4871874898879208,0.0002450494765239028,0.8732973661058765,left_images/camera_left_85.png,right_images/camera_right_85.png
2025-05-07 15:24:54,4.157665729522705,86,-0.30468076,0.029928245,0.12938361,1.606811,-0.20201477,-0.52359885,3.2804135e-08,0.0061505116,0.00061331363,0.009012301,-0.29494005182622784,0.8103878662843887,0.5062428982294741,-0.8833446004665099,-0.02925521988126978,-0.46781027023394933,-0.364297519419779,-0.5851629160231654,0.7244802820338602,-0.00092065154,9.806905e-06,0.103761636,0.0007124192,0.00011799474,-0.014011393,1.039824,-0.046899047,-3.4849002e-06,0.0076121343,0.8732971084775553,0.0006810656159470188,-0.4871875372732435,-0.0007141578595295856,0.9999997380501562,0.00011780564859993586,0.4871874898879208,0.0002450494765239028,0.8732973661058765,left_images/camera_left_86.png,right_images/camera_right_86.png
2025-05-07 15:24:54,4.205361366271973,87,-0.30406228,0.029681263,0.12945454,1.6091559,-0.2003706,-0.52359885,2.4410715e-08,0.0061391457,0.0006358186,0.008915146,-0.29691665591628574,0.8097728781369821,0.5060715218951155,-0.8833636447328647,-0.03165995838837726,-0.4676177051813965,-0.36264193166780806,-0.5858886693464849,0.724724290008032,-0.0009206581,9.80248e-06,0.103761666,0.0007124295,0.00011800242,-0.014011365,1.0446944,-0.046899017,-3.4886255e-06,0.0076121045,0.8732971084775553,0.0006810656159470188,-0.4871875372732435,-0.0007141578595295856,0.9999997380501562,0.00011780564859993586,0.4871874898879208,0.0002450494765239028,0.8732973661058765,left_images/camera_left_87.png,right_images/camera_right_87.png
2025-05-07 15:24:54,4.254360675811768,88,-0.30349278,0.029398546,0.12951954,1.611262,-0.19894296,-0.52359885,1.298195e-08,0.006130133,0.00066414103,0.008825494,-0.2987077307923619,0.8092515980245095,0.5058513048907313,-0.883345910813807,-0.033830225024071514,-0.46749921681575735,-0.36121142481018464,-0.586487311857297,0.7249544396836245,-0.0009206429,9.806297e-06,0.103761636,0.00071244093,0.000117998636,-0.014011365,1.040419,-0.046899047,-3.4849002e-06,0.0076121343,0.8732971084775553,0.0006810656159470188,-0.4871875372732435,-0.0007141578595295856,0.9999997380501562,0.00011780564859993586,0.4871874898879208,0.0002450494765239028,0.8732973661058765,left_images/camera_left_88.png,right_images/camera_right_88.png
2025-05-07 15:24:54,4.316633462905884,89,-0.30288526,0.029097997,0.12958607,1.613518,-0.19771941,-0.52359885,1.0701811e-08,0.006126775,0.0006942521,0.008728594,-0.30050433499747164,0.8088665302643622,0.5054028896492568,-0.8833255351878723,-0.03614412121476335,-0.46736452730890005,-0.35976818026721935,-0.5868803444652957,0.7253539258510355,-0.00092064956,9.801873e-06,0.10376166,0.00071245123,0.00011800632,-0.014011337,1.0445278,-0.046899017,-3.4886255e-06,0.0076121045,0.8732971084775553,0.0006810656159470188,-0.4871875372732435,-0.0007141578595295856,0.9999997380501562,0.00011780564859993586,0.4871874898879208,0.0002450494765239028,0.8732973661058765,left_images/camera_left_89.png,right_images/camera_right_89.png
2025-05-07 15:24:54,4.367526531219482,90,-0.30212513,0.028835028,0.12969743,1.6157612,-0.19692665,-0.52359885,7.772959e-09,0.0061106035,0.0007177852,0.008582547,-0.30204141378040783,0.8088208556969396,0.5045590230599415,-0.8833230080840728,-0.03842189311286498,-0.4671875656724272,-0.35848493378500224,-0.5867985868415956,0.726055074171284,-0.00092063437,9.80569e-06,0.103761636,0.0007124626,0.00011800253,-0.014011337,1.0402712,-0.046899047,-3.4849002e-06,0.0076121343,0.8732971084775553,0.0006810656159470188,-0.4871875372732435,-0.0007141578595295856,0.9999997380501562,0.00011780564859993586,0.4871874898879208,0.0002450494765239028,0.8732973661058765,left_images/camera_left_90.png,right_images/camera_right_90.png
2025-05-07 15:24:54,4.415719747543335,91,-0.30164328,0.028639106,0.12985156,1.6173904,-0.19732969,-0.52359885,1.2520131e-08,0.006052283,0.00073298044,0.008423509,-0.30279128322840226,0.8093191169816727,0.5033090558383622,-0.8833346161424773,-0.040040782845430944,-0.4670296474888371,-0.3578231333009647,-0.5860028179088654,0.7270235915550123,-0.0009206282,9.806192e-06,0.103761636,0.00071247306,0.00011800448,-0.014011337,1.0399895,-0.046899047,-3.4849002e-06,0.0076121343,0.8732971084775553,0.0006810656159470188,-0.4871875372732435,-0.0007141578595295856,0.9999997380501562,0.00011780564859993586,0.4871874898879208,0.0002450494765239028,0.8732973661058765,left_images/camera_left_91.png,right_images/camera_right_91.png
2025-05-07 15:24:54,4.459569692611694,92,-0.30139232,0.028459875,0.13002522,1.6181804,-0.19824106,-0.52359885,1.0862772e-08,0.0059627662,0.00074834074,0.008270593,-0.3029146423883891,0.809986650872147,0.5021596806152769,-0.8833148482724286,-0.04081606713530822,-0.4669999223608743,-0.35776751983399924,-0.5850262165685642,0.7278370199978155,-0.0009206247,9.805886e-06,0.103761636,0.00071248354,0.00011800643,-0.014011337,1.0399705,-0.046899047,-3.4849002e-06,0.0076121343,0.8732971084775553,0.0006810656159470188,-0.4871875372732435,-0.0007141578595295856,0.9999997380501562,0.00011780564859993586,0.4871874898879208,0.0002450494765239028,0.8732973661058765,left_images/camera_left_92.png,right_images/camera_right_92.png
2025-05-07 15:24:54,4.50654411315918,93,-0.3012658,0.028303068,0.13019694,1.6185663,-0.19991715,-0.52359885,7.162165e-09,0.005873003,0.00076115667,0.008124309,-0.3025184754068952,0.8110333141289641,0.5007070355112629,-0.8832986414948192,-0.0411621466198559,-0.4670002008768867,-0.3581425442067653,-0.5835500330379862,0.7288369344170686,-0.0009206212,9.805581e-06,0.103761636,0.0007124939,0.00011800838,-0.014011337,1.0401753,-0.046899047,-3.4849002e-06,0.0076121343,0.8732971084775553,0.0006810656159470188,-0.4871875372732435,-0.0007141578595295856,0.9999997380501562,0.00011780564859993586,0.4871874898879208,0.0002450494765239028,0.8732973661058765,left_images/camera_left_93.png,right_images/camera_right_93.png
2025-05-07 15:24:54,4.551808595657349,94,-0.3010956,0.02818653,0.13032778,1.6193916,-0.20102787,-0.52359885,1.3096985e-08,0.0058106645,0.0007691332,0.008005903,-0.3025688996226558,0.8117681930021022,0.49948419575722014,-0.8833151431452521,-0.04195183636801575,-0.46689870562642843,-0.35805923933256933,-0.5824709814707107,0.7297404585694347,-0.0009206177,9.805274e-06,0.103761636,0.0007125047,0.00011801033,-0.014011337,1.039983,-0.046899047,-3.4849002e-06,0.0076121343,0.8732971084775553,0.0006810656159470188,-0.4871875372732435,-0.0007141578595295856,0.9999997380501562,0.00011780564859993586,0.4871874898879208,0.0002450494765239028,0.8732973661058765,left_images/camera_left_94.png,right_images/camera_right_94.png
2025-05-07 15:24:54,4.597315311431885,95,-0.30093864,0.02811646,0.1304241,1.6201278,-0.201907,-0.52359885,1.1955195e-08,0.005769033,0.0007723479,0.007914536,-0.3026349756269692,0.8123613557432172,0.4984787851276176,-0.8833433103586021,-0.04265309254083638,-0.46678186526621696,-0.35793388715231983,-0.581592418616117,0.7305022868111266,-0.0009206142,9.804968e-06,0.103761636,0.0007125152,0.00011801228,-0.014011337,1.0403134,-0.046899047,-3.4849002e-06,0.0076121343,0.8732971084775553,0.0006810656159470188,-0.4871875372732435,-0.0007141578595295856,0.9999997380501562,0.00011780564859993586,0.4871874898879208,0.0002450494765239028,0.8732973661058765,left_images/camera_left_95.png,right_images/camera_right_95.png
2025-05-07 15:24:54,4.649506092071533,96,-0.3008374,0.028060501,0.13049446,1.6208206,-0.202788,-0.52359885,1.1182639e-08,0.005741054,0.00077435793,0.007846444,-0.3026854226641604,0.8129226969080576,0.49753213339275787,-0.883375970612686,-0.04330898798660593,-0.4666596469630419,-0.3578106055593006,-0.5807590037281442,0.7312253757481206,-0.00092061074,9.804661e-06,0.103761636,0.0007125263,0.00011801423,-0.014011337,1.039512,-0.046899047,-3.4849002e-06,0.0076121343,0.8732971084775553,0.0006810656159470188,-0.4871875372732435,-0.0007141578595295856,0.9999997380501562,0.00011780564859993586,0.4871874898879208,0.0002450494765239028,0.8732973661058765,left_images/camera_left_96.png,right_images/camera_right_96.png
2025-05-07 15:24:55,4.696415901184082,97,-0.30083874,0.028018162,0.13054644,1.6209575,-0.2045717,-0.52359885,6.815606e-09,0.005728171,0.00077684433,0.0077932496,-0.3020686399471853,0.8139560097754938,0.4962158309756092,-0.8834029226292371,-0.0433846820111457,-0.4666015919999784,-0.3582650039434221,-0.5793042236313735,0.7321562698169508,-0.00092060724,9.804356e-06,0.103761636,0.00071253657,0.00011801618,-0.014011337,1.0396305,-0.046899047,-3.4849002e-06,0.0076121343,0.8732971084775553,0.0006810656159470188,-0.4871875372732435,-0.0007141578595295856,0.9999997380501562,0.00011780564859993586,0.4871874898879208,0.0002450494765239028,0.8732973661058765,left_images/camera_left_97.png,right_images/camera_right_97.png
2025-05-07 15:24:55,4.742668628692627,98,-0.30089915,0.027985739,0.13058516,1.6208806,-0.20668453,-0.52359885,1.9806785e-09,0.0057234913,0.00077871815,0.007751624,-0.30120514276991056,0.8151465525092663,0.4947843569689889,-0.8834289861694131,-0.04323612585022729,-0.46656603371564265,-0.3589271351745932,-0.5776389316465099,0.7331470359222889,-0.00092060375,9.80405e-06,0.103761636,0.000712547,0.00011801813,-0.014011337,1.0398785,-0.046899047,-3.4849002e-06,0.0076121343,0.8732971084775553,0.0006810656159470188,-0.4871875372732435,-0.0007141578595295856,0.9999997380501562,0.00011780564859993586,0.4871874898879208,0.0002450494765239028,0.8732973661058765,left_images/camera_left_98.png,right_images/camera_right_98.png
2025-05-07 15:24:55,4.785661697387695,99,-0.3009968,0.027962476,0.1306143,1.6206019,-0.20896573,-0.52359885,2.1907984e-09,0.0057241055,0.00078034424,0.0077195573,-0.3001606818931325,0.8164121215789405,0.49333032826334833,-0.883450699758468,-0.04288299257235606,-0.4665575099002398,-0.35974772569360713,-0.5758752440303477,0.734131648392347,-0.00092060026,9.8037435e-06,0.103761636,0.0007125575,0.00011802008,-0.014011337,1.0398601,-0.046899047,-3.4849002e-06,0.0076121343,0.8732971084775553,0.0006810656159470188,-0.4871875372732435,-0.0007141578595295856,0.9999997380501562,0.00011780564859993586,0.4871874898879208,0.0002450494765239028,0.8732973661058765,left_images/camera_left_99.png,right_images/camera_right_99.png
2025-05-07 15:24:55,4.832205533981323,100,-0.3011656,0.027924232,0.13063425,1.6202917,-0.21159242,-0.52359885,6.4080226e-09,0.0057299286,0.0007839785,0.0076970113,-0.2989903127713643,0.8178315583795032,0.49168723289041716,-0.8834699948999453,-0.0424889933046409,-0.46655702069462957,-0.36067375976132854,-0.5738869466772282,0.7352334401080489,-0.00092059677,9.803438e-06,0.103761636,0.00071256794,0.00011802203,-0.014011337,1.0399282,-0.046899047,-3.4849002e-06,0.0076121343,0.8732971084775553,0.0006810656159470188,-0.4871875372732435,-0.0007141578595295856,0.9999997380501562,0.00011780564859993586,0.4871874898879208,0.0002450494765239028,0.8732973661058765,left_images/camera_left_100.png,right_images/camera_right_100.png
2025-05-07 15:24:55,4.894259929656982,101,-0.3013803,0.027900621,0.13065006,1.6194144,-0.2147647,-0.52359885,2.002204e-08,0.005740127,0.000787769,0.007678418,-0.29726829751605266,0.8195399114955316,0.4898835502012737,-0.8834701871726253,-0.04151899080130789,-0.46664397754605963,-0.36209389344350185,-0.5715159725403458,0.7363813587144836,-0.0009205933,9.803131e-06,0.103761636,0.0007125791,0.00011802398,-0.014011337,1.0394869,-0.046899047,-3.4849002e-06,0.0076121343,0.8732971084775553,0.0006810656159470188,-0.4871875372732435,-0.0007141578595295856,0.9999997380501562,0.00011780564859993586,0.4871874898879208,0.0002450494765239028,0.8732973661058765,left_images/camera_left_101.png,right_images/camera_right_101.png
2025-05-07 15:24:55,4.941392183303833,102,-0.3017167,0.02792471,0.13066347,1.6178306,-0.21943817,-0.52359885,3.277241e-08,0.005760159,0.0007873138,0.0076602353,-0.2945242949652641,0.8220364540815535,0.48735152388829206,-0.8834715162460314,-0.03979405983186701,-0.4667917231314588,-0.36432611717684027,-0.568042692905317,0.7379661099127272,-0.0009205898,9.802826e-06,0.103761636,0.00071258936,0.00011802593,-0.014011337,1.0396287,-0.046899047,-3.4849002e-06,0.0076121343,0.8732971084775553,0.0006810656159470188,-0.4871875372732435,-0.0007141578595295856,0.9999997380501562,0.00011780564859993586,0.4871874898879208,0.0002450494765239028,0.8732973661058765,left_images/camera_left_102.png,right_images/camera_right_102.png
2025-05-07 15:24:55,4.999183893203735,103,-0.3021695,0.027920468,0.13067158,1.6156938,-0.22485588,-0.52359885,4.8685745e-08,0.0057820296,0.00079250266,0.0076515204,-0.29120412724452144,0.8248755727239574,0.4845414799571652,-0.8834244054058662,-0.03751126588415815,-0.46706982868202895,-0.3670987281495926,-0.5640684306492354,0.7396386478111188,-0.0009205863,9.802519e-06,0.103761636,0.0007126,0.00011802788,-0.014011337,1.039535,-0.046899047,-3.4849002e-06,0.0076121343,0.8732971084775553,0.0006810656159470188,-0.4871875372732435,-0.0007141578595295856,0.9999997380501562,0.00011780564859993586,0.4871874898879208,0.0002450494765239028,0.8732973661058765,left_images/camera_left_103.png,right_images/camera_right_103.png
2025-05-07 15:24:55,5.05886697769165,104,-0.30274335,0.027896957,0.13067593,1.6127203,-0.23133816,-0.5235988,7.742889e-08,0.00580867,0.00080364454,0.0076499004,-0.2870038052547246,0.8282264425329067,0.48132086559653137,-0.8833059213448262,-0.03438447117419158,-0.46753433826751045,-0.37067433831663593,-0.5593377048182585,0.7414457949723412,-0.0009205828,9.802214e-06,0.103761636,0.0007126103,0.000118029835,-0.014011337,1.0396663,-0.046899047,-3.4849002e-06,0.0076121343,0.8732971084775553,0.0006810656159470188,-0.4871875372732435,-0.0007141578595295856,0.9999997380501562,0.00011780564859993586,0.4871874898879208,0.0002450494765239028,0.8732973661058765,left_images/camera_left_104.png,right_images/camera_right_104.png
2025-05-07 15:24:55,5.108391284942627,105,-0.3034205,0.027818916,0.13067144,1.6095781,-0.23783241,-0.5235988,9.606114e-08,0.0058320183,0.0008234356,0.0076649333,-0.2827658707666322,0.8314916910511712,0.47818932447562196,-0.8831211673525083,-0.03111311515930587,-0.46811214237512183,-0.3743533973447161,-0.5546652520015537,0.7431056399453053,-0.0009205793,9.801908e-06,0.103761636,0.0007126208,0.000118031785,-0.014011337,1.0396748,-0.046899047,-3.4849002e-06,0.0076121343,0.8732971084775553,0.0006810656159470188,-0.4871875372732435,-0.0007141578595295856,0.9999997380501562,0.00011780564859993586,0.4871874898879208,0.0002450494765239028,0.8732973661058765,left_images/camera_left_105.png,right_images/camera_right_105.png
2025-05-07 15:24:55,5.165309190750122,106,-0.30407766,0.027755732,0.13066007,1.6070249,-0.24349794,-0.5235988,8.990493e-08,0.0058529014,0.0008400115,0.0076889964,-0.27919592301422735,0.834274801437986,0.4754315852547478,-0.882955408525704,-0.028447566757175746,-0.46859415542749044,-0.3774114242142661,-0.5506144673282795,0.7445698927846562,-0.0009205758,9.801601e-06,0.103761636,0.00071263127,0.00011803374,-0.014011337,1.0400871,-0.046899047,-3.4849002e-06,0.0076121343,0.8732971084775553,0.0006810656159470188,-0.4871875372732435,-0.0007141578595295856,0.9999997380501562,0.00011780564859993586,0.4871874898879208,0.0002450494765239028,0.8732973661058765,left_images/camera_left_106.png,right_images/camera_right_106.png
2025-05-07 15:24:55,5.221601486206055,107,-0.3049038,0.02766072,0.13062969,1.6043025,-0.24884604,-0.5235988,1.0171532e-07,0.005867122,0.0008627807,0.0077457456,-0.2757408803506239,0.8367663254307363,0.47306350898014315,-0.8827348638094643,-0.025644386766176475,-0.4691711048675876,-0.38045515782907857,-0.5469593056640775,0.7457140141024043,-0.0009205723,9.801294e-06,0.103761636,0.0007126419,0.00011803569,-0.014011337,1.0400118,-0.046899047,-3.4849002e-06,0.0076121343,0.8732971084775553,0.0006810656159470188,-0.4871875372732435,-0.0007141578595295856,0.9999997380501562,0.00011780564859993586,0.4871874898879208,0.0002450494765239028,0.8732973661058765,left_images/camera_left_107.png,right_images/camera_right_107.png
2025-05-07 15:24:55,5.2676637172698975,108,-0.30573395,0.027515726,0.13056877,1.6020082,-0.25322023,-0.5235988,1.0482414e-07,0.0058913203,0.00089169946,0.007831642,-0.272976570442788,0.8387030342065956,0.47123350093339467,-0.8825010493789155,-0.02330790474821126,-0.4697325190162603,-0.38298262341052314,-0.5440900311427314,0.746518819706975,-0.0009205688,9.800987e-06,0.103761636,0.0007126528,0.00011803766,-0.014011337,1.0420653,-0.046899047,-3.4849002e-06,0.0076121343,0.8732971084775553,0.0006810656159470188,-0.4871875372732435,-0.0007141578595295856,0.9999997380501562,0.00011780564859993586,0.4871874898879208,0.0002450494765239028,0.8732973661058765,left_images/camera_left_108.png,right_images/camera_right_108.png
2025-05-07 15:24:55,5.315411567687988,109,-0.3061358,0.027392294,0.1304843,1.6006347,-0.25599232,-0.5235988,9.525117e-08,0.0059523,0.00091546355,0.00790512,-0.2712442930951054,0.839990266726555,0.46993923571881896,-0.8823392048214568,-0.02191625639182393,-0.47010339856334504,-0.38458297036969274,-0.542158675583467,0.7471010034735632,-0.00092056533,9.80068e-06,0.103761636,0.00071266445,0.00011803956,-0.014011337,1.0395594,-0.046899047,-3.4849002e-06,0.0076121343,0.8732971084775553,0.0006810656159470188,-0.4871875372732435,-0.0007141578595295856,0.9999997380501562,0.00011780564859993586,0.4871874898879208,0.0002450494765239028,0.8732973661058765,left_images/camera_left_109.png,right_images/camera_right_109.png
2025-05-07 15:24:55,5.3687920570373535,110,-0.3063824,0.027295858,0.13040856,1.5994393,-0.2581779,-0.5235988,8.457034e-08,0.006013283,0.00093470677,0.007963159,-0.26978487899486314,0.8410386750583132,0.4689030455455414,-0.8821964681791459,-0.020711510440841296,-0.47042579103138077,-0.3859345936787326,-0.5405783758081857,0.7475490010765953,-0.00092056184,9.800374e-06,0.103761636,0.0007126747,0.00011804152,-0.014011337,1.040114,-0.046899047,-3.4849002e-06,0.0076121343,0.8732971084775553,0.0006810656159470188,-0.4871875372732435,-0.0007141578595295856,0.9999997380501562,0.00011780564859993586,0.4871874898879208,0.0002450494765239028,0.8732973661058765,left_images/camera_left_110.png,right_images/camera_right_110.png
2025-05-07 15:24:55,5.425284147262573,111,-0.30696657,0.027223814,0.13033926,1.5978309,-0.26048008,-0.5235988,8.908313e-08,0.0060388558,0.000952672,0.008048752,-0.26814922027276605,0.8419638514404498,0.4681803803393215,-0.8820190862777263,-0.019099424613814975,-0.4708264472406217,-0.38747687299877953,-0.5391957759914162,0.7477496827442338,-0.00092055835,9.800066e-06,0.103761636,0.0007126856,0.00011804348,-0.014011337,1.0423118,-0.046899047,-3.4849002e-06,0.0076121343,0.8732971084775553,0.0006810656159470188,-0.4871875372732435,-0.0007141578595295856,0.9999997380501562,0.00011780564859993586,0.4871874898879208,0.0002450494765239028,0.8732973661058765,left_images/camera_left_111.png,right_images/camera_right_111.png
2025-05-07 15:24:55,5.482673406600952,112,-0.30863646,0.027224423,0.13024743,1.594652,-0.26433536,-0.5235988,1.349879e-07,0.005998993,0.0009685082,0.008242147,-0.2653193848486153,0.8431324908359579,0.4676892418265634,-0.881711159727834,-0.015904442486974535,-0.47152145181378163,-0.39011671950193355,-0.5374706053412891,0.747619083196194,-0.0009205643,9.806599e-06,0.103761636,0.0007126634,0.000118020915,-0.014011337,1.03985,-0.046899047,-3.4849002e-06,0.0076121343,0.8732971084775553,0.0006810656159470188,-0.4871875372732435,-0.0007141578595295856,0.9999997380501562,0.00011780564859993586,0.4871874898879208,0.0002450494765239028,0.8732973661058765,left_images/camera_left_112.png,right_images/camera_right_112.png
2025-05-07 15:24:55,5.54341459274292,113,-0.31117287,0.027311636,0.13013174,1.5898378,-0.27046427,-0.5235988,1.9850077e-07,0.0059256786,0.0009808873,0.008517815,-0.2608707920624667,0.845033128515249,0.4667605826978445,-0.8812459445899243,-0.011045067447113921,-0.4725289320548534,-0.39414719965073064,-0.5345998673744866,0.7475633530415118,-0.00092056213,9.807409e-06,0.103761636,0.0007126743,0.000118022865,-0.014011337,1.0394124,-0.046899047,-3.4849002e-06,0.0076121343,0.8732971084775553,0.0006810656159470188,-0.4871875372732435,-0.0007141578595295856,0.9999997380501562,0.00011780564859993586,0.4871874898879208,0.0002450494765239028,0.8732973661058765,left_images/camera_left_113.png,right_images/camera_right_113.png
2025-05-07 15:24:55,5.5877251625061035,114,-0.31380236,0.027592644,0.13000523,1.5853105,-0.27661315,-0.5235988,1.9389987e-07,0.005854024,0.0009678495,0.00880863,-0.25650452458370576,0.8468714273607477,0.4658478446746931,-0.8808560265415354,-0.0064222415618788165,-0.4733406968757058,-0.3978669242014785,-0.5317589118513114,0.7476191345151383,-0.00092055864,9.807102e-06,0.103761636,0.00071268494,0.00011802483,-0.014011337,1.0419912,-0.046899047,-3.4849002e-06,0.0076121343,0.8732971084775553,0.0006810656159470188,-0.4871875372732435,-0.0007141578595295856,0.9999997380501562,0.00011780564859993586,0.4871874898879208,0.0002450494765239028,0.8732973661058765,left_images/camera_left_114.png,right_images/camera_right_114.png
2025-05-07 15:24:55,5.634023189544678,115,-0.3162273,0.028055318,0.12990808,1.5815349,-0.28209782,-0.5235988,1.6470442e-07,0.0057729436,0.0009278883,0.0090643745,-0.2526656220772856,0.8484511821426564,0.46507061285467977,-0.8806003232535473,-0.0025013230624215677,-0.47385315665159966,-0.4008779790734911,-0.5292677346142182,0.7477783836072606,-0.0009205646,9.813635e-06,0.103761636,0.00071266264,0.00011800228,-0.014011337,1.0398633,-0.046899047,-3.4849002e-06,0.0076121343,0.8732971084775553,0.0006810656159470188,-0.4871875372732435,-0.0007141578595295856,0.9999997380501562,0.00011780564859993586,0.4871874898879208,0.0002450494765239028,0.8732973661058765,left_images/camera_left_115.png,right_images/camera_right_115.png
2025-05-07 15:24:56,5.680736064910889,116,-0.31870016,0.028699994,0.12987697,1.5774062,-0.28788215,-0.5235988,1.3843506e-07,0.005642314,0.00086435094,0.009279048,-0.24840647325622656,0.8501373718718408,0.46428512036381636,-0.8803457046695979,0.0018119446884244939,-0.4743291653759398,-0.4040862090126229,-0.5265578465878995,0.7479646849166887,-0.0009205625,9.814446e-06,0.103761636,0.000712673,0.00011800424,-0.014011337,1.0427755,-0.046899047,-3.4849002e-06,0.0076121343,0.8732971084775553,0.0006810656159470188,-0.4871875372732435,-0.0007141578595295856,0.9999997380501562,0.00011780564859993586,0.4871874898879208,0.0002450494765239028,0.8732973661058765,left_images/camera_left_116.png,right_images/camera_right_116.png
2025-05-07 15:24:56,5.731677055358887,117,-0.3210352,0.029405484,0.12990606,1.572945,-0.29418856,-0.5235988,1.1705985e-07,0.00548647,0.0007937171,0.009438224,-0.24365022836385203,0.8521375715388884,0.4631372640913801,-0.8800295849541413,0.006469385903397351,-0.4748748010280971,-0.40765487342074624,-0.5232778480098684,0.7483300060524611,-0.000920559,9.81414e-06,0.103761636,0.0007126847,0.00011800614,-0.014011337,1.0398464,-0.046899047,-3.4849002e-06,0.0076121343,0.8732971084775553,0.0006810656159470188,-0.4871875372732435,-0.0007141578595295856,0.9999997380501562,0.00011780564859993586,0.4871874898879208,0.0002450494765239028,0.8732973661058765,left_images/camera_left_117.png,right_images/camera_right_117.png
2025-05-07 15:24:56,5.774982929229736,118,-0.32355502,0.031087846,0.12996234,1.5664116,-0.30278456,-0.52359885,1.4936472e-07,0.0053204657,0.0006063152,0.009583773,-0.23617762176548218,0.8551394136389451,0.46147233310182495,-0.8797798773889453,0.01345177919348517,-0.47519092686837144,-0.41256211449755426,-0.5182235356270213,0.749157439263294,-0.0009205647,9.820674e-06,0.103761636,0.00071266183,0.000117983625,-0.014011337,1.042397,-0.046899047,-3.4849002e-06,0.0076121343,0.8732971084775553,0.0006810656159470188,-0.4871875372732435,-0.0007141578595295856,0.9999997380501562,0.00011780564859993586,0.4871874898879208,0.0002450494765239028,0.8732973661058765,left_images/camera_left_118.png,right_images/camera_right_118.png
2025-05-07 15:24:56,5.830294370651245,119,-0.32610178,0.03307952,0.13000499,1.5522503,-0.31502718,-0.5235988,3.331908e-07,0.005191919,0.00042180018,0.009736869,-0.2226453435626402,0.8596604584537003,0.45979663674394966,-0.8782544796095343,0.027870036885036475,-0.4773806972321072,-0.42319985826517004,-0.5101050452751869,0.7487955146427759,-0.00092056254,9.821484e-06,0.103761636,0.00071267347,0.00011798554,-0.014011337,1.0395125,-0.046899047,-3.4849002e-06,0.0076121343,0.8732971084775553,0.0006810656159470188,-0.4871875372732435,-0.0007141578595295856,0.9999997380501562,0.00011780564859993586,0.4871874898879208,0.0002450494765239028,0.8732973661058765,left_images/camera_left_119.png,right_images/camera_right_119.png
2025-05-07 15:24:56,5.880774974822998,120,-0.32845455,0.034870453,0.13001466,1.5352632,-0.32770175,-0.5235988,5.932865e-07,0.0051033385,0.0002849782,0.009902388,-0.20744604648350645,0.8641256018469854,0.4585336214836903,-0.8757430405359237,0.04483559072780069,-0.4806910616570531,-0.4359360787446464,-0.5012750881867903,0.7474510159281791,-0.00092055905,9.8211785e-06,0.103761636,0.0007126839,0.0001179875,-0.014011337,1.0422375,-0.046899047,-3.4849002e-06,0.0076121343,0.8732971084775553,0.0006810656159470188,-0.4871875372732435,-0.0007141578595295856,0.9999997380501562,0.00011780564859993586,0.4871874898879208,0.0002450494765239028,0.8732973661058765,left_images/camera_left_120.png,right_images/camera_right_120.png
2025-05-07 15:24:56,5.93613338470459,121,-0.33055013,0.036284506,0.12997445,1.5170432,-0.34121943,-0.5235988,8.605398e-07,0.0050841705,0.00021282816,0.010077375,-0.19140829119641917,0.8687679710827776,0.4567330494741768,-0.8723144525856474,0.06273636930765342,-0.48490374691921695,-0.44992261764826746,-0.4912294376223882,0.7458305958739713,-0.000920565,9.827711e-06,0.103761636,0.0007126617,0.00011796495,-0.014011337,1.040051,-0.046899047,-3.478431e-06,0.0076121306,0.8732971085637143,0.0006808782601027854,-0.4871875373806794,-0.0007141012903720289,0.999999738123872,0.00011752248426004885,0.4871874898163981,0.0002452692034011889,0.8732973660840931,left_images/camera_left_121.png,right_images/camera_right_121.png
2025-05-07 15:24:56,5.977148532867432,122,-0.33237964,0.037452616,0.12990811,1.500221,-0.35338435,-0.5235988,9.888978e-07,0.005093662,0.00017041806,0.010254204,-0.17686278228146324,0.8726549458580314,0.4551844699824191,-0.8686354784688209,0.07907139757093384,-0.489101338815814,-0.4628087745374996,-0.4818932034753089,0.744034259060295,-0.00092056626,9.822253e-06,0.103761636,0.0007126742,0.00011795708,-0.014011337,1.039975,-0.046899047,-3.478431e-06,0.0076121306,0.8732971085637143,0.0006808782601027854,-0.4871875373806794,-0.0007141012903720289,0.999999738123872,0.00011752248426004885,0.4871874898163981,0.0002452692034011889,0.8732973660840931,left_images/camera_left_122.png,right_images/camera_right_122.png
2025-05-07 15:24:56,6.020579099655151,123,-0.33432084,0.03893195,0.12984474,1.4775944,-0.36840665,-0.52257484,1.4135599e-06,0.0051116045,0.00012275996,0.010436983,-0.1573649343547423,0.8770573924868773,0.4538795079309565,-0.8635298416861269,0.10077390655216745,-0.4941263323035391,-0.4791163636874242,-0.46969665747409206,0.7415069520945877,-0.0009205768,9.822009e-06,0.103761636,0.00071265304,0.00011792475,-0.014011337,1.0421658,-0.046899047,-3.478431e-06,0.0076121306,0.8732971085637143,0.0006808782601027854,-0.4871875373806794,-0.0007141012903720289,0.999999738123872,0.00011752248426004885,0.4871874898163981,0.0002452692034011889,0.8732973660840931,left_images/camera_left_123.png,right_images/camera_right_123.png
2025-05-07 15:24:56,6.062248945236206,124,-0.33614776,0.040588275,0.12980199,1.4499599,-0.38475457,-0.5180857,1.2476658e-06,0.005121005,6.453786e-05,0.0105942115,-0.133003692646878,0.8811254881836525,0.4537927851072722,-0.8579621206070758,0.12686759395761438,-0.49780077662335537,-0.4961965511223397,-0.4555463617202162,0.7390984338894039,-0.0009205785,9.816426e-06,0.103761636,0.0007126824,0.0001179661,-0.014011337,1.0398746,-0.046899047,-3.478431e-06,0.0076121306,0.8732971085637143,0.0006808782601027854,-0.4871875373806794,-0.0007141012903720289,0.999999738123872,0.00011752248426004885,0.4871874898163981,0.0002452692034011889,0.8732973660840931,left_images/camera_left_124.png,right_images/camera_right_124.png
2025-05-07 15:24:56,6.1066741943359375,125,-0.33769888,0.042386647,0.12977614,1.4166979,-0.40220627,-0.510382,1.0988442e-06,0.0051345504,8.990988e-06,0.010719435,-0.10372409749447375,0.884457067179998,0.4549472583875122,-0.851167172115833,0.1577014841819735,-0.5006442719128412,-0.5145442223087273,-0.43916504665348727,0.736463376609148,-0.000920589,9.816271e-06,0.103761636,0.00071266096,0.00011793378,-0.014011337,1.042022,-0.046899047,-3.478431e-06,0.0076121306,0.8732971085637143,0.0006808782601027854,-0.4871875373806794,-0.0007141012903720289,0.999999738123872,0.00011752248426004885,0.4871874898163981,0.0002452692034011889,0.8732973660840931,left_images/camera_left_125.png,right_images/camera_right_125.png
2025-05-07 15:24:56,6.159910440444946,126,-0.33906406,0.044378348,0.12976238,1.3787123,-0.4213059,-0.4995701,9.720023e-07,0.005159704,-4.8515387e-05,0.0108193625,-0.06998760312431129,0.886996894778904,0.4564408439891153,-0.8428275365836273,0.19218269490329382,-0.5027002639307859,-0.5336136045729046,-0.41988369869797215,0.7341350016055782,-0.0009205907,9.810688e-06,0.103761636,0.00071269023,0.00011797513,-0.014011337,1.0400368,-0.046899073,-3.4817554e-06,0.007612192,0.8732970800819503,0.0006814691609689626,-0.48718758760884123,-0.0007145914125788236,0.9999997377344051,0.0001178568371746481,0.4871875401520987,0.00024521603464795717,0.8732973380181824,left_images/camera_left_126.png,right_images/camera_right_126.png
2025-05-07 15:24:56,6.206530809402466,127,-0.34018,0.04664631,0.12976746,1.3361384,-0.4421324,-0.48534697,7.858817e-07,0.005199091,-0.00011720322,0.010883931,-0.031799573165557815,0.8884426512769232,0.4578847480955444,-0.8326379113905857,0.22987502007738003,-0.5038567094517524,-0.5529040564705704,-0.3972746286090468,0.732441106029647,-0.00092059345,9.810022e-06,0.103761636,0.0007127375,0.00011797699,-0.014011337,1.0417578,-0.046899073,-3.4817554e-06,0.007612192,0.8732970800819503,0.0006814691609689626,-0.48718758760884123,-0.0007145914125788236,0.9999997377344051,0.0001178568371746481,0.4871875401520987,0.00024521603464795717,0.8732973380181824,left_images/camera_left_127.png,right_images/camera_right_127.png
2025-05-07 15:24:56,6.2587244510650635,128,-0.3411652,0.04949154,0.12980488,1.2814347,-0.46801037,-0.46471947,6.636582e-07,0.005252669,-0.00019021472,0.010915851,0.01720138745229871,0.8881672050224185,0.4591983538650599,-0.8179027600003437,0.2766621855820074,-0.504473101614751,-0.5750992848661316,-0.3669019637337088,0.7311933817772232,-0.00092059677,9.809774e-06,0.103761636,0.00071278505,0.000117978816,-0.014011337,1.0398476,-0.046899073,-3.4817554e-06,0.007612192,0.8732970800819503,0.0006814691609689626,-0.48718758760884123,-0.0007145914125788236,0.9999997377344051,0.0001178568371746481,0.4871875401520987,0.00024521603464795717,0.8732973380181824,left_images/camera_left_128.png,right_images/camera_right_128.png
2025-05-07 15:24:56,6.313617467880249,129,-0.34190777,0.053094354,0.12987879,1.2101306,-0.49903324,-0.43493184,6.008832e-07,0.0053097047,-0.00026355172,0.010921728,0.0797693491418493,0.8838762747836111,0.4608682911767005,-0.7959282684236313,0.33482125706670485,-0.5043737873248684,-0.600112524833173,-0.3265845322285149,0.7302105866443162,-0.00092060026,9.809528e-06,0.103761636,0.00071283255,0.00011798066,-0.014011337,1.0399271,-0.046899073,-3.4817554e-06,0.007612192,0.8732970800819503,0.0006814691609689626,-0.48718758760884123,-0.0007145914125788236,0.9999997377344051,0.0001178568371746481,0.4871875401520987,0.00024521603464795717,0.8732973380181824,left_images/camera_left_129.png,right_images/camera_right_129.png
2025-05-07 15:24:56,6.353589057922363,130,-0.34216997,0.057103757,0.12997024,1.129962,-0.5305956,-0.3987983,5.04082e-07,0.0053667985,-0.0003276039,0.010913322,0.1477924673207754,0.87423450706583,0.4624623371244444,-0.7674728272769917,0.39630802783446645,-0.503910117446968,-0.6238131499052412,-0.2804531578166335,0.7295225700936059,-0.00092060375,9.809282e-06,0.103761636,0.0007128801,0.000117982505,-0.014011337,1.0398293,-0.046899073,-3.4817554e-06,0.007612192,0.8732970800819503,0.0006814691609689626,-0.48718758760884123,-0.0007145914125788236,0.9999997377344051,0.0001178568371746481,0.4871875401520987,0.00024521603464795717,0.8732973380181824,left_images/camera_left_130.png,right_images/camera_right_130.png
2025-05-07 15:24:56,6.395650148391724,131,-0.34178293,0.0618551,0.13008545,1.0342575,-0.563985,-0.3531478,7.84422e-07,0.005423299,-0.0003877147,0.010895506,0.22525277976428376,0.8567736154950981,0.4638967094083777,-0.7286469164038764,0.4642188213555613,-0.5035618701950892,-0.6467881078248003,-0.22458819579557418,0.7288520329159432,-0.00092060724,9.809035e-06,0.103761636,0.0007129277,0.000117984346,-0.014011337,1.0396514,-0.046899073,-3.4817554e-06,0.007612192,0.8732970800819503,0.0006814691609689626,-0.48718758760884123,-0.0007145914125788236,0.9999997377344051,0.0001178568371746481,0.4871875401520987,0.00024521603464795717,0.8732973380181824,left_images/camera_left_131.png,right_images/camera_right_131.png
2025-05-07 15:24:56,6.439231872558594,132,-0.340404,0.0673854,0.13021827,0.9225234,-0.5978898,-0.29612213,3.2278356e-06,0.0054896884,-0.00045876577,0.010861713,0.31090972364682273,0.829352641388053,0.46422983528045253,-0.6779854456436343,0.5358346044020581,-0.5032067291091133,-0.6660862400900194,-0.15828920666915247,0.7288852089422526,-0.00092061074,9.8087885e-06,0.103761636,0.0007129753,0.000117986194,-0.014011337,1.0403258,-0.046899073,-3.4817554e-06,0.007612192,0.8732970800819503,0.0006814691609689626,-0.48718758760884123,-0.0007145914125788236,0.9999997377344051,0.0001178568371746481,0.4871875401520987,0.00024521603464795717,0.8732973380181824,left_images/camera_left_132.png,right_images/camera_right_132.png
2025-05-07 15:24:56,6.488308429718018,133,-0.3374849,0.07373685,0.13036196,0.8058209,-0.63016397,-0.22305936,4.669179e-05,0.005668809,-0.0006615585,0.010696255,0.4002871993154421,0.7942854751096411,0.457034727448639,-0.6247530739658642,0.6013996904435449,-0.49799800090423274,-0.6704131223614311,-0.08619162583604381,0.7369648899380055,-0.0009206441,9.803621e-06,0.10376164,0.0007130228,0.000117993775,-0.0140113095,1.0443841,-0.046899043,-3.4854806e-06,0.007612192,0.8732970800819503,0.0006814691609689626,-0.48718758760884123,-0.0007145914125788236,0.9999997377344051,0.0001178568371746481,0.4871875401520987,0.00024521603464795717,0.8732973380181824,left_images/camera_left_133.png,right_images/camera_right_133.png
2025-05-07 15:24:56,6.542218446731567,134,-0.33166668,0.08157504,0.13051355,0.68873614,-0.66011465,-0.11858418,7.6553275e-05,0.006199221,-0.0011958373,0.010160993,0.498111065310446,0.753117792109781,0.4297661664475011,-0.5807916106873795,0.6577982231835424,-0.47956501387375405,-0.6438683650952669,-0.010727944083710111,0.7650610692260356,-0.00092061964,9.80257e-06,0.10376162,0.0007130706,0.00011799567,-0.014011356,1.0403646,-0.046899132,-3.4621758e-06,0.007612246,0.8732970945023071,0.0006817374252711159,-0.4871875613846391,-0.0007148896776632581,0.9999997375193399,0.00011787281221220266,0.4871875138656339,0.0002453473742940808,0.8732973526457575,left_images/camera_left_134.png,right_images/camera_right_134.png
2025-05-07 15:24:56,6.581629276275635,135,-0.32423753,0.08825246,0.13059603,0.57209843,-0.6746382,-0.012747415,8.99891e-05,0.006763229,-0.0017134035,0.009605139,0.5868432325627112,0.7028865378238359,0.4019521555376572,-0.5334555572412097,0.7090798251315628,-0.4611192579364506,-0.6091306828947448,0.05618110480769903,0.7910774264373672,-0.00092061557,9.802352e-06,0.10376162,0.00071312604,0.00011799743,-0.014011315,1.0394812,-0.046899132,-3.4621758e-06,0.007612246,0.8732970945023071,0.0006817374252711159,-0.4871875613846391,-0.0007148896776632581,0.9999997375193399,0.00011787281221220266,0.4871875138656339,0.0002453473742940808,0.8732973526457575,left_images/camera_left_135.png,right_images/camera_right_135.png
2025-05-07 15:24:56,6.6245973110198975,136,-0.31660023,0.09256213,0.13058054,0.4556808,-0.6736556,0.080209464,8.669349e-05,0.007193041,-0.002034502,0.009209901,0.6622274262401322,0.6438634157990212,0.3832684930058649,-0.475685355304235,0.7564567988612557,-0.4488836755838477,-0.5789458339814301,0.11494787189068836,0.8072228366834947,-0.00092061557,9.802134e-06,0.10376162,0.0007131815,0.000117999196,-0.014011274,1.0399712,-0.046899132,-3.4621758e-06,0.007612246,0.8732970945023071,0.0006817374252711159,-0.4871875613846391,-0.0007148896776632581,0.9999997375193399,0.00011787281221220266,0.4871875138656339,0.0002453473742940808,0.8732973526457575,left_images/camera_left_136.png,right_images/camera_right_136.png
