jiaqis7/OS_Teleop_Extension/demo_1/teleop_log.csv
Epoch Time (Seconds),Time (Seconds),Frame Number,PSM1_joint_1,PSM1_joint_2,PSM1_joint_3,PSM1_joint_4,PSM1_joint_5,PSM1_joint_6,PSM1_jaw_angle,PSM1_ee_x,PSM1_ee_y,PSM1_ee_z,"PSM1_Orientation_Matrix_[1,1]","PSM1_Orientation_Matrix_[1,2]","PSM1_Orientation_Matrix_[1,3]","PSM1_Orientation_Matrix_[2,1]","PSM1_Orientation_Matrix_[2,2]","PSM1_Orientation_Matrix_[2,3]","PSM1_Orientation_Matrix_[3,1]","PSM1_Orientation_Matrix_[3,2]","PSM1_Orientation_Matrix_[3,3]",PSM2_joint_1,PSM2_joint_2,PSM2_joint_3,PSM2_joint_4,PSM2_joint_5,PSM2_joint_6,PSM2_jaw_angle,PSM2_ee_x,PSM2_ee_y,PSM2_ee_z,"PSM2_Orientation_Matrix_[1,1]","PSM2_Orientation_Matrix_[1,2]","PSM2_Orientation_Matrix_[1,3]","PSM2_Orientation_Matrix_[2,1]","PSM2_Orientation_Matrix_[2,2]","PSM2_Orientation_Matrix_[2,3]","PSM2_Orientation_Matrix_[3,1]","PSM2_Orientation_Matrix_[3,2]","PSM2_Orientation_Matrix_[3,3]",Camera Left,Camera Right
2025-05-15 15:15:58,0.0022301673889160156,1,-0.06551306,-0.0006011501,0.11403261,3.9656734e-05,-0.00021711832,0.012567815,2.8886368e-12,0.035163455,7.400746e-05,0.002809946,0.8382428567181005,0.0004872422506161997,0.5452968693804021,-4.96598103044481e-05,0.9999996648612168,-0.0008171972572941394,-0.5452970848033036,0.0006579304243633958,0.8382425999867673,0.00038293222,-0.0022570288,0.10708588,-0.014712377,0.015297606,-0.031924725,0.82668394,-0.04525829,-3.790891e-05,0.0047272807,0.8811631851529537,-0.006208075286118763,-0.4727715102799064,0.014288182301010277,0.9998067537148335,0.013501965513939916,0.4725963277233911,-0.01865248046369189,0.8810816057522237,left_images/camera_left_1.png,right_images/camera_right_1.png
2025-05-15 15:15:58,0.04997992515563965,2,-0.06551306,-0.0006011501,0.11403261,3.9645332e-05,-0.000217128,0.012567871,7.888057e-13,0.035163455,7.400746e-05,0.002809946,0.8382428567181005,0.0004872422506161997,0.5452968693804021,-4.96598103044481e-05,0.9999996648612168,-0.0008171972572941394,-0.5452970848033036,0.0006579304243633958,0.8382425999867673,0.0014646634,-0.0041725743,0.10708638,-0.026264535,0.02639175,-0.045438047,0.85335046,-0.045260187,-3.8023412e-05,0.0047346493,0.8867445030717896,-0.011571614919544525,-0.4621150116584813,0.025224909931172025,0.9994084137477458,0.02337790514948698,0.4615711106546085,-0.03238703843156897,0.8865118101586142,left_images/camera_left_2.png,right_images/camera_right_2.png
2025-05-15 15:15:58,0.10618257522583008,3,-0.06551306,-0.0006011501,0.11403261,3.963393e-05,-0.0002171377,0.012567927,7.9393577e-13,0.035163455,7.400746e-05,0.002809946,0.8382428567181005,0.0004872422506161997,0.5452968693804021,-4.96598103044481e-05,0.9999996648612168,-0.0008171972572941394,-0.5452970848033036,0.0006579304243633958,0.8382425999867673,0.002270382,-0.005618816,0.10708928,-0.034932885,0.03452298,-0.055579495,0.880017,-0.045259688,-3.517061e-05,0.0047412794,0.8907677587529037,-0.01567148689406924,-0.45418851203531974,0.03326642144579136,0.998972620426169,0.030774158689789687,0.4532396112108029,-0.04252185482081398,0.8903739364402341,left_images/camera_left_3.png,right_images/camera_right_3.png
2025-05-15 15:15:59,0.16335535049438477,4,-0.06551306,-0.0006011501,0.11403261,3.962253e-05,-0.00021714739,0.012567983,7.963815e-13,0.035163455,7.400746e-05,0.002809946,0.8382428567181005,0.0004872422506161997,0.5452968693804021,-4.96598103044481e-05,0.9999996648612168,-0.0008171972572941394,-0.5452970848033036,0.0006579304243633958,0.8382425999867673,0.0028748987,-0.006681438,0.10709171,-0.04140156,0.040476393,-0.06316967,0.9066835,-0.045257844,-3.352869e-05,0.004747822,0.8936870040448633,-0.018764035859713084,-0.448298393661601,0.039174939184185326,0.9985728273228827,0.036299210353665186,0.4469774747582162,-0.050002194858222514,0.8931466383344498,left_images/camera_left_4.png,right_images/camera_right_4.png
2025-05-15 15:15:59,0.22030043601989746,5,-0.066111244,0.012234367,0.114056475,-0.061535563,-0.09003303,0.029476728,3.0222986e-07,0.035174534,0.00023870583,0.002853252,0.8451203884123134,-0.007648588016517681,0.5345213075183947,0.05917959976595786,0.9950903181267164,-0.07932864389368718,-0.5312902258289359,0.09867501138497009,0.8414237565381754,0.0033056296,-0.0074937353,0.10709767,-0.04623215,0.044920698,-0.06881532,0.93335,-0.045255687,-3.087148e-05,0.004749025,0.8958150831846284,-0.021075818573281026,-0.4439269608960282,0.043535419687786986,0.9982322801332421,0.040459635843605415,0.44228950244328186,-0.05557089860219154,0.8951490776719928,left_images/camera_left_5.png,right_images/camera_right_5.png
2025-05-15 15:15:59,0.27646541595458984,6,-0.06516728,0.022647766,0.11414131,-0.11970186,-0.15482323,0.04846427,4.1072173e-07,0.035238124,0.00022527354,0.0028638984,0.8505137269484109,-0.0248094194890099,0.5253673885738837,0.11291381048034076,0.9842092492305589,-0.1363181027297149,-0.513689470083954,0.1752616513491692,0.8398848027504895,0.003618357,-0.008068852,0.107104026,-0.04982783,0.048184827,-0.073014006,0.96001655,-0.045253586,-3.155254e-05,0.004748594,0.8973737624844991,-0.022798394876784138,-0.44068193018940116,0.046751157147469295,0.9979558079733457,0.043572177334159086,0.4387877159969119,-0.05970291888433093,0.8966052095358941,left_images/camera_left_6.png,right_images/camera_right_6.png
2025-05-15 15:15:59,0.33704471588134766,7,-0.063049525,0.030282214,0.114220105,-0.17050782,-0.20280983,0.06720429,5.9015036e-07,0.035377685,0.0002214458,0.002846472,0.8544656612498844,-0.04309716968544202,0.5177171696108811,0.157890053269195,0.9709563099167435,-0.1797625525839884,-0.4949334953541216,0.2353433198498837,0.8364534398151441,0.0039018285,-0.008503589,0.107109,-0.050904274,0.050752576,-0.07609427,0.9866831,-0.04524798,-3.291489e-05,0.0047505023,0.8985496973080723,-0.02263016515543018,-0.43828793856620035,0.04752691180154123,0.9978140501704844,0.04591637983315363,0.43629076786264914,-0.06208862140047779,0.897661054613827,left_images/camera_left_7.png,right_images/camera_right_7.png
2025-05-15 15:15:59,0.3897268772125244,8,-0.060573913,0.036111962,0.11425526,-0.2126545,-0.23886037,0.084445395,7.2719945e-07,0.035558064,0.0002039012,0.0028450964,0.8572584184962689,-0.0595117892475584,0.5114355784043868,0.19363126043410978,0.9576448726200135,-0.21312726931881754,-0.4770900741998029,0.28173506151196737,0.8324724717459877,0.004125947,-0.008833729,0.10711195,-0.051668476,0.05267826,-0.078382134,1.0133487,-0.045242738,-3.3438002e-05,0.0047535226,0.8994136809913789,-0.02246662396634063,-0.43652065386771055,0.048057865187327235,0.9977063904880668,0.047669696589241396,0.4344484687959841,-0.06385302801613015,0.8984304752032827,left_images/camera_left_8.png,right_images/camera_right_8.png
2025-05-15 15:15:59,0.4467616081237793,9,-0.058216617,0.040770065,0.114227414,-0.24667549,-0.2647921,0.099916175,8.2031835e-07,0.03576176,0.00013812794,0.002878096,0.8593566581257397,-0.07409529925317784,0.5059802572863317,0.22139122778242884,0.9458208126445865,-0.2375056096796927,-0.46096860890514996,0.3161216174147473,0.8292014620145908,0.0043489547,-0.008981838,0.10711464,-0.05181556,0.053433176,-0.080402456,1.0286765,-0.04523656,-3.200202e-05,0.0047561247,0.9001883873317984,-0.022271786338942105,-0.4349308391529032,0.04805937694001059,0.9976720595392682,0.048381379711753617,0.43284080630309574,-0.06445486132129537,0.8991631705374384,left_images/camera_left_9.png,right_images/camera_right_9.png
2025-05-15 15:15:59,0.5087826251983643,10,-0.05578233,0.044548124,0.11408256,-0.27614975,-0.28249204,0.11521342,1.0013159e-06,0.036049105,3.4212135e-05,0.0029672142,0.8615160055366126,-0.08910811589581019,0.4998498933537328,0.2446931912437923,0.9354750378664564,-0.25497391177859885,-0.4448768530314519,0.34197397153913733,0.8277308671461885,0.0043614996,-0.008989216,0.10711493,-0.051814504,0.053433236,-0.080402635,1.0053086,-0.0452353,-3.1140517e-05,0.0047567366,0.9001830600914292,-0.02227353769818738,-0.43494177523300515,0.04805862283916949,0.9976724548595194,0.04837397632387786,0.4328519690324083,-0.06444813676894054,0.8991582789319016,left_images/camera_left_10.png,right_images/camera_right_10.png
2025-05-15 15:15:59,0.5617775917053223,11,-0.053020906,0.048748735,0.11369623,-0.30340233,-0.2944609,0.1320177,1.3363923e-06,0.03652002,-0.000201636,0.0032035317,0.8642385210543369,-0.10583089155967637,0.49182476667762137,0.2655402783981369,0.9263078617451659,-0.267286561235949,-0.427293972896942,0.36159862784693025,0.8286533008835267,0.0043612258,-0.008989047,0.10711493,-0.051814497,0.053433236,-0.080402635,0.9786409,-0.0452353,-3.1140517e-05,0.0047567366,0.9001830600914292,-0.02227353769818738,-0.43494177523300515,0.04805862283916949,0.9976724548595194,0.04837397632387786,0.4328519690324083,-0.06444813676894054,0.8991582789319016,left_images/camera_left_11.png,right_images/camera_right_11.png
2025-05-15 15:15:59,0.6087353229522705,12,-0.051111042,0.052576233,0.11304358,-0.33036646,-0.30203566,0.14957365,1.4327164e-06,0.03706097,-0.00044904696,0.0036950111,0.8663488107853999,-0.1241990582691885,0.483750278527848,0.2859286701310291,0.9174889508973563,-0.2765118814415942,-0.40949302026753154,0.3778738134699411,0.8303775330811038,0.0043612258,-0.008989047,0.10711493,-0.051814497,0.053433236,-0.080402635,0.9519726,-0.0452353,-3.1140517e-05,0.0047567366,0.9001830600914292,-0.02227353769818738,-0.43494177523300515,0.04805862283916949,0.9976724548595194,0.04837397632387786,0.4328519690324083,-0.06444813676894054,0.8991582789319016,left_images/camera_left_12.png,right_images/camera_right_12.png
2025-05-15 15:15:59,0.6583602428436279,13,-0.05074329,0.056437053,0.1118648,-0.34811032,-0.31072736,0.16413262,1.2863918e-06,0.037749607,-0.00064999005,0.004723485,0.8683261199985997,-0.134179082569157,0.47749944830238006,0.29788956847152215,0.91082450965988,-0.2857630444943677,-0.39657477772045496,0.3903776202649673,0.8308632614770214,0.0043612258,-0.008989047,0.10711493,-0.051814497,0.053433236,-0.080402635,0.9253043,-0.0452353,-3.1140517e-05,0.0047567366,0.9001830600914292,-0.02227353769818738,-0.43494177523300515,0.04805862283916949,0.9976724548595194,0.04837397632387786,0.4328519690324083,-0.06444813676894054,0.8991582789319016,left_images/camera_left_13.png,right_images/camera_right_13.png
2025-05-15 15:15:59,0.7047717571258545,14,-0.050713345,0.06034378,0.11038162,-0.35560468,-0.3198469,0.17331442,9.964492e-07,0.03857378,-0.0008316175,0.006023012,0.8702204464607329,-0.13605129140205013,0.47350440406559824,0.30145263591990534,0.9072350995799611,-0.2933441364457102,-0.38966996658534503,0.39801321610968254,0.8305075538147763,0.0043612258,-0.008989047,0.10711493,-0.051814497,0.053433236,-0.080402635,0.898636,-0.0452353,-3.1140517e-05,0.0047567366,0.9001830600914292,-0.02227353769818738,-0.43494177523300515,0.04805862283916949,0.9976724548595194,0.04837397632387786,0.4328519690324083,-0.06444813676894054,0.8991582789319016,left_images/camera_left_14.png,right_images/camera_right_14.png
2025-05-15 15:15:59,0.7520120143890381,15,-0.051377263,0.06366677,0.10870375,-0.3584234,-0.32957387,0.17964779,7.3786623e-07,0.039436955,-0.0009207323,0.007529093,0.8718609196228917,-0.1334803690525668,0.4712128265570836,0.30116546047087533,0.904847815975356,-0.30091493041056283,-0.38620966100512194,0.4042689958458585,0.8291011257645776,0.0043612258,-0.008989047,0.10711493,-0.051814497,0.053433236,-0.080402635,0.8719677,-0.0452353,-3.1140517e-05,0.0047567366,0.9001830600914292,-0.02227353769818738,-0.43494177523300515,0.04805862283916949,0.9976724548595194,0.04837397632387786,0.4328519690324083,-0.06444813676894054,0.8991582789319016,left_images/camera_left_15.png,right_images/camera_right_15.png
2025-05-15 15:15:59,0.8138384819030762,16,-0.05181099,0.066159345,0.10670551,-0.3543249,-0.3390601,0.18151078,4.7259653e-07,0.04049755,-0.00090026995,0.009279692,0.873512650568559,-0.12565531714764996,0.4703045721330106,0.295578760003967,0.9045389287460235,-0.3073150224403514,-0.3867930272525708,0.407455602066679,0.8272672400217914,0.0043612258,-0.008989047,0.10711493,-0.051814497,0.053433236,-0.080402635,0.84529936,-0.0452353,-3.1140517e-05,0.0047567366,0.9001830600914292,-0.02227353769818738,-0.43494177523300515,0.04805862283916949,0.9976724548595194,0.04837397632387786,0.4328519690324083,-0.06444813676894054,0.8991582789319016,left_images/camera_left_16.png,right_images/camera_right_16.png
2025-05-15 15:15:59,0.8682279586791992,17,-0.051583122,0.06697288,0.10471004,-0.34644607,-0.34600157,0.18151483,5.495019e-07,0.041628484,-0.00073602167,0.010961533,0.8757498966714489,-0.11609257018311646,0.46859858474842286,0.28714021249013344,0.9055554377385284,-0.3122816798233659,-0.3880884137037174,0.4080341460349371,0.8263749263006906,0.004826592,-0.010556198,0.10713011,-0.11443546,0.060978293,-0.096335776,0.81863344,-0.04524975,-5.4176024e-05,0.004752337,0.9022985395863148,-0.07296172640705799,-0.4248928475981976,0.10884004889498013,0.9922010464345273,0.060753001660554515,0.4171464841239129,-0.10106270298151847,0.9032027130434936,left_images/camera_left_17.png,right_images/camera_right_17.png
2025-05-15 15:15:59,0.9115009307861328,18,-0.050192975,0.06541253,0.10268402,-0.33203718,-0.350811,0.18026465,1.1181718e-06,0.042907275,-0.00035409187,0.012566704,0.8797889421556007,-0.102364527248295,0.4642121506617015,0.2728821135869165,0.9083665444715273,-0.3168683843004759,-0.38923870483941647,0.4054524934515633,0.8271042898019836,0.0071590864,-0.013167052,0.10706631,-0.22601055,0.07330214,-0.12707084,0.79196733,-0.045156524,-0.00012730999,0.004927976,0.8979807025912528,-0.1621189729450137,-0.40908201669710953,0.21488453387721573,0.9728312083686357,0.08616308446424378,0.3839990818662097,-0.16527818560014082,0.908420511927507,left_images/camera_left_18.png,right_images/camera_right_18.png
2025-05-15 15:15:59,0.9576539993286133,19,-0.047174685,0.0629288,0.1007411,-0.31665367,-0.35428685,0.17867824,1.5383134e-06,0.044283815,8.79087e-05,0.014002781,0.8844559195526839,-0.08889218461985449,0.458078493144708,0.25783056339803856,0.9113176396701754,-0.3209728340589441,-0.3889230347331803,0.40199295906705895,0.828939403041286,0.011279595,-0.016140236,0.10690611,-0.34268358,0.0832657,-0.16957977,0.76530147,-0.044984035,-0.00019065925,0.0052885506,0.8857776344080491,-0.25336996080408286,-0.3888465575836028,0.32064845163448435,0.9398133429194002,0.11804851093965413,0.33553323657558626,-0.22924777737810115,0.9137083252987861,left_images/camera_left_19.png,right_images/camera_right_19.png
2025-05-15 15:15:59,1.0010747909545898,20,-0.04343929,0.05945465,0.098909445,-0.30261147,-0.35578984,0.17883247,1.9952492e-06,0.045664717,0.0005832133,0.01529887,0.889757932713399,-0.07733899055477267,0.44983274860057393,0.24360960293495976,0.9138956944443839,-0.32472915026817095,-0.38598598748069807,0.3985139147081139,0.8319864645849501,0.016368855,-0.017032575,0.10669908,-0.45374212,0.08010616,-0.20126277,0.7386345,-0.044688277,-0.00026383728,0.005753941,0.8601241245819331,-0.3414184210060396,-0.3789722313176865,0.4184396658056999,0.8971638715814279,0.14143985863057706,0.29171002106985894,-0.2802328484078306,0.9145352996361903,left_images/camera_left_20.png,right_images/camera_right_20.png
2025-05-15 15:15:59,1.0435092449188232,21,-0.040560957,0.05349823,0.09700124,-0.29239243,-0.35417098,0.18184325,2.2471638e-06,0.047014464,0.0012668243,0.016698893,0.8952094948937035,-0.06888191555499767,0.4402899521470307,0.23218487910859814,0.9153857539115499,-0.32887551360523815,-0.38038157442952736,0.39664115172944137,0.8354553576279562,0.022326762,-0.015728096,0.10644105,-0.5400263,0.06990954,-0.21488,0.71196645,-0.044281658,-0.0003950902,0.0063085156,0.8290905796466228,-0.4090107650270973,-0.38120729902924966,0.4928431870817701,0.8565931765030713,0.15281924916535033,0.2640348531696346,-0.3145764200640707,0.9117715022149809,left_images/camera_left_21.png,right_images/camera_right_21.png
2025-05-15 15:15:59,1.0886328220367432,22,-0.039740384,0.046241235,0.09524724,-0.28933245,-0.34812084,0.18685338,1.961172e-06,0.048091076,0.001974593,0.018074282,0.8991725292406803,-0.06694141431000224,0.4324437647938691,0.22744560437405803,0.9157492168677965,-0.3311674332674295,-0.37384122259301206,0.3961340920145532,0.8386420699165813,0.028574398,-0.012825617,0.10615135,-0.61767447,0.057882804,-0.2052968,0.68529904,-0.043738745,-0.0005623043,0.0069390927,0.7882567285901929,-0.4673111508700243,-0.4003393786586828,0.5599290325476198,0.8145374074801598,0.15168483881320027,0.2552073830095308,-0.3437282358026955,0.9037256727400153,left_images/camera_left_22.png,right_images/camera_right_22.png
2025-05-15 15:15:59,1.131556510925293,23,-0.04008072,0.038462922,0.093775555,-0.29256597,-0.33476865,0.1937687,1.5207213e-06,0.04891617,0.0025774327,0.019240836,0.9021099437978546,-0.0733447671780655,0.42522722681952846,0.2292643953940175,0.9163174337441775,-0.3283294041372172,-0.36556187753326647,0.3936786833752621,0.8434344123583487,0.03502503,-0.010615513,0.105927676,-0.68677306,0.050071556,-0.19451912,0.6586324,-0.043140028,-0.00069314905,0.0075383084,0.7473871611878449,-0.5147324088302379,-0.4200749678228816,0.6166207988110968,0.7728148574775018,0.15011990719286164,0.247368594945153,-0.3712246534941467,0.8949866115607604,left_images/camera_left_23.png,right_images/camera_right_23.png
2025-05-15 15:16:00,1.1735241413116455,24,-0.040642157,0.03069758,0.09260529,-0.30486187,-0.31451494,0.20353991,1.2688097e-06,0.04955706,0.0030394741,0.020138862,0.904082784162954,-0.09064679269106361,0.4176331863669181,0.24010591686340277,0.9161644669462866,-0.3209233836793624,-0.3535300101368289,0.3904175053450471,0.8500533532977821,0.041655082,-0.009638185,0.1058193,-0.75683206,0.04503381,-0.18828763,0.63196594,-0.042486023,-0.0007471697,0.008055772,0.7046195848782779,-0.5587892508702842,-0.43733947194117967,0.6701315128712392,0.7266778829240215,0.151205191464997,0.2333130859229024,-0.3996171012117583,0.8864937542680398,left_images/camera_left_24.png,right_images/camera_right_24.png
2025-05-15 15:16:00,1.2195792198181152,25,-0.04093487,0.023354195,0.09170253,-0.3310084,-0.2890844,0.21594529,9.672417e-07,0.050055727,0.003364182,0.020795554,0.9037322414232933,-0.1219444382073583,0.41036275391697286,0.264406108246121,0.9128830903899114,-0.3110206957781192,-0.33668597495911645,0.3895818492569393,0.8572447357641647,0.049181666,-0.009453247,0.10582692,-0.8302907,0.03999131,-0.18783866,0.6052996,-0.041731626,-0.0007488151,0.008518149,0.6590305563428542,-0.6015256706339265,-0.45149262826189485,0.7218384023013396,0.6744699896839321,0.15504694121073936,0.21125351303464257,-0.4280853893607701,0.8787006615715961,left_images/camera_left_25.png,right_images/camera_right_25.png
2025-05-15 15:16:00,1.262169361114502,26,-0.040949788,0.01640424,0.091013,-0.36569464,-0.26057848,0.22781208,6.796147e-07,0.050453216,0.003594555,0.02125999,0.9002573643445724,-0.16192464811278914,0.4041250874134306,0.2975591761697901,0.9064539379532622,-0.299666139305359,-0.3177974427532723,0.39002777683464085,0.8642239979755872,0.056402907,-0.0097598545,0.105889946,-0.89697385,0.037247185,-0.18528047,0.57863307,-0.04095473,-0.0007036659,0.008935408,0.6142449200416494,-0.6360309948572446,-0.46708430907485166,0.7655470794789933,0.6238788781847937,0.1572030993844185,0.19141799106722393,-0.45413623389439767,0.8701261022173747,left_images/camera_left_26.png,right_images/camera_right_26.png
2025-05-15 15:16:00,1.3042869567871094,27,-0.040823806,0.008850731,0.09051605,-0.39601463,-0.22981681,0.23256116,3.3360624e-07,0.050759584,0.003821406,0.021545634,0.8940637789412457,-0.19967091042232862,0.400975668484283,0.3288958680601941,0.9003298143639136,-0.28501532123795026,-0.3041010804950067,0.38670111571930976,0.870623213533392,0.06252151,-0.010670832,0.10596902,-0.95674574,0.039590564,-0.17999512,0.5519664,-0.040209472,-0.00061803084,0.009319587,0.57126830724068,-0.6617812316883853,-0.4854875101661952,0.801896984159775,0.5761213262206802,0.158257525158148,0.17496784829740955,-0.4797184787547046,0.8598002286598012,left_images/camera_left_27.png,right_images/camera_right_27.png
2025-05-15 15:16:00,1.348752737045288,28,-0.040727958,0.0008115637,0.09019816,-0.41598433,-0.19985154,0.23124045,1.8942427e-07,0.05098539,0.004082343,0.021678776,0.8877807019362285,-0.22877400464483316,0.39938437634487345,0.3518985591995077,0.8966735474712383,-0.2685962644912544,-0.2966695624814386,0.3789973668300496,0.8765547139984822,0.06724439,-0.01211822,0.10603115,-1.0177966,0.04803872,-0.17009746,0.5252998,-0.03950199,-0.00048358284,0.009703615,0.524166983307714,-0.6825680845493703,-0.5092639625623376,0.8363897008098177,0.5251802181285187,0.15696498611392576,0.16031606903038145,-0.5082189965370095,0.8461750466478911,left_images/camera_left_28.png,right_images/camera_right_28.png
2025-05-15 15:16:00,1.3914520740509033,29,-0.04126267,-0.006394502,0.09000023,-0.41611382,-0.17098211,0.22582762,1.5889105e-07,0.051144026,0.0042584864,0.021718591,0.8852558743606649,-0.24220504529735912,0.3970626561922423,0.35767979188388443,0.9002227739796649,-0.2483226201663035,-0.2972998543353759,0.36185034647055586,0.8835593490939377,0.07071719,-0.013941142,0.10604338,-1.0783333,0.05981663,-0.1603341,0.49863318,-0.038896516,-0.00030969572,0.010091685,0.47611297809176534,-0.6988789117072352,-0.533745912268657,0.8674942363665901,0.4727397043039338,0.1548254560638408,0.14411863850084491,-0.5367359115482585,0.8313509363025479,left_images/camera_left_29.png,right_images/camera_right_29.png
2025-05-15 15:16:00,1.4334702491760254,30,-0.042025577,-0.012590885,0.08988964,-0.39300472,-0.14626957,0.21665315,1.941561e-07,0.051256698,0.0043750014,0.02169815,0.8880236329204289,-0.2355273623120943,0.39489351599780775,0.3423659344031433,0.9119909898747359,-0.22596017646382274,-0.306919524199856,0.33585606439307714,0.890506097494749,0.07331374,-0.016118785,0.106010765,-1.1316581,0.07349438,-0.15384167,0.47196668,-0.03839674,-0.00010966475,0.0104788,0.4337126465623151,-0.7090414755490629,-0.5560157607146761,0.8919923245346347,0.42514068642921365,0.15363947967171698,0.12744815880667432,-0.5625971762226545,0.8168484462390097,left_images/camera_left_30.png,right_images/camera_right_30.png
2025-05-15 15:16:00,1.478456735610962,31,-0.042052954,-0.018639266,0.08988628,-0.33912018,-0.12737785,0.20318079,2.0615833e-07,0.05137046,0.004526157,0.021568008,0.8971836515013324,-0.20108962095737476,0.3932231679618519,0.29785787860189494,0.9328775316757917,-0.2025344292935422,-0.32610148670853106,0.2988351974545525,0.8968585981796595,0.07524417,-0.018352393,0.10593345,-1.1794373,0.086659975,-0.14716426,0.44529995,-0.03799728,0.00012751448,0.010858541,0.39425396902007653,-0.7157062349541019,-0.576479308526976,0.9120863086349094,0.3815378091390121,0.15009152473790058,0.11252721232067175,-0.5849730638629669,0.8032086534905559,left_images/camera_left_31.png,right_images/camera_right_31.png
2025-05-15 15:16:00,1.5223274230957031,32,-0.0415209,-0.024388844,0.08996886,-0.27754977,-0.11457845,0.18959756,1.6323996e-07,0.051446844,0.004739307,0.021383505,0.9060440648919468,-0.15614655633330662,0.3933222666202958,0.24372781545276204,0.9523517651201713,-0.18336539326470047,-0.3459492801679199,0.26200070308635315,0.9009299235420891,0.07549659,-0.021253612,0.10577705,-1.2364467,0.107656695,-0.14032269,0.41863346,-0.037676647,0.0004292722,0.011302134,0.34729029331315997,-0.7188091088152295,-0.6022482189718081,0.9331527210915962,0.3284646276183062,0.1460718573953157,0.0928194553410509,-0.6127189025057275,0.784831252704916,left_images/camera_left_32.png,right_images/camera_right_32.png
2025-05-15 15:16:00,1.5737614631652832,33,-0.04027266,-0.030440047,0.09012741,-0.21284665,-0.108116515,0.17456712,2.0552358e-07,0.051493023,0.005086474,0.021150937,0.9121645021504334,-0.10400155350282979,0.396408372623044,0.18437106677366855,0.967992206299756,-0.17028916078150777,-0.36600987794510614,0.22841796210440365,0.902143006310352,0.0744169,-0.024564637,0.10556458,-1.2945894,0.1329051,-0.13722505,0.39196733,-0.03746239,0.00077017164,0.011767698,0.300864783477102,-0.7171438312109629,-0.6286375008057811,0.9511533297631877,0.2734765574029191,0.14324076176650477,0.06919339089593168,-0.6410267528794018,0.7643932082045293,left_images/camera_left_33.png,right_images/camera_right_33.png
2025-05-15 15:16:00,1.6202285289764404,34,-0.038431447,-0.0377393,0.090317115,-0.1499211,-0.105702125,0.15950957,2.0594624e-07,0.051549174,0.00563104,0.020901492,0.914846197831536,-0.049684957458652805,0.40073412546913706,0.12484127950507468,0.9785834294878424,-0.1636738417198938,-0.38401964695145224,0.19976455274683969,0.9014560633891909,0.071594596,-0.028045094,0.10528072,-1.3523693,0.1657009,-0.1280623,0.3652995,-0.03733351,0.0012074797,0.012291092,0.2504257982190712,-0.7080772559596904,-0.6602374718076338,0.9668337721700273,0.21826753727741333,0.1326338537566053,0.050193391774381924,-0.6715548240936462,0.7392528266153165,left_images/camera_left_34.png,right_images/camera_right_34.png
2025-05-15 15:16:00,1.6629416942596436,35,-0.036059134,-0.04593389,0.090519,-0.09654275,-0.10797775,0.14757401,1.2965178e-07,0.05164732,0.00636763,0.020646734,0.9150032982824406,0.00010077902476376271,0.40344634584519784,0.07277650968332128,0.9835544399430814,-0.16530046372156595,-0.3968281035543832,0.18061188640795342,0.8999482222425866,0.067827,-0.031213157,0.1049976,-1.4028577,0.20211256,-0.121448435,0.33863327,-0.03727031,0.0016250433,0.012807859,0.20681755968516968,-0.6926501238793537,-0.6909864708485882,0.9778332669077785,0.16993337775850792,0.12233049191450618,0.03268943459792639,-0.7009696519917962,0.7124415399540988,left_images/camera_left_35.png,right_images/camera_right_35.png
2025-05-15 15:16:00,1.7058744430541992,36,-0.032747477,-0.054744687,0.09082228,-0.043052115,-0.11536218,0.13691184,5.8627748e-08,0.0517899,0.007268535,0.020281292,0.9132248378364222,0.05310003456660084,0.4039811652635132,0.019481371476051973,0.9846477219567963,-0.17346279085355273,-0.406990014280513,0.1662806361977158,0.8981702947112147,0.06397798,-0.033855416,0.1047621,-1.4461335,0.23724708,-0.11756014,0.31196725,-0.037234016,0.0020039235,0.013271622,0.17027001599546465,-0.6746065212285322,-0.7182716499826804,0.9852595954336281,0.1287430484775295,0.11264438323625531,0.016481846342811524,-0.7268639962088166,0.6865836291060845,left_images/camera_left_36.png,right_images/camera_right_36.png
2025-05-15 15:16:00,1.757007360458374,37,-0.029082306,-0.063456155,0.09116488,0.008883469,-0.12416516,0.12712315,3.9077356e-08,0.0519637,0.008199099,0.01987104,0.9091123722768562,0.10545093845620399,0.40298237449279706,-0.032441080652161676,0.9824117041674867,-0.18388806323645582,-0.41528577011410706,0.1541017296899704,0.8965435773275566,0.059923787,-0.036489997,0.10460253,-1.4785848,0.2734267,-0.116701916,0.2853017,-0.037194695,0.0023577255,0.013677703,0.14435652766061502,-0.6530643968784821,-0.7434164959506311,0.989516870147973,0.09845241252580539,0.10565739993208412,0.004190061375425158,-0.7508754996652862,0.6604304864163049,left_images/camera_left_37.png,right_images/camera_right_37.png
2025-05-15 15:16:00,1.8018484115600586,38,-0.024929756,-0.071828246,0.09148664,0.064578824,-0.13374111,0.11656666,5.128948e-08,0.052209124,0.009114111,0.019456087,0.9017669396792867,0.16096203532246806,0.40113290775789323,-0.0876384181833018,0.9768844801155256,-0.19497748630995348,-0.42324448509080737,0.14066959761891668,0.8950285862171943,0.054796137,-0.03879359,0.104510106,-1.4959968,0.31366748,-0.111130305,0.25975415,-0.03719081,0.0026743722,0.014017854,0.12742848996853184,-0.6270608177189569,-0.7684768772227131,0.9918428619001354,0.08299685204958107,0.09674326771206898,0.0031172491220437526,-0.774536153727825,0.6325219595606291,left_images/camera_left_38.png,right_images/camera_right_38.png
2025-05-15 15:16:00,1.8474607467651367,39,-0.020197898,-0.07993423,0.09173615,0.12751493,-0.14379194,0.10444033,6.1216014e-08,0.05256368,0.01000602,0.019072417,0.8898396059353751,0.22218480363738624,0.39852150348681614,-0.1490811024374692,0.9670681165639137,-0.20628640968700165,-0.43123114521658235,0.12414979242085264,0.8936590672270125,0.049223963,-0.03953439,0.10450864,-1.5153956,0.3535745,-0.09959831,0.25464147,-0.03718967,0.002920099,0.014264772,0.10446969919024995,-0.6006100006580447,-0.7926876491157424,0.9945231720787905,0.065591934241639,0.08137172949360921,0.0031212416502563456,-0.7968471153690551,0.6041729326762137,left_images/camera_left_39.png,right_images/camera_right_39.png
2025-05-15 15:16:00,1.8922827243804932,40,-0.015801605,-0.08976888,0.09172298,0.19724317,-0.15703861,0.09281351,9.618788e-08,0.05309631,0.011085859,0.018941257,0.872422981790245,0.2906957211381232,0.3929047448888908,-0.21670000335111236,0.9506237461187281,-0.22216120692601565,-0.43808589271037446,0.10867608305042364,0.892339766894299,0.043849412,-0.0392965,0.10454891,-1.5372251,0.3898142,-0.09064755,0.2536857,-0.037209928,0.0030866945,0.014447995,0.08115857284055217,-0.5759723119575709,-0.8134305022020845,0.9967005303444717,0.04595231638345121,0.06690618379525182,-0.001157093571669654,-0.8161766233342178,0.577801333208241,left_images/camera_left_40.png,right_images/camera_right_40.png
2025-05-15 15:16:00,1.941523551940918,41,-0.0131433,-0.10064162,0.09150969,0.25534222,-0.17010868,0.081991166,1.09089235e-07,0.0536076,0.01224765,0.019089596,0.8530670221218358,0.34906385117249605,0.38785446184465777,-0.2719112459768026,0.931777249888455,-0.24053155905546092,-0.44535483614700566,0.09972755083192138,0.8897828305409925,0.03866535,-0.03853476,0.104618125,-1.5635942,0.4241297,-0.090318516,0.25351948,-0.037241194,0.0031813632,0.01460238,0.060817181532369535,-0.5518130307261505,-0.8317473471861987,0.998058670280329,0.022413409449234478,0.05810791473734178,-0.013422410689590492,-0.8336666109408971,0.5521049000811337,left_images/camera_left_41.png,right_images/camera_right_41.png
2025-05-15 15:16:00,1.9919648170471191,42,-0.010964771,-0.11179575,0.09120217,0.30362013,-0.1812882,0.06969691,3.5766766e-07,0.054109015,0.013400676,0.019368438,0.8328656018467979,0.3976999382760959,0.38492810803520294,-0.3159378520148664,0.9126484130432074,-0.2593379028101131,-0.45444269487428635,0.09438025887284278,0.8857619340491506,0.03270343,-0.03676782,0.10475136,-1.600075,0.46304518,-0.097261906,0.25392002,-0.0372769,0.0032184883,0.014738818,0.038596145029038464,-0.5230782486073472,-0.8514102908837594,0.9986375333929173,-0.009754764412491068,0.051263256531035195,-0.035120001250104615,-0.8522288368772364,0.5219890756587398,left_images/camera_left_42.png,right_images/camera_right_42.png
2025-05-15 15:16:00,2.0525693893432617,43,-0.008414964,-0.1239875,0.09089927,0.34527728,-0.18860702,0.056748744,5.598487e-07,0.054615248,0.014586966,0.019654764,0.8126443915521052,0.4388864582880943,0.3833898402543315,-0.3521380565274031,0.894012463360353,-0.2770207654697698,-0.4643359581423911,0.09011321816296768,0.8810628387852374,0.026149256,-0.033964194,0.10495878,-1.6398112,0.5067788,-0.106465146,0.2537406,-0.037306435,0.0032073634,0.014860809,0.016269481948507636,-0.48902761787291976,-0.8721165592480542,0.9981083462026779,-0.04377621017618871,0.04316680047403776,-0.05928771540279165,-0.8711691181281324,0.4873903306613395,left_images/camera_left_43.png,right_images/camera_right_43.png
2025-05-15 15:16:00,2.1084697246551514,44,-0.0055714427,-0.13748096,0.09077076,0.38655925,-0.19150363,0.043887515,6.352699e-07,0.05504545,0.015835376,0.019801937,0.7908935737518064,0.47759215515888087,0.3826134973165374,-0.38665096480926564,0.8746153827996208,-0.2924875443199884,-0.47432940706871685,0.08338864131863889,0.8763891533382139,0.019158747,-0.030721227,0.10521185,-1.6727574,0.55461085,-0.1143178,0.25352287,-0.03735133,0.003158994,0.014987836,-0.0011169750127852929,-0.4507379373889317,-0.892655624619703,0.9969367487295511,-0.07031128197711078,0.034255549321053624,-0.07820403697618644,-0.8898829335508727,0.4494357497746708,left_images/camera_left_44.png,right_images/camera_right_44.png
2025-05-15 15:16:01,2.157979965209961,45,-0.0022985789,-0.15027735,0.090791985,0.4283153,-0.19214842,0.031476896,6.1674416e-07,0.055424865,0.016999738,0.0198012,0.7678249862400647,0.5145100523264389,0.38173838759088635,-0.4204847982156562,0.8542715400218189,-0.3056348644678626,-0.4833604503628565,0.07415889672719682,0.8722746889949413,0.0128811225,-0.026528008,0.10544872,-1.7084595,0.6021725,-0.12631465,0.25347412,-0.03738751,0.0030474653,0.015180947,-0.016645519424022648,-0.4105058683246618,-0.9117060155302914,0.9948447715522448,-0.09802664495862518,0.025974167807985338,-0.10003403020105822,-0.9065736092282696,0.41002132121703466,left_images/camera_left_45.png,right_images/camera_right_45.png
2025-05-15 15:16:01,2.2094264030456543,46,0.0015923387,-0.16266726,0.090913065,0.47647128,-0.19089082,0.018258752,5.6527267e-07,0.055801705,0.01810646,0.019686941,0.7402107215934541,0.5541646362945414,0.3807750563241196,-0.45845671426502355,0.8302326685165036,-0.31706648714943697,-0.4918389256488514,0.060127132049551196,0.8686076209705273,0.0071000205,-0.021551691,0.105651386,-1.7390507,0.65362704,-0.13938846,0.25326493,-0.037413158,0.0028442086,0.0155079,-0.026158320767597776,-0.3656904234643345,-0.9303688819178635,0.9926114058343725,-0.11981050992163783,0.01918433527198049,-0.11848349784729556,-0.9229929338292862,0.3661225270849598,left_images/camera_left_46.png,right_images/camera_right_46.png
2025-05-15 15:16:01,2.266617774963379,47,0.0054080454,-0.17323515,0.091111034,0.52335054,-0.18791346,0.006803102,4.7259604e-07,0.056114852,0.019032786,0.01948816,0.7122682618454095,0.5903272388057992,0.3797205212938065,-0.49452888229497716,0.8059659449922879,-0.32536146066915944,-0.4981115414681735,0.04396187708241356,0.8659978323411618,0.0028439204,-0.016226303,0.10577131,-1.7650981,0.6982573,-0.15078568,0.25253052,-0.037438463,0.0025902584,0.015893165,-0.03334869405354757,-0.32541695201423504,-0.9449823659448298,0.9904323666746696,-0.13744279782349467,0.012377575273979924,-0.1339088930883081,-0.9355283451976297,0.32688701975399553,left_images/camera_left_47.png,right_images/camera_right_47.png
2025-05-15 15:16:01,2.3143346309661865,48,0.009574252,-0.1824776,0.091442704,0.56502324,-0.18418111,0.0005744785,2.887285e-07,0.05639475,0.019841151,0.019133583,0.6877763917803221,0.6209976040024299,0.37593298702412664,-0.5267351592062908,0.7832724993920593,-0.3302033672633272,-0.49951347025437093,0.02908895871903397,0.8658176052235701,0.000721135,-0.0101489015,0.10572487,-1.7886853,0.73350406,-0.15896663,0.2575594,-0.037453726,0.002260639,0.016395047,-0.04131866838715731,-0.29169784827688666,-0.9556176709088977,0.9880969160440305,-0.15377486556388803,0.00421606749049086,-0.1481797966896578,-0.9440686712477236,0.29457951697558515,left_images/camera_left_48.png,right_images/camera_right_48.png
2025-05-15 15:16:01,2.373154640197754,49,0.011985922,-0.189824,0.091858335,0.5946233,-0.18265565,0.0019927365,2.444271e-07,0.056520972,0.0205114,0.018745027,0.671180875936643,0.642925334213107,0.36900304389514904,-0.5507973330139374,0.7656747456570782,-0.3322115016186263,-0.4961235024886993,0.01972811420114412,0.8680278058843578,-8.076974e-05,-0.004090552,0.10557386,-1.8101059,0.7617104,-0.16560438,0.25401545,-0.03747013,0.0019218405,0.016949862,-0.049094726138071865,-0.26330446325967716,-0.9634627483680731,0.9856579189821418,-0.168705334907987,-0.004120281710924989,-0.16145641707043162,-0.9498469716754996,0.26781067153058247,left_images/camera_left_49.png,right_images/camera_right_49.png
2025-05-15 15:16:01,2.424628734588623,50,0.012406656,-0.19574164,0.09226513,0.6177557,-0.18253532,0.005450634,2.588762e-07,0.056490652,0.021071745,0.018431772,0.6577458744516377,0.6601560359190783,0.36271803495478283,-0.569971285370912,0.75102457755552,-0.33330889241090345,-0.49244603612424465,0.012493684290927537,0.8702533018370903,0.00022166649,0.0012810095,0.105364054,-1.8263762,0.78244436,-0.16704169,0.2534036,-0.037472073,0.0016285249,0.017491765,-0.05801242977904075,-0.2414350733534017,-0.9686814044596754,0.9835320100639764,-0.1801916945113955,-0.013990654331598462,-0.17117050905645587,-0.9535408006917949,0.24791248101982344,left_images/camera_left_50.png,right_images/camera_right_50.png
2025-05-15 15:16:01,2.479888916015625,51,0.010659893,-0.20080495,0.09270379,0.6406139,-0.18325864,0.010718406,2.8516635e-07,0.056279384,0.021562956,0.018165449,0.6438120020237428,0.6768427246400222,0.3569174024225372,-0.589280935212416,0.7361164787994213,-0.33298725055941913,-0.48811277943254117,0.0040565677379023335,0.8727711377061155,0.0011530227,0.005508378,0.10517282,-1.8385633,0.7973062,-0.16560975,0.2572743,-0.037444882,0.0014166641,0.017955147,-0.0669580528492214,-0.224960211531112,-0.9720645669843737,0.9817270612155495,-0.1887832630836359,-0.023934428269235808,-0.17812522683696813,-0.9559046933703024,0.23349008706346963,left_images/camera_left_51.png,right_images/camera_right_51.png
2025-05-15 15:16:01,2.527170181274414,52,0.009123829,-0.20497452,0.09315612,0.65925324,-0.18516324,0.01910355,4.0792906e-07,0.056092247,0.02198136,0.017857332,0.6334594522967213,0.6906353112109096,0.3489297768957929,-0.6061375358868561,0.7232009379485898,-0.331025211939046,-0.48096404219540995,-0.001808385713852223,0.8767384557872216,0.0027549982,0.008730137,0.10504247,-1.8474072,0.80759704,-0.16311526,0.25324196,-0.03735289,0.0012624501,0.018330133,-0.0746563548188621,-0.2125692428446514,-0.9742898673811669,0.9802477866172418,-0.1950760871197341,-0.0325514525951181,-0.1831412174174849,-0.9574756588188054,0.2229341993780586,left_images/camera_left_52.png,right_images/camera_right_52.png
2025-05-15 15:16:01,2.580958366394043,53,0.008141382,-0.20807005,0.09354326,0.671351,-0.18853177,0.02880528,4.9138305e-07,0.05598259,0.022311725,0.01756711,0.6278495327584921,0.7003356161379432,0.3396100543029177,-0.6183541568998355,0.7138048829995124,-0.328817161429792,-0.4726976844238151,-0.003551587636519471,0.8812175017358788,0.0048707253,0.011171998,0.10497528,-1.8535345,0.81448853,-0.1606447,0.25750363,-0.037199758,0.001142018,0.018627448,-0.08043629031896352,-0.20325311700907817,-0.9758166700901443,0.9791024376764506,-0.1995658154219482,-0.039139517766641874,-0.18678442048456767,-0.9585727180245986,0.21505795619594578,left_images/camera_left_53.png,right_images/camera_right_53.png
2025-05-15 15:16:01,2.6254220008850098,54,0.007356525,-0.21017365,0.093836464,0.6781136,-0.19320369,0.038099665,0.026666852,0.055927433,0.022560656,0.017341118,0.6255987876084028,0.7068176076063147,0.3302045222594361,-0.6264441724709894,0.7073928367795554,-0.3273577145113749,-0.4649665103209413,-0.002060109380417008,0.8853258723370209,0.00779175,0.013139711,0.1049696,-1.8575184,0.81846505,-0.15720503,0.25377166,-0.036960002,0.0010401446,0.018872699,-0.08551859611959792,-0.19622559763469083,-0.976822442693984,0.9781838289988544,-0.20283260091261915,-0.04489245696286198,-0.18932238748461133,-0.9593510571422386,0.20929066571922425,left_images/camera_left_54.png,right_images/camera_right_54.png
2025-05-15 15:16:01,2.6716885566711426,55,0.0073219347,-0.2115969,0.09403733,0.68221664,-0.1983701,0.046683807,0.053333737,0.055968724,0.02274254,0.017155984,0.6251862067335909,0.711589129816345,0.3205980618114845,-0.6323686581614107,0.7025947054878663,-0.32629826845319776,-0.45744080172761187,0.0012610105611161881,0.8892391819792717,0.01152166,0.014697437,0.10502873,-1.859991,0.82007474,-0.15310681,0.2533875,-0.03662934,0.00095647725,0.019073721,-0.09007890220383963,-0.19087472414919415,-0.9774725730467941,0.9774287040666179,-0.20526553358689725,-0.0499918912218596,-0.1910992408263386,-0.9599129650141494,0.20505652819001308,left_images/camera_left_55.png,right_images/camera_right_55.png
2025-05-15 15:16:01,2.7156386375427246,56,0.0075435736,-0.21249895,0.09416982,0.68401664,-0.20382656,0.05399466,0.08000026,0.056051012,0.022877567,0.01701777,0.6259769550469069,0.7148689089840721,0.3116332695944474,-0.636220139538827,0.6992342768517238,-0.32602969208469745,-0.45097315418481226,0.00581971163973935,0.8925185405138831,0.015510818,0.015791062,0.10513385,-1.8616488,0.8202039,-0.14901146,0.25754756,-0.036259092,0.00090296025,0.019228771,-0.0941646341248358,-0.18676758664588367,-0.9778808159784135,0.9767961954801158,-0.20712010663832128,-0.05450187080918856,-0.1923595960062997,-0.960322409404572,0.20193725713619662,left_images/camera_left_56.png,right_images/camera_right_56.png
2025-05-15 15:16:01,2.7583327293395996,57,0.007524592,-0.2129605,0.0942692,0.68409926,-0.20977642,0.060371585,0.106666744,0.056122374,0.022980126,0.016917447,0.6274879564770837,0.7171168984940222,0.30331867461554013,-0.6385628064897182,0.6968628515948118,-0.3265267343344526,-0.4455293555358483,0.011203569139420333,0.8951972259755667,0.019809956,0.016474143,0.10529004,-1.8630573,0.8190417,-0.14434822,0.2534315,-0.035842277,0.00088731217,0.019338444,-0.09876619662394126,-0.18359000345016074,-0.9780286033841805,0.9761600618282658,-0.20876909283222866,-0.05938854746030109,-0.19327900065935028,-0.9605780429049886,0.19983255839063024,left_images/camera_left_57.png,right_images/camera_right_57.png
2025-05-15 15:16:01,2.8061888217926025,58,0.007185153,-0.21311992,0.0943806,0.6844951,-0.21501912,0.0659429,0.13333322,0.05614471,0.023051519,0.016818512,0.6284678689037724,0.7191877425242722,0.2963058027754305,-0.6408966000252628,0.6946449652900399,-0.32668014979985843,-0.44077169354622747,0.01540659599135269,0.8974870199442163,0.023846818,0.016867679,0.10546799,-1.8645409,0.8173948,-0.13917941,0.2573104,-0.03543776,0.00090421364,0.01940524,-0.10412501646010305,-0.18108411189468232,-0.9779399395497135,0.9754679480490601,-0.2103541690112208,-0.06491075341231989,-0.1939594371927788,-0.9607078994152765,0.1985448783649368,left_images/camera_left_58.png,right_images/camera_right_58.png
2025-05-15 15:16:01,2.853623151779175,59,0.0070824064,-0.21339296,0.09451766,0.68543375,-0.2188173,0.069908366,0.15999973,0.056148365,0.023128062,0.01669525,0.6287158910995365,0.7211143551070176,0.2910505370850668,-0.6430520723537989,0.6925735231910679,-0.32684238895252826,-0.43726463442679675,0.01833035278715167,0.8991460602406588,0.027834658,0.016935306,0.1056302,-1.8626666,0.81354237,-0.12963577,0.25300416,-0.03505002,0.00094151415,0.019443097,-0.1111791379920011,-0.18124241734752217,-0.977133760254645,0.9750597501623315,-0.20993819706532948,-0.07200303484111314,-0.19208769582856489,-0.9607690354955167,0.20006293395901012,left_images/camera_left_59.png,right_images/camera_right_59.png
2025-05-15 15:16:01,2.9088943004608154,60,0.0068898415,-0.2142189,0.09471838,0.6877443,-0.22155166,0.07311426,0.18666625,0.056104574,0.023257125,0.01653353,0.6276750780842252,0.7236774138443111,0.2869059027687854,-0.6458978180239304,0.6898505202255149,-0.3269897068968875,-0.4345572517216664,0.019931393232697325,0.9004236417042347,0.031630438,0.016123489,0.10571043,-1.84591,0.80498135,-0.10489252,0.2569393,-0.034722064,0.0009974034,0.019455688,-0.12126385557062686,-0.1883417481319053,-0.9745883557906712,0.9763096196836817,-0.19988890525100284,-0.08284897145203696,-0.17920547939516512,-0.9615465726984697,0.20811915982574852,left_images/camera_left_60.png,right_images/camera_right_60.png
2025-05-15 15:16:01,2.956799030303955,61,0.0065950216,-0.2157246,0.09496452,0.68958706,-0.22283556,0.075697176,0.21333256,0.056014333,0.02344674,0.01635455,0.626550970311024,0.7257074827600447,0.28422267866655804,-0.6480750961299937,0.6876878910782526,-0.3272369695502704,-0.4329348119271693,0.020833000994207013,0.9011844620781928,0.035303358,0.015379778,0.10570723,-1.8258358,0.7924243,-0.07371504,0.25318623,-0.03446748,0.0010535365,0.019459622,-0.13486437383052186,-0.19975476448652557,-0.9705202907390622,0.9773446885836574,-0.18806377768579718,-0.09710497010895258,-0.16312253176252128,-0.961628852306065,0.2205923617079827,left_images/camera_left_61.png,right_images/camera_right_61.png
2025-05-15 15:16:01,2.998908281326294,62,0.005410936,-0.21760306,0.09529839,0.6918207,-0.22288856,0.079102345,0.2399992,0.055800527,0.023669414,0.016143821,0.6249594346404775,0.7276988680091871,0.28263061149139945,-0.6507198034371582,0.6856036751626075,-0.3263607482805373,-0.4312649330383368,0.020048892779240518,0.9020025495694375,0.038529873,0.014824225,0.10568266,-1.8075566,0.77932566,-0.044562962,0.26137787,-0.03426981,0.0010990112,0.019447472,-0.1478631403491706,-0.2117137723641524,-0.9660816582036018,0.9779042245403948,-0.1772589240075683,-0.11082689874632284,-0.14778301442361386,-0.9611225480920831,0.23324585354696217,left_images/camera_left_62.png,right_images/camera_right_62.png
2025-05-15 15:16:01,3.0414984226226807,63,0.0037775275,-0.2195243,0.09567898,0.6944755,-0.2215561,0.08339413,0.266666,0.05551392,0.023883276,0.015910706,0.6232095358239801,0.7294915551454769,0.28187221471704693,-0.6538761825300371,0.6837646646249569,-0.3239009437007956,-0.4290172634964763,0.01754862905625232,0.9031258125201832,0.04137109,0.014191792,0.10567485,-1.7917604,0.7668784,-0.020764906,0.25289723,-0.034095474,0.0011428631,0.01941503,-0.1577333490320325,-0.22293939264323986,-0.9619865996005361,0.978323235074751,-0.16765166134107634,-0.12155890819866055,-0.13417838244669794,-0.9603077359146079,0.24455104585044674,left_images/camera_left_63.png,right_images/camera_right_63.png
2025-05-15 15:16:01,3.1018030643463135,64,0.001787521,-0.22192469,0.09606922,0.69546324,-0.21919373,0.08826102,0.29333246,0.055183902,0.02413514,0.015697423,0.6224551086547916,0.7301255844551293,0.2818976208370828,-0.6558861688716231,0.6831484681715172,-0.3211253710279128,-0.42703977706117324,0.014993377170130051,0.9041085263664854,0.04374665,0.013426227,0.105709046,-1.7786604,0.75712633,-0.002796766,0.2611871,-0.033926412,0.0011928113,0.019370165,-0.16427334962581425,-0.2315712331645246,-0.9588477619379296,0.9787509953042439,-0.1592007736406153,-0.12923468134824279,-0.12272227097665395,-0.9597030153348958,0.2528030192925744,left_images/camera_left_64.png,right_images/camera_right_64.png
2025-05-15 15:16:02,3.158374309539795,65,-0.0006722972,-0.2250376,0.09652809,0.6943026,-0.21543589,0.094016984,0.31999886,0.054771353,0.024455916,0.015464504,0.6230140297142437,0.7292792443555325,0.2828520859591509,-0.6564594895203908,0.6841042249356436,-0.31790304818266546,-0.42534040179348975,0.012377123148201913,0.904948810389144,0.046279546,0.0125748925,0.10578508,-1.773668,0.74794805,0.0024096016,0.25360438,-0.03371906,0.0012394465,0.019314412,-0.16527937311376817,-0.23846223378929265,-0.9569840604102768,0.9791037343132701,-0.15624540151304456,-0.1301662473909303,-0.1184846246435764,-0.9585004629953228,0.2593034056097655,left_images/camera_left_65.png,right_images/camera_right_65.png
2025-05-15 15:16:02,3.2106785774230957,66,-0.0019591216,-0.22818057,0.09703251,0.6926608,-0.21010543,0.09870056,0.3466655,0.054407936,0.024780378,0.015148026,0.6242010200226304,0.7275952740733402,0.28456669472875556,-0.6562128054107654,0.6859403698099227,-0.3144368984072313,-0.42397858509321046,0.009535523644120386,0.9056220145133355,0.049197398,0.012631327,0.10588633,-1.7773309,0.74017495,0.0009574901,0.25275886,-0.03346847,0.0012409824,0.01928193,-0.16652832950743787,-0.2426670875655435,-0.9557096839960967,0.9785454534314455,-0.1599198540552945,-0.12990163912584035,-0.12131410074722948,-0.9568376690386882,0.2640919613856145,left_images/camera_left_66.png,right_images/camera_right_66.png
2025-05-15 15:16:02,3.2561376094818115,67,-0.0024050102,-0.23086023,0.09750603,0.6903636,-0.20521861,0.10274298,0.37333223,0.054126475,0.025067415,0.014814739,0.6261296816846396,0.7254961721500831,0.28568676187228004,-0.6553155009258705,0.6881824704459482,-0.31139441487795955,-0.4225200775818435,0.007758322401688278,0.9063203586336038,0.052360628,0.013801872,0.10600061,-1.791276,0.73371524,-0.006453284,0.26223993,-0.033196703,0.0011993655,0.019269306,-0.16989614470683542,-0.24415214665382823,-0.9547381993500006,0.9765583071041103,-0.1716515054009112,-0.12988315333235062,-0.1321709984819211,-0.9544241666983964,0.26759173601283637,left_images/camera_left_67.png,right_images/camera_right_67.png
2025-05-15 15:16:02,3.2987349033355713,68,-0.0026726145,-0.2330542,0.09792114,0.6880266,-0.20126484,0.106023155,0.39999878,0.053891435,0.025312386,0.014516192,0.6280466545683174,0.7235148894572798,0.28650236372352106,-0.6542244868276628,0.6902766715454285,-0.3090443941495232,-0.4213641186914541,0.006657435976767601,0.9068671115580217,0.055446886,0.016787935,0.10607289,-1.8259773,0.7277483,-0.025079546,0.2552858,-0.032979354,0.0011134698,0.019275755,-0.1784951952065152,-0.24230311992792963,-0.9536396926310162,0.9710726359221283,-0.19961631868133106,-0.13103915857240056,-0.15861084783657614,-0.9494432702322474,0.27092448313000034,left_images/camera_left_68.png,right_images/camera_right_68.png
2025-05-15 15:16:02,3.34248948097229,69,-0.003402368,-0.23465888,0.09826587,0.68521386,-0.19885516,0.10985576,0.42666554,0.05366696,0.025502965,0.014284614,0.6303174731227387,0.7215889873822162,0.28637251328448704,-0.6530834060101315,0.6922916823354381,-0.3069434660705044,-0.41974033386174797,0.006446693561580924,0.9076213374925425,0.057320952,0.0192087,0.1061103,-1.8617287,0.7242046,-0.052020207,0.2640885,-0.032860953,0.0010274963,0.019285433,-0.1802821833245103,-0.23838889831646104,-0.9542898236569495,0.9656364367245323,-0.22754088519529747,-0.12558430488914168,-0.18720204711940558,-0.9441376375952844,0.2712185739035942,left_images/camera_left_69.png,right_images/camera_right_69.png
2025-05-15 15:16:02,3.391190767288208,70,-0.0036088126,-0.2357649,0.098604076,0.6831244,-0.19633895,0.11291662,0.45333225,0.053479638,0.025645383,0.01402585,0.6322958430899882,0.7198630837655021,0.28635486278871286,-0.652239500090985,0.6940912933187782,-0.3046652442602007,-0.41807367931045697,0.005866614925788077,0.9083941773795832,0.05926262,0.020641774,0.10616917,-1.888637,0.7196415,-0.07339013,0.27862608,-0.03272082,0.0009816933,0.019274974,-0.18056502452248335,-0.2361982545471109,-0.9547809468501625,0.9611159038085479,-0.24857947672659153,-0.12026829672283429,-0.20893178639324556,-0.9393714006181111,0.2718986582079711,left_images/camera_left_70.png,right_images/camera_right_70.png
2025-05-15 15:16:02,3.4360485076904297,71,-0.0032679453,-0.23633312,0.09893126,0.6823183,-0.19343424,0.11540834,0.47999904,0.05333146,0.025727725,0.013739172,0.6337237515384003,0.7185523692886602,0.28649031279564874,-0.6521478843579105,0.6954590743940836,-0.30172804438836287,-0.4160496889358256,0.004378176855419941,0.909331341098406,0.060731657,0.021237787,0.10622656,-1.9074168,0.71603674,-0.08672609,0.30528986,-0.03261052,0.0010015878,0.019253496,-0.1823812148880743,-0.23464447994513848,-0.9548188626578474,0.9575042536772124,-0.26306534774212137,-0.11824646720879672,-0.22343387533226544,-0.9358090568318903,0.2726512653655093,left_images/camera_left_71.png,right_images/camera_right_71.png
2025-05-15 15:16:02,3.4799742698669434,72,-0.0024462582,-0.2364349,0.09925041,0.6819104,-0.19002417,0.11762801,0.5066658,0.053215504,0.025756715,0.013426709,0.6352152291220592,0.717124017547304,0.28676603032476494,-0.6522334241628268,0.6969417217531642,-0.2981003134593611,-0.41363410533494943,0.0023194690231432835,0.9104402489824397,0.06174593,0.020733006,0.106268026,-1.9163212,0.71296006,-0.09419435,0.31319785,-0.03252952,0.0010756528,0.01923309,-0.1824952439934415,-0.234694297875984,-0.9547848304535809,0.9558819487663339,-0.26970048800931745,-0.11641025208379135,-0.23018511233885247,-0.9339059017438722,0.2735590991824526,left_images/camera_left_72.png,right_images/camera_right_72.png
2025-05-15 15:16:02,3.53446626663208,73,-0.0008984555,-0.23645422,0.09957171,0.68305063,-0.18629973,0.118993945,0.53333265,0.053153977,0.025774732,0.013077302,0.6358181177973303,0.7164576469965316,0.2870953868331115,-0.6531696919982397,0.6976305134625818,-0.2944164060321018,-0.41122338763205707,-0.0003267202599134267,0.9115345406062718,0.06241944,0.019425161,0.106319316,-1.9188102,0.71109414,-0.09730729,0.308129,-0.03245661,0.0012033574,0.019206703,-0.1820935208419926,-0.23509698584489563,-0.9547624609891256,0.9556189128862325,-0.2710103749929126,-0.11552432635742171,-0.23159111166342722,-0.9334252963643346,0.2740123594030972,left_images/camera_left_73.png,right_images/camera_right_73.png
2025-05-15 15:16:02,3.5907132625579834,74,0.0014789365,-0.2364401,0.09993204,0.68295366,-0.1829916,0.122181624,0.55999994,0.053161316,0.025796264,0.012650323,0.6380549217124585,0.7152043713591734,0.28525186076034337,-0.6537525282878447,0.6989139395205244,-0.2900464392147435,-0.40680898298311896,-0.0014185671047461657,0.9135121449830922,0.063161604,0.017659465,0.10636632,-1.9191468,0.70786846,-0.09775179,0.28146148,-0.032386094,0.0013710965,0.01916476,-0.1827754293498096,-0.23707621550470565,-0.954142552487813,0.9556526136568417,-0.2707807615402513,-0.11578368274730427,-0.2309138896576809,-0.9329912364120296,0.27605457493313246,left_images/camera_left_74.png,right_images/camera_right_74.png
2025-05-15 15:16:02,3.6338086128234863,75,0.00399234,-0.2363615,0.10028758,0.6826113,-0.18047526,0.12556823,0.5866668,0.05319487,0.025819903,0.012218975,0.6405021250685579,0.7140712016766991,0.2825939608672778,-0.6542614081381902,0.7000711255254778,-0.2860811581116859,-0.40211818860093124,-0.0016547330557648565,0.9155862735181324,0.064267136,0.015605417,0.10644659,-1.918481,0.70430255,-0.09587646,0.25804073,-0.03227094,0.0015765341,0.01911156,-0.1849474121449073,-0.2391978391181953,-0.9531940245837087,0.9557111033802992,-0.269724236992018,-0.11775025628288416,-0.22893392412771202,-0.9327557181493232,0.2784888303742672,left_images/camera_left_75.png,right_images/camera_right_75.png
2025-05-15 15:16:02,3.680091381072998,76,0.0063314037,-0.23624673,0.10057801,0.68291587,-0.17844242,0.12830168,0.61333346,0.05324927,0.025832873,0.011851196,0.6422305829714153,0.7134834671661049,0.2801449988431526,-0.655085921903417,0.7006693397568468,-0.2827099418992105,-0.3979978809241911,-0.0019540740360533826,0.9173842533935904,0.06582899,0.013617646,0.10654455,-1.9157933,0.6997361,-0.09216146,0.25394446,-0.032111682,0.00176326,0.019057838,-0.18714415852005806,-0.24225887459153334,-0.9519914398845524,0.956079910564029,-0.2674679317635148,-0.11988373573603106,-0.22558428258125196,-0.9326154315471044,0.2816739041737987,left_images/camera_left_76.png,right_images/camera_right_76.png
2025-05-15 15:16:02,3.7219150066375732,77,0.008278722,-0.23599832,0.100806035,0.6833717,-0.17713334,0.13130122,0.6400003,0.05331003,0.02582489,0.0115501555,0.6437441755396246,0.7132004935926565,0.27737788736307073,-0.6561514352755625,0.7009570379533255,-0.27950764735427097,-0.3937749743757574,-0.0020704789038868965,0.919204537996022,0.06789179,0.011944379,0.106675364,-1.9176197,0.6951924,-0.09214494,0.25350183,-0.031898532,0.0019359257,0.01901068,-0.1891421138128485,-0.24392822845373147,-0.9511699533447382,0.9555891749157155,-0.2686608264177811,-0.12112262023427667,-0.22599687954993852,-0.93183709934298,0.28391025117411933,left_images/camera_left_77.png,right_images/camera_right_77.png
2025-05-15 15:16:02,3.764709234237671,78,0.010188199,-0.23562554,0.10101007,0.68438774,-0.17617404,0.13462579,0.6666672,0.05338533,0.02579977,0.011266485,0.6449618322747479,0.713334131434262,0.27418725688792783,-0.6577392161455553,0.7008204178224959,-0.276097565196313,-0.3891058447942281,-0.00227131988695492,0.9211902532337936,0.07054473,0.0110910935,0.10683556,-1.930093,0.69007325,-0.09918073,0.25793245,-0.031637944,0.0020769616,0.01896413,-0.1923168182173612,-0.24338767248221505,-0.9506717005961839,0.9528020139203777,-0.2782101307364905,-0.12152137846838679,-0.23490969264809503,-0.9291725157575823,0.28540475164352586,left_images/camera_left_78.png,right_images/camera_right_78.png
2025-05-15 15:16:02,3.8091330528259277,79,0.012126035,-0.23515931,0.10121491,0.6870304,-0.17570025,0.13761616,0.693334,0.05346869,0.025768531,0.0109776575,0.6450084070109872,0.7145760465973744,0.2708232421975925,-0.6604564323959402,0.6995517467707808,-0.2728088240815835,-0.3843975231345486,-0.002902967312320759,0.9231631042176718,0.073372,0.010305628,0.106997244,-1.9414673,0.68391275,-0.106363736,0.2531138,-0.03136348,0.0021902148,0.018914485,-0.19437385299052654,-0.24379326979589494,-0.9501492761013098,0.9502166854500644,-0.2872716534233184,-0.12067828235323153,-0.24353040049634578,-0.926304398533041,0.28749453089133814,left_images/camera_left_79.png,right_images/camera_right_79.png
2025-05-15 15:16:02,3.853908061981201,80,0.013933315,-0.23463729,0.10142956,0.6921233,-0.17637004,0.1396444,0.7200006,0.053547613,0.02574727,0.010685319,0.6430317060925446,0.7176540917126274,0.267362730401669,-0.6647899375618517,0.6963888956295412,-0.27036428196116735,-0.38021646975929524,-0.0038872473541165242,0.9248893584812117,0.07618549,0.010077322,0.10715872,-1.9526988,0.6783202,-0.11176425,0.25766653,-0.031089742,0.0022597525,0.018870465,-0.19764935367385544,-0.2437124947608762,-0.9494940510028156,0.9473266184833424,-0.29649311628825564,-0.12109545782809067,-0.2520059739474903,-0.9234154275791091,0.28947700634708107,left_images/camera_left_80.png,right_images/camera_right_80.png
2025-05-15 15:16:02,3.898458242416382,81,0.015672134,-0.23423465,0.10164389,0.6997208,-0.17788285,0.14014423,0.74666715,0.053627793,0.025749883,0.010400828,0.6388250211624839,0.7225288659890196,0.264300265132999,-0.6705783649816547,0.6913201112825059,-0.26907463677365484,-0.3771302808782169,-0.005342429125886616,0.9261448103270633,0.078574814,0.010268347,0.10732429,-1.9605632,0.6747812,-0.110963196,0.2535079,-0.03084059,0.0023122411,0.018821118,-0.2039500875921912,-0.24292890946347806,-0.9483616961465824,0.9446574118130369,-0.3030988682331383,-0.12551274988018163,-0.2569566813255337,-0.9214752416764522,0.29130163559357536,left_images/camera_left_81.png,right_images/camera_right_81.png
2025-05-15 15:16:02,3.9440953731536865,82,0.017587276,-0.23389862,0.10183154,0.7088986,-0.17960659,0.1401073,0.7733339,0.053739544,0.025753733,0.010131862,0.6334113866009834,0.7283873130191595,0.26123157840687705,-0.6773334028220243,0.6851278670952086,-0.26799116991256877,-0.3741784022972955,-0.007192215395758594,0.9273288495954086,0.08070196,0.010215674,0.107504584,-1.961376,0.6722612,-0.10576184,0.25330156,-0.030589111,0.0023566699,0.01876357,-0.20906260217544265,-0.24308273580623568,-0.9472083255148196,0.9436579556867166,-0.30423116176800763,-0.13020392804541203,-0.2565199622657058,-0.9210614440753907,0.2929903158757244,left_images/camera_left_82.png,right_images/camera_right_82.png
2025-05-15 15:16:02,3.991997003555298,83,0.019090988,-0.23363073,0.10197029,0.7170703,-0.18135455,0.14022154,0.8000005,0.053838834,0.025755035,0.009925992,0.628473380508924,0.7336452644076443,0.2584295571406703,-0.6833598714134279,0.6794763369444807,-0.2670790026833516,-0.3715380143854845,-0.008748345257719642,0.9283765240039966,0.08245031,0.010365345,0.10772372,-1.9590129,0.6731941,-0.09636175,0.253631,-0.030329974,0.002400365,0.018703012,-0.2155740176420205,-0.24120565427873508,-0.9462281306649285,0.9431687517315956,-0.302400896477885,-0.1377911592462845,-0.25290422826584225,-0.9221569986468349,0.29268741204896387,left_images/camera_left_83.png,right_images/camera_right_83.png
2025-05-15 15:16:02,4.043993949890137,84,0.020235848,-0.233409,0.102067195,0.7246598,-0.18330124,0.14001328,0.826667,0.053927064,0.025757069,0.009775047,0.6236313663836249,0.7386079697471588,0.25601208152833865,-0.6888617154405325,0.6740602262339018,-0.2666689865916682,-0.3695314003746085,-0.01005377717481426,0.9291638529891806,0.083790295,0.0106117595,0.107988216,-1.9514856,0.67853767,-0.083363995,0.25409895,-0.030051323,0.0024321354,0.018655222,-0.22143696712797803,-0.2368560817528454,-0.9459729732533865,0.9438625726670917,-0.2959007742651528,-0.14685426690274306,-0.24513080897231554,-0.9253874476812252,0.2890829606991836,left_images/camera_left_84.png,right_images/camera_right_84.png
2025-05-15 15:16:02,4.103052854537964,85,0.021450264,-0.23327596,0.10212535,0.73199135,-0.18462305,0.13962786,0.85333365,0.05403128,0.02575306,0.009657079,0.618941978928109,0.7432049500434652,0.25408114639116075,-0.6940364775087076,0.6689624122722329,-0.2660876901591285,-0.36772842507462145,-0.01164874232719501,0.9298602648754989,0.08580446,0.01109958,0.10826075,-1.9461117,0.6819378,-0.07023533,0.25320375,-0.029728303,0.0024513581,0.01861194,-0.22886374684724875,-0.23316542182728633,-0.9451218288893459,0.9436495331984014,-0.2915631587339731,-0.1565774024676203,-0.23905426972442384,-0.9276986636473998,0.2867546784158033,left_images/camera_left_85.png,right_images/camera_right_85.png
2025-05-15 15:16:03,4.150253057479858,86,0.022662986,-0.23320913,0.1021566,0.738669,-0.18545602,0.13927406,0.88000023,0.054142024,0.02574503,0.009564685,0.6147006464430463,0.7472573127542113,0.25248687846669565,-0.6986812169642589,0.6644018545284066,-0.2653577448663528,-0.3660432656447094,-0.013292262206601818,0.9305028981371245,0.08805738,0.011357678,0.108526796,-1.940947,0.68387514,-0.05701937,0.25444815,-0.029397124,0.0024902036,0.018567495,-0.23664068325466917,-0.23049020902493672,-0.9438619870364546,0.9432203788162201,-0.2875657913436751,-0.16625652659270873,-0.2331019176552383,-0.9296129190112017,0.28545282761416746,left_images/camera_left_86.png,right_images/camera_right_86.png
2025-05-15 15:16:03,4.193990468978882,87,0.02384234,-0.2331749,0.10216565,0.74485224,-0.18595764,0.13895719,0.9066669,0.054255705,0.025732227,0.009494338,0.6107903725982596,0.750906210464102,0.2511473349006929,-0.70293276075801,0.6602390686833417,-0.26451825274879515,-0.3644456812673202,-0.014974487323283409,0.9311042423568929,0.09030601,0.011108408,0.108776376,-1.9359998,0.68447363,-0.045385648,0.25477073,-0.029079475,0.0025647697,0.018519448,-0.24339584031745035,-0.22890492256561246,-0.9425290453569022,0.9428854173087479,-0.28370104396697016,-0.17458753528977894,-0.22743252789051693,-0.9311907721177666,0.2848827674325827,left_images/camera_left_87.png,right_images/camera_right_87.png
2025-05-15 15:16:03,4.242283344268799,88,0.02498339,-0.23320487,0.102173164,0.7503965,-0.18626264,0.13836926,0.9333335,0.054362703,0.02572707,0.009430355,0.6072124366091456,0.7541327623188805,0.25015362005071906,-0.7066283068295098,0.656514746580341,-0.2639409470124156,-0.36327605593328693,-0.016497403427377863,0.9315354759029362,0.09236848,0.01049467,0.108991064,-1.933051,0.6836949,-0.038047895,0.2548607,-0.028799362,0.0026564787,0.018469939,-0.24790678557202903,-0.22825848388764247,-0.9415095805145366,0.9425769643911492,-0.2813476481491396,-0.1799782405740033,-0.22380994586146047,-0.9320630694401868,0.2848991799202436,left_images/camera_left_88.png,right_images/camera_right_88.png
2025-05-15 15:16:03,4.287194490432739,89,0.026379785,-0.23333918,0.10218858,0.7552645,-0.18604717,0.1378318,0.96000016,0.0544826,0.025729742,0.009351491,0.6042071721449683,0.7568328625441649,0.24927436952439794,-0.7098039159020875,0.6533636992842928,-0.26323806226989077,-0.3620940404075209,-0.01788559841742983,0.9319699626439724,0.09416115,0.009693655,0.109173335,-1.9316963,0.68230534,-0.032897078,0.25459194,-0.028562853,0.0027639777,0.018419519,-0.25175835343667335,-0.22804965936564647,-0.9405376570547656,0.942105394158441,-0.2801607361120005,-0.18424817024532636,-0.22148398987832907,-0.9324716160851197,0.28537961984553417,left_images/camera_left_89.png,right_images/camera_right_89.png
2025-05-15 15:16:03,4.337092161178589,90,0.028453622,-0.23354796,0.10220133,0.7600311,-0.18594554,0.1366979,0.98666686,0.05466456,0.025745183,0.009248232,0.6013157881658336,0.7595398283353544,0.24802937744308112,-0.7127464120754264,0.6501960230915244,-0.26313054484337667,-0.3611258436834846,-0.01855749789885748,0.9323324215619798,0.09556582,0.008945767,0.109328456,-1.9311339,0.68115664,-0.028635439,0.25464272,-0.028372478,0.0028685178,0.01836811,-0.25543894690239494,-0.22781181084647845,-0.939602428287754,0.9415143410071356,-0.27953018205417096,-0.18818507645044907,-0.21977645479735713,-0.9327189588292983,0.2858909822941166,left_images/camera_left_90.png,right_images/camera_right_90.png
2025-05-15 15:16:03,4.386118173599243,91,0.03053977,-0.23381402,0.102226645,0.76365805,-0.18550937,0.1361665,1.0133326,0.05484025,0.02576484,0.009135025,0.5993714430662774,0.7615182566219516,0.24666539698164353,-0.7150274932719893,0.6478670768951554,-0.26268599989436436,-0.35984657439223094,-0.018926053650731536,0.9328195149070297,0.09648603,0.008075108,0.109475374,-1.9302789,0.6802902,-0.026301527,0.26212505,-0.028220218,0.0029680883,0.018299032,-0.2572543762021219,-0.22780695040797444,-0.9391081829430918,0.9413788506457337,-0.2785484282470616,-0.19030668059216665,-0.2182339237647863,-0.9330138082938055,0.28611044729494794,left_images/camera_left_91.png,right_images/camera_right_91.png
2025-05-15 15:16:03,4.43204927444458,92,0.032446466,-0.2341489,0.10228236,0.76668227,-0.18504511,0.13578816,1.0238276,0.05498654,0.025799116,0.009006061,0.5977895854302935,0.763170132639776,0.24539551788422015,-0.7169278922195994,0.6459146143001273,-0.26231414066168884,-0.35869486880723594,-0.019122229998216292,0.9332589841042278,0.0970967,0.0073975315,0.109612264,-1.9299922,0.6793921,-0.025296537,0.2549352,-0.028096974,0.0030413433,0.018216413,-0.25822087788261117,-0.22802760786280302,-0.9387893204962983,0.9412954911254121,-0.2781089652769989,-0.19135883000145665,-0.21745063028766548,-0.9330909995734205,0.28645490029422127,left_images/camera_left_92.png,right_images/camera_right_92.png
2025-05-15 15:16:03,4.474510192871094,93,0.03427829,-0.23456183,0.102373175,0.76861453,-0.18440309,0.13561428,1.0245292,0.055109035,0.025849607,0.008853349,0.5969798755836279,0.7641840581203504,0.24420842217841202,-0.7181192693975457,0.6447193688627031,-0.2619955158647058,-0.3576586963406478,-0.01896472325110818,0.933659786112649,0.097543225,0.0070196153,0.10974774,-1.9293,0.67817783,-0.024012713,0.2624873,-0.027988344,0.0030788411,0.018117491,-0.25901168028136023,-0.22883315765231121,-0.9383753702206271,0.9412839800257966,-0.27762841035776753,-0.1921117766015782,-0.21655811789129975,-0.9330368972988644,0.28730598645744654,left_images/camera_left_93.png,right_images/camera_right_93.png
2025-05-15 15:16:03,4.518722057342529,94,0.03609645,-0.23490663,0.102462836,0.77095807,-0.18331777,0.13531207,1.0245757,0.055223465,0.025887333,0.008700886,0.5959097066141696,0.7652595467240619,0.24345317354821544,-0.7195162757404336,0.6434283665226143,-0.26133554312159035,-0.35663419705298954,-0.019436133919159854,0.934041908155435,0.097909935,0.0068384004,0.10988001,-1.9283007,0.6767024,-0.022435723,0.25437585,-0.027888644,0.0030931025,0.01801064,-0.25975317948643095,-0.23005553197031592,-0.9378713866818547,0.9413118610995379,-0.27710196964432565,-0.19273421744090846,-0.2155464356003461,-0.9328927862456061,0.28853211861228845,left_images/camera_left_94.png,right_images/camera_right_94.png
2025-05-15 15:16:03,4.564208507537842,95,0.038070425,-0.23509216,0.10255378,0.7734812,-0.18217954,0.13458186,1.0245782,0.055347208,0.02591098,0.008538075,0.5947192508419875,0.7663708871691381,0.24286760998028045,-0.7209199902968617,0.642086786919305,-0.26076603623558076,-0.3557855818724508,-0.020005533315346616,0.9343534654339601,0.098183386,0.0067637363,0.11001286,-1.927891,0.6753072,-0.021972205,0.26269037,-0.027794674,0.0030927802,0.017898621,-0.259862989115753,-0.231178248114687,-0.9375648481499561,0.941353608277883,-0.2770541505763223,-0.19259901824942577,-0.2152315289868938,-0.9326294093835219,0.2896165977338093,left_images/camera_left_95.png,right_images/camera_right_95.png
2025-05-15 15:16:03,4.607727527618408,96,0.040444218,-0.23516934,0.10265242,0.7765132,-0.18051022,0.13351275,1.0245786,0.05549445,0.025919959,0.008349226,0.59331443845026,0.7675675286255231,0.24252436192300156,-0.7225334508417224,0.6406229991166822,-0.25989918317974686,-0.3548568578190434,-0.021030026211440414,0.9346840901910876,0.09844702,0.006742577,0.110150985,-1.9280099,0.67366505,-0.02292044,0.25538412,-0.027697828,0.0030788416,0.017778926,-0.25902868177914395,-0.23243235048171196,-0.9374856502716751,0.9414858916267735,-0.27747778197321027,-0.19133843413952845,-0.21565819688455634,-0.9321916557021813,0.2907064828237027,left_images/camera_left_96.png,right_images/camera_right_96.png
2025-05-15 15:16:03,4.661413192749023,97,0.043167662,-0.2352063,0.102758475,0.7790531,-0.17822112,0.13269494,1.0245788,0.055662625,0.025919264,0.008137886,0.5925093003318253,0.7682955585510184,0.24218724931562743,-0.7238288064221455,0.639712968519002,-0.2585327385498769,-0.3535598789650537,-0.022119055571734922,0.9351503405158079,0.09876227,0.00675574,0.11027458,-1.9275833,0.67157316,-0.023528827,0.26351166,-0.027605848,0.0030558025,0.017667573,-0.2580673511874022,-0.23418188605651763,-0.937315361281426,0.9417312719715343,-0.27761804005483925,-0.18992218202986622,-0.2157393187205197,-0.9317119018661948,0.29218055766748774,left_images/camera_left_97.png,right_images/camera_right_97.png
2025-05-15 15:16:03,4.705671310424805,98,0.046161912,-0.23519458,0.10287817,0.7819469,-0.17574596,0.13116418,1.0245788,0.05584384,0.02591858,0.007904129,0.591402495157467,0.7691543566019736,0.24216660472023357,-0.7251628158432402,0.6386362777567178,-0.25745406435196766,-0.3526782942567132,-0.0233512409359367,0.935453227214983,0.09906205,0.0068553374,0.1103791,-1.9274035,0.6697359,-0.024397507,0.2548551,-0.027525324,0.003025385,0.017574891,-0.25700603475517064,-0.23566831267120353,-0.9372344127816327,0.9419412919485597,-0.27793607422010264,-0.18840950392534755,-0.21608910343120502,-0.9312421731482232,0.29341696325957806,left_images/camera_left_98.png,right_images/camera_right_98.png
2025-05-15 15:16:03,4.7503204345703125,99,0.048910398,-0.23511899,0.10299469,0.78450835,-0.17354204,0.130046,1.024579,0.05600941,0.025912028,0.007681867,0.5905291931283891,0.7698976073144217,0.2419358309855372,-0.7264058044948822,0.6377004044124961,-0.25626705096106667,-0.35158196662979857,-0.024410417113756522,0.9358387960952761,0.09930354,0.0069531347,0.11046133,-1.9273281,0.6683612,-0.024893388,0.2708391,-0.02746192,0.0030019083,0.01750301,-0.2563855551768733,-0.2367551427340801,-0.9371304335500004,0.9420477035980039,-0.2782315441171294,-0.18743887538054893,-0.21636212987113418,-0.9308781930237506,0.2943691874338468,left_images/camera_left_99.png,right_images/camera_right_99.png
2025-05-15 15:16:03,4.799482345581055,100,0.05119473,-0.23496816,0.1031183,0.7864642,-0.17158204,0.12957421,1.024579,0.056135282,0.025899539,0.007471008,0.5900717885972937,0.7703586072583216,0.24158414791664112,-0.7274338500704508,0.6371058963203703,-0.25482556905753817,-0.35022175556819896,-0.025371107520886782,0.9363231433804742,0.099464335,0.0068547055,0.11051584,-1.9274809,0.6668257,-0.026778163,0.2564051,-0.02741966,0.002989667,0.017447865,-0.25476495389851184,-0.23798430928452396,-0.937261055842745,0.9423396029515871,-0.27860687052481126,-0.18540303235226774,-0.21700435703951682,-0.9304524062147075,0.2952413060449483,left_images/camera_left_100.png,right_images/camera_right_100.png
2025-05-15 15:16:03,4.847441673278809,101,0.053346165,-0.2345917,0.1032911,0.7879159,-0.1697747,0.129438,1.0245789,0.056228958,0.025876874,0.007217828,0.59006137205542,0.7705274076811286,0.24107071829709031,-0.7282330538832351,0.6368684648156417,-0.25313075229071774,-0.34857452064081257,-0.026192986381233643,0.9369150073643074,0.09953838,0.0067451196,0.110552505,-1.927657,0.6657184,-0.02812589,0.27078557,-0.027394539,0.002985749,0.017407062,-0.25368811491556,-0.23888894880911926,-0.9373230022182659,0.9425245173584544,-0.2789020305042903,-0.18401410695595133,-0.2174623519802958,-0.9301321021862743,0.2959128215433391,left_images/camera_left_101.png,right_images/camera_right_101.png
2025-05-15 15:16:03,4.90262246131897,102,0.05536101,-0.2340351,0.10350315,0.7898827,-0.16781035,0.12939604,1.024579,0.056290083,0.025840746,0.0069317296,0.5897279977709707,0.7708767236351908,0.24076952797751588,-0.7293927304331718,0.6363862909624182,-0.25099548495209834,-0.34670900397348287,-0.027596478626271445,0.9375666914578106,0.0995656,0.006659922,0.11057697,-1.9278455,0.6649212,-0.029026853,0.26216358,-0.027380165,0.0029849415,0.017377065,-0.25303536646264024,-0.23954914197682758,-0.9373309511038685,0.9426229839727713,-0.2791568271929278,-0.18312120553842431,-0.2177958066753934,-0.9298858394500602,0.2964410770876248,left_images/camera_left_102.png,right_images/camera_right_102.png
2025-05-15 15:16:03,4.950713634490967,103,0.0574671,-0.23330231,0.10377476,0.79310894,-0.16542628,0.12940374,1.0245789,0.056328014,0.025790842,0.006584199,0.5886315833017817,0.7717369795725124,0.24069668360809074,-0.7313699954699191,0.6352350585351508,-0.24814179441233647,-0.3443991708264821,-0.02997423507179503,0.9383446895282632,0.099621415,0.0064559295,0.11058199,-1.9275246,0.6632801,-0.030341042,0.2545601,-0.027376115,0.0029837666,0.017352808,-0.251669218409339,-0.2410598665966543,-0.9373114451566434,0.9429615782710974,-0.2791392614756596,-0.18139662237016446,-0.21791297898407314,-0.9295006258304652,0.2975609520267407,left_images/camera_left_103.png,right_images/camera_right_103.png
2025-05-15 15:16:03,4.9945807456970215,104,0.05932801,-0.23253396,0.10404828,0.79655963,-0.16334033,0.12936759,1.024579,0.05634696,0.025740575,0.00624468,0.5872510657875718,0.7727992427964331,0.24066058269816598,-0.7335049166906839,0.6338233121233336,-0.24543542164813997,-0.34220859562838885,-0.03239350771785737,0.9390654597714576,0.09965331,0.0062625674,0.11057805,-1.9274116,0.6618322,-0.03183041,0.2712018,-0.027378853,0.0029833438,0.01733739,-0.25029647432491076,-0.24236919013564273,-0.9373413735739566,0.943261303674117,-0.2792408917315249,-0.1796736969508559,-0.2181966725949882,-0.9291295389007797,0.298510488945531,left_images/camera_left_104.png,right_images/camera_right_104.png
2025-05-15 15:16:03,5.040149688720703,105,0.060951393,-0.23160799,0.10430107,0.7999515,-0.1613494,0.12946819,1.024579,0.05635357,0.02566926,0.0059295697,0.5858971982988731,0.773808588438658,0.24071713998820846,-0.7356412564798765,0.6324535948712706,-0.24255801800623955,-0.3399358980605601,-0.034967396142384644,0.9397983115630619,0.09967311,0.0059914854,0.1105611,-1.9267985,0.6599881,-0.032959245,0.25564963,-0.027391277,0.002987191,0.017325388,-0.24892751204340233,-0.24415479337121904,-0.9372425143055234,0.9436573303628312,-0.27900718826262705,-0.1779489582725272,-0.21805030749892645,-0.9287321604055933,0.29985102572441413,left_images/camera_left_105.png,right_images/camera_right_105.png
2025-05-15 15:16:03,5.087938070297241,106,0.062461786,-0.23042542,0.10454985,0.80343944,-0.1594695,0.12960902,1.024579,0.056351297,0.025570864,0.0056165243,0.5845094562401951,0.7748305720679286,0.24080340561270766,-0.7378632846076002,0.6310431085102644,-0.23946266604585092,-0.33750032413891906,-0.037711799089800935,0.9405696951398845,0.099601716,0.0057420507,0.110538,-1.926433,0.6586972,-0.033719987,0.27158242,-0.027413912,0.0029974463,0.017319826,-0.24809743488909028,-0.24545932490175082,-0.9371218611366561,0.9439085035646416,-0.27885349551774585,-0.1768543608054191,-0.2179091546948233,-0.9284344068679871,0.30087398100180796,left_images/camera_left_106.png,right_images/camera_right_106.png
2025-05-15 15:16:03,5.138409852981567,107,0.064443044,-0.22854054,0.10484205,0.80782044,-0.15726888,0.12983705,1.0245789,0.05636403,0.025401637,0.0052282773,0.5829093197354923,0.7760587158169069,0.24072722025171778,-0.7406835816900853,0.6293157693260086,-0.2352647323598684,-0.33407268188262906,-0.0411646946086968,0.9416479762297163,0.099435106,0.0054675103,0.110506125,-1.9262818,0.65758336,-0.03500932,0.25636917,-0.027448662,0.0030090776,0.01731824,-0.24697006723216047,-0.2466364331266227,-0.9371105888559361,0.9441835422835552,-0.27880592415422917,-0.17545567855553823,-0.21799822102994387,-0.9281366960265515,0.30172677891877037,left_images/camera_left_107.png,right_images/camera_right_107.png
2025-05-15 15:16:04,5.185251235961914,108,0.06657354,-0.22638904,0.10514321,0.81165695,-0.15572873,0.12972319,1.024579,0.056392446,0.02521705,0.0048208227,0.581676754964185,0.7771377357488289,0.2402271683417972,-0.7431204327621932,0.6278040231110182,-0.23159043800845955,-0.330793251360522,-0.04380694283789757,0.9426859374221783,0.09921273,0.005204458,0.11046401,-1.926254,0.6566073,-0.036556814,0.27081376,-0.027492907,0.0030191154,0.017323328,-0.2457007498712712,-0.24771193005919556,-0.9371605738714381,0.9444620219045151,-0.27882823811756996,-0.17391464230560655,-0.2182260999347474,-0.9278435284758955,0.3024628175043499,left_images/camera_left_108.png,right_images/camera_right_108.png
2025-05-15 15:16:04,5.239232778549194,109,0.06804407,-0.2244475,0.105412446,0.8138669,-0.1562342,0.12946983,1.0245789,0.056402937,0.025075046,0.004475318,0.5810856746541881,0.7780144974715917,0.23881557829361483,-0.744616671377061,0.6266835329933336,-0.2298124500159631,-0.3284592081507734,-0.04428533842052154,0.9434793889544948,0.09893752,0.0050444445,0.110414885,-1.9262627,0.6560165,-0.037451975,0.25566185,-0.027545337,0.0030261837,0.017335657,-0.2450218687874989,-0.24848681828686198,-0.9371331735423486,0.9446138942500333,-0.278860302492832,-0.17303618836357043,-0.2183320283551372,-0.9276266667314379,0.30305097353919397,left_images/camera_left_109.png,right_images/camera_right_109.png
2025-05-15 15:16:04,5.287279367446899,110,0.068730794,-0.2229177,0.10563567,0.81467986,-0.15770738,0.12942079,1.0245789,0.056377336,0.024978722,0.0042136153,0.581062733676851,0.778519724478925,0.23721959895683906,-0.7453119451980057,0.6261001677064932,-0.2291477347543847,-0.3269192620160974,-0.043653391565371805,0.944043525229473,0.09862271,0.0049157212,0.110363,-1.9263663,0.65544254,-0.038711682,0.2544043,-0.02760177,0.0030275676,0.01734764,-0.2440664905193403,-0.24926686556736133,-0.9371753186761781,0.944795605790028,-0.27897872278786673,-0.17184916500089498,-0.2186156707224508,-0.9273817455405696,0.30359559705749917,left_images/camera_left_110.png,right_images/camera_right_110.png
2025-05-15 15:16:04,5.340060710906982,111,0.068613954,-0.22173254,0.10582013,0.8140324,-0.15988988,0.1294982,1.0245788,0.056305077,0.024920901,0.004029261,0.5816812369975201,0.7785148907791355,0.235714877256795,-0.7451301987763139,0.626207547248908,-0.22944518874902947,-0.32623293119580377,-0.04217431213022517,0.9443481360175052,0.09828155,0.004861639,0.11031382,-1.9264818,0.65513253,-0.039495945,0.26221174,-0.027658835,0.0030265679,0.017359316,-0.24352808955712393,-0.24983606758387888,-0.9371638111509005,0.9448908806766554,-0.2790966424054765,-0.17113236927035158,-0.21880423490131962,-0.9271930778064582,0.3040356940509371,left_images/camera_left_111.png,right_images/camera_right_111.png
2025-05-15 15:16:04,5.399690628051758,112,0.06650703,-0.22068858,0.105969936,0.81053877,-0.16264239,0.13058984,1.0245788,0.056069586,0.024877917,0.003965606,0.583842761362559,0.7771025034786004,0.23503048545206623,-0.743369438277964,0.6280759276805847,-0.23004892371510266,-0.3263885847250885,-0.04040208107838948,0.9443718354576703,0.09792595,0.0048373006,0.11027073,-1.9266592,0.6549985,-0.039962303,0.25487214,-0.02771338,0.0030264223,0.017366907,-0.2433197748549617,-0.25024695202456776,-0.9371082915901154,0.9449124415618528,-0.2792412361279528,-0.17077707641059725,-0.21894283488195915,-0.9270387235968877,0.30440637313582086,left_images/camera_left_112.png,right_images/camera_right_112.png
2025-05-15 15:16:04,5.454562664031982,113,0.0636611,-0.21918756,0.1061136,0.8086099,-0.16505113,0.13281384,1.024579,0.05576255,0.024768624,0.003925535,0.5850769433137788,0.776271814378153,0.23470628582263442,-0.7428709954704126,0.6290989078694361,-0.22886076161343477,-0.3253116267387379,-0.040455337342971784,0.9447410815610078,0.09753936,0.004860877,0.110229164,-1.9268361,0.65502864,-0.040186826,0.27046233,-0.027769338,0.003024119,0.017373364,-0.24331688494129688,-0.2505413856587263,-0.9370303664101122,0.944892618552556,-0.27938101667808213,-0.17065809949959893,-0.21903157970337872,-0.9269170737407562,0.3047128246407031,left_images/camera_left_113.png,right_images/camera_right_113.png
2025-05-15 15:16:04,5.5042784214019775,114,0.06120325,-0.21741185,0.106260136,0.8089231,-0.16652255,0.13419859,1.024579,0.055471707,0.024618968,0.0038614487,0.5848139974672542,0.776299706275427,0.235268685555593,-0.7435680927063503,0.6289507025926563,-0.22699670750309264,-0.32418988243838076,-0.04218743586531369,0.9450508665567685,0.097178,0.0048437845,0.110189036,-1.9270412,0.65486497,-0.041081384,0.25558513,-0.027821887,0.0030196062,0.017378477,-0.24272668259949384,-0.2509795536823652,-0.9370661775924074,0.9449770367795105,-0.2795571922720156,-0.1699004891352669,-0.21932204064721855,-0.9267454018674104,0.3050259048080207,left_images/camera_left_114.png,right_images/camera_right_114.png
2025-05-15 15:16:04,5.5594868659973145,115,0.059491556,-0.21532007,0.10642026,0.8101273,-0.168859,0.13470842,1.0245792,0.055251315,0.024451297,0.0037473375,0.5839662646033803,0.7770163928138355,0.23500835539135675,-0.7447242778367275,0.628000579840703,-0.22583405792817351,-0.32306214851904214,-0.0431369565258863,0.9453941247839147,0.0968582,0.004834519,0.11015589,-1.9272252,0.65479034,-0.0417074,0.2546394,-0.027866988,0.0030167997,0.017381947,-0.2423578438979577,-0.25130284935034053,-0.9370749988178817,0.9450228248572262,-0.2797043601390353,-0.16940286720737985,-0.21953253972931103,-0.9266133761324692,0.3052754742398832,left_images/camera_left_115.png,right_images/camera_right_115.png
2025-05-15 15:16:04,5.606081247329712,116,0.05848931,-0.2133401,0.10656832,0.81155705,-0.17113052,0.13446955,1.0245792,0.055100404,0.02429594,0.003617134,0.5829828075956703,0.7778924934776028,0.23455130491870502,-0.7458453147981277,0.6268812148459021,-0.22524366554246944,-0.32225116359999617,-0.04362580732231425,0.9456484423367517,0.09661508,0.004834703,0.11012995,-1.92735,0.65474355,-0.04216139,0.26284492,-0.027901871,0.0030140555,0.017385505,-0.24208189096322053,-0.2515432201536289,-0.9370818355204706,0.9450587177484451,-0.2798065770466789,-0.1690334270169233,-0.21968244826416156,-0.9265172895505855,0.3054592183721095,left_images/camera_left_116.png,right_images/camera_right_116.png
2025-05-15 15:16:04,5.661160945892334,117,0.05824581,-0.21165673,0.10668161,0.8130484,-0.17315437,0.13344401,1.024579,0.055033468,0.0241665,0.0034924913,0.5819439480974418,0.7788383020330004,0.23399175318612225,-0.7467976528489685,0.6257073934424915,-0.2253519990829343,-0.3219231382986221,-0.04360226000743744,0.9457612468008034,0.0964322,0.0048326184,0.11011169,-1.9274831,0.6547105,-0.042444155,0.25525707,-0.027927373,0.0030131238,0.017386949,-0.24196118890234775,-0.25171333962951015,-0.9370673282734392,0.9450629912962811,-0.27991097362821615,-0.1688365757904054,-0.21979700986839573,-0.9264395509125585,0.3056125536653385,left_images/camera_left_117.png,right_images/camera_right_117.png
2025-05-15 15:16:04,5.710834741592407,118,0.058295313,-0.21036582,0.10674115,0.8145717,-0.17434442,0.13257658,1.024579,0.05501163,0.024056645,0.0034101885,0.5809698416414217,0.7796637504275813,0.2336631750454903,-0.7477239401913188,0.6246586042931541,-0.22519000276943385,-0.3215321949166372,-0.04388694967443853,0.9458810619101974,0.09630557,0.004851111,0.11009884,-1.9275858,0.6546868,-0.042580016,0.26744267,-0.027945422,0.0030110674,0.017387882,-0.24193078997941014,-0.2518330527874122,-0.9370430120243739,0.9450516319429572,-0.2800034815628896,-0.16874674300446202,-0.21987929830225472,-0.9263790605559006,0.3057367010054159,left_images/camera_left_118.png,right_images/camera_right_118.png
2025-05-15 15:16:04,5.760547876358032,119,0.057759427,-0.2089319,0.106646426,0.81510586,-0.17597762,0.13201319,1.024579,0.05500691,0.023905275,0.0034862105,0.5805946424509798,0.7800281315892975,0.23337946586306293,-0.7481160835027599,0.6242043268734063,-0.2251472494102676,-0.3212976606850889,-0.04387564520126484,0.9459612788039806,0.09620981,0.0048718313,0.110090256,-1.9276948,0.6546736,-0.042620547,0.25525862,-0.027958475,0.003009534,0.01738752,-0.24198640920258066,-0.2519126671087934,-0.9370072496578538,0.9450221949022919,-0.28009962614625983,-0.1687520387277736,-0.2199446041695402,-0.9263283476083735,0.30584336434496096,left_images/camera_left_119.png,right_images/camera_right_119.png
2025-05-15 15:16:04,5.806043863296509,120,0.056775864,-0.20737207,0.10641086,0.81557584,-0.17746332,0.13253646,1.0245793,0.055023495,0.023702629,0.0036997348,0.5804349896665365,0.7802560009211101,0.23301458279988407,-0.7487001230364745,0.6238833269737476,-0.22409310584963513,-0.3202239037548188,-0.04438656723339093,0.9463014763347144,0.09612512,0.0048871185,0.11008636,-1.9278216,0.65467,-0.04263746,0.25410324,-0.027968042,0.0030091614,0.017384281,-0.2420788829148503,-0.25196858413404266,-0.9369683276697158,0.9449830741736884,-0.28020429158114096,-0.16879734744585329,-0.22001091784714538,-0.9262814839933899,0.30593758912408897,left_images/camera_left_120.png,right_images/camera_right_120.png
2025-05-15 15:16:04,5.855334043502808,121,0.055383258,-0.205411,0.105980575,0.8155372,-0.17969501,0.13354108,1.0245788,0.055096027,0.023425072,0.0040923087,0.5806829355806784,0.7803080399006599,0.2322212117611046,-0.7491301453683399,0.6238066348255406,-0.2228661204581004,-0.3187653582587286,-0.04454935705512153,0.9467861433080649,0.09605787,0.0048860214,0.110085264,-1.9279522,0.65466624,-0.04263299,0.25656554,-0.02797455,0.0030105745,0.017379932,-0.24219916863656646,-0.25200518177235964,-0.9369273990398808,0.944939891161616,-0.2803014239961531,-0.16887780729628776,-0.22006400160687195,-0.9262421390034081,0.30601852089565085,left_images/camera_left_121.png,right_images/camera_right_121.png
2025-05-15 15:16:04,5.90170431137085,122,0.05415156,-0.20327742,0.10545036,0.814909,-0.1829377,0.13568823,1.024579,0.055247746,0.023116106,0.00455809,0.5816225342675923,0.7803108227860699,0.22984831405748968,-0.7495152691608716,0.6238758423557305,-0.2213725245364344,-0.3161361873099154,-0.04351957223887619,0.9477151248689111,0.0959973,0.004863955,0.11008556,-1.928098,0.65466267,-0.04261682,0.25412118,-0.02797994,0.0030146553,0.017375015,-0.24235201259614036,-0.2520282950727846,-0.9368816576672347,0.9448905888618726,-0.28039709436002613,-0.16899480629510039,-0.22010742166238767,-0.9262068926309932,0.3060939642854394,left_images/camera_left_122.png,right_images/camera_right_122.png
2025-05-15 15:16:04,5.946766138076782,123,0.052981425,-0.20109329,0.10485203,0.8131586,-0.18703374,0.1390457,1.0245788,0.055454306,0.022795547,0.0050772,0.5835800986262543,0.7799562148404141,0.22605877868197333,-0.7495066592593996,0.6244753451394174,-0.21970505465013787,-0.31252845664544826,-0.04121706254477178,0.9490137604597706,0.09592909,0.004832139,0.110087074,-1.9282627,0.65467393,-0.042591613,0.25457698,-0.02798523,0.0030201422,0.017368672,-0.24253489951005164,-0.25203887247180506,-0.9368314839301624,0.944834119903974,-0.28049772990857696,-0.1691434579917815,-0.22014837811106336,-0.9261735422043085,0.30616541498966227,left_images/camera_left_123.png,right_images/camera_right_123.png
2025-05-15 15:16:04,5.994506597518921,124,0.051565837,-0.19877659,0.10413072,0.8092743,-0.19187452,0.14547893,1.0245789,0.055717967,0.022433909,0.0057061594,0.5876106237549021,0.7786223463131828,0.22013858515064733,-0.7488404330994937,0.626365992301479,-0.21657250389545296,-0.3065155144617274,-0.03758836934395242,0.9511232064692381,0.09585614,0.00480739,0.11009001,-1.9284341,0.65469563,-0.04255786,0.25385237,-0.02799008,0.0030252421,0.017361075,-0.24272771744256325,-0.25204387936643374,-0.9367801973029971,0.9447738916724302,-0.28060547201959707,-0.1693011006662113,-0.22019434324989973,-0.9261395423728425,0.30623520250645186,left_images/camera_left_124.png,right_images/camera_right_124.png
2025-05-15 15:16:04,6.042823076248169,125,0.05080725,-0.19662921,0.10344184,0.8050321,-0.19639209,0.15328754,1.0245788,0.056035437,0.022087798,0.006278918,0.5923051541484692,0.7770520007308209,0.21299012307942072,-0.7481813879663451,0.6285447974459157,-0.21249952542165013,-0.2989970151521783,-0.033490681747336645,0.9536661675692323,0.09578295,0.0047988547,0.11009535,-1.9286203,0.6547238,-0.04248699,0.25411314,-0.0279938,0.0030287108,0.017351378,-0.24295848755835414,-0.25204232508636265,-0.936720790678,0.9447017672825169,-0.2807330066736342,-0.16949203479004754,-0.22024927744863665,-0.9261013148295609,0.30631129664821694,left_images/camera_left_125.png,right_images/camera_right_125.png
2025-05-15 15:16:04,6.085458517074585,126,0.050984185,-0.19456095,0.102845795,0.79962885,-0.20068543,0.16271406,1.0245788,0.056405596,0.02176161,0.0067300256,0.5983397566789158,0.7748101524803963,0.20410478483053873,-0.7470482203869206,0.6315590496721102,-0.207490055650857,-0.28966962559811205,-0.02832656686868082,0.9567074336573765,0.09571537,0.004788947,0.11010226,-1.9288216,0.65474916,-0.042392574,0.25406176,-0.027995795,0.0030329088,0.017340675,-0.24322177288585328,-0.2520353814776484,-0.9366543309448148,0.9446209788829076,-0.28087097542170575,-0.16971358643301654,-0.22030518706685015,-0.9260613703470606,0.3063918453587895,left_images/camera_left_126.png,right_images/camera_right_126.png
2025-05-15 15:16:04,6.133421182632446,127,0.05230723,-0.19236036,0.10234572,0.79568183,-0.20397583,0.17128128,1.024579,0.0568208,0.02143254,0.007048009,0.6035443276335427,0.7730253039210657,0.19536152149059183,-0.746530630623691,0.6339252867070462,-0.20206619809850374,-0.2800468927197183,-0.023887452169147574,0.9596890785597685,0.09571368,0.004739065,0.110103555,-1.9283099,0.6542016,-0.041735515,0.26290968,-0.027997997,0.00303578,0.017330177,-0.24347641147416302,-0.2526501094305519,-0.9364225324394935,0.9446716185065801,-0.2805750441305408,-0.169921092861667,-0.2198062106579846,-0.9259835672493735,0.3069847926857331,left_images/camera_left_127.png,right_images/camera_right_127.png
2025-05-15 15:16:05,6.176583766937256,128,0.0548745,-0.19002342,0.101944484,0.79263395,-0.20639698,0.17917126,1.0245792,0.057290833,0.02110202,0.0072275307,0.6083716789832804,0.7714386201538334,0.18645738265409068,-0.7463118200051727,0.6359973549453756,-0.19628049272164733,-0.27000475464634155,-0.01974385569324119,0.96265653928633,0.09572953,0.004681461,0.11010469,-1.9279882,0.6537788,-0.04116675,0.25536442,-0.027998596,0.003041542,0.017322825,-0.24379391804633788,-0.2530893816338725,-0.9362212828321088,0.9446768177935868,-0.2803897712193084,-0.1701977852939517,-0.2194316190684416,-0.925919727136088,0.3074449925649048,left_images/camera_left_128.png,right_images/camera_right_128.png
2025-05-15 15:16:05,6.221142053604126,129,0.05833972,-0.18734984,0.10165147,0.7865033,-0.20956047,0.19015022,1.0245789,0.05781764,0.020758511,0.0072676353,0.6160261987767266,0.7682321298362155,0.17415831047644326,-0.744683899587237,0.6400365769019047,-0.1892064214640669,-0.2568221410163906,-0.013136777192466129,0.9663693977815899,0.09573724,0.0046069133,0.11010816,-1.9278297,0.6534555,-0.04071372,0.2544877,-0.027998134,0.0030501725,0.017314661,-0.24413872785143154,-0.25340445174269727,-0.9360461876425049,0.9446503311813772,-0.2802940160499532,-0.17050224739135567,-0.21916211662146157,-0.9258625429314934,0.3078092237643786,left_images/camera_left_129.png,right_images/camera_right_129.png
2025-05-15 15:16:05,6.275922536849976,130,0.06168821,-0.1846979,0.10144146,0.78014296,-0.2126583,0.20145398,1.0245788,0.058298524,0.020432923,0.007244343,0.6236342439446613,0.7648094950308466,0.1616996168524591,-0.7428625512510298,0.6442226429832035,-0.18202312000552778,-0.24338356503342945,-0.006604739086236114,0.9699076335884882,0.09570792,0.0044877604,0.1101185,-1.9279702,0.6532128,-0.040213853,0.25412095,-0.027997222,0.0030678487,0.01729894,-0.24478844628999563,-0.2536050818471203,-0.9358221406999544,0.9445208723649889,-0.2803766740617395,-0.17108255992051663,-0.21899529271153295,-0.9257825787426508,0.3081682635619663,left_images/camera_left_130.png,right_images/camera_right_130.png
2025-05-15 15:16:05,6.320497274398804,131,0.06481647,-0.18203758,0.10131434,0.7742299,-0.21506692,0.21190093,1.024579,0.05870933,0.02011937,0.0071626613,0.6306263678592566,0.7613732481785075,0.15040332815051116,-0.7409911612561201,0.6483128747925044,-0.1749929007662453,-0.23074332731619374,-0.0010923993716599883,0.9730140407839265,0.09562533,0.004362383,0.11013801,-1.9282862,0.653047,-0.0398459,0.2629823,-0.027995422,0.0030872235,0.01727315,-0.24546472634073233,-0.2537440386038978,-0.9356073059758847,0.9443572277320686,-0.2805703211163827,-0.1716674731533373,-0.21894404434163367,-0.9256858310364448,0.30849513394168016,left_images/camera_left_131.png,right_images/camera_right_131.png
2025-05-15 15:16:05,6.368184804916382,132,0.06866739,-0.17810448,0.101278074,0.77185154,-0.21483497,0.22135997,1.024579,0.0590987,0.01965526,0.00694953,0.6358415872849502,0.7588181823195739,0.14106892662869827,-0.7406963198603542,0.651302433260733,-0.16484569200915267,-0.21696644354434855,0.0003265116636585602,0.9761790080542865,0.095562845,0.004210924,0.11015796,-1.9279937,0.6523712,-0.039024435,0.25485456,-0.027993597,0.0031041405,0.017240189,-0.2461114680024456,-0.25446785039855385,-0.9352407489150696,0.9443095658865459,-0.2804019432700599,-0.17220393138815837,-0.218422959170607,-0.9255381479571295,0.30930655923087375,left_images/camera_left_132.png,right_images/camera_right_132.png
2025-05-15 15:16:05,6.421386003494263,133,0.07266392,-0.1742088,0.1012889,0.7709959,-0.21421455,0.22806662,1.0245789,0.059463795,0.019211555,0.006696948,0.6395675282622004,0.7570378466018395,0.13359294743746497,-0.7407734950242082,0.6533704569225773,-0.15608227026283894,-0.20544587088135624,0.0008630372137204134,0.9786680996663624,0.09546828,0.0039729266,0.11018144,-1.9281006,0.6513595,-0.039939355,0.2542481,-0.027991176,0.00311792,0.01719932,-0.24549933877481236,-0.2554282250984885,-0.9351398272366364,0.9444288794775135,-0.2805491419011896,-0.171307532196791,-0.21859589719383654,-0.9252289450733491,0.31010842124727866,left_images/camera_left_133.png,right_images/camera_right_133.png
2025-05-15 15:16:05,6.467376947402954,134,0.07616107,-0.17090668,0.10127305,0.770204,-0.21566999,0.23158796,1.024579,0.059810348,0.018869247,0.006507789,0.6420911166725086,0.7560299087520226,0.127034542399534,-0.7406935315087309,0.6545292027168341,-0.1515408036536363,-0.19771719771273172,0.0032093400059062666,0.9802538497069782,0.0953789,0.0036637648,0.11020218,-1.9283677,0.6500878,-0.04215415,0.25431076,-0.027988903,0.003128606,0.017159214,-0.24383619420797573,-0.2565761397096881,-0.9352607096023251,0.9447155277942865,-0.28082653606106467,-0.16926023806052642,-0.21921788690372157,-0.9248270871766344,0.31086713703099744,left_images/camera_left_134.png,right_images/camera_right_134.png
2025-05-15 15:16:05,6.51297664642334,135,0.079481274,-0.1674576,0.10121838,0.77214926,-0.21904208,0.23004706,1.024579,0.0601552,0.018551921,0.0063660955,0.641722218068602,0.7570796040445198,0.12256862558137199,-0.7418927689950017,0.6532954034181604,-0.15099746748085496,-0.19439062258772283,0.005965652730080165,0.9809060591297525,0.095282376,0.0033346778,0.11022158,-1.9287261,0.6488848,-0.0445917,0.2546922,-0.02798748,0.003140563,0.017120924,-0.2420474489302917,-0.25764246501224924,-0.935432195666126,0.9450066197779621,-0.28114679332350534,-0.16708970399082085,-0.21994435896873504,-0.9244332538514191,0.31152469907137403,left_images/camera_left_135.png,right_images/camera_right_135.png
2025-05-15 15:16:05,6.568483114242554,136,0.08253579,-0.16396375,0.10117596,0.77541363,-0.22220327,0.22652614,1.024579,0.060457204,0.018237516,0.0062272195,0.6401915548419685,0.7588150694217245,0.11981011446253838,-0.7436105552163167,0.651259483604727,-0.1513420866308706,-0.19286812924872865,0.007795860017226319,0.9811937164936839,0.09518278,0.0030772833,0.11024117,-1.929077,0.64800113,-0.046378978,0.2540313,-0.027985878,0.00315199,0.01708631,-0.24081901364475566,-0.25842899840302863,-0.9355322845586753,0.9451889266826821,-0.28143816472758865,-0.16556102292268576,-0.22050871988111131,-0.9241249981572697,0.31203988885592726,left_images/camera_left_136.png,right_images/camera_right_136.png
2025-05-15 15:16:05,6.617505311965942,137,0.08583797,-0.15981212,0.10120316,0.78039545,-0.22514512,0.22152899,1.0245792,0.0607399,0.017867934,0.0060081463,0.6375835246174728,0.7612960992277376,0.11796397092753026,-0.7461173174958158,0.6483475721684504,-0.1515070103860679,-0.19182335016678376,0.008583412136601978,0.9813919336161698,0.09510568,0.0028502755,0.11025823,-1.9294113,0.6473332,-0.04767466,0.25463942,-0.027983991,0.0031655068,0.017058136,-0.24001429880783345,-0.2590039881296294,-0.9355800716671614,0.9452947456164433,-0.2816908996878976,-0.16452380053647725,-0.22093207163679912,-0.9238869904733855,0.312444952841781,left_images/camera_left_137.png,right_images/camera_right_137.png
2025-05-15 15:16:05,6.6677939891815186,138,0.08906397,-0.15593038,0.10127627,0.7853057,-0.22823003,0.2163724,1.024579,0.061001107,0.017535469,0.0057578525,0.634880516690087,0.763834005604961,0.11612209698764858,-0.7485862999785572,0.6453401481590325,-0.15216650307637247,-0.19116820083827185,0.009680137166316091,0.981509558757682,0.09505221,0.002631131,0.11027234,-1.9297366,0.64681804,-0.048608195,0.2547484,-0.027981997,0.00318199,0.017036036,-0.23952982882273532,-0.25941911037005705,-0.9355892187701605,0.945344819769743,-0.28190978194326644,-0.16385983821306588,-0.22124337919735193,-0.9237037403948889,0.3127663139499339,left_images/camera_left_138.png,right_images/camera_right_138.png
2025-05-15 15:16:05,6.723684310913086,139,0.092527166,-0.15213,0.10137956,0.7915812,-0.23178144,0.20904393,1.0245792,0.061270826,0.017229475,0.005476621,0.6309126558055916,0.7672791674979227,0.11502999551434273,-0.7516586853457303,0.6412195048040402,-0.1544239858415451,-0.19224578405952952,0.010964751823738184,0.9812855510649183,0.09500391,0.0024315428,0.110284105,-1.9300547,0.6464311,-0.04926698,0.25393227,-0.02798073,0.0031993133,0.017017465,-0.23928415626160485,-0.25971540541568533,-0.9355698802077472,0.9453525853932199,-0.28210853484854237,-0.16347251712738792,-0.22147591709377168,-0.9235597884032065,0.3130267327115973,left_images/camera_left_139.png,right_images/camera_right_139.png
2025-05-15 15:16:05,6.770864963531494,140,0.09585771,-0.14864552,0.101488054,0.79725176,-0.23593476,0.20141824,1.024579,0.061536912,0.016967174,0.0052037863,0.6271231972479485,0.7705773740301721,0.11369699251200366,-0.7543657932173223,0.6372101634139584,-0.1577829447866792,-0.19403284643871638,0.01318022286307717,0.9809064869946416,0.09497158,0.002267034,0.11029349,-1.9303479,0.6461367,-0.049673688,0.2547359,-0.027979692,0.0032153307,0.017003167,-0.23923090348857215,-0.25992356734543093,-0.9355256885593611,0.9453269083926379,-0.2822906819282467,-0.16330648231256034,-0.2216429811315005,-0.9234455641968891,0.3132453972211413,left_images/camera_left_140.png,right_images/camera_right_140.png
2025-05-15 15:16:05,6.81728458404541,141,0.099082686,-0.14532085,0.10159769,0.8016831,-0.24026044,0.19322479,1.024579,0.061793935,0.016731692,0.0049408367,0.6240689103415902,0.7732130421622265,0.1126036703455757,-0.756176330755151,0.6339422754683975,-0.1622175951604104,-0.19681298725118898,0.016086727578510512,0.9803090661852915,0.094956666,0.0021391236,0.11030104,-1.930582,0.64590895,-0.04995022,0.25472045,-0.02797791,0.003227962,0.016992508,-0.23922909700923017,-0.2600728159073588,-0.9354846709434448,0.9452984599039431,-0.28243652988779994,-0.16321895811507547,-0.22176623017804403,-0.9233589426712424,0.31341346834758693,left_images/camera_left_141.png,right_images/camera_right_141.png
