jiaqis7/OS_Teleop_Extension/demo_1/teleop_log.csv
Epoch Time (Seconds),Time (Seconds),Frame Number,PSM1_joint_1,PSM1_joint_2,PSM1_joint_3,PSM1_joint_4,PSM1_joint_5,PSM1_joint_6,PSM1_jaw_angle,PSM1_ee_x,PSM1_ee_y,PSM1_ee_z,"PSM1_Orientation_Matrix_[1,1]","PSM1_Orientation_Matrix_[1,2]","PSM1_Orientation_Matrix_[1,3]","PSM1_Orientation_Matrix_[2,1]","PSM1_Orientation_Matrix_[2,2]","PSM1_Orientation_Matrix_[2,3]","PSM1_Orientation_Matrix_[3,1]","PSM1_Orientation_Matrix_[3,2]","PSM1_Orientation_Matrix_[3,3]",PSM2_joint_1,PSM2_joint_2,PSM2_joint_3,PSM2_joint_4,PSM2_joint_5,PSM2_joint_6,PSM2_jaw_angle,PSM2_ee_x,PSM2_ee_y,PSM2_ee_z,"PSM2_Orientation_Matrix_[1,1]","PSM2_Orientation_Matrix_[1,2]","PSM2_Orientation_Matrix_[1,3]","PSM2_Orientation_Matrix_[2,1]","PSM2_Orientation_Matrix_[2,2]","PSM2_Orientation_Matrix_[2,3]","PSM2_Orientation_Matrix_[3,1]","PSM2_Orientation_Matrix_[3,2]","PSM2_Orientation_Matrix_[3,3]",PSM3_joint_1,PSM3_joint_2,PSM3_joint_3,PSM3_joint_4,PSM3_joint_5,PSM3_joint_6,PSM3_jaw_angle,PSM3_ee_x,PSM3_ee_y,PSM3_ee_z,"PSM3_Orientation_Matrix_[1,1]","PSM3_Orientation_Matrix_[1,2]","PSM3_Orientation_Matrix_[1,3]","PSM3_Orientation_Matrix_[2,1]","PSM3_Orientation_Matrix_[2,2]","PSM3_Orientation_Matrix_[2,3]","PSM3_Orientation_Matrix_[3,1]","PSM3_Orientation_Matrix_[3,2]","PSM3_Orientation_Matrix_[3,3]",Camera Left,Camera Right
2025-06-27 14:26:22,0.003629922866821289,1,-0.03432311,-0.00027655243,0.11403818,-0.00068531354,0.00029466485,-0.027662495,1.0471791,0.057907023,2.655172e-05,0.0020309393,0.833279280672521,-0.0005906049937325885,0.5528519617290216,0.000684119457025083,0.9999997652999377,3.71569380153373e-05,-0.5528518539197048,0.00034725467729189647,0.8332794891461895,0.07067476,0.00053214876,0.11086674,0.0007759784,1.4611638e-05,-0.015318843,1.047179,-0.056456998,-6.0847324e-05,0.0067547346,0.8369253619976484,0.0009488004011068956,-0.5473162141056156,-0.000783984750698883,0.9999995497188416,0.0005347242509138931,0.5473164750060204,-1.843672159598385e-05,0.8369257289909728,0.0026657255,0.019344743,0.09063903,-0.00016294567,-0.012031062,-0.006226944,0.5235896,0.00019111253,-0.011352362,0.0023486614,0.9999936400418761,-0.00014323904631166856,0.0035636159128948305,0.0010357560162236078,0.9677929595718953,-0.2517453368238365,-0.0034127826291579333,0.25174742677065765,0.9677869528099037,left_images/camera_left_1.png,right_images/camera_right_1.png
2025-06-27 14:26:22,0.07203555107116699,2,-0.03432311,-0.00027655135,0.11403818,-0.000685331,0.00029467046,-0.027662495,1.0471791,0.057907023,2.655172e-05,0.0020309393,0.833279280672521,-0.0005906049937325885,0.5528519617290216,0.000684119457025083,0.9999997652999377,3.71569380153373e-05,-0.5528518539197048,0.00034725467729189647,0.8332794891461895,0.07067476,0.0005321347,0.11086674,0.0007759131,1.4678205e-05,-0.015318926,1.047179,-0.056456998,-6.0847324e-05,0.0067547346,0.8369253619976484,0.0009488004011068956,-0.5473162141056156,-0.000783984750698883,0.9999995497188416,0.0005347242509138931,0.5473164750060204,-1.843672159598385e-05,0.8369257289909728,0.0026657255,0.019344743,0.09063903,-0.00016294567,-0.012031062,-0.006226944,0.5235896,0.00019111253,-0.011352362,0.0023486614,0.9999936400418761,-0.00014323904631166856,0.0035636159128948305,0.0010357560162236078,0.9677929595718953,-0.2517453368238365,-0.0034127826291579333,0.25174742677065765,0.9677869528099037,left_images/camera_left_2.png,right_images/camera_right_2.png
2025-06-27 14:26:22,0.1417076587677002,3,-0.03432311,-0.00027655278,0.11403818,-0.00068534847,0.0002946761,-0.027662495,1.0471791,0.057907056,2.6563099e-05,0.0020309724,0.833279293009394,-0.0005908880368723344,0.5528519428319777,0.0006844148550616784,0.9999997650953251,3.722365777288097e-05,-0.5528518349594859,0.00034736237909170544,0.8332795016807427,0.07067476,0.0005321385,0.11086674,0.0007759166,1.4625468e-05,-0.015318926,1.047179,-0.056456998,-6.0847324e-05,0.0067547346,0.8369253619976484,0.0009488004011068956,-0.5473162141056156,-0.000783984750698883,0.9999995497188416,0.0005347242509138931,0.5473164750060204,-1.843672159598385e-05,0.8369257289909728,0.0026657255,0.019344743,0.09063903,-0.00016294567,-0.012031062,-0.006226944,0.5235896,0.00019111253,-0.011352362,0.0023486614,0.9999936400418761,-0.00014323904631166856,0.0035636159128948305,0.0010357560162236078,0.9677929595718953,-0.2517453368238365,-0.0034127826291579333,0.25174742677065765,0.9677869528099037,left_images/camera_left_3.png,right_images/camera_right_3.png
2025-06-27 14:26:22,0.20751690864562988,4,-0.03432311,-0.00027656715,0.11403818,-0.000685392,0.0002946991,-0.027662495,1.0471791,0.057907056,2.6563099e-05,0.0020309724,0.833279293009394,-0.0005908880368723344,0.5528519428319777,0.0006844148550616784,0.9999997650953251,3.722365777288097e-05,-0.5528518349594859,0.00034736237909170544,0.8332795016807427,0.07067476,0.0005321424,0.11086674,0.0007759166,1.4659633e-05,-0.015318926,1.047179,-0.056456998,-6.0847324e-05,0.0067547346,0.8369253619976484,0.0009488004011068956,-0.5473162141056156,-0.000783984750698883,0.9999995497188416,0.0005347242509138931,0.5473164750060204,-1.843672159598385e-05,0.8369257289909728,0.0026657255,0.019344743,0.09063903,-0.00016294567,-0.012031062,-0.006226944,0.5235896,0.00019111253,-0.011352362,0.0023486614,0.9999936400418761,-0.00014323904631166856,0.0035636159128948305,0.0010357560162236078,0.9677929595718953,-0.2517453368238365,-0.0034127826291579333,0.25174742677065765,0.9677869528099037,left_images/camera_left_4.png,right_images/camera_right_4.png
2025-06-27 14:26:22,0.27249836921691895,5,-0.03432311,-0.00027656974,0.11403818,-0.000685385,0.00029470434,-0.027662495,1.0471791,0.057907056,2.6563099e-05,0.0020309724,0.833279293009394,-0.0005908880368723344,0.5528519428319777,0.0006844148550616784,0.9999997650953251,3.722365777288097e-05,-0.5528518349594859,0.00034736237909170544,0.8332795016807427,0.07067476,0.00053214905,0.11086674,0.0007759201,1.4606897e-05,-0.015318926,1.047179,-0.056456998,-6.0847324e-05,0.0067547346,0.8369253619976484,0.0009488004011068956,-0.5473162141056156,-0.000783984750698883,0.9999995497188416,0.0005347242509138931,0.5473164750060204,-1.843672159598385e-05,0.8369257289909728,0.0026657255,0.019344743,0.09063903,-0.00016294567,-0.012031062,-0.006226944,0.5235896,0.00019111253,-0.011352362,0.0023486614,0.9999936400418761,-0.00014323904631166856,0.0035636159128948305,0.0010357560162236078,0.9677929595718953,-0.2517453368238365,-0.0034127826291579333,0.25174742677065765,0.9677869528099037,left_images/camera_left_5.png,right_images/camera_right_5.png
2025-06-27 14:26:22,0.3237886428833008,6,-0.03432311,-0.00027656974,0.11403818,-0.00068537804,0.00029470958,-0.027662495,1.0471791,0.057907056,2.6563099e-05,0.0020309724,0.833279293009394,-0.0005908880368723344,0.5528519428319777,0.0006844148550616784,0.9999997650953251,3.722365777288097e-05,-0.5528518349594859,0.00034736237909170544,0.8332795016807427,0.07067476,0.00053215295,0.11086674,0.0007759201,1.4641062e-05,-0.015318926,1.047179,-0.056456998,-6.0847324e-05,0.0067547346,0.8369253619976484,0.0009488004011068956,-0.5473162141056156,-0.000783984750698883,0.9999995497188416,0.0005347242509138931,0.5473164750060204,-1.843672159598385e-05,0.8369257289909728,0.0026657255,0.019344743,0.09063903,-0.00016294567,-0.012031062,-0.006226944,0.5235896,0.00019111253,-0.011352362,0.0023486614,0.9999936400418761,-0.00014323904631166856,0.0035636159128948305,0.0010357560162236078,0.9677929595718953,-0.2517453368238365,-0.0034127826291579333,0.25174742677065765,0.9677869528099037,left_images/camera_left_6.png,right_images/camera_right_6.png
2025-06-27 14:26:22,0.37577176094055176,7,-0.03432311,-0.00027656974,0.11403818,-0.00068537105,0.00029471482,-0.027662495,1.0471791,0.057907056,2.6563099e-05,0.0020309724,0.833279293009394,-0.0005908880368723344,0.5528519428319777,0.0006844148550616784,0.9999997650953251,3.722365777288097e-05,-0.5528518349594859,0.00034736237909170544,0.8332795016807427,0.07067476,0.0005321596,0.11086674,0.0007759236,1.4588326e-05,-0.015318926,1.047179,-0.056456994,-6.0839946e-05,0.006754732,0.8369252869113416,0.0009485806005800245,-0.547316329304373,-0.0007840057811334334,0.9999995499342019,0.0005342904910452008,0.5473165897936074,-1.8062056228647827e-05,0.8369256539325691,0.0026657255,0.019344743,0.09063903,-0.00016294567,-0.012031062,-0.006226944,0.5235896,0.00019111253,-0.011352362,0.0023486614,0.9999936400418761,-0.00014323904631166856,0.0035636159128948305,0.0010357560162236078,0.9677929595718953,-0.2517453368238365,-0.0034127826291579333,0.25174742677065765,0.9677869528099037,left_images/camera_left_7.png,right_images/camera_right_7.png
2025-06-27 14:26:22,0.44089198112487793,8,-0.03432311,-0.00027656974,0.11403818,-0.00068536407,0.00029472006,-0.027662495,1.0471791,0.057907056,2.6563099e-05,0.0020309724,0.833279293009394,-0.0005908880368723344,0.5528519428319777,0.0006844148550616784,0.9999997650953251,3.722365777288097e-05,-0.5528518349594859,0.00034736237909170544,0.8332795016807427,0.07067476,0.0005321568,0.11086674,0.0007759036,1.4611649e-05,-0.015318926,1.047179,-0.056456998,-6.0847324e-05,0.0067547346,0.8369253619976484,0.0009488004011068956,-0.5473162141056156,-0.000783984750698883,0.9999995497188416,0.0005347242509138931,0.5473164750060204,-1.843672159598385e-05,0.8369257289909728,0.0026657255,0.019344743,0.09063903,-0.00016294567,-0.012031062,-0.006226944,0.5235896,0.00019111253,-0.011352362,0.0023486614,0.9999936400418761,-0.00014323904631166856,0.0035636159128948305,0.0010357560162236078,0.9677929595718953,-0.2517453368238365,-0.0034127826291579333,0.25174742677065765,0.9677869528099037,left_images/camera_left_8.png,right_images/camera_right_8.png
2025-06-27 14:26:22,0.5053577423095703,9,-0.03432311,-0.00027656974,0.11403818,-0.0006853571,0.0002947253,-0.027662495,1.0471791,0.057907056,2.6563099e-05,0.0020309724,0.833279293009394,-0.0005908880368723344,0.5528519428319777,0.0006844148550616784,0.9999997650953251,3.722365777288097e-05,-0.5528518349594859,0.00034736237909170544,0.8332795016807427,0.07067476,0.0005321602,0.11086674,0.0007759036,1.4645823e-05,-0.015318926,1.047179,-0.056456998,-6.0847324e-05,0.0067547346,0.8369253619976484,0.0009488004011068956,-0.5473162141056156,-0.000783984750698883,0.9999995497188416,0.0005347242509138931,0.5473164750060204,-1.843672159598385e-05,0.8369257289909728,0.0026657255,0.019344743,0.09063903,-0.00016294567,-0.012031062,-0.006226944,0.5235896,0.00019111253,-0.011352362,0.0023486614,0.9999936400418761,-0.00014323904631166856,0.0035636159128948305,0.0010357560162236078,0.9677929595718953,-0.2517453368238365,-0.0034127826291579333,0.25174742677065765,0.9677869528099037,left_images/camera_left_9.png,right_images/camera_right_9.png
2025-06-27 14:26:22,0.5771651268005371,10,-0.03432311,-0.00027656974,0.11403818,-0.0006853501,0.00029473053,-0.027662495,1.0471791,0.057907056,2.6563099e-05,0.0020309724,0.833279293009394,-0.0005908880368723344,0.5528519428319777,0.0006844148550616784,0.9999997650953251,3.722365777288097e-05,-0.5528518349594859,0.00034736237909170544,0.8332795016807427,0.07067476,0.00053216686,0.11086674,0.0007759071,1.4593087e-05,-0.015318926,1.047179,-0.056456994,-6.0839946e-05,0.006754732,0.8369252869113416,0.0009485806005800245,-0.547316329304373,-0.0007840057811334334,0.9999995499342019,0.0005342904910452008,0.5473165897936074,-1.8062056228647827e-05,0.8369256539325691,0.0026657255,0.019344743,0.09063903,-0.00016294567,-0.012031062,-0.006226944,0.5235896,0.00019111253,-0.011352362,0.0023486614,0.9999936400418761,-0.00014323904631166856,0.0035636159128948305,0.0010357560162236078,0.9677929595718953,-0.2517453368238365,-0.0034127826291579333,0.25174742677065765,0.9677869528099037,left_images/camera_left_10.png,right_images/camera_right_10.png
2025-06-27 14:26:22,0.6464331150054932,11,-0.03432311,-0.00027658412,0.11403818,-0.00068539364,0.00029475352,-0.027662495,1.0471791,0.057907056,2.6557102e-05,0.0020309677,0.8332793310586042,-0.0005909906106352855,0.5528518853731289,0.0006843206197884257,0.9999997651475714,3.755118523071494e-05,-0.5528517777269187,0.00034703731834023136,0.8332795397879905,0.07067476,0.00053216406,0.11086674,0.00077588705,1.461641e-05,-0.015318926,1.047179,-0.056456998,-6.0847324e-05,0.0067547346,0.8369253619976484,0.0009488004011068956,-0.5473162141056156,-0.000783984750698883,0.9999995497188416,0.0005347242509138931,0.5473164750060204,-1.843672159598385e-05,0.8369257289909728,0.0026657255,0.019344743,0.09063903,-0.00016294567,-0.012031062,-0.006226944,0.5235896,0.00019111253,-0.011352362,0.0023486614,0.9999936400418761,-0.00014323904631166856,0.0035636159128948305,0.0010357560162236078,0.9677929595718953,-0.2517453368238365,-0.0034127826291579333,0.25174742677065765,0.9677869528099037,left_images/camera_left_11.png,right_images/camera_right_11.png
2025-06-27 14:26:22,0.7115669250488281,12,-0.03432311,-0.00027658665,0.11403818,-0.0006853762,0.00029475774,-0.027662495,1.0471791,0.057907056,2.6557102e-05,0.0020309677,0.8332793310586042,-0.0005909906106352855,0.5528518853731289,0.0006843206197884257,0.9999997651475714,3.755118523071494e-05,-0.5528517777269187,0.00034703731834023136,0.8332795397879905,0.07067476,0.0005321675,0.11086674,0.00077588705,1.46505845e-05,-0.015318926,1.047179,-0.056456998,-6.0847324e-05,0.0067547346,0.8369253619976484,0.0009488004011068956,-0.5473162141056156,-0.000783984750698883,0.9999995497188416,0.0005347242509138931,0.5473164750060204,-1.843672159598385e-05,0.8369257289909728,0.0026657255,0.019344743,0.09063903,-0.00016294567,-0.012031062,-0.006226944,0.5235896,0.00019111253,-0.011352362,0.0023486614,0.9999936400418761,-0.00014323904631166856,0.0035636159128948305,0.0010357560162236078,0.9677929595718953,-0.2517453368238365,-0.0034127826291579333,0.25174742677065765,0.9677869528099037,left_images/camera_left_12.png,right_images/camera_right_12.png
2025-06-27 14:26:23,0.7746942043304443,13,-0.03432311,-0.00027658665,0.11403818,-0.0006853587,0.000294762,-0.027662495,1.0471791,0.057907056,2.6557102e-05,0.0020309677,0.8332793310586042,-0.0005909906106352855,0.5528518853731289,0.0006843206197884257,0.9999997651475714,3.755118523071494e-05,-0.5528517777269187,0.00034703731834023136,0.8332795397879905,0.07067476,0.00053217413,0.11086674,0.00077589054,1.4597848e-05,-0.015318926,1.047179,-0.056456994,-6.0839946e-05,0.006754732,0.8369252869113416,0.0009485806005800245,-0.547316329304373,-0.0007840057811334334,0.9999995499342019,0.0005342904910452008,0.5473165897936074,-1.8062056228647827e-05,0.8369256539325691,0.0026657255,0.019344743,0.09063903,-0.00016294567,-0.012031062,-0.006226944,0.5235896,0.00019111253,-0.011352362,0.0023486614,0.9999936400418761,-0.00014323904631166856,0.0035636159128948305,0.0010357560162236078,0.9677929595718953,-0.2517453368238365,-0.0034127826291579333,0.25174742677065765,0.9677869528099037,left_images/camera_left_13.png,right_images/camera_right_13.png
2025-06-27 14:26:23,0.8266785144805908,14,-0.03432311,-0.00027658665,0.11403818,-0.00068534125,0.00029476624,-0.027662495,1.0471791,0.057907026,2.6543397e-05,0.0020309403,0.8332793121088887,-0.0005908891397323679,0.5528519140433192,0.000684172380551007,0.9999997652475039,3.759109783708751e-05,-0.552851806472124,0.0003469221259760922,0.8332795207645196,0.07067476,0.00053217745,0.11086674,0.00077589165,1.4516126e-05,-0.015318877,1.047179,-0.05645707,-6.0873637e-05,0.0067547346,0.8369253307240234,0.0009488111041140089,-0.5473162619089376,-0.0007839954393102979,0.999999549708746,0.0005347274599899674,0.5473165228125634,-1.84335031023529e-05,0.8369256977274452,0.0026657255,0.019344743,0.09063903,-0.00016294567,-0.012031062,-0.006226944,0.5235896,0.00019111253,-0.011352362,0.0023486614,0.9999936400418761,-0.00014323904631166856,0.0035636159128948305,0.0010357560162236078,0.9677929595718953,-0.2517453368238365,-0.0034127826291579333,0.25174742677065765,0.9677869528099037,left_images/camera_left_14.png,right_images/camera_right_14.png
2025-06-27 14:26:23,0.8777115345001221,15,-0.03432311,-0.0002765818,0.11403818,-0.00068532437,0.00029473178,-0.027662495,1.0471791,0.057907023,2.655172e-05,0.0020309393,0.833279280672521,-0.0005906049937325885,0.5528519617290216,0.000684119457025083,0.9999997652999377,3.71569380153373e-05,-0.5528518539197048,0.00034725467729189647,0.8332794891461895,0.07067476,0.0005321847,0.11086674,0.000775916,1.4464953e-05,-0.015318875,1.047179,-0.05645707,-6.0873637e-05,0.0067547346,0.8369253307240234,0.0009488111041140089,-0.5473162619089376,-0.0007839954393102979,0.999999549708746,0.0005347274599899674,0.5473165228125634,-1.84335031023529e-05,0.8369256977274452,0.0026657255,0.019344743,0.09063903,-0.00016294567,-0.012031062,-0.006226944,0.5235896,0.00019111253,-0.011352362,0.0023486614,0.9999936400418761,-0.00014323904631166856,0.0035636159128948305,0.0010357560162236078,0.9677929595718953,-0.2517453368238365,-0.0034127826291579333,0.25174742677065765,0.9677869528099037,left_images/camera_left_15.png,right_images/camera_right_15.png
2025-06-27 14:26:23,0.9325194358825684,16,-0.03432311,-0.00027658264,0.11403818,-0.00068534183,0.0002947374,-0.027662495,1.0471791,0.057907026,2.6543397e-05,0.0020309403,0.8332793121088887,-0.0005908891397323679,0.5528519140433192,0.000684172380551007,0.9999997652475039,3.759109783708751e-05,-0.552851806472124,0.0003469221259760922,0.8332795207645196,0.07067476,0.0005321917,0.11086674,0.0007759403,1.4413796e-05,-0.015318873,1.047179,-0.05645707,-6.0873637e-05,0.0067547346,0.8369253307240234,0.0009488111041140089,-0.5473162619089376,-0.0007839954393102979,0.999999549708746,0.0005347274599899674,0.5473165228125634,-1.84335031023529e-05,0.8369256977274452,0.0026657255,0.019344743,0.09063903,-0.00016294567,-0.012031062,-0.006226944,0.5235896,0.00019111253,-0.011352362,0.0023486614,0.9999936400418761,-0.00014323904631166856,0.0035636159128948305,0.0010357560162236078,0.9677929595718953,-0.2517453368238365,-0.0034127826291579333,0.25174742677065765,0.9677869528099037,left_images/camera_left_16.png,right_images/camera_right_16.png
2025-06-27 14:26:23,0.9826817512512207,17,-0.03432311,-0.0002765778,0.11403818,-0.00068534154,0.00029476988,-0.02766244,1.0471791,0.057907026,2.6543397e-05,0.0020309403,0.8332793121088887,-0.0005908891397323679,0.5528519140433192,0.000684172380551007,0.9999997652475039,3.759109783708751e-05,-0.552851806472124,0.0003469221259760922,0.8332795207645196,0.07067476,0.0005321987,0.11086674,0.00077596464,1.43626385e-05,-0.0153188715,1.047179,-0.05645707,-6.0873637e-05,0.0067547346,0.8369253307240234,0.0009488111041140089,-0.5473162619089376,-0.0007839954393102979,0.999999549708746,0.0005347274599899674,0.5473165228125634,-1.84335031023529e-05,0.8369256977274452,0.0026657255,0.019344743,0.09063903,-0.00016294567,-0.012031062,-0.006226944,0.5235896,0.00019111253,-0.011352362,0.0023486614,0.9999936400418761,-0.00014323904631166856,0.0035636159128948305,0.0010357560162236078,0.9677929595718953,-0.2517453368238365,-0.0034127826291579333,0.25174742677065765,0.9677869528099037,left_images/camera_left_17.png,right_images/camera_right_17.png
2025-06-27 14:26:23,1.0339231491088867,18,-0.03432311,-0.00027657257,0.11403818,-0.00068532466,0.00029473542,-0.02766244,1.0471791,0.057907023,2.655172e-05,0.0020309393,0.833279280672521,-0.0005906049937325885,0.5528519617290216,0.000684119457025083,0.9999997652999377,3.71569380153373e-05,-0.5528518539197048,0.00034725467729189647,0.8332794891461895,0.07067476,0.0005322057,0.11086674,0.00077598897,1.4311481e-05,-0.01531887,1.047179,-0.05645713,-6.086445e-05,0.0067547313,0.836925380301411,0.0009491522077325689,-0.547316185506536,-0.000784382815873391,0.9999995493884576,0.0005347583376983904,0.5473164464466025,-1.8247414386875715e-05,0.8369257476718559,0.0026657255,0.019344743,0.09063903,-0.00016294567,-0.012031062,-0.006226944,0.5235896,0.00019111253,-0.011352362,0.0023486614,0.9999936400418761,-0.00014323904631166856,0.0035636159128948305,0.0010357560162236078,0.9677929595718953,-0.2517453368238365,-0.0034127826291579333,0.25174742677065765,0.9677869528099037,left_images/camera_left_18.png,right_images/camera_right_18.png
2025-06-27 14:26:23,1.088101863861084,19,-0.03432311,-0.00027657268,0.11403818,-0.00068532594,0.00029467422,-0.02766244,1.0471791,0.057907023,2.655172e-05,0.0020309393,0.833279280672521,-0.0005906049937325885,0.5528519617290216,0.000684119457025083,0.9999997652999377,3.71569380153373e-05,-0.5528518539197048,0.00034725467729189647,0.8332794891461895,0.07067476,0.00053219625,0.11086674,0.0007760284,1.4313726e-05,-0.015318786,1.047179,-0.056457125,-6.086248e-05,0.006754731,0.8369251427291801,0.0009492200788029248,-0.5473165486708619,-0.0007845186637667935,0.9999995493266681,0.0005346745993313674,0.5473168095337545,-1.810256793835399e-05,0.8369255102302051,0.0026657255,0.019344743,0.09063903,-0.00016294567,-0.012031062,-0.006226944,0.5235896,0.00019111253,-0.011352362,0.0023486614,0.9999936400418761,-0.00014323904631166856,0.0035636159128948305,0.0010357560162236078,0.9677929595718953,-0.2517453368238365,-0.0034127826291579333,0.25174742677065765,0.9677869528099037,left_images/camera_left_19.png,right_images/camera_right_19.png
2025-06-27 14:26:23,1.1559104919433594,20,-0.03432311,-0.00027657408,0.11403818,-0.0006853434,0.00029467983,-0.02766244,1.0471791,0.057907023,2.655172e-05,0.0020309393,0.833279280672521,-0.0005906049937325885,0.5528519617290216,0.000684119457025083,0.9999997652999377,3.71569380153373e-05,-0.5528518539197048,0.00034725467729189647,0.8332794891461895,0.07067476,0.00053220155,0.11086674,0.00077606586,1.4263586e-05,-0.01531873,1.047179,-0.056457125,-6.086248e-05,0.006754731,0.8369251427291801,0.0009492200788029248,-0.5473165486708619,-0.0007845186637667935,0.9999995493266681,0.0005346745993313674,0.5473168095337545,-1.810256793835399e-05,0.8369255102302051,0.0026657255,0.019344743,0.09063903,-0.00016294567,-0.012031062,-0.006226944,0.5235896,0.00019111253,-0.011352362,0.0023486614,0.9999936400418761,-0.00014323904631166856,0.0035636159128948305,0.0010357560162236078,0.9677929595718953,-0.2517453368238365,-0.0034127826291579333,0.25174742677065765,0.9677869528099037,left_images/camera_left_20.png,right_images/camera_right_20.png
2025-06-27 14:26:23,1.2147433757781982,21,-0.03432311,-0.0002765612,0.11403818,-0.00068531017,0.0002946677,-0.02766244,1.0471791,0.057907023,2.655172e-05,0.0020309393,0.833279280672521,-0.0005906049937325885,0.5528519617290216,0.000684119457025083,0.9999997652999377,3.71569380153373e-05,-0.5528518539197048,0.00034725467729189647,0.8332794891461895,0.07067476,0.00053220853,0.11086674,0.00077610335,1.4213448e-05,-0.015318674,1.047179,-0.05645713,-6.0853232e-05,0.0067547327,0.8369252054082749,0.0009488960958864404,-0.5473164533873578,-0.0007844696215056394,0.9999995496414085,0.0005341576479537372,0.5473167137587975,-1.7696868201493e-05,0.8369255728719794,0.0026657255,0.019344743,0.09063903,-0.00016294567,-0.012031062,-0.006226944,0.5235896,0.00019111253,-0.011352362,0.0023486614,0.9999936400418761,-0.00014323904631166856,0.0035636159128948305,0.0010357560162236078,0.9677929595718953,-0.2517453368238365,-0.0034127826291579333,0.25174742677065765,0.9677869528099037,left_images/camera_left_21.png,right_images/camera_right_21.png
2025-06-27 14:26:23,1.2760272026062012,22,-0.03432311,-0.0002765601,0.11403818,-0.0006853276,0.00029467331,-0.02766244,1.0471791,0.057907023,2.655172e-05,0.0020309393,0.833279280672521,-0.0005906049937325885,0.5528519617290216,0.000684119457025083,0.9999997652999377,3.71569380153373e-05,-0.5528518539197048,0.00034725467729189647,0.8332794891461895,0.07067476,0.0005322095,0.11086674,0.0007761589,1.4203854e-05,-0.015318674,1.047179,-0.05645713,-6.0853232e-05,0.0067547327,0.8369252054082749,0.0009488960958864404,-0.5473164533873578,-0.0007844696215056394,0.9999995496414085,0.0005341576479537372,0.5473167137587975,-1.7696868201493e-05,0.8369255728719794,0.0026657255,0.019344743,0.09063903,-0.00016294567,-0.012031062,-0.006226944,0.5235896,0.00019111253,-0.011352362,0.0023486614,0.9999936400418761,-0.00014323904631166856,0.0035636159128948305,0.0010357560162236078,0.9677929595718953,-0.2517453368238365,-0.0034127826291579333,0.25174742677065765,0.9677869528099037,left_images/camera_left_22.png,right_images/camera_right_22.png
2025-06-27 14:26:23,1.3274998664855957,23,-0.03432311,-0.00027656154,0.11403818,-0.0006853451,0.00029467896,-0.02766244,1.0471791,0.057907023,2.655172e-05,0.0020309393,0.833279280672521,-0.0005906049937325885,0.5528519617290216,0.000684119457025083,0.9999997652999377,3.71569380153373e-05,-0.5528518539197048,0.00034725467729189647,0.8332794891461895,0.07067476,0.0005322095,0.11086674,0.0007762144,1.4194266e-05,-0.015318674,1.047179,-0.05645713,-6.0853232e-05,0.0067547327,0.8369252054082749,0.0009488960958864404,-0.5473164533873578,-0.0007844696215056394,0.9999995496414085,0.0005341576479537372,0.5473167137587975,-1.7696868201493e-05,0.8369255728719794,0.0026657255,0.019344743,0.09063903,-0.00016294567,-0.012031062,-0.006226944,0.5235896,0.00019111253,-0.011352362,0.0023486614,0.9999936400418761,-0.00014323904631166856,0.0035636159128948305,0.0010357560162236078,0.9677929595718953,-0.2517453368238365,-0.0034127826291579333,0.25174742677065765,0.9677869528099037,left_images/camera_left_23.png,right_images/camera_right_23.png
2025-06-27 14:26:23,1.3772950172424316,24,-0.03432311,-0.00027654864,0.11403818,-0.00068531185,0.00029466682,-0.02766244,1.0471791,0.057907023,2.655172e-05,0.0020309393,0.833279280672521,-0.0005906049937325885,0.5528519617290216,0.000684119457025083,0.9999997652999377,3.71569380153373e-05,-0.5528518539197048,0.00034725467729189647,0.8332794891461895,0.07067476,0.0005322095,0.11086674,0.00077626994,1.4184679e-05,-0.015318674,1.047179,-0.05645713,-6.0853232e-05,0.0067547327,0.8369252054082749,0.0009488960958864404,-0.5473164533873578,-0.0007844696215056394,0.9999995496414085,0.0005341576479537372,0.5473167137587975,-1.7696868201493e-05,0.8369255728719794,0.0026657255,0.019344743,0.09063903,-0.00016294567,-0.012031062,-0.006226944,0.5235896,0.00019111253,-0.011352362,0.0023486614,0.9999936400418761,-0.00014323904631166856,0.0035636159128948305,0.0010357560162236078,0.9677929595718953,-0.2517453368238365,-0.0034127826291579333,0.25174742677065765,0.9677869528099037,left_images/camera_left_24.png,right_images/camera_right_24.png
2025-06-27 14:26:23,1.4345805644989014,25,-0.03432311,-0.00027654757,0.11403818,-0.0006853293,0.00029467244,-0.02766244,1.0471791,0.057907023,2.655172e-05,0.0020309393,0.833279280672521,-0.0005906049937325885,0.5528519617290216,0.000684119457025083,0.9999997652999377,3.71569380153373e-05,-0.5528518539197048,0.00034725467729189647,0.8332794891461895,0.07067476,0.0005322095,0.11086674,0.00077632547,1.4175091e-05,-0.015318674,1.047179,-0.05645713,-6.0853232e-05,0.0067547327,0.8369252054082749,0.0009488960958864404,-0.5473164533873578,-0.0007844696215056394,0.9999995496414085,0.0005341576479537372,0.5473167137587975,-1.7696868201493e-05,0.8369255728719794,0.0026657255,0.019344743,0.09063903,-0.00016294567,-0.012031062,-0.006226944,0.5235896,0.00019111253,-0.011352362,0.0023486614,0.9999936400418761,-0.00014323904631166856,0.0035636159128948305,0.0010357560162236078,0.9677929595718953,-0.2517453368238365,-0.0034127826291579333,0.25174742677065765,0.9677869528099037,left_images/camera_left_25.png,right_images/camera_right_25.png
2025-06-27 14:26:23,1.498542070388794,26,-0.03432311,-0.000276549,0.11403818,-0.0006853468,0.0002946781,-0.02766244,1.0471791,0.057907023,2.655172e-05,0.0020309393,0.833279280672521,-0.0005906049937325885,0.5528519617290216,0.000684119457025083,0.9999997652999377,3.71569380153373e-05,-0.5528518539197048,0.00034725467729189647,0.8332794891461895,0.07067476,0.0005321949,0.11086674,0.00077634974,1.4164471e-05,-0.015318702,1.047179,-0.05645713,-6.0853232e-05,0.0067547327,0.8369252054082749,0.0009488960958864404,-0.5473164533873578,-0.0007844696215056394,0.9999995496414085,0.0005341576479537372,0.5473167137587975,-1.7696868201493e-05,0.8369255728719794,0.0026657255,0.019344743,0.09063903,-0.00016294567,-0.012031062,-0.006226944,0.5235896,0.00019111253,-0.011352362,0.0023486614,0.9999936400418761,-0.00014323904631166856,0.0035636159128948305,0.0010357560162236078,0.9677929595718953,-0.2517453368238365,-0.0034127826291579333,0.25174742677065765,0.9677869528099037,left_images/camera_left_26.png,right_images/camera_right_26.png
2025-06-27 14:26:23,1.563310146331787,27,-0.03432311,-0.0002765361,0.11403818,-0.00068531354,0.00029466595,-0.02766244,1.0471791,0.057907023,2.655172e-05,0.0020309393,0.833279280672521,-0.0005906049937325885,0.5528519617290216,0.000684119457025083,0.9999997652999377,3.71569380153373e-05,-0.5528518539197048,0.00034725467729189647,0.8332794891461895,0.07067476,0.0005321787,0.11086674,0.000776374,1.4153843e-05,-0.01531873,1.047179,-0.056457113,-6.0868002e-05,0.006754703,0.8369251739443151,0.0009491263652251248,-0.5473165011009817,-0.000784699876499664,0.9999995494240927,0.0005342262773914443,0.5473167615415975,-1.76282293112899e-05,0.836925541625337,0.0026657255,0.019344743,0.09063903,-0.00016294567,-0.012031062,-0.006226944,0.5235896,0.00019111253,-0.011352362,0.0023486614,0.9999936400418761,-0.00014323904631166856,0.0035636159128948305,0.0010357560162236078,0.9677929595718953,-0.2517453368238365,-0.0034127826291579333,0.25174742677065765,0.9677869528099037,left_images/camera_left_27.png,right_images/camera_right_27.png
2025-06-27 14:26:23,1.6308472156524658,28,-0.03432311,-0.00027653502,0.11403818,-0.000685331,0.00029467157,-0.02766244,1.0471791,0.057907023,2.655172e-05,0.0020309393,0.833279280672521,-0.0005906049937325885,0.5528519617290216,0.000684119457025083,0.9999997652999377,3.71569380153373e-05,-0.5528518539197048,0.00034725467729189647,0.8332794891461895,0.07067476,0.00053218286,0.11086674,0.0007764461,1.4106525e-05,-0.01531873,1.047179,-0.056457113,-6.0868002e-05,0.006754703,0.8369251739443151,0.0009491263652251248,-0.5473165011009817,-0.000784699876499664,0.9999995494240927,0.0005342262773914443,0.5473167615415975,-1.76282293112899e-05,0.836925541625337,0.0026657255,0.019344743,0.09063903,-0.00016294567,-0.012031062,-0.006226944,0.5235896,0.00019111253,-0.011352362,0.0023486614,0.9999936400418761,-0.00014323904631166856,0.0035636159128948305,0.0010357560162236078,0.9677929595718953,-0.2517453368238365,-0.0034127826291579333,0.25174742677065765,0.9677869528099037,left_images/camera_left_28.png,right_images/camera_right_28.png
2025-06-27 14:26:23,1.698004961013794,29,-0.03432311,-0.00027653645,0.11403818,-0.00068534847,0.00029467721,-0.02766244,1.0471791,0.057907056,2.6563099e-05,0.0020309724,0.833279293009394,-0.0005908880368723344,0.5528519428319777,0.0006844148550616784,0.9999997650953251,3.722365777288097e-05,-0.5528518349594859,0.00034736237909170544,0.8332795016807427,0.07067476,0.00053218985,0.11086674,0.00077651814,1.4059211e-05,-0.01531873,1.047179,-0.056457113,-6.0868002e-05,0.006754703,0.8369251739443151,0.0009491263652251248,-0.5473165011009817,-0.000784699876499664,0.9999995494240927,0.0005342262773914443,0.5473167615415975,-1.76282293112899e-05,0.836925541625337,0.0026657255,0.019344743,0.09063903,-0.00016294567,-0.012031062,-0.006226944,0.5235896,0.00019111253,-0.011352362,0.0023486614,0.9999936400418761,-0.00014323904631166856,0.0035636159128948305,0.0010357560162236078,0.9677929595718953,-0.2517453368238365,-0.0034127826291579333,0.25174742677065765,0.9677869528099037,left_images/camera_left_29.png,right_images/camera_right_29.png
2025-06-27 14:26:24,1.7612533569335938,30,-0.03432311,-0.00027655083,0.11403818,-0.000685392,0.0002947002,-0.02766244,1.0471791,0.057907056,2.6563099e-05,0.0020309724,0.833279293009394,-0.0005908880368723344,0.5528519428319777,0.0006844148550616784,0.9999997650953251,3.722365777288097e-05,-0.5528518349594859,0.00034736237909170544,0.8332795016807427,0.07067476,0.00053219683,0.11086674,0.0007765902,1.4011897e-05,-0.01531873,1.047179,-0.056457113,-6.0868002e-05,0.006754703,0.8369251739443151,0.0009491263652251248,-0.5473165011009817,-0.000784699876499664,0.9999995494240927,0.0005342262773914443,0.5473167615415975,-1.76282293112899e-05,0.836925541625337,0.0026657255,0.019344743,0.09063903,-0.00016294567,-0.012031062,-0.006226944,0.5235896,0.00019111253,-0.011352362,0.0023486614,0.9999936400418761,-0.00014323904631166856,0.0035636159128948305,0.0010357560162236078,0.9677929595718953,-0.2517453368238365,-0.0034127826291579333,0.25174742677065765,0.9677869528099037,left_images/camera_left_30.png,right_images/camera_right_30.png
2025-06-27 14:26:24,1.830317497253418,31,-0.03432311,-0.00027655342,0.11403818,-0.000685385,0.00029470545,-0.02766244,1.0471791,0.057907056,2.6563099e-05,0.0020309724,0.833279293009394,-0.0005908880368723344,0.5528519428319777,0.0006844148550616784,0.9999997650953251,3.722365777288097e-05,-0.5528518349594859,0.00034736237909170544,0.8332795016807427,0.07067476,0.0005322038,0.11086674,0.00077666226,1.3964584e-05,-0.01531873,1.047179,-0.056457113,-6.0868002e-05,0.006754703,0.8369251739443151,0.0009491263652251248,-0.5473165011009817,-0.000784699876499664,0.9999995494240927,0.0005342262773914443,0.5473167615415975,-1.76282293112899e-05,0.836925541625337,0.0026657255,0.019344743,0.09063903,-0.00016294567,-0.012031062,-0.006226944,0.5235896,0.00019111253,-0.011352362,0.0023486614,0.9999936400418761,-0.00014323904631166856,0.0035636159128948305,0.0010357560162236078,0.9677929595718953,-0.2517453368238365,-0.0034127826291579333,0.25174742677065765,0.9677869528099037,left_images/camera_left_31.png,right_images/camera_right_31.png
2025-06-27 14:26:24,1.896676778793335,32,-0.03432311,-0.00027655342,0.11403818,-0.00068537804,0.00029471068,-0.02766244,1.0471791,0.057907056,2.6563099e-05,0.0020309724,0.833279293009394,-0.0005908880368723344,0.5528519428319777,0.0006844148550616784,0.9999997650953251,3.722365777288097e-05,-0.5528518349594859,0.00034736237909170544,0.8332795016807427,0.07067476,0.0005322108,0.11086674,0.0007767343,1.391727e-05,-0.01531873,1.047179,-0.056457084,-6.0854833e-05,0.006754736,0.8369251549802356,0.0009494230569654333,-0.5473165295851821,-0.0007851571419437502,0.9999995491491084,0.0005340691362521631,0.5473167898845888,-1.7246412520328447e-05,0.8369255230980772,0.0026657255,0.019344743,0.09063903,-0.00016294567,-0.012031062,-0.006226944,0.5235896,0.00019111253,-0.011352362,0.0023486614,0.9999936400418761,-0.00014323904631166856,0.0035636159128948305,0.0010357560162236078,0.9677929595718953,-0.2517453368238365,-0.0034127826291579333,0.25174742677065765,0.9677869528099037,left_images/camera_left_32.png,right_images/camera_right_32.png
2025-06-27 14:26:24,1.9545280933380127,33,-0.03432311,-0.00027655342,0.11403818,-0.00068537105,0.00029471592,-0.02766244,1.0471791,0.057907056,2.6563099e-05,0.0020309724,0.833279293009394,-0.0005908880368723344,0.5528519428319777,0.0006844148550616784,0.9999997650953251,3.722365777288097e-05,-0.5528518349594859,0.00034736237909170544,0.8332795016807427,0.07067476,0.0005322079,0.11086674,0.0007767448,1.3943087e-05,-0.01531873,1.047179,-0.056457084,-6.0854833e-05,0.006754736,0.8369251549802356,0.0009494230569654333,-0.5473165295851821,-0.0007851571419437502,0.9999995491491084,0.0005340691362521631,0.5473167898845888,-1.7246412520328447e-05,0.8369255230980772,0.0026657255,0.019344743,0.09063903,-0.00016294567,-0.012031062,-0.006226944,0.5235896,0.00019111253,-0.011352362,0.0023486614,0.9999936400418761,-0.00014323904631166856,0.0035636159128948305,0.0010357560162236078,0.9677929595718953,-0.2517453368238365,-0.0034127826291579333,0.25174742677065765,0.9677869528099037,left_images/camera_left_33.png,right_images/camera_right_33.png
2025-06-27 14:26:24,2.023796319961548,34,-0.03432311,-0.00027655342,0.11403818,-0.00068536407,0.00029472116,-0.02766244,1.0471791,0.057907056,2.6563099e-05,0.0020309724,0.833279293009394,-0.0005908880368723344,0.5528519428319777,0.0006844148550616784,0.9999997650953251,3.722365777288097e-05,-0.5528518349594859,0.00034736237909170544,0.8332795016807427,0.07067476,0.0005322044,0.11086674,0.0007767553,1.3968911e-05,-0.01531873,1.047179,-0.056457084,-6.0854833e-05,0.006754736,0.8369251549802356,0.0009494230569654333,-0.5473165295851821,-0.0007851571419437502,0.9999995491491084,0.0005340691362521631,0.5473167898845888,-1.7246412520328447e-05,0.8369255230980772,0.0026657255,0.019344743,0.09063903,-0.00016294567,-0.012031062,-0.006226944,0.5235896,0.00019111253,-0.011352362,0.0023486614,0.9999936400418761,-0.00014323904631166856,0.0035636159128948305,0.0010357560162236078,0.9677929595718953,-0.2517453368238365,-0.0034127826291579333,0.25174742677065765,0.9677869528099037,left_images/camera_left_34.png,right_images/camera_right_34.png
2025-06-27 14:26:24,2.090045928955078,35,-0.03432311,-0.00027655342,0.11403818,-0.0006853571,0.0002947264,-0.02766244,1.0471791,0.057907056,2.6563099e-05,0.0020309724,0.833279293009394,-0.0005908880368723344,0.5528519428319777,0.0006844148550616784,0.9999997650953251,3.722365777288097e-05,-0.5528518349594859,0.00034736237909170544,0.8332795016807427,0.07067476,0.0005322009,0.11086674,0.00077676575,1.3994735e-05,-0.01531873,1.047179,-0.056457084,-6.0854833e-05,0.006754736,0.8369251549802356,0.0009494230569654333,-0.5473165295851821,-0.0007851571419437502,0.9999995491491084,0.0005340691362521631,0.5473167898845888,-1.7246412520328447e-05,0.8369255230980772,0.0026657255,0.019344743,0.09063903,-0.00016294567,-0.012031062,-0.006226944,0.5235896,0.00019111253,-0.011352362,0.0023486614,0.9999936400418761,-0.00014323904631166856,0.0035636159128948305,0.0010357560162236078,0.9677929595718953,-0.2517453368238365,-0.0034127826291579333,0.25174742677065765,0.9677869528099037,left_images/camera_left_35.png,right_images/camera_right_35.png
2025-06-27 14:26:24,2.1518197059631348,36,-0.03432311,-0.00027655342,0.11403818,-0.0006853501,0.00029473164,-0.02766244,1.0471791,0.057907056,2.6563099e-05,0.0020309724,0.833279293009394,-0.0005908880368723344,0.5528519428319777,0.0006844148550616784,0.9999997650953251,3.722365777288097e-05,-0.5528518349594859,0.00034736237909170544,0.8332795016807427,0.07067476,0.0005321974,0.11086674,0.0007767762,1.4020559e-05,-0.01531873,1.047179,-0.056457084,-6.0854833e-05,0.006754736,0.8369251549802356,0.0009494230569654333,-0.5473165295851821,-0.0007851571419437502,0.9999995491491084,0.0005340691362521631,0.5473167898845888,-1.7246412520328447e-05,0.8369255230980772,0.0026657255,0.019344743,0.09063903,-0.00016294567,-0.012031062,-0.006226944,0.5235896,0.00019111253,-0.011352362,0.0023486614,0.9999936400418761,-0.00014323904631166856,0.0035636159128948305,0.0010357560162236078,0.9677929595718953,-0.2517453368238365,-0.0034127826291579333,0.25174742677065765,0.9677869528099037,left_images/camera_left_36.png,right_images/camera_right_36.png
2025-06-27 14:26:24,2.208299160003662,37,-0.03432311,-0.0002765678,0.11403818,-0.00068539364,0.00029475463,-0.02766244,1.0471791,0.057907056,2.6557102e-05,0.0020309677,0.8332793310586042,-0.0005909906106352855,0.5528518853731289,0.0006843206197884257,0.9999997651475714,3.755118523071494e-05,-0.5528517777269187,0.00034703731834023136,0.8332795397879905,0.07067476,0.0005321939,0.11086674,0.0007767867,1.40463835e-05,-0.01531873,1.047179,-0.056457084,-6.0854833e-05,0.006754736,0.8369251549802356,0.0009494230569654333,-0.5473165295851821,-0.0007851571419437502,0.9999995491491084,0.0005340691362521631,0.5473167898845888,-1.7246412520328447e-05,0.8369255230980772,0.0026657255,0.019344743,0.09063903,-0.00016294567,-0.012031062,-0.006226944,0.5235896,0.00019111253,-0.011352362,0.0023486614,0.9999936400418761,-0.00014323904631166856,0.0035636159128948305,0.0010357560162236078,0.9677929595718953,-0.2517453368238365,-0.0034127826291579333,0.25174742677065765,0.9677869528099037,left_images/camera_left_37.png,right_images/camera_right_37.png
2025-06-27 14:26:24,2.2561452388763428,38,-0.03432311,-0.00027657032,0.11403818,-0.0006853762,0.00029475885,-0.02766244,1.0471791,0.057907056,2.6557102e-05,0.0020309677,0.8332793310586042,-0.0005909906106352855,0.5528518853731289,0.0006843206197884257,0.9999997651475714,3.755118523071494e-05,-0.5528517777269187,0.00034703731834023136,0.8332795397879905,0.07067476,0.00053219043,0.11086674,0.0007767972,1.4072208e-05,-0.01531873,1.047179,-0.056457084,-6.0854833e-05,0.006754736,0.8369251549802356,0.0009494230569654333,-0.5473165295851821,-0.0007851571419437502,0.9999995491491084,0.0005340691362521631,0.5473167898845888,-1.7246412520328447e-05,0.8369255230980772,0.0026657255,0.019344743,0.09063903,-0.00016294567,-0.012031062,-0.006226944,0.5235896,0.00019111253,-0.011352362,0.0023486614,0.9999936400418761,-0.00014323904631166856,0.0035636159128948305,0.0010357560162236078,0.9677929595718953,-0.2517453368238365,-0.0034127826291579333,0.25174742677065765,0.9677869528099037,left_images/camera_left_38.png,right_images/camera_right_38.png
2025-06-27 14:26:24,2.305778741836548,39,-0.03432311,-0.00027657032,0.11403818,-0.0006853587,0.0002947631,-0.02766244,1.0471791,0.057907056,2.6557102e-05,0.0020309677,0.8332793310586042,-0.0005909906106352855,0.5528518853731289,0.0006843206197884257,0.9999997651475714,3.755118523071494e-05,-0.5528517777269187,0.00034703731834023136,0.8332795397879905,0.07067476,0.00053218694,0.11086674,0.00077680766,1.4098032e-05,-0.01531873,1.047179,-0.056457084,-6.0854833e-05,0.006754736,0.8369251549802356,0.0009494230569654333,-0.5473165295851821,-0.0007851571419437502,0.9999995491491084,0.0005340691362521631,0.5473167898845888,-1.7246412520328447e-05,0.8369255230980772,0.0026657255,0.019344743,0.09063903,-0.00016294567,-0.012031062,-0.006226944,0.5235896,0.00019111253,-0.011352362,0.0023486614,0.9999936400418761,-0.00014323904631166856,0.0035636159128948305,0.0010357560162236078,0.9677929595718953,-0.2517453368238365,-0.0034127826291579333,0.25174742677065765,0.9677869528099037,left_images/camera_left_39.png,right_images/camera_right_39.png
2025-06-27 14:26:24,2.3571743965148926,40,-0.03432311,-0.00027657032,0.11403818,-0.00068534125,0.00029476735,-0.02766244,1.0471791,0.057907026,2.6543397e-05,0.0020309403,0.8332793121088887,-0.0005908891397323679,0.5528519140433192,0.000684172380551007,0.9999997652475039,3.759109783708751e-05,-0.552851806472124,0.0003469221259760922,0.8332795207645196,0.07067476,0.00053218345,0.11086674,0.00077681814,1.4123856e-05,-0.01531873,1.047179,-0.056457084,-6.0854833e-05,0.006754736,0.8369251549802356,0.0009494230569654333,-0.5473165295851821,-0.0007851571419437502,0.9999995491491084,0.0005340691362521631,0.5473167898845888,-1.7246412520328447e-05,0.8369255230980772,0.0026657255,0.019344743,0.09063903,-0.00016294567,-0.012031062,-0.006226944,0.5235896,0.00019111253,-0.011352362,0.0023486614,0.9999936400418761,-0.00014323904631166856,0.0035636159128948305,0.0010357560162236078,0.9677929595718953,-0.2517453368238365,-0.0034127826291579333,0.25174742677065765,0.9677869528099037,left_images/camera_left_40.png,right_images/camera_right_40.png
2025-06-27 14:26:24,2.4043328762054443,41,-0.03432311,-0.00027656546,0.11403818,-0.00068532437,0.0002947329,-0.02766244,1.0471791,0.057907023,2.655172e-05,0.0020309393,0.833279280672521,-0.0005906049937325885,0.5528519617290216,0.000684119457025083,0.9999997652999377,3.71569380153373e-05,-0.5528518539197048,0.00034725467729189647,0.8332794891461895,0.07067476,0.00053217995,0.11086674,0.0007768286,1.414968e-05,-0.01531873,1.047179,-0.056457084,-6.0854833e-05,0.006754736,0.8369251549802356,0.0009494230569654333,-0.5473165295851821,-0.0007851571419437502,0.9999995491491084,0.0005340691362521631,0.5473167898845888,-1.7246412520328447e-05,0.8369255230980772,0.0026657255,0.019344743,0.09063903,-0.00016294567,-0.012031062,-0.006226944,0.5235896,0.00019111253,-0.011352362,0.0023486614,0.9999936400418761,-0.00014323904631166856,0.0035636159128948305,0.0010357560162236078,0.9677929595718953,-0.2517453368238365,-0.0034127826291579333,0.25174742677065765,0.9677869528099037,left_images/camera_left_41.png,right_images/camera_right_41.png
2025-06-27 14:26:24,2.453878402709961,42,-0.03432311,-0.0002765663,0.11403818,-0.00068534183,0.0002947385,-0.02766244,1.0471791,0.057907026,2.6543397e-05,0.0020309403,0.8332793121088887,-0.0005908891397323679,0.5528519140433192,0.000684172380551007,0.9999997652475039,3.759109783708751e-05,-0.552851806472124,0.0003469221259760922,0.8332795207645196,0.07067476,0.00053217646,0.11086674,0.0007768391,1.41755045e-05,-0.01531873,1.047179,-0.056457084,-6.0854833e-05,0.006754736,0.8369251549802356,0.0009494230569654333,-0.5473165295851821,-0.0007851571419437502,0.9999995491491084,0.0005340691362521631,0.5473167898845888,-1.7246412520328447e-05,0.8369255230980772,0.0026657255,0.019344743,0.09063903,-0.00016294567,-0.012031062,-0.006226944,0.5235896,0.00019111253,-0.011352362,0.0023486614,0.9999936400418761,-0.00014323904631166856,0.0035636159128948305,0.0010357560162236078,0.9677929595718953,-0.2517453368238365,-0.0034127826291579333,0.25174742677065765,0.9677869528099037,left_images/camera_left_42.png,right_images/camera_right_42.png
2025-06-27 14:26:24,2.5086891651153564,43,-0.03432311,-0.00027656148,0.11403818,-0.00068534154,0.000294771,-0.027662383,1.0471791,0.057907026,2.6543397e-05,0.0020309403,0.8332793121088887,-0.0005908891397323679,0.5528519140433192,0.000684172380551007,0.9999997652475039,3.759109783708751e-05,-0.552851806472124,0.0003469221259760922,0.8332795207645196,0.07067476,0.00053217297,0.11086674,0.00077684957,1.4201329e-05,-0.01531873,1.047179,-0.056457035,-6.0845417e-05,0.0067547048,0.8369251424163549,0.0009492292642940967,-0.5473165491332854,-0.0007851701858626474,0.9999995493385518,0.0005336951118168293,0.5473168090778351,-1.692622085552772e-05,0.836925510552976,0.0026657255,0.019344743,0.09063903,-0.00016294567,-0.012031062,-0.006226944,0.5235896,0.00019111253,-0.011352362,0.0023486614,0.9999936400418761,-0.00014323904631166856,0.0035636159128948305,0.0010357560162236078,0.9677929595718953,-0.2517453368238365,-0.0034127826291579333,0.25174742677065765,0.9677869528099037,left_images/camera_left_43.png,right_images/camera_right_43.png
2025-06-27 14:26:24,2.574625253677368,44,-0.03432311,-0.00027655624,0.11403818,-0.00068532466,0.00029473653,-0.027662383,1.0471791,0.057907023,2.655172e-05,0.0020309393,0.833279280672521,-0.0005906049937325885,0.5528519617290216,0.000684119457025083,0.9999997652999377,3.71569380153373e-05,-0.5528518539197048,0.00034725467729189647,0.8332794891461895,0.07067476,0.0005321754,0.11086674,0.0007768732,1.4189092e-05,-0.01531873,1.047179,-0.056457084,-6.0854833e-05,0.006754736,0.8369251549802356,0.0009494230569654333,-0.5473165295851821,-0.0007851571419437502,0.9999995491491084,0.0005340691362521631,0.5473167898845888,-1.7246412520328447e-05,0.8369255230980772,0.0026657255,0.019344743,0.09063903,-0.00016294567,-0.012031062,-0.006226944,0.5235896,0.00019111253,-0.011352362,0.0023486614,0.9999936400418761,-0.00014323904631166856,0.0035636159128948305,0.0010357560162236078,0.9677929595718953,-0.2517453368238365,-0.0034127826291579333,0.25174742677065765,0.9677869528099037,left_images/camera_left_44.png,right_images/camera_right_44.png
2025-06-27 14:26:24,2.6337413787841797,45,-0.03432311,-0.00027655635,0.11403818,-0.00068532594,0.00029467532,-0.027662383,1.0471791,0.057907023,2.655172e-05,0.0020309393,0.833279280672521,-0.0005906049937325885,0.5528519617290216,0.000684119457025083,0.9999997652999377,3.71569380153373e-05,-0.5528518539197048,0.00034725467729189647,0.8332794891461895,0.07067476,0.0005321783,0.11086674,0.0007768837,1.4240475e-05,-0.015318702,1.047179,-0.056457084,-6.08639e-05,0.006754735,0.836925123648838,0.000949669465810115,-0.5473165770678642,-0.000785094567963137,0.9999995489065422,0.000534615031431016,0.5473168378845082,-1.7737479672772568e-05,0.8369254916977288,0.0026657255,0.019344743,0.09063903,-0.00016294567,-0.012031062,-0.006226944,0.5235896,0.00019111253,-0.011352362,0.0023486614,0.9999936400418761,-0.00014323904631166856,0.0035636159128948305,0.0010357560162236078,0.9677929595718953,-0.2517453368238365,-0.0034127826291579333,0.25174742677065765,0.9677869528099037,left_images/camera_left_45.png,right_images/camera_right_45.png
2025-06-27 14:26:24,2.6845366954803467,46,-0.03432311,-0.00027655775,0.11403818,-0.0006853434,0.00029468094,-0.027662383,1.0471791,0.057907023,2.655172e-05,0.0020309393,0.833279280672521,-0.0005906049937325885,0.5528519617290216,0.000684119457025083,0.9999997652999377,3.71569380153373e-05,-0.5528518539197048,0.00034725467729189647,0.8332794891461895,0.07067476,0.0005321696,0.11086674,0.00077685807,1.4302568e-05,-0.015318702,1.047179,-0.056457035,-6.0853876e-05,0.006754701,0.8369251110250742,0.0009495327539616333,-0.5473165966085959,-0.0007851865327804242,0.9999995490429816,0.0005342246178031064,0.5473168570561079,-1.7360376742907118e-05,0.8369254791681523,0.0026657255,0.019344743,0.09063903,-0.00016294567,-0.012031062,-0.006226944,0.5235896,0.00019111253,-0.011352362,0.0023486614,0.9999936400418761,-0.00014323904631166856,0.0035636159128948305,0.0010357560162236078,0.9677929595718953,-0.2517453368238365,-0.0034127826291579333,0.25174742677065765,0.9677869528099037,left_images/camera_left_46.png,right_images/camera_right_46.png
2025-06-27 14:26:25,2.7333741188049316,47,-0.03432311,-0.00027654486,0.11403818,-0.00068531017,0.0002946688,-0.027662383,1.0471791,0.057907023,2.655172e-05,0.0020309393,0.833279280672521,-0.0005906049937325885,0.5528519617290216,0.000684119457025083,0.9999997652999377,3.71569380153373e-05,-0.5528518539197048,0.00034725467729189647,0.8332794891461895,0.07067476,0.00053216575,0.11086674,0.0007768334,1.432554e-05,-0.015318702,1.047179,-0.056457035,-6.0853876e-05,0.006754701,0.8369251110250742,0.0009495327539616333,-0.5473165966085959,-0.0007851865327804242,0.9999995490429816,0.0005342246178031064,0.5473168570561079,-1.7360376742907118e-05,0.8369254791681523,0.0026657255,0.019344743,0.09063903,-0.00016294567,-0.012031062,-0.006226944,0.5235896,0.00019111253,-0.011352362,0.0023486614,0.9999936400418761,-0.00014323904631166856,0.0035636159128948305,0.0010357560162236078,0.9677929595718953,-0.2517453368238365,-0.0034127826291579333,0.25174742677065765,0.9677869528099037,left_images/camera_left_47.png,right_images/camera_right_47.png
2025-06-27 14:26:25,2.784497022628784,48,-0.03432311,-0.00027654378,0.11403818,-0.0006853276,0.00029467442,-0.027662383,1.0471791,0.057907023,2.655172e-05,0.0020309393,0.833279280672521,-0.0005906049937325885,0.5528519617290216,0.000684119457025083,0.9999997652999377,3.71569380153373e-05,-0.5528518539197048,0.00034725467729189647,0.8332794891461895,0.07067476,0.00053216226,0.11086674,0.0007768087,1.4348509e-05,-0.015318702,1.047179,-0.056457035,-6.0853876e-05,0.006754701,0.8369251110250742,0.0009495327539616333,-0.5473165966085959,-0.0007851865327804242,0.9999995490429816,0.0005342246178031064,0.5473168570561079,-1.7360376742907118e-05,0.8369254791681523,0.0026657255,0.019344743,0.09063903,-0.00016294567,-0.012031062,-0.006226944,0.5235896,0.00019111253,-0.011352362,0.0023486614,0.9999936400418761,-0.00014323904631166856,0.0035636159128948305,0.0010357560162236078,0.9677929595718953,-0.2517453368238365,-0.0034127826291579333,0.25174742677065765,0.9677869528099037,left_images/camera_left_48.png,right_images/camera_right_48.png
2025-06-27 14:26:25,2.8369786739349365,49,-0.03432311,-0.0002765452,0.11403818,-0.0006853451,0.00029468007,-0.027662383,1.0471791,0.057907023,2.655172e-05,0.0020309393,0.833279280672521,-0.0005906049937325885,0.5528519617290216,0.000684119457025083,0.9999997652999377,3.71569380153373e-05,-0.5528518539197048,0.00034725467729189647,0.8332794891461895,0.07067476,0.00053215877,0.11086674,0.000776784,1.4371477e-05,-0.015318702,1.047179,-0.056457035,-6.0853876e-05,0.006754701,0.8369251110250742,0.0009495327539616333,-0.5473165966085959,-0.0007851865327804242,0.9999995490429816,0.0005342246178031064,0.5473168570561079,-1.7360376742907118e-05,0.8369254791681523,0.0026657255,0.019344743,0.09063903,-0.00016294567,-0.012031062,-0.006226944,0.5235896,0.00019111253,-0.011352362,0.0023486614,0.9999936400418761,-0.00014323904631166856,0.0035636159128948305,0.0010357560162236078,0.9677929595718953,-0.2517453368238365,-0.0034127826291579333,0.25174742677065765,0.9677869528099037,left_images/camera_left_49.png,right_images/camera_right_49.png
2025-06-27 14:26:25,2.88265061378479,50,-0.03432311,-0.00027653232,0.11403818,-0.00068531185,0.00029466793,-0.027662383,1.0471791,0.057907023,2.655172e-05,0.0020309393,0.833279280672521,-0.0005906049937325885,0.5528519617290216,0.000684119457025083,0.9999997652999377,3.71569380153373e-05,-0.5528518539197048,0.00034725467729189647,0.8332794891461895,0.07067476,0.0005321553,0.11086674,0.00077675935,1.4394445e-05,-0.015318702,1.047179,-0.056457035,-6.0853876e-05,0.006754701,0.8369251110250742,0.0009495327539616333,-0.5473165966085959,-0.0007851865327804242,0.9999995490429816,0.0005342246178031064,0.5473168570561079,-1.7360376742907118e-05,0.8369254791681523,0.0026657255,0.019344743,0.09063903,-0.00016294567,-0.012031062,-0.006226944,0.5235896,0.00019111253,-0.011352362,0.0023486614,0.9999936400418761,-0.00014323904631166856,0.0035636159128948305,0.0010357560162236078,0.9677929595718953,-0.2517453368238365,-0.0034127826291579333,0.25174742677065765,0.9677869528099037,left_images/camera_left_50.png,right_images/camera_right_50.png
2025-06-27 14:26:25,2.932340621948242,51,-0.03432311,-0.00027653124,0.11403818,-0.0006853293,0.00029467355,-0.027662383,1.0471791,0.057907023,2.655172e-05,0.0020309393,0.833279280672521,-0.0005906049937325885,0.5528519617290216,0.000684119457025083,0.9999997652999377,3.71569380153373e-05,-0.5528518539197048,0.00034725467729189647,0.8332794891461895,0.07067476,0.0005321518,0.11086674,0.00077673467,1.4417414e-05,-0.015318702,1.047179,-0.056457035,-6.0853876e-05,0.006754701,0.8369251110250742,0.0009495327539616333,-0.5473165966085959,-0.0007851865327804242,0.9999995490429816,0.0005342246178031064,0.5473168570561079,-1.7360376742907118e-05,0.8369254791681523,0.0026657255,0.019344743,0.09063903,-0.00016294567,-0.012031062,-0.006226944,0.5235896,0.00019111253,-0.011352362,0.0023486614,0.9999936400418761,-0.00014323904631166856,0.0035636159128948305,0.0010357560162236078,0.9677929595718953,-0.2517453368238365,-0.0034127826291579333,0.25174742677065765,0.9677869528099037,left_images/camera_left_51.png,right_images/camera_right_51.png
2025-06-27 14:26:25,2.9929378032684326,52,-0.03432311,-0.00027653266,0.11403818,-0.0006853468,0.0002946792,-0.027662383,1.0471791,0.057907023,2.655172e-05,0.0020309393,0.833279280672521,-0.0005906049937325885,0.5528519617290216,0.000684119457025083,0.9999997652999377,3.71569380153373e-05,-0.5528518539197048,0.00034725467729189647,0.8332794891461895,0.07067476,0.00053216354,0.11086674,0.0007767594,1.4409572e-05,-0.015318702,1.047179,-0.056457035,-6.0853876e-05,0.006754701,0.8369251110250742,0.0009495327539616333,-0.5473165966085959,-0.0007851865327804242,0.9999995490429816,0.0005342246178031064,0.5473168570561079,-1.7360376742907118e-05,0.8369254791681523,0.0026657255,0.019344743,0.09063903,-0.00016294567,-0.012031062,-0.006226944,0.5235896,0.00019111253,-0.011352362,0.0023486614,0.9999936400418761,-0.00014323904631166856,0.0035636159128948305,0.0010357560162236078,0.9677929595718953,-0.2517453368238365,-0.0034127826291579333,0.25174742677065765,0.9677869528099037,left_images/camera_left_52.png,right_images/camera_right_52.png
2025-06-27 14:26:25,3.0553431510925293,53,-0.03432311,-0.00027651977,0.11403818,-0.00068531354,0.00029466706,-0.027662383,1.0471791,0.057907023,2.655172e-05,0.0020309393,0.833279280672521,-0.0005906049937325885,0.5528519617290216,0.000684119457025083,0.9999997652999377,3.71569380153373e-05,-0.5528518539197048,0.00034725467729189647,0.8332794891461895,0.07067476,0.00053216267,0.11086674,0.0007767348,1.4432541e-05,-0.015318702,1.047179,-0.056457035,-6.0853876e-05,0.006754701,0.8369251110250742,0.0009495327539616333,-0.5473165966085959,-0.0007851865327804242,0.9999995490429816,0.0005342246178031064,0.5473168570561079,-1.7360376742907118e-05,0.8369254791681523,0.0026657255,0.019344743,0.09063903,-0.00016294567,-0.012031062,-0.006226944,0.5235896,0.00019111253,-0.011352362,0.0023486614,0.9999936400418761,-0.00014323904631166856,0.0035636159128948305,0.0010357560162236078,0.9677929595718953,-0.2517453368238365,-0.0034127826291579333,0.25174742677065765,0.9677869528099037,left_images/camera_left_53.png,right_images/camera_right_53.png
2025-06-27 14:26:25,3.104448080062866,54,-0.03432311,-0.0002765187,0.11403818,-0.000685331,0.00029467267,-0.027662383,1.0471791,0.057907023,2.655172e-05,0.0020309393,0.833279280672521,-0.0005906049937325885,0.5528519617290216,0.000684119457025083,0.9999997652999377,3.71569380153373e-05,-0.5528518539197048,0.00034725467729189647,0.8332794891461895,0.07067476,0.0005321744,0.11086674,0.0007767595,1.44247e-05,-0.015318702,1.047179,-0.056457035,-6.0853876e-05,0.006754701,0.8369251110250742,0.0009495327539616333,-0.5473165966085959,-0.0007851865327804242,0.9999995490429816,0.0005342246178031064,0.5473168570561079,-1.7360376742907118e-05,0.8369254791681523,0.0026657255,0.019344743,0.09063903,-0.00016294567,-0.012031062,-0.006226944,0.5235896,0.00019111253,-0.011352362,0.0023486614,0.9999936400418761,-0.00014323904631166856,0.0035636159128948305,0.0010357560162236078,0.9677929595718953,-0.2517453368238365,-0.0034127826291579333,0.25174742677065765,0.9677869528099037,left_images/camera_left_54.png,right_images/camera_right_54.png
2025-06-27 14:26:25,3.167973041534424,55,-0.03432311,-0.00027652012,0.11403818,-0.00068534847,0.00029467832,-0.027662383,1.0471791,0.057907056,2.6563099e-05,0.0020309724,0.833279293009394,-0.0005908880368723344,0.5528519428319777,0.0006844148550616784,0.9999997650953251,3.722365777288097e-05,-0.5528518349594859,0.00034736237909170544,0.8332795016807427,0.07067476,0.0005321688,0.11086674,0.0007767537,1.44049245e-05,-0.01531873,1.047179,-0.056457035,-6.0853876e-05,0.006754701,0.8369251110250742,0.0009495327539616333,-0.5473165966085959,-0.0007851865327804242,0.9999995490429816,0.0005342246178031064,0.5473168570561079,-1.7360376742907118e-05,0.8369254791681523,0.0026657255,0.019344743,0.09063903,-0.00016294567,-0.012031062,-0.006226944,0.5235896,0.00019111253,-0.011352362,0.0023486614,0.9999936400418761,-0.00014323904631166856,0.0035636159128948305,0.0010357560162236078,0.9677929595718953,-0.2517453368238365,-0.0034127826291579333,0.25174742677065765,0.9677869528099037,left_images/camera_left_55.png,right_images/camera_right_55.png
2025-06-27 14:26:25,3.2197275161743164,56,-0.03432311,-0.0002765345,0.11403818,-0.000685392,0.0002947013,-0.027662383,1.0471791,0.057907056,2.6563099e-05,0.0020309724,0.833279293009394,-0.0005908880368723344,0.5528519428319777,0.0006844148550616784,0.9999997650953251,3.722365777288097e-05,-0.5528518349594859,0.00034736237909170544,0.8332795016807427,0.07067476,0.0005321645,0.11086674,0.0007767291,1.4427881e-05,-0.01531873,1.047179,-0.056457035,-6.0853876e-05,0.006754701,0.8369251110250742,0.0009495327539616333,-0.5473165966085959,-0.0007851865327804242,0.9999995490429816,0.0005342246178031064,0.5473168570561079,-1.7360376742907118e-05,0.8369254791681523,0.0026657255,0.019344743,0.09063903,-0.00016294567,-0.012031062,-0.006226944,0.5235896,0.00019111253,-0.011352362,0.0023486614,0.9999936400418761,-0.00014323904631166856,0.0035636159128948305,0.0010357560162236078,0.9677929595718953,-0.2517453368238365,-0.0034127826291579333,0.25174742677065765,0.9677869528099037,left_images/camera_left_56.png,right_images/camera_right_56.png
2025-06-27 14:26:25,3.268190860748291,57,-0.03432311,-0.0002765371,0.11403818,-0.000685385,0.00029470655,-0.027662383,1.0471791,0.057907056,2.6563099e-05,0.0020309724,0.833279293009394,-0.0005908880368723344,0.5528519428319777,0.0006844148550616784,0.9999997650953251,3.722365777288097e-05,-0.5528518349594859,0.00034736237909170544,0.8332795016807427,0.07067476,0.00053217623,0.11086674,0.0007767538,1.4420039e-05,-0.01531873,1.047179,-0.056457084,-6.08639e-05,0.006754735,0.836925123648838,0.000949669465810115,-0.5473165770678642,-0.000785094567963137,0.9999995489065422,0.000534615031431016,0.5473168378845082,-1.7737479672772568e-05,0.8369254916977288,0.0026657255,0.019344743,0.09063903,-0.00016294567,-0.012031062,-0.006226944,0.5235896,0.00019111253,-0.011352362,0.0023486614,0.9999936400418761,-0.00014323904631166856,0.0035636159128948305,0.0010357560162236078,0.9677929595718953,-0.2517453368238365,-0.0034127826291579333,0.25174742677065765,0.9677869528099037,left_images/camera_left_57.png,right_images/camera_right_57.png
2025-06-27 14:26:25,3.3198487758636475,58,-0.03432311,-0.0002765371,0.11403818,-0.00068537804,0.0002947118,-0.027662383,1.0471791,0.057907056,2.6563099e-05,0.0020309724,0.833279293009394,-0.0005908880368723344,0.5528519428319777,0.0006844148550616784,0.9999997650953251,3.722365777288097e-05,-0.5528518349594859,0.00034736237909170544,0.8332795016807427,0.07067476,0.00053217466,0.11086674,0.00077670964,1.4524871e-05,-0.015318702,1.047179,-0.056457113,-6.0876573e-05,0.006754705,0.836925123855191,0.0009494754795787905,-0.5473165770888792,-0.000784820302097864,0.9999995490870982,0.0005346799917284468,0.5473168379623147,-1.794195692616e-05,0.8369254916424875,0.0026657255,0.019344743,0.09063903,-0.00016294567,-0.012031062,-0.006226944,0.5235896,0.00019111253,-0.011352362,0.0023486614,0.9999936400418761,-0.00014323904631166856,0.0035636159128948305,0.0010357560162236078,0.9677929595718953,-0.2517453368238365,-0.0034127826291579333,0.25174742677065765,0.9677869528099037,left_images/camera_left_58.png,right_images/camera_right_58.png
2025-06-27 14:26:25,3.3687663078308105,59,-0.03432311,-0.0002765371,0.11403818,-0.00068537105,0.00029471703,-0.027662383,1.0471791,0.057907056,2.6563099e-05,0.0020309724,0.833279293009394,-0.0005908880368723344,0.5528519428319777,0.0006844148550616784,0.9999997650953251,3.722365777288097e-05,-0.5528518349594859,0.00034736237909170544,0.8332795016807427,0.07067476,0.00053217815,0.11086674,0.00077670615,1.4510689e-05,-0.015318702,1.047179,-0.056457113,-6.0876573e-05,0.006754705,0.836925123855191,0.0009494754795787905,-0.5473165770888792,-0.000784820302097864,0.9999995490870982,0.0005346799917284468,0.5473168379623147,-1.794195692616e-05,0.8369254916424875,0.0026657255,0.019344743,0.09063903,-0.00016294567,-0.012031062,-0.006226944,0.5235896,0.00019111253,-0.011352362,0.0023486614,0.9999936400418761,-0.00014323904631166856,0.0035636159128948305,0.0010357560162236078,0.9677929595718953,-0.2517453368238365,-0.0034127826291579333,0.25174742677065765,0.9677869528099037,left_images/camera_left_59.png,right_images/camera_right_59.png
2025-06-27 14:26:25,3.4217541217803955,60,-0.03432311,-0.0002765371,0.11403818,-0.00068536407,0.00029472227,-0.027662383,1.0471791,0.057907056,2.6563099e-05,0.0020309724,0.833279293009394,-0.0005908880368723344,0.5528519428319777,0.0006844148550616784,0.9999997650953251,3.722365777288097e-05,-0.5528518349594859,0.00034736237909170544,0.8332795016807427,0.07067476,0.00053218164,0.11086674,0.00077670265,1.4496488e-05,-0.015318702,1.047179,-0.056457113,-6.0876573e-05,0.006754705,0.836925123855191,0.0009494754795787905,-0.5473165770888792,-0.000784820302097864,0.9999995490870982,0.0005346799917284468,0.5473168379623147,-1.794195692616e-05,0.8369254916424875,0.0026657255,0.019344743,0.09063903,-0.00016294567,-0.012031062,-0.006226944,0.5235896,0.00019111253,-0.011352362,0.0023486614,0.9999936400418761,-0.00014323904631166856,0.0035636159128948305,0.0010357560162236078,0.9677929595718953,-0.2517453368238365,-0.0034127826291579333,0.25174742677065765,0.9677869528099037,left_images/camera_left_60.png,right_images/camera_right_60.png
2025-06-27 14:26:25,3.474665880203247,61,-0.03432311,-0.0002765371,0.11403818,-0.0006853571,0.0002947275,-0.027662383,1.0471791,0.057907056,2.6563099e-05,0.0020309724,0.833279293009394,-0.0005908880368723344,0.5528519428319777,0.0006844148550616784,0.9999997650953251,3.722365777288097e-05,-0.5528518349594859,0.00034736237909170544,0.8332795016807427,0.07067476,0.00053218513,0.11086674,0.00077669916,1.4482287e-05,-0.015318702,1.047179,-0.056457113,-6.0876573e-05,0.006754705,0.836925123855191,0.0009494754795787905,-0.5473165770888792,-0.000784820302097864,0.9999995490870982,0.0005346799917284468,0.5473168379623147,-1.794195692616e-05,0.8369254916424875,0.0026657255,0.019344743,0.09063903,-0.00016294567,-0.012031062,-0.006226944,0.5235896,0.00019111253,-0.011352362,0.0023486614,0.9999936400418761,-0.00014323904631166856,0.0035636159128948305,0.0010357560162236078,0.9677929595718953,-0.2517453368238365,-0.0034127826291579333,0.25174742677065765,0.9677869528099037,left_images/camera_left_61.png,right_images/camera_right_61.png
2025-06-27 14:26:25,3.5217509269714355,62,-0.03432311,-0.0002765371,0.11403818,-0.0006853501,0.00029473274,-0.027662383,1.0471791,0.057907056,2.6563099e-05,0.0020309724,0.833279293009394,-0.0005908880368723344,0.5528519428319777,0.0006844148550616784,0.9999997650953251,3.722365777288097e-05,-0.5528518349594859,0.00034736237909170544,0.8332795016807427,0.07067476,0.0005321886,0.11086674,0.00077669567,1.4468086e-05,-0.015318702,1.047179,-0.056457113,-6.0876573e-05,0.006754705,0.836925123855191,0.0009494754795787905,-0.5473165770888792,-0.000784820302097864,0.9999995490870982,0.0005346799917284468,0.5473168379623147,-1.794195692616e-05,0.8369254916424875,0.0026657255,0.019344743,0.09063903,-0.00016294567,-0.012031062,-0.006226944,0.5235896,0.00019111253,-0.011352362,0.0023486614,0.9999936400418761,-0.00014323904631166856,0.0035636159128948305,0.0010357560162236078,0.9677929595718953,-0.2517453368238365,-0.0034127826291579333,0.25174742677065765,0.9677869528099037,left_images/camera_left_62.png,right_images/camera_right_62.png
2025-06-27 14:26:25,3.570218563079834,63,-0.03432311,-0.00027655147,0.11403818,-0.00068539364,0.00029475574,-0.027662383,1.0471791,0.057907056,2.6557102e-05,0.0020309677,0.8332793310586042,-0.0005909906106352855,0.5528518853731289,0.0006843206197884257,0.9999997651475714,3.755118523071494e-05,-0.5528517777269187,0.00034703731834023136,0.8332795397879905,0.07067476,0.0005321921,0.11086674,0.0007766922,1.4453885e-05,-0.015318702,1.047179,-0.056457113,-6.0876573e-05,0.006754705,0.836925123855191,0.0009494754795787905,-0.5473165770888792,-0.000784820302097864,0.9999995490870982,0.0005346799917284468,0.5473168379623147,-1.794195692616e-05,0.8369254916424875,0.0026657255,0.019344743,0.09063903,-0.00016294567,-0.012031062,-0.006226944,0.5235896,0.00019111253,-0.011352362,0.0023486614,0.9999936400418761,-0.00014323904631166856,0.0035636159128948305,0.0010357560162236078,0.9677929595718953,-0.2517453368238365,-0.0034127826291579333,0.25174742677065765,0.9677869528099037,left_images/camera_left_63.png,right_images/camera_right_63.png
2025-06-27 14:26:25,3.6202681064605713,64,-0.03432311,-0.000276554,0.11403818,-0.0006853762,0.00029475996,-0.027662383,1.0471791,0.057907056,2.6557102e-05,0.0020309677,0.8332793310586042,-0.0005909906106352855,0.5528518853731289,0.0006843206197884257,0.9999997651475714,3.755118523071494e-05,-0.5528517777269187,0.00034703731834023136,0.8332795397879905,0.07067476,0.0005321956,0.11086674,0.0007766887,1.44396845e-05,-0.015318702,1.047179,-0.056457113,-6.0876573e-05,0.006754705,0.836925123855191,0.0009494754795787905,-0.5473165770888792,-0.000784820302097864,0.9999995490870982,0.0005346799917284468,0.5473168379623147,-1.794195692616e-05,0.8369254916424875,0.0026657255,0.019344743,0.09063903,-0.00016294567,-0.012031062,-0.006226944,0.5235896,0.00019111253,-0.011352362,0.0023486614,0.9999936400418761,-0.00014323904631166856,0.0035636159128948305,0.0010357560162236078,0.9677929595718953,-0.2517453368238365,-0.0034127826291579333,0.25174742677065765,0.9677869528099037,left_images/camera_left_64.png,right_images/camera_right_64.png
2025-06-27 14:26:25,3.6689414978027344,65,-0.03432311,-0.000276554,0.11403818,-0.0006853587,0.0002947642,-0.027662383,1.0471791,0.057907056,2.6557102e-05,0.0020309677,0.8332793310586042,-0.0005909906106352855,0.5528518853731289,0.0006843206197884257,0.9999997651475714,3.755118523071494e-05,-0.5528517777269187,0.00034703731834023136,0.8332795397879905,0.07067476,0.0005321991,0.11086674,0.0007766852,1.4425484e-05,-0.015318702,1.047179,-0.056457113,-6.0876573e-05,0.006754705,0.836925123855191,0.0009494754795787905,-0.5473165770888792,-0.000784820302097864,0.9999995490870982,0.0005346799917284468,0.5473168379623147,-1.794195692616e-05,0.8369254916424875,0.0026657255,0.019344743,0.09063903,-0.00016294567,-0.012031062,-0.006226944,0.5235896,0.00019111253,-0.011352362,0.0023486614,0.9999936400418761,-0.00014323904631166856,0.0035636159128948305,0.0010357560162236078,0.9677929595718953,-0.2517453368238365,-0.0034127826291579333,0.25174742677065765,0.9677869528099037,left_images/camera_left_65.png,right_images/camera_right_65.png
2025-06-27 14:26:25,3.7154042720794678,66,-0.03432311,-0.000276554,0.11403818,-0.00068534125,0.00029476846,-0.027662383,1.0471791,0.057907026,2.6543397e-05,0.0020309403,0.8332793121088887,-0.0005908891397323679,0.5528519140433192,0.000684172380551007,0.9999997652475039,3.759109783708751e-05,-0.552851806472124,0.0003469221259760922,0.8332795207645196,0.07067476,0.0005322026,0.11086674,0.0007766817,1.4411283e-05,-0.015318702,1.047179,-0.056457113,-6.0876573e-05,0.006754705,0.836925123855191,0.0009494754795787905,-0.5473165770888792,-0.000784820302097864,0.9999995490870982,0.0005346799917284468,0.5473168379623147,-1.794195692616e-05,0.8369254916424875,0.0026657255,0.019344743,0.09063903,-0.00016294567,-0.012031062,-0.006226944,0.5235896,0.00019111253,-0.011352362,0.0023486614,0.9999936400418761,-0.00014323904631166856,0.0035636159128948305,0.0010357560162236078,0.9677929595718953,-0.2517453368238365,-0.0034127826291579333,0.25174742677065765,0.9677869528099037,left_images/camera_left_66.png,right_images/camera_right_66.png
2025-06-27 14:26:26,3.771822214126587,67,-0.03432311,-0.00027654914,0.11403818,-0.00068532437,0.000294734,-0.027662383,1.0471791,0.057907023,2.655172e-05,0.0020309393,0.833279280672521,-0.0005906049937325885,0.5528519617290216,0.000684119457025083,0.9999997652999377,3.71569380153373e-05,-0.5528518539197048,0.00034725467729189647,0.8332794891461895,0.07067476,0.0005322061,0.11086674,0.0007766782,1.4397082e-05,-0.015318702,1.047179,-0.056457113,-6.0876573e-05,0.006754705,0.836925123855191,0.0009494754795787905,-0.5473165770888792,-0.000784820302097864,0.9999995490870982,0.0005346799917284468,0.5473168379623147,-1.794195692616e-05,0.8369254916424875,0.0026657255,0.019344743,0.09063903,-0.00016294567,-0.012031062,-0.006226944,0.5235896,0.00019111253,-0.011352362,0.0023486614,0.9999936400418761,-0.00014323904631166856,0.0035636159128948305,0.0010357560162236078,0.9677929595718953,-0.2517453368238365,-0.0034127826291579333,0.25174742677065765,0.9677869528099037,left_images/camera_left_67.png,right_images/camera_right_67.png
2025-06-27 14:26:26,3.8202295303344727,68,-0.03432311,-0.00027654998,0.11403818,-0.00068534183,0.0002947396,-0.027662383,1.0471791,0.057907026,2.6543397e-05,0.0020309403,0.8332793121088887,-0.0005908891397323679,0.5528519140433192,0.000684172380551007,0.9999997652475039,3.759109783708751e-05,-0.552851806472124,0.0003469221259760922,0.8332795207645196,0.07067476,0.0005322096,0.11086674,0.0007766747,1.4382881e-05,-0.015318702,1.047179,-0.056457113,-6.0876573e-05,0.006754705,0.836925123855191,0.0009494754795787905,-0.5473165770888792,-0.000784820302097864,0.9999995490870982,0.0005346799917284468,0.5473168379623147,-1.794195692616e-05,0.8369254916424875,0.0026657255,0.019344743,0.09063903,-0.00016294567,-0.012031062,-0.006226944,0.5235896,0.00019111253,-0.011352362,0.0023486614,0.9999936400418761,-0.00014323904631166856,0.0035636159128948305,0.0010357560162236078,0.9677929595718953,-0.2517453368238365,-0.0034127826291579333,0.25174742677065765,0.9677869528099037,left_images/camera_left_68.png,right_images/camera_right_68.png
2025-06-27 14:26:26,3.867543935775757,69,-0.03432311,-0.00027654515,0.11403818,-0.00068534154,0.0002947721,-0.027662328,1.0471791,0.057907026,2.6543397e-05,0.0020309403,0.8332793121088887,-0.0005908891397323679,0.5528519140433192,0.000684172380551007,0.9999997652475039,3.759109783708751e-05,-0.552851806472124,0.0003469221259760922,0.8332795207645196,0.07067476,0.0005322131,0.11086674,0.0007766712,1.436868e-05,-0.015318702,1.047179,-0.056457113,-6.0876573e-05,0.006754705,0.836925123855191,0.0009494754795787905,-0.5473165770888792,-0.000784820302097864,0.9999995490870982,0.0005346799917284468,0.5473168379623147,-1.794195692616e-05,0.8369254916424875,0.0026657255,0.019344743,0.09063903,-0.00016294567,-0.012031062,-0.006226944,0.5235896,0.00019111253,-0.011352362,0.0023486614,0.9999936400418761,-0.00014323904631166856,0.0035636159128948305,0.0010357560162236078,0.9677929595718953,-0.2517453368238365,-0.0034127826291579333,0.25174742677065765,0.9677869528099037,left_images/camera_left_69.png,right_images/camera_right_69.png
2025-06-27 14:26:26,3.9182546138763428,70,-0.03432311,-0.0002765399,0.11403818,-0.00068532466,0.00029473763,-0.027662328,1.0471791,0.057907026,2.6543397e-05,0.0020309403,0.8332793121088887,-0.0005908891397323679,0.5528519140433192,0.000684172380551007,0.9999997652475039,3.759109783708751e-05,-0.552851806472124,0.0003469221259760922,0.8332795207645196,0.07067476,0.00053221657,0.11086674,0.00077666773,1.4354479e-05,-0.015318702,1.047179,-0.056457113,-6.0876573e-05,0.006754705,0.836925123855191,0.0009494754795787905,-0.5473165770888792,-0.000784820302097864,0.9999995490870982,0.0005346799917284468,0.5473168379623147,-1.794195692616e-05,0.8369254916424875,0.0026657255,0.019344743,0.09063903,-0.00016294567,-0.012031062,-0.006226944,0.5235896,0.00019111253,-0.011352362,0.0023486614,0.9999936400418761,-0.00014323904631166856,0.0035636159128948305,0.0010357560162236078,0.9677929595718953,-0.2517453368238365,-0.0034127826291579333,0.25174742677065765,0.9677869528099037,left_images/camera_left_70.png,right_images/camera_right_70.png
2025-06-27 14:26:26,3.9667418003082275,71,-0.03432311,-0.00027653467,0.11403818,-0.00068532437,0.0002947701,-0.027662272,1.0471791,0.057907026,2.6543397e-05,0.0020309403,0.8332793121088887,-0.0005908891397323679,0.5528519140433192,0.000684172380551007,0.9999997652475039,3.759109783708751e-05,-0.552851806472124,0.0003469221259760922,0.8332795207645196,0.07067476,0.00053222006,0.11086674,0.00077666424,1.43402785e-05,-0.015318702,1.047179,-0.056457113,-6.0876573e-05,0.006754705,0.836925123855191,0.0009494754795787905,-0.5473165770888792,-0.000784820302097864,0.9999995490870982,0.0005346799917284468,0.5473168379623147,-1.794195692616e-05,0.8369254916424875,0.0026657255,0.019344743,0.09063903,-0.00016294567,-0.012031062,-0.006226944,0.5235896,0.00019111253,-0.011352362,0.0023486614,0.9999936400418761,-0.00014323904631166856,0.0035636159128948305,0.0010357560162236078,0.9677929595718953,-0.2517453368238365,-0.0034127826291579333,0.25174742677065765,0.9677869528099037,left_images/camera_left_71.png,right_images/camera_right_71.png
2025-06-27 14:26:26,4.015771389007568,72,-0.03432311,-0.00027652943,0.11403818,-0.0006853075,0.00029473566,-0.027662272,1.0471791,0.057907023,2.655172e-05,0.0020309393,0.833279280672521,-0.0005906049937325885,0.5528519617290216,0.000684119457025083,0.9999997652999377,3.71569380153373e-05,-0.5528518539197048,0.00034725467729189647,0.8332794891461895,0.07067476,0.00053222355,0.11086674,0.00077666075,1.4326078e-05,-0.015318702,1.047179,-0.056457113,-6.0876573e-05,0.006754705,0.836925123855191,0.0009494754795787905,-0.5473165770888792,-0.000784820302097864,0.9999995490870982,0.0005346799917284468,0.5473168379623147,-1.794195692616e-05,0.8369254916424875,0.0026657255,0.019344743,0.09063903,-0.00016294567,-0.012031062,-0.006226944,0.5235896,0.00019111253,-0.011352362,0.0023486614,0.9999936400418761,-0.00014323904631166856,0.0035636159128948305,0.0010357560162236078,0.9677929595718953,-0.2517453368238365,-0.0034127826291579333,0.25174742677065765,0.9677869528099037,left_images/camera_left_72.png,right_images/camera_right_72.png
2025-06-27 14:26:26,4.0658345222473145,73,-0.03432311,-0.00027652955,0.11403818,-0.00068530877,0.00029467445,-0.027662272,1.0471791,0.057907023,2.655172e-05,0.0020309393,0.833279280672521,-0.0005906049937325885,0.5528519617290216,0.000684119457025083,0.9999997652999377,3.71569380153373e-05,-0.5528518539197048,0.00034725467729189647,0.8332794891461895,0.07067476,0.00053222704,0.11086674,0.00077665725,1.4311877e-05,-0.015318702,1.047179,-0.056457113,-6.0876573e-05,0.006754705,0.836925123855191,0.0009494754795787905,-0.5473165770888792,-0.000784820302097864,0.9999995490870982,0.0005346799917284468,0.5473168379623147,-1.794195692616e-05,0.8369254916424875,0.0026657255,0.019344743,0.09063903,-0.00016294567,-0.012031062,-0.006226944,0.5235896,0.00019111253,-0.011352362,0.0023486614,0.9999936400418761,-0.00014323904631166856,0.0035636159128948305,0.0010357560162236078,0.9677929595718953,-0.2517453368238365,-0.0034127826291579333,0.25174742677065765,0.9677869528099037,left_images/camera_left_73.png,right_images/camera_right_73.png
2025-06-27 14:26:26,4.115168809890747,74,-0.03432311,-0.00027653095,0.11403818,-0.00068532623,0.00029468007,-0.027662272,1.0471791,0.057907023,2.655172e-05,0.0020309393,0.833279280672521,-0.0005906049937325885,0.5528519617290216,0.000684119457025083,0.9999997652999377,3.71569380153373e-05,-0.5528518539197048,0.00034725467729189647,0.8332794891461895,0.07067476,0.00053223054,0.11086674,0.00077665376,1.4297676e-05,-0.015318702,1.047179,-0.056457113,-6.0876573e-05,0.006754705,0.836925123855191,0.0009494754795787905,-0.5473165770888792,-0.000784820302097864,0.9999995490870982,0.0005346799917284468,0.5473168379623147,-1.794195692616e-05,0.8369254916424875,0.0026657255,0.019344743,0.09063903,-0.00016294567,-0.012031062,-0.006226944,0.5235896,0.00019111253,-0.011352362,0.0023486614,0.9999936400418761,-0.00014323904631166856,0.0035636159128948305,0.0010357560162236078,0.9677929595718953,-0.2517453368238365,-0.0034127826291579333,0.25174742677065765,0.9677869528099037,left_images/camera_left_74.png,right_images/camera_right_74.png
2025-06-27 14:26:26,4.165794134140015,75,-0.03432311,-0.0002765324,0.11403818,-0.0006853437,0.0002946857,-0.027662272,1.0471791,0.057907023,2.655172e-05,0.0020309393,0.833279280672521,-0.0005906049937325885,0.5528519617290216,0.000684119457025083,0.9999997652999377,3.71569380153373e-05,-0.5528518539197048,0.00034725467729189647,0.8332794891461895,0.07067476,0.00053223403,0.11086674,0.00077665027,1.4283475e-05,-0.015318702,1.047179,-0.056457113,-6.0876573e-05,0.006754705,0.836925123855191,0.0009494754795787905,-0.5473165770888792,-0.000784820302097864,0.9999995490870982,0.0005346799917284468,0.5473168379623147,-1.794195692616e-05,0.8369254916424875,0.0026657255,0.019344743,0.09063903,-0.00016294567,-0.012031062,-0.006226944,0.5235896,0.00019111253,-0.011352362,0.0023486614,0.9999936400418761,-0.00014323904631166856,0.0035636159128948305,0.0010357560162236078,0.9677929595718953,-0.2517453368238365,-0.0034127826291579333,0.25174742677065765,0.9677869528099037,left_images/camera_left_75.png,right_images/camera_right_75.png
2025-06-27 14:26:26,4.234026908874512,76,-0.03432311,-0.0002765195,0.11403818,-0.00068531046,0.00029467358,-0.027662272,1.0471791,0.057907023,2.655172e-05,0.0020309393,0.833279280672521,-0.0005906049937325885,0.5528519617290216,0.000684119457025083,0.9999997652999377,3.71569380153373e-05,-0.5528518539197048,0.00034725467729189647,0.8332794891461895,0.07067476,0.0005322375,0.11086674,0.0007766468,1.4269274e-05,-0.015318702,1.047179,-0.056457113,-6.0876573e-05,0.006754705,0.836925123855191,0.0009494754795787905,-0.5473165770888792,-0.000784820302097864,0.9999995490870982,0.0005346799917284468,0.5473168379623147,-1.794195692616e-05,0.8369254916424875,0.0026657255,0.019344743,0.09063903,-0.00016294567,-0.012031062,-0.006226944,0.5235896,0.00019111253,-0.011352362,0.0023486614,0.9999936400418761,-0.00014323904631166856,0.0035636159128948305,0.0010357560162236078,0.9677929595718953,-0.2517453368238365,-0.0034127826291579333,0.25174742677065765,0.9677869528099037,left_images/camera_left_76.png,right_images/camera_right_76.png
2025-06-27 14:26:26,4.286406993865967,77,-0.03432311,-0.00027651843,0.11403818,-0.0006853279,0.0002946792,-0.027662272,1.0471791,0.057907023,2.655172e-05,0.0020309393,0.833279280672521,-0.0005906049937325885,0.5528519617290216,0.000684119457025083,0.9999997652999377,3.71569380153373e-05,-0.5528518539197048,0.00034725467729189647,0.8332794891461895,0.07067476,0.000532241,0.11086674,0.0007766433,1.4255073e-05,-0.015318702,1.047179,-0.056457113,-6.0876573e-05,0.006754705,0.836925123855191,0.0009494754795787905,-0.5473165770888792,-0.000784820302097864,0.9999995490870982,0.0005346799917284468,0.5473168379623147,-1.794195692616e-05,0.8369254916424875,0.0026657255,0.019344743,0.09063903,-0.00016294567,-0.012031062,-0.006226944,0.5235896,0.00019111253,-0.011352362,0.0023486614,0.9999936400418761,-0.00014323904631166856,0.0035636159128948305,0.0010357560162236078,0.9677929595718953,-0.2517453368238365,-0.0034127826291579333,0.25174742677065765,0.9677869528099037,left_images/camera_left_77.png,right_images/camera_right_77.png
2025-06-27 14:26:26,4.341681480407715,78,-0.03432311,-0.00027651986,0.11403818,-0.0006853454,0.00029468484,-0.027662272,1.0471791,0.057907023,2.655172e-05,0.0020309393,0.833279280672521,-0.0005906049937325885,0.5528519617290216,0.000684119457025083,0.9999997652999377,3.71569380153373e-05,-0.5528518539197048,0.00034725467729189647,0.8332794891461895,0.07067476,0.0005322445,0.11086674,0.0007766398,1.4240873e-05,-0.015318702,1.047179,-0.056457113,-6.0876573e-05,0.006754705,0.836925123855191,0.0009494754795787905,-0.5473165770888792,-0.000784820302097864,0.9999995490870982,0.0005346799917284468,0.5473168379623147,-1.794195692616e-05,0.8369254916424875,0.0026657255,0.019344743,0.09063903,-0.00016294567,-0.012031062,-0.006226944,0.5235896,0.00019111253,-0.011352362,0.0023486614,0.9999936400418761,-0.00014323904631166856,0.0035636159128948305,0.0010357560162236078,0.9677929595718953,-0.2517453368238365,-0.0034127826291579333,0.25174742677065765,0.9677869528099037,left_images/camera_left_78.png,right_images/camera_right_78.png
2025-06-27 14:26:26,4.4025490283966064,79,-0.03432311,-0.00027650697,0.11403818,-0.00068531214,0.0002946727,-0.027662272,1.0471791,0.057907023,2.655172e-05,0.0020309393,0.833279280672521,-0.0005906049937325885,0.5528519617290216,0.000684119457025083,0.9999997652999377,3.71569380153373e-05,-0.5528518539197048,0.00034725467729189647,0.8332794891461895,0.07067476,0.000532248,0.11086674,0.0007766363,1.4226672e-05,-0.015318702,1.047179,-0.056457113,-6.0868002e-05,0.006754703,0.8369251739443151,0.0009491263652251248,-0.5473165011009817,-0.000784699876499664,0.9999995494240927,0.0005342262773914443,0.5473167615415975,-1.76282293112899e-05,0.836925541625337,0.0026657255,0.019344743,0.09063903,-0.00016294567,-0.012031062,-0.006226944,0.5235896,0.00019111253,-0.011352362,0.0023486614,0.9999936400418761,-0.00014323904631166856,0.0035636159128948305,0.0010357560162236078,0.9677929595718953,-0.2517453368238365,-0.0034127826291579333,0.25174742677065765,0.9677869528099037,left_images/camera_left_79.png,right_images/camera_right_79.png
2025-06-27 14:26:26,4.459642648696899,80,-0.03432311,-0.0002765059,0.11403818,-0.0006853296,0.00029467832,-0.027662272,1.0471791,0.057907023,2.655172e-05,0.0020309393,0.833279280672521,-0.0005906049937325885,0.5528519617290216,0.000684119457025083,0.9999997652999377,3.71569380153373e-05,-0.5528518539197048,0.00034725467729189647,0.8332794891461895,0.07067476,0.00053225475,0.11086674,0.00077670836,1.4179361e-05,-0.015318702,1.047179,-0.056457113,-6.0868002e-05,0.006754703,0.8369251739443151,0.0009491263652251248,-0.5473165011009817,-0.000784699876499664,0.9999995494240927,0.0005342262773914443,0.5473167615415975,-1.76282293112899e-05,0.836925541625337,0.0026657255,0.019344743,0.09063903,-0.00016294567,-0.012031062,-0.006226944,0.5235896,0.00019111253,-0.011352362,0.0023486614,0.9999936400418761,-0.00014323904631166856,0.0035636159128948305,0.0010357560162236078,0.9677929595718953,-0.2517453368238365,-0.0034127826291579333,0.25174742677065765,0.9677869528099037,left_images/camera_left_80.png,right_images/camera_right_80.png
2025-06-27 14:26:26,4.506910085678101,81,-0.03432311,-0.00027650731,0.11403818,-0.00068534707,0.00029468397,-0.027662272,1.0471791,0.057907023,2.655172e-05,0.0020309393,0.833279280672521,-0.0005906049937325885,0.5528519617290216,0.000684119457025083,0.9999997652999377,3.71569380153373e-05,-0.5528518539197048,0.00034725467729189647,0.8332794891461895,0.07067476,0.00053227105,0.11086674,0.00077669683,1.4165025e-05,-0.015318674,1.047179,-0.056457113,-6.0868002e-05,0.006754703,0.8369251739443151,0.0009491263652251248,-0.5473165011009817,-0.000784699876499664,0.9999995494240927,0.0005342262773914443,0.5473167615415975,-1.76282293112899e-05,0.836925541625337,0.0026657255,0.019344743,0.09063903,-0.00016294567,-0.012031062,-0.006226944,0.5235896,0.00019111253,-0.011352362,0.0023486614,0.9999936400418761,-0.00014323904631166856,0.0035636159128948305,0.0010357560162236078,0.9677929595718953,-0.2517453368238365,-0.0034127826291579333,0.25174742677065765,0.9677869528099037,left_images/camera_left_81.png,right_images/camera_right_81.png
2025-06-27 14:26:26,4.5592451095581055,82,-0.03432311,-0.00027649442,0.11403818,-0.00068531383,0.00029467183,-0.027662272,1.0471791,0.057907023,2.655172e-05,0.0020309393,0.833279280672521,-0.0005906049937325885,0.5528519617290216,0.000684119457025083,0.9999997652999377,3.71569380153373e-05,-0.5528518539197048,0.00034725467729189647,0.8332794891461895,0.07067476,0.000532289,0.11086674,0.0007766853,1.4150701e-05,-0.015318646,1.047179,-0.056457113,-6.0868002e-05,0.006754703,0.8369251739443151,0.0009491263652251248,-0.5473165011009817,-0.000784699876499664,0.9999995494240927,0.0005342262773914443,0.5473167615415975,-1.76282293112899e-05,0.836925541625337,0.0026657255,0.019344743,0.09063903,-0.00016294567,-0.012031062,-0.006226944,0.5235896,0.00019111253,-0.011352362,0.0023486614,0.9999936400418761,-0.00014323904631166856,0.0035636159128948305,0.0010357560162236078,0.9677929595718953,-0.2517453368238365,-0.0034127826291579333,0.25174742677065765,0.9677869528099037,left_images/camera_left_82.png,right_images/camera_right_82.png
2025-06-27 14:26:26,4.608338356018066,83,-0.03432311,-0.00027649335,0.11403818,-0.0006853313,0.00029467745,-0.027662272,1.0471791,0.057907023,2.655172e-05,0.0020309393,0.833279280672521,-0.0005906049937325885,0.5528519617290216,0.000684119457025083,0.9999997652999377,3.71569380153373e-05,-0.5528518539197048,0.00034725467729189647,0.8332794891461895,0.07067476,0.0005322976,0.11086674,0.00077675737,1.4103399e-05,-0.015318646,1.047179,-0.056457084,-6.0854833e-05,0.006754736,0.8369251549802356,0.0009494230569654333,-0.5473165295851821,-0.0007851571419437502,0.9999995491491084,0.0005340691362521631,0.5473167898845888,-1.7246412520328447e-05,0.8369255230980772,0.0026657255,0.019344743,0.09063903,-0.00016294567,-0.012031062,-0.006226944,0.5235896,0.00019111253,-0.011352362,0.0023486614,0.9999936400418761,-0.00014323904631166856,0.0035636159128948305,0.0010357560162236078,0.9677929595718953,-0.2517453368238365,-0.0034127826291579333,0.25174742677065765,0.9677869528099037,left_images/camera_left_83.png,right_images/camera_right_83.png
2025-06-27 14:26:26,4.6595494747161865,84,-0.03432311,-0.00027649477,0.11403818,-0.00068534876,0.0002946831,-0.027662272,1.0471791,0.057907056,2.6563099e-05,0.0020309724,0.833279293009394,-0.0005908880368723344,0.5528519428319777,0.0006844148550616784,0.9999997650953251,3.722365777288097e-05,-0.5528518349594859,0.00034736237909170544,0.8332795016807427,0.07067476,0.0005322947,0.11086674,0.00077676785,1.4129216e-05,-0.015318646,1.047179,-0.056457084,-6.0854833e-05,0.006754736,0.8369251549802356,0.0009494230569654333,-0.5473165295851821,-0.0007851571419437502,0.9999995491491084,0.0005340691362521631,0.5473167898845888,-1.7246412520328447e-05,0.8369255230980772,0.0026657255,0.019344743,0.09063903,-0.00016294567,-0.012031062,-0.006226944,0.5235896,0.00019111253,-0.011352362,0.0023486614,0.9999936400418761,-0.00014323904631166856,0.0035636159128948305,0.0010357560162236078,0.9677929595718953,-0.2517453368238365,-0.0034127826291579333,0.25174742677065765,0.9677869528099037,left_images/camera_left_84.png,right_images/camera_right_84.png
2025-06-27 14:26:26,4.708693504333496,85,-0.03432311,-0.00027650915,0.11403818,-0.0006853923,0.0002947061,-0.027662272,1.0471791,0.057907056,2.6563099e-05,0.0020309724,0.833279293009394,-0.0005908880368723344,0.5528519428319777,0.0006844148550616784,0.9999997650953251,3.722365777288097e-05,-0.5528518349594859,0.00034736237909170544,0.8332795016807427,0.07067476,0.0005322912,0.11086674,0.0007767783,1.415504e-05,-0.015318646,1.047179,-0.056457084,-6.0854833e-05,0.006754736,0.8369251549802356,0.0009494230569654333,-0.5473165295851821,-0.0007851571419437502,0.9999995491491084,0.0005340691362521631,0.5473167898845888,-1.7246412520328447e-05,0.8369255230980772,0.0026657255,0.019344743,0.09063903,-0.00016294567,-0.012031062,-0.006226944,0.5235896,0.00019111253,-0.011352362,0.0023486614,0.9999936400418761,-0.00014323904631166856,0.0035636159128948305,0.0010357560162236078,0.9677929595718953,-0.2517453368238365,-0.0034127826291579333,0.25174742677065765,0.9677869528099037,left_images/camera_left_85.png,right_images/camera_right_85.png
2025-06-27 14:26:27,4.759352207183838,86,-0.03432311,-0.00027651174,0.11403818,-0.0006853853,0.00029471132,-0.027662272,1.0471791,0.057907056,2.6563099e-05,0.0020309724,0.833279293009394,-0.0005908880368723344,0.5528519428319777,0.0006844148550616784,0.9999997650953251,3.722365777288097e-05,-0.5528518349594859,0.00034736237909170544,0.8332795016807427,0.07067476,0.0005322877,0.11086674,0.0007767888,1.4180864e-05,-0.015318646,1.047179,-0.056457084,-6.0854833e-05,0.006754736,0.8369251549802356,0.0009494230569654333,-0.5473165295851821,-0.0007851571419437502,0.9999995491491084,0.0005340691362521631,0.5473167898845888,-1.7246412520328447e-05,0.8369255230980772,0.0026657255,0.019344743,0.09063903,-0.00016294567,-0.012031062,-0.006226944,0.5235896,0.00019111253,-0.011352362,0.0023486614,0.9999936400418761,-0.00014323904631166856,0.0035636159128948305,0.0010357560162236078,0.9677929595718953,-0.2517453368238365,-0.0034127826291579333,0.25174742677065765,0.9677869528099037,left_images/camera_left_86.png,right_images/camera_right_86.png
2025-06-27 14:26:27,4.807487964630127,87,-0.03432311,-0.00027651174,0.11403818,-0.0006853783,0.00029471656,-0.027662272,1.0471791,0.057907056,2.6563099e-05,0.0020309724,0.833279293009394,-0.0005908880368723344,0.5528519428319777,0.0006844148550616784,0.9999997650953251,3.722365777288097e-05,-0.5528518349594859,0.00034736237909170544,0.8332795016807427,0.07067476,0.0005322842,0.11086674,0.0007767993,1.4206688e-05,-0.015318646,1.047179,-0.056457084,-6.0854833e-05,0.006754736,0.8369251549802356,0.0009494230569654333,-0.5473165295851821,-0.0007851571419437502,0.9999995491491084,0.0005340691362521631,0.5473167898845888,-1.7246412520328447e-05,0.8369255230980772,0.0026657255,0.019344743,0.09063903,-0.00016294567,-0.012031062,-0.006226944,0.5235896,0.00019111253,-0.011352362,0.0023486614,0.9999936400418761,-0.00014323904631166856,0.0035636159128948305,0.0010357560162236078,0.9677929595718953,-0.2517453368238365,-0.0034127826291579333,0.25174742677065765,0.9677869528099037,left_images/camera_left_87.png,right_images/camera_right_87.png
2025-06-27 14:26:27,4.875348091125488,88,-0.03432311,-0.00027651174,0.11403818,-0.00068537134,0.0002947218,-0.027662272,1.0471791,0.057907056,2.6563099e-05,0.0020309724,0.833279293009394,-0.0005908880368723344,0.5528519428319777,0.0006844148550616784,0.9999997650953251,3.722365777288097e-05,-0.5528518349594859,0.00034736237909170544,0.8332795016807427,0.07067476,0.0005322807,0.11086674,0.00077680976,1.42325125e-05,-0.015318646,1.047179,-0.056457084,-6.08639e-05,0.006754735,0.836925123648838,0.000949669465810115,-0.5473165770678642,-0.000785094567963137,0.9999995489065422,0.000534615031431016,0.5473168378845082,-1.7737479672772568e-05,0.8369254916977288,0.0026657255,0.019344743,0.09063903,-0.00016294567,-0.012031062,-0.006226944,0.5235896,0.00019111253,-0.011352362,0.0023486614,0.9999936400418761,-0.00014323904631166856,0.0035636159128948305,0.0010357560162236078,0.9677929595718953,-0.2517453368238365,-0.0034127826291579333,0.25174742677065765,0.9677869528099037,left_images/camera_left_88.png,right_images/camera_right_88.png
2025-06-27 14:26:27,4.943505764007568,89,-0.03432311,-0.00027651174,0.11403818,-0.00068536436,0.00029472704,-0.027662272,1.0471791,0.057907056,2.6563099e-05,0.0020309724,0.833279293009394,-0.0005908880368723344,0.5528519428319777,0.0006844148550616784,0.9999997650953251,3.722365777288097e-05,-0.5528518349594859,0.00034736237909170544,0.8332795016807427,0.07067476,0.00053227076,0.11086674,0.00077678415,1.4294596e-05,-0.015318646,1.047179,-0.056457084,-6.08639e-05,0.006754735,0.836925123648838,0.000949669465810115,-0.5473165770678642,-0.000785094567963137,0.9999995489065422,0.000534615031431016,0.5473168378845082,-1.7737479672772568e-05,0.8369254916977288,0.0026657255,0.019344743,0.09063903,-0.00016294567,-0.012031062,-0.006226944,0.5235896,0.00019111253,-0.011352362,0.0023486614,0.9999936400418761,-0.00014323904631166856,0.0035636159128948305,0.0010357560162236078,0.9677929595718953,-0.2517453368238365,-0.0034127826291579333,0.25174742677065765,0.9677869528099037,left_images/camera_left_89.png,right_images/camera_right_89.png
2025-06-27 14:26:27,5.005644083023071,90,-0.03432311,-0.00027651174,0.11403818,-0.0006853574,0.00029473228,-0.027662272,1.0471791,0.057907056,2.6563099e-05,0.0020309724,0.833279293009394,-0.0005908880368723344,0.5528519428319777,0.0006844148550616784,0.9999997650953251,3.722365777288097e-05,-0.5528518349594859,0.00034736237909170544,0.8332795016807427,0.07067476,0.0005322603,0.11086674,0.00077675853,1.4356684e-05,-0.015318646,1.047179,-0.056457084,-6.08639e-05,0.006754735,0.836925123648838,0.000949669465810115,-0.5473165770678642,-0.000785094567963137,0.9999995489065422,0.000534615031431016,0.5473168378845082,-1.7737479672772568e-05,0.8369254916977288,0.0026657255,0.019344743,0.09063903,-0.00016294567,-0.012031062,-0.006226944,0.5235896,0.00019111253,-0.011352362,0.0023486614,0.9999936400418761,-0.00014323904631166856,0.0035636159128948305,0.0010357560162236078,0.9677929595718953,-0.2517453368238365,-0.0034127826291579333,0.25174742677065765,0.9677869528099037,left_images/camera_left_90.png,right_images/camera_right_90.png
2025-06-27 14:26:27,5.06732964515686,91,-0.03432311,-0.00027651174,0.11403818,-0.0006853504,0.00029473752,-0.027662272,1.0471791,0.057907056,2.6557102e-05,0.0020309677,0.8332793310586042,-0.0005909906106352855,0.5528518853731289,0.0006843206197884257,0.9999997651475714,3.755118523071494e-05,-0.5528517777269187,0.00034703731834023136,0.8332795397879905,0.07067476,0.0005322498,0.11086674,0.0007767329,1.4418772e-05,-0.015318646,1.047179,-0.056457084,-6.08639e-05,0.006754735,0.836925123648838,0.000949669465810115,-0.5473165770678642,-0.000785094567963137,0.9999995489065422,0.000534615031431016,0.5473168378845082,-1.7737479672772568e-05,0.8369254916977288,0.0026657255,0.019344743,0.09063903,-0.00016294567,-0.012031062,-0.006226944,0.5235896,0.00019111253,-0.011352362,0.0023486614,0.9999936400418761,-0.00014323904631166856,0.0035636159128948305,0.0010357560162236078,0.9677929595718953,-0.2517453368238365,-0.0034127826291579333,0.25174742677065765,0.9677869528099037,left_images/camera_left_91.png,right_images/camera_right_91.png
2025-06-27 14:26:27,5.121656656265259,92,-0.03432311,-0.00027652612,0.11403818,-0.0006853501,0.00029474226,-0.027662272,1.0471791,0.057907056,2.6557102e-05,0.0020309677,0.8332793310586042,-0.0005909906106352855,0.5528518853731289,0.0006843206197884257,0.9999997651475714,3.755118523071494e-05,-0.5528517777269187,0.00034703731834023136,0.8332795397879905,0.07067476,0.0005322288,0.11086674,0.0007767568,1.4463936e-05,-0.015318702,1.047179,-0.056457084,-6.08639e-05,0.006754735,0.836925123648838,0.000949669465810115,-0.5473165770678642,-0.000785094567963137,0.9999995489065422,0.000534615031431016,0.5473168378845082,-1.7737479672772568e-05,0.8369254916977288,0.0026657255,0.019344743,0.09063903,-0.00016294567,-0.012031062,-0.006226944,0.5235896,0.00019111253,-0.011352362,0.0023486614,0.9999936400418761,-0.00014323904631166856,0.0035636159128948305,0.0010357560162236078,0.9677929595718953,-0.2517453368238365,-0.0034127826291579333,0.25174742677065765,0.9677869528099037,left_images/camera_left_92.png,right_images/camera_right_92.png
2025-06-27 14:26:27,5.17997145652771,93,-0.03432311,-0.00027654297,0.11403818,-0.0006853498,0.00029474698,-0.027662272,1.0471791,0.057907056,2.6557102e-05,0.0020309677,0.8332793310586042,-0.0005909906106352855,0.5528518853731289,0.0006843206197884257,0.9999997651475714,3.755118523071494e-05,-0.5528517777269187,0.00034703731834023136,0.8332795397879905,0.07067476,0.00053221686,0.11086674,0.0007767312,1.4526014e-05,-0.015318702,1.047179,-0.056457084,-6.08639e-05,0.006754735,0.836925123648838,0.000949669465810115,-0.5473165770678642,-0.000785094567963137,0.9999995489065422,0.000534615031431016,0.5473168378845082,-1.7737479672772568e-05,0.8369254916977288,0.0026657255,0.019344743,0.09063903,-0.00016294567,-0.012031062,-0.006226944,0.5235896,0.00019111253,-0.011352362,0.0023486614,0.9999936400418761,-0.00014323904631166856,0.0035636159128948305,0.0010357560162236078,0.9677929595718953,-0.2517453368238365,-0.0034127826291579333,0.25174742677065765,0.9677869528099037,left_images/camera_left_93.png,right_images/camera_right_93.png
2025-06-27 14:26:27,5.236627578735352,94,-0.03432311,-0.00027655982,0.11403818,-0.0006853495,0.0002947517,-0.027662272,1.0471791,0.057907056,2.6557102e-05,0.0020309677,0.8332793310586042,-0.0005909906106352855,0.5528518853731289,0.0006843206197884257,0.9999997651475714,3.755118523071494e-05,-0.5528517777269187,0.00034703731834023136,0.8332795397879905,0.07067476,0.00053219585,0.11086674,0.00077675504,1.4571178e-05,-0.015318758,1.047179,-0.056457084,-6.08639e-05,0.006754735,0.836925123648838,0.000949669465810115,-0.5473165770678642,-0.000785094567963137,0.9999995489065422,0.000534615031431016,0.5473168378845082,-1.7737479672772568e-05,0.8369254916977288,0.0026657255,0.019344743,0.09063903,-0.00016294567,-0.012031062,-0.006226944,0.5235896,0.00019111253,-0.011352362,0.0023486614,0.9999936400418761,-0.00014323904631166856,0.0035636159128948305,0.0010357560162236078,0.9677929595718953,-0.2517453368238365,-0.0034127826291579333,0.25174742677065765,0.9677869528099037,left_images/camera_left_94.png,right_images/camera_right_94.png
