jiaqis7/OS_Teleop_Extension/demo_1/teleop_log.csv
Epoch Time (Seconds),Time (Seconds),Frame Number,PSM1_joint_1,PSM1_joint_2,PSM1_joint_3,PSM1_joint_4,PSM1_joint_5,PSM1_joint_6,PSM1_jaw_angle,PSM1_ee_x,PSM1_ee_y,PSM1_ee_z,"PSM1_Orientation_Matrix_[1,1]","PSM1_Orientation_Matrix_[1,2]","PSM1_Orientation_Matrix_[1,3]","PSM1_Orientation_Matrix_[2,1]","PSM1_Orientation_Matrix_[2,2]","PSM1_Orientation_Matrix_[2,3]","PSM1_Orientation_Matrix_[3,1]","PSM1_Orientation_Matrix_[3,2]","PSM1_Orientation_Matrix_[3,3]",PSM2_joint_1,PSM2_joint_2,PSM2_joint_3,PSM2_joint_4,PSM2_joint_5,PSM2_joint_6,PSM2_jaw_angle,PSM2_ee_x,PSM2_ee_y,PSM2_ee_z,"PSM2_Orientation_Matrix_[1,1]","PSM2_Orientation_Matrix_[1,2]","PSM2_Orientation_Matrix_[1,3]","PSM2_Orientation_Matrix_[2,1]","PSM2_Orientation_Matrix_[2,2]","PSM2_Orientation_Matrix_[2,3]","PSM2_Orientation_Matrix_[3,1]","PSM2_Orientation_Matrix_[3,2]","PSM2_Orientation_Matrix_[3,3]",PSM3_joint_1,PSM3_joint_2,PSM3_joint_3,PSM3_joint_4,PSM3_joint_5,PSM3_joint_6,PSM3_jaw_angle,PSM3_ee_x,PSM3_ee_y,PSM3_ee_z,"PSM3_Orientation_Matrix_[1,1]","PSM3_Orientation_Matrix_[1,2]","PSM3_Orientation_Matrix_[1,3]","PSM3_Orientation_Matrix_[2,1]","PSM3_Orientation_Matrix_[2,2]","PSM3_Orientation_Matrix_[2,3]","PSM3_Orientation_Matrix_[3,1]","PSM3_Orientation_Matrix_[3,2]","PSM3_Orientation_Matrix_[3,3]",Camera Left,Camera Right
2025-05-30 16:54:36,0.0017681121826171875,1,-0.034323033,-0.00027721803,0.11403818,-0.0006745441,0.00029360366,-0.027664822,1.0471791,0.057907023,2.667551e-05,0.0020310115,0.8332780246663876,-0.000580602858306956,0.5528538654187055,0.0006736605277232435,0.9999997724841367,3.483056478057023e-05,-0.5528537598584066,0.000343412282513432,0.8332782262116464,0.07067476,0.0005315524,0.11086674,0.0007740631,1.4227275e-05,-0.015308899,1.0471791,-0.05645691,-6.065424e-05,0.006754845,0.8369198079578531,0.0009464616778901352,-0.5473247109879862,-0.0007819896378925775,0.9999995519339977,0.0005335016497165924,0.5473249706892576,-1.8495845670853323e-05,0.8369201730857653,0.0026657255,0.019344743,0.09063903,-0.00016294567,-0.012031062,-0.006226944,0.5235896,0.00019111253,-0.011352362,0.0023486614,0.9999936400418761,-0.00014323904631166856,0.0035636159128948305,0.0010357560162236078,0.9677929595718953,-0.2517453368238365,-0.0034127826291579333,0.25174742677065765,0.9677869528099037,left_images/camera_left_1.png,right_images/camera_right_1.png
2025-05-30 16:54:36,0.05319786071777344,2,-0.034323033,-0.00027722193,0.11403818,-0.00067451625,0.00029356062,-0.027664822,1.0471791,0.057907023,2.667551e-05,0.0020310115,0.8332780246663876,-0.000580602858306956,0.5528538654187055,0.0006736605277232435,0.9999997724841367,3.483056478057023e-05,-0.5528537598584066,0.000343412282513432,0.8332782262116464,0.07067476,0.0005315559,0.11086674,0.0007740666,1.4213139e-05,-0.015308955,1.0471791,-0.05645691,-6.065424e-05,0.006754845,0.8369198079578531,0.0009464616778901352,-0.5473247109879862,-0.0007819896378925775,0.9999995519339977,0.0005335016497165924,0.5473249706892576,-1.8495845670853323e-05,0.8369201730857653,0.0026657255,0.019344743,0.09063903,-0.00016294567,-0.012031062,-0.006226944,0.5235896,0.00019111253,-0.011352362,0.0023486614,0.9999936400418761,-0.00014323904631166856,0.0035636159128948305,0.0010357560162236078,0.9677929595718953,-0.2517453368238365,-0.0034127826291579333,0.25174742677065765,0.9677869528099037,left_images/camera_left_2.png,right_images/camera_right_2.png
2025-05-30 16:54:37,0.11250019073486328,3,-0.034323033,-0.00027722836,0.11403818,-0.0006745056,0.0002936041,-0.027664822,1.0471791,0.057907023,2.667551e-05,0.0020310115,0.8332780246663876,-0.000580602858306956,0.5528538654187055,0.0006736605277232435,0.9999997724841367,3.483056478057023e-05,-0.5528537598584066,0.000343412282513432,0.8332782262116464,0.07067476,0.0005315594,0.11086674,0.0007740701,1.4199004e-05,-0.015309011,1.0471791,-0.05645691,-6.065424e-05,0.006754845,0.8369198079578531,0.0009464616778901352,-0.5473247109879862,-0.0007819896378925775,0.9999995519339977,0.0005335016497165924,0.5473249706892576,-1.8495845670853323e-05,0.8369201730857653,0.0026657255,0.019344743,0.09063903,-0.00016294567,-0.012031062,-0.006226944,0.5235896,0.00019111253,-0.011352362,0.0023486614,0.9999936400418761,-0.00014323904631166856,0.0035636159128948305,0.0010357560162236078,0.9677929595718953,-0.2517453368238365,-0.0034127826291579333,0.25174742677065765,0.9677869528099037,left_images/camera_left_3.png,right_images/camera_right_3.png
2025-05-30 16:54:37,0.17838120460510254,4,-0.034323033,-0.00027723226,0.11403818,-0.0006744778,0.00029356105,-0.027664822,1.0471791,0.057907023,2.669249e-05,0.0020310427,0.8332780058761996,-0.000580244588957221,0.5528538941159783,0.0006732554898309048,0.9999997727582193,3.479303536545574e-05,-0.5528537886729453,0.000343219648160269,0.8332782071734767,0.07067476,0.0005315629,0.11086674,0.0007740736,1.4184869e-05,-0.0153090665,1.0471791,-0.05645691,-6.065424e-05,0.006754845,0.8369198079578531,0.0009464616778901352,-0.5473247109879862,-0.0007819896378925775,0.9999995519339977,0.0005335016497165924,0.5473249706892576,-1.8495845670853323e-05,0.8369201730857653,0.0026657255,0.019344743,0.09063903,-0.00016294567,-0.012031062,-0.006226944,0.5235896,0.00019111253,-0.011352362,0.0023486614,0.9999936400418761,-0.00014323904631166856,0.0035636159128948305,0.0010357560162236078,0.9677929595718953,-0.2517453368238365,-0.0034127826291579333,0.25174742677065765,0.9677869528099037,left_images/camera_left_4.png,right_images/camera_right_4.png
2025-05-30 16:54:37,0.25135326385498047,5,-0.034323033,-0.00027723226,0.11403818,-0.00067446544,0.00029356597,-0.027664822,1.0471791,0.057907023,2.669249e-05,0.0020310427,0.8332780058761996,-0.000580244588957221,0.5528538941159783,0.0006732554898309048,0.9999997727582193,3.479303536545574e-05,-0.5528537886729453,0.000343219648160269,0.8332782071734767,0.07067476,0.0005315664,0.11086674,0.0007740771,1.4170733e-05,-0.015309122,1.0471791,-0.056456912,-6.065454e-05,0.006754843,0.8369200893460789,0.0009464876271172138,-0.5473242806692601,-0.0007819572593200403,0.999999551907595,0.0005335985885940183,0.5473245404618688,-1.8595183969600236e-05,0.8369204544414142,0.0026657255,0.019344743,0.09063903,-0.00016294567,-0.012031062,-0.006226944,0.5235896,0.00019111253,-0.011352362,0.0023486614,0.9999936400418761,-0.00014323904631166856,0.0035636159128948305,0.0010357560162236078,0.9677929595718953,-0.2517453368238365,-0.0034127826291579333,0.25174742677065765,0.9677869528099037,left_images/camera_left_5.png,right_images/camera_right_5.png
2025-05-30 16:54:37,0.3045189380645752,6,-0.034323033,-0.00027723226,0.11403818,-0.0006744531,0.00029357092,-0.027664822,1.0471791,0.057907023,2.669249e-05,0.0020310427,0.8332780058761996,-0.000580244588957221,0.5528538941159783,0.0006732554898309048,0.9999997727582193,3.479303536545574e-05,-0.5528537886729453,0.000343219648160269,0.8332782071734767,0.07067476,0.0005315699,0.11086674,0.0007740596,1.415504e-05,-0.015309128,1.0471791,-0.056456912,-6.065454e-05,0.006754843,0.8369200893460789,0.0009464876271172138,-0.5473242806692601,-0.0007819572593200403,0.999999551907595,0.0005335985885940183,0.5473245404618688,-1.8595183969600236e-05,0.8369204544414142,0.0026657255,0.019344743,0.09063903,-0.00016294567,-0.012031062,-0.006226944,0.5235896,0.00019111253,-0.011352362,0.0023486614,0.9999936400418761,-0.00014323904631166856,0.0035636159128948305,0.0010357560162236078,0.9677929595718953,-0.2517453368238365,-0.0034127826291579333,0.25174742677065765,0.9677869528099037,left_images/camera_left_6.png,right_images/camera_right_6.png
2025-05-30 16:54:37,0.37038469314575195,7,-0.034323033,-0.00027723226,0.11403818,-0.00067444076,0.00029357587,-0.027664822,1.0471791,0.057907023,2.669249e-05,0.0020310427,0.8332780058761996,-0.000580244588957221,0.5528538941159783,0.0006732554898309048,0.9999997727582193,3.479303536545574e-05,-0.5528537886729453,0.000343219648160269,0.8332782071734767,0.07067476,0.0005315734,0.11086674,0.00077404216,1.4139346e-05,-0.015309134,1.0471791,-0.056456912,-6.065454e-05,0.006754843,0.8369200893460789,0.0009464876271172138,-0.5473242806692601,-0.0007819572593200403,0.999999551907595,0.0005335985885940183,0.5473245404618688,-1.8595183969600236e-05,0.8369204544414142,0.0026657255,0.019344743,0.09063903,-0.00016294567,-0.012031062,-0.006226944,0.5235896,0.00019111253,-0.011352362,0.0023486614,0.9999936400418761,-0.00014323904631166856,0.0035636159128948305,0.0010357560162236078,0.9677929595718953,-0.2517453368238365,-0.0034127826291579333,0.25174742677065765,0.9677869528099037,left_images/camera_left_7.png,right_images/camera_right_7.png
2025-05-30 16:54:37,0.43081164360046387,8,-0.034323033,-0.00027723226,0.11403818,-0.0006744284,0.00029358082,-0.027664822,1.0471791,0.057907023,2.669249e-05,0.0020310427,0.8332780058761996,-0.000580244588957221,0.5528538941159783,0.0006732554898309048,0.9999997727582193,3.479303536545574e-05,-0.5528537886729453,0.000343219648160269,0.8332782071734767,0.07067476,0.00053157686,0.11086674,0.0007740247,1.4123651e-05,-0.015309139,1.0471791,-0.056456912,-6.065454e-05,0.006754843,0.8369200893460789,0.0009464876271172138,-0.5473242806692601,-0.0007819572593200403,0.999999551907595,0.0005335985885940183,0.5473245404618688,-1.8595183969600236e-05,0.8369204544414142,0.0026657255,0.019344743,0.09063903,-0.00016294567,-0.012031062,-0.006226944,0.5235896,0.00019111253,-0.011352362,0.0023486614,0.9999936400418761,-0.00014323904631166856,0.0035636159128948305,0.0010357560162236078,0.9677929595718953,-0.2517453368238365,-0.0034127826291579333,0.25174742677065765,0.9677869528099037,left_images/camera_left_8.png,right_images/camera_right_8.png
2025-05-30 16:54:37,0.5056760311126709,9,-0.034323033,-0.00027723226,0.11403818,-0.0006744161,0.00029358576,-0.027664822,1.0471791,0.057907023,2.669249e-05,0.0020310427,0.8332780058761996,-0.000580244588957221,0.5528538941159783,0.0006732554898309048,0.9999997727582193,3.479303536545574e-05,-0.5528537886729453,0.000343219648160269,0.8332782071734767,0.07067476,0.00053158036,0.11086674,0.00077400723,1.4107957e-05,-0.015309145,1.0471791,-0.056456912,-6.065454e-05,0.006754843,0.8369200893460789,0.0009464876271172138,-0.5473242806692601,-0.0007819572593200403,0.999999551907595,0.0005335985885940183,0.5473245404618688,-1.8595183969600236e-05,0.8369204544414142,0.0026657255,0.019344743,0.09063903,-0.00016294567,-0.012031062,-0.006226944,0.5235896,0.00019111253,-0.011352362,0.0023486614,0.9999936400418761,-0.00014323904631166856,0.0035636159128948305,0.0010357560162236078,0.9677929595718953,-0.2517453368238365,-0.0034127826291579333,0.25174742677065765,0.9677869528099037,left_images/camera_left_9.png,right_images/camera_right_9.png
2025-05-30 16:54:37,0.5752575397491455,10,-0.034323033,-0.00027723226,0.11403818,-0.00067440374,0.0002935907,-0.027664822,1.0471791,0.057907023,2.669249e-05,0.0020310427,0.8332780058761996,-0.000580244588957221,0.5528538941159783,0.0006732554898309048,0.9999997727582193,3.479303536545574e-05,-0.5528537886729453,0.000343219648160269,0.8332782071734767,0.07067476,0.00053158385,0.11086674,0.00077398977,1.4092263e-05,-0.01530915,1.0471791,-0.056456912,-6.065454e-05,0.006754843,0.8369200893460789,0.0009464876271172138,-0.5473242806692601,-0.0007819572593200403,0.999999551907595,0.0005335985885940183,0.5473245404618688,-1.8595183969600236e-05,0.8369204544414142,0.0026657255,0.019344743,0.09063903,-0.00016294567,-0.012031062,-0.006226944,0.5235896,0.00019111253,-0.011352362,0.0023486614,0.9999936400418761,-0.00014323904631166856,0.0035636159128948305,0.0010357560162236078,0.9677929595718953,-0.2517453368238365,-0.0034127826291579333,0.25174742677065765,0.9677869528099037,left_images/camera_left_10.png,right_images/camera_right_10.png
2025-05-30 16:54:37,0.642087459564209,11,-0.034323033,-0.00027723226,0.11403818,-0.0006743914,0.00029359566,-0.027664822,1.0471791,0.057907023,2.669249e-05,0.0020310427,0.8332780058761996,-0.000580244588957221,0.5528538941159783,0.0006732554898309048,0.9999997727582193,3.479303536545574e-05,-0.5528537886729453,0.000343219648160269,0.8332782071734767,0.07067476,0.00053158734,0.11086674,0.0007739723,1.4076569e-05,-0.015309156,1.0471791,-0.056456912,-6.065454e-05,0.006754843,0.8369200893460789,0.0009464876271172138,-0.5473242806692601,-0.0007819572593200403,0.999999551907595,0.0005335985885940183,0.5473245404618688,-1.8595183969600236e-05,0.8369204544414142,0.0026657255,0.019344743,0.09063903,-0.00016294567,-0.012031062,-0.006226944,0.5235896,0.00019111253,-0.011352362,0.0023486614,0.9999936400418761,-0.00014323904631166856,0.0035636159128948305,0.0010357560162236078,0.9677929595718953,-0.2517453368238365,-0.0034127826291579333,0.25174742677065765,0.9677869528099037,left_images/camera_left_11.png,right_images/camera_right_11.png
2025-05-30 16:54:37,0.6970574855804443,12,-0.034323033,-0.00027723226,0.11403818,-0.00067437906,0.0002936006,-0.027664822,1.0471791,0.057907023,2.669249e-05,0.0020310427,0.8332780058761996,-0.000580244588957221,0.5528538941159783,0.0006732554898309048,0.9999997727582193,3.479303536545574e-05,-0.5528537886729453,0.000343219648160269,0.8332782071734767,0.07067476,0.00053159083,0.11086674,0.00077395485,1.40608745e-05,-0.0153091615,1.0471791,-0.056456912,-6.065454e-05,0.006754843,0.8369200893460789,0.0009464876271172138,-0.5473242806692601,-0.0007819572593200403,0.999999551907595,0.0005335985885940183,0.5473245404618688,-1.8595183969600236e-05,0.8369204544414142,0.0026657255,0.019344743,0.09063903,-0.00016294567,-0.012031062,-0.006226944,0.5235896,0.00019111253,-0.011352362,0.0023486614,0.9999936400418761,-0.00014323904631166856,0.0035636159128948305,0.0010357560162236078,0.9677929595718953,-0.2517453368238365,-0.0034127826291579333,0.25174742677065765,0.9677869528099037,left_images/camera_left_12.png,right_images/camera_right_12.png
2025-05-30 16:54:37,0.7662639617919922,13,-0.034323033,-0.00027723226,0.11403818,-0.0006743667,0.00029360555,-0.027664822,1.0471791,0.057907023,2.669249e-05,0.0020310427,0.8332780058761996,-0.000580244588957221,0.5528538941159783,0.0006732554898309048,0.9999997727582193,3.479303536545574e-05,-0.5528537886729453,0.000343219648160269,0.8332782071734767,0.07067476,0.0005315943,0.11086674,0.0007739374,1.404518e-05,-0.015309167,1.0471791,-0.056456912,-6.065454e-05,0.006754843,0.8369200893460789,0.0009464876271172138,-0.5473242806692601,-0.0007819572593200403,0.999999551907595,0.0005335985885940183,0.5473245404618688,-1.8595183969600236e-05,0.8369204544414142,0.0026657255,0.019344743,0.09063903,-0.00016294567,-0.012031062,-0.006226944,0.5235896,0.00019111253,-0.011352362,0.0023486614,0.9999936400418761,-0.00014323904631166856,0.0035636159128948305,0.0010357560162236078,0.9677929595718953,-0.2517453368238365,-0.0034127826291579333,0.25174742677065765,0.9677869528099037,left_images/camera_left_13.png,right_images/camera_right_13.png
2025-05-30 16:54:37,0.8150365352630615,14,-0.034323033,-0.00027723226,0.11403818,-0.0006743544,0.0002936105,-0.027664822,1.0471791,0.057907023,2.669249e-05,0.0020310427,0.8332780058761996,-0.000580244588957221,0.5528538941159783,0.0006732554898309048,0.9999997727582193,3.479303536545574e-05,-0.5528537886729453,0.000343219648160269,0.8332782071734767,0.07067476,0.0005315978,0.11086674,0.0007739199,1.4029486e-05,-0.015309173,1.0471791,-0.056456912,-6.065454e-05,0.006754843,0.8369200893460789,0.0009464876271172138,-0.5473242806692601,-0.0007819572593200403,0.999999551907595,0.0005335985885940183,0.5473245404618688,-1.8595183969600236e-05,0.8369204544414142,0.0026657255,0.019344743,0.09063903,-0.00016294567,-0.012031062,-0.006226944,0.5235896,0.00019111253,-0.011352362,0.0023486614,0.9999936400418761,-0.00014323904631166856,0.0035636159128948305,0.0010357560162236078,0.9677929595718953,-0.2517453368238365,-0.0034127826291579333,0.25174742677065765,0.9677869528099037,left_images/camera_left_14.png,right_images/camera_right_14.png
2025-05-30 16:54:37,0.8703885078430176,15,-0.034323033,-0.00027723226,0.11403818,-0.00067434204,0.00029361545,-0.027664822,1.0471791,0.057907023,2.6683665e-05,0.0020310413,0.8332779932017769,-0.0005805964960360193,0.5528539128497955,0.0006733761873562069,0.999999772661031,3.524765859631553e-05,-0.5528538076292236,0.00034290756177955656,0.8332781947250715,0.07067476,0.0005316013,0.11086674,0.00077390246,1.4013792e-05,-0.015309178,1.0471791,-0.056456912,-6.065454e-05,0.006754843,0.8369200893460789,0.0009464876271172138,-0.5473242806692601,-0.0007819572593200403,0.999999551907595,0.0005335985885940183,0.5473245404618688,-1.8595183969600236e-05,0.8369204544414142,0.0026657255,0.019344743,0.09063903,-0.00016294567,-0.012031062,-0.006226944,0.5235896,0.00019111253,-0.011352362,0.0023486614,0.9999936400418761,-0.00014323904631166856,0.0035636159128948305,0.0010357560162236078,0.9677929595718953,-0.2517453368238365,-0.0034127826291579333,0.25174742677065765,0.9677869528099037,left_images/camera_left_15.png,right_images/camera_right_15.png
2025-05-30 16:54:37,0.9402518272399902,16,-0.034323033,-0.00027722464,0.11403818,-0.0006743865,0.00029362956,-0.027664822,1.0471791,0.057907023,2.6683665e-05,0.0020310413,0.8332779932017769,-0.0005805964960360193,0.5528539128497955,0.0006733761873562069,0.999999772661031,3.524765859631553e-05,-0.5528538076292236,0.00034290756177955656,0.8332781947250715,0.07067476,0.0005316048,0.11086674,0.000773885,1.39980975e-05,-0.015309184,1.0471791,-0.056456912,-6.065454e-05,0.006754843,0.8369200893460789,0.0009464876271172138,-0.5473242806692601,-0.0007819572593200403,0.999999551907595,0.0005335985885940183,0.5473245404618688,-1.8595183969600236e-05,0.8369204544414142,0.0026657255,0.019344743,0.09063903,-0.00016294567,-0.012031062,-0.006226944,0.5235896,0.00019111253,-0.011352362,0.0023486614,0.9999936400418761,-0.00014323904631166856,0.0035636159128948305,0.0010357560162236078,0.9677929595718953,-0.2517453368238365,-0.0034127826291579333,0.25174742677065765,0.9677869528099037,left_images/camera_left_16.png,right_images/camera_right_16.png
2025-05-30 16:54:37,0.997058629989624,17,-0.034323033,-0.00027721614,0.11403818,-0.000674431,0.00029364368,-0.027664822,1.0471791,0.057907023,2.6683665e-05,0.0020310413,0.8332779932017769,-0.0005805964960360193,0.5528539128497955,0.0006733761873562069,0.999999772661031,3.524765859631553e-05,-0.5528538076292236,0.00034290756177955656,0.8332781947250715,0.07067476,0.0005316083,0.110866636,0.00077387976,1.3982627e-05,-0.015309215,1.0205142,-0.056456972,-6.065454e-05,0.0067549027,0.8369200893460789,0.0009464876271172138,-0.5473242806692601,-0.0007819572593200403,0.999999551907595,0.0005335985885940183,0.5473245404618688,-1.8595183969600236e-05,0.8369204544414142,0.0026657255,0.019344743,0.09063897,-0.00016293119,-0.012031062,-0.0062269443,0.4969216,0.00019111393,-0.011352377,0.002348721,0.9999936400418761,-0.00014323904631166856,0.0035636159128948305,0.0010357560162236078,0.9677929595718953,-0.2517453368238365,-0.0034127826291579333,0.25174742677065765,0.9677869528099037,left_images/camera_left_17.png,right_images/camera_right_17.png
2025-05-30 16:54:37,1.046252727508545,18,-0.034323033,-0.0002772105,0.11403818,-0.0006744579,0.00029361097,-0.027664822,1.0471791,0.057907023,2.669249e-05,0.0020310427,0.8332780058761996,-0.000580244588957221,0.5528538941159783,0.0006732554898309048,0.9999997727582193,3.479303536545574e-05,-0.5528537886729453,0.000343219648160269,0.8332782071734767,0.07067476,0.0005316118,0.110866636,0.0007738623,1.3966936e-05,-0.0153092705,0.99384874,-0.056456972,-6.065454e-05,0.0067549027,0.8369200893460789,0.0009464876271172138,-0.5473242806692601,-0.0007819572593200403,0.999999551907595,0.0005335985885940183,0.5473245404618688,-1.8595183969600236e-05,0.8369204544414142,0.0026657255,0.019344743,0.09063897,-0.00016293116,-0.012031062,-0.0062269443,0.47025508,0.00019111393,-0.011352377,0.002348721,0.9999936400418761,-0.00014323904631166856,0.0035636159128948305,0.0010357560162236078,0.9677929595718953,-0.2517453368238365,-0.0034127826291579333,0.25174742677065765,0.9677869528099037,left_images/camera_left_18.png,right_images/camera_right_18.png
2025-05-30 16:54:38,1.1033976078033447,19,-0.034323033,-0.00027721343,0.11403807,-0.00067441625,0.00029356906,-0.02766482,1.0205142,0.057907082,2.669249e-05,0.002031132,0.8332780058761996,-0.000580244588957221,0.5528538941159783,0.0006732554898309048,0.9999997727582193,3.479303536545574e-05,-0.5528537886729453,0.000343219648160269,0.8332782071734767,0.07067476,0.0005316153,0.110866636,0.00077384483,1.3951246e-05,-0.015309326,0.96718043,-0.056456972,-6.065454e-05,0.0067549027,0.8369200893460789,0.0009464876271172138,-0.5473242806692601,-0.0007819572593200403,0.999999551907595,0.0005335985885940183,0.5473245404618688,-1.8595183969600236e-05,0.8369204544414142,0.0026657255,0.019344743,0.09063897,-0.00016293113,-0.012031062,-0.0062269443,0.44358855,0.00019111393,-0.011352377,0.002348721,0.9999936400418761,-0.00014323904631166856,0.0035636159128948305,0.0010357560162236078,0.9677929595718953,-0.2517453368238365,-0.0034127826291579333,0.25174742677065765,0.9677869528099037,left_images/camera_left_19.png,right_images/camera_right_19.png
2025-05-30 16:54:38,1.1560659408569336,20,-0.034323033,-0.0002772142,0.11403807,-0.0006744039,0.00029357398,-0.02766482,0.99384874,0.057907082,2.669249e-05,0.002031132,0.8332780058761996,-0.000580244588957221,0.5528538941159783,0.0006732554898309048,0.9999997727582193,3.479303536545574e-05,-0.5528537886729453,0.000343219648160269,0.8332782071734767,0.07067476,0.0005316188,0.110866636,0.00077382737,1.3935554e-05,-0.015309382,0.9405121,-0.056456972,-6.065454e-05,0.0067549027,0.8369200893460789,0.0009464876271172138,-0.5473242806692601,-0.0007819572593200403,0.999999551907595,0.0005335985885940183,0.5473245404618688,-1.8595183969600236e-05,0.8369204544414142,0.0026657255,0.019344743,0.09063897,-0.0001629311,-0.012031062,-0.0062269443,0.41692203,0.00019111393,-0.011352377,0.002348721,0.9999936400418761,-0.00014323904631166856,0.0035636159128948305,0.0010357560162236078,0.9677929595718953,-0.2517453368238365,-0.0034127826291579333,0.25174742677065765,0.9677869528099037,left_images/camera_left_20.png,right_images/camera_right_20.png
2025-05-30 16:54:38,1.2140836715698242,21,-0.034323033,-0.0002772142,0.11403807,-0.0006743916,0.00029357892,-0.02766482,0.96718043,0.057907082,2.669249e-05,0.002031132,0.8332780058761996,-0.000580244588957221,0.5528538941159783,0.0006732554898309048,0.9999997727582193,3.479303536545574e-05,-0.5528537886729453,0.000343219648160269,0.8332782071734767,0.07067476,0.00053162227,0.110866636,0.0007738099,1.3919864e-05,-0.015309438,0.9138438,-0.056456972,-6.065454e-05,0.0067549027,0.8369200893460789,0.0009464876271172138,-0.5473242806692601,-0.0007819572593200403,0.999999551907595,0.0005335985885940183,0.5473245404618688,-1.8595183969600236e-05,0.8369204544414142,0.001196521,0.022910574,0.09064214,-0.012954864,-0.032815635,0.012344056,0.3902558,0.00021873924,-0.0113042565,0.00236517,0.999830031131411,-0.012959167756616171,-0.01311368822329785,0.00896323926013068,0.9632376234798576,-0.26850128687744096,0.0161111510987773,0.2683381088923675,0.963190059192027,left_images/camera_left_21.png,right_images/camera_right_21.png
2025-05-30 16:54:38,1.2683727741241455,22,-0.034323033,-0.0002772142,0.11403807,-0.00067437923,0.00029358387,-0.02766482,0.9405121,0.057907082,2.669249e-05,0.002031132,0.8332780058761996,-0.000580244588957221,0.5528538941159783,0.0006732554898309048,0.9999997727582193,3.479303536545574e-05,-0.5528537886729453,0.000343219648160269,0.8332782071734767,0.07067476,0.00053162576,0.110866636,0.00077379245,1.3904173e-05,-0.015309494,0.8871755,-0.056456976,-6.065368e-05,0.0067549003,0.8369202955473061,0.0009464717073208201,-0.547323965391903,-0.000782009525331088,0.9999995519248771,0.0005334895941573009,0.5473242250824569,-1.847571443508965e-05,0.8369206606940325,4.4344037e-05,0.025687587,0.090651914,-0.022828236,-0.045561872,0.026400577,0.3635888,0.00023045282,-0.011325011,0.0023598894,0.9994173769658401,-0.022803398781182004,-0.02539511021331621,0.014836600799760154,0.9603388196612668,-0.27844070594708975,0.03073730462204919,0.27790170286565635,0.9601176290689282,left_images/camera_left_22.png,right_images/camera_right_22.png
2025-05-30 16:54:38,1.3290162086486816,23,-0.034323033,-0.0002772142,0.11403807,-0.0006743669,0.00029358882,-0.02766482,0.9138438,0.057907082,2.669249e-05,0.002031132,0.8332780058761996,-0.000580244588957221,0.5528538941159783,0.0006732554898309048,0.9999997727582193,3.479303536545574e-05,-0.5528537886729453,0.000343219648160269,0.8332782071734767,0.07067476,0.00053162925,0.110866636,0.00077378546,1.388934e-05,-0.01530955,0.8605072,-0.056456976,-6.065368e-05,0.0067549003,0.8369202955473061,0.0009464717073208201,-0.547323965391903,-0.000782009525331088,0.9999995519248771,0.0005334895941573009,0.5473242250824569,-1.847571443508965e-05,0.8369206606940325,-0.00081145944,0.027532324,0.09066038,-0.03106559,-0.052791815,0.037404522,0.33692142,0.00024172594,-0.011358438,0.00235123,0.99890899923233,-0.030996394407470283,-0.034928996355487366,0.019813472225669183,0.958605714416992,-0.284046669766521,0.04228755811143202,0.2830447099325916,0.9581740210463585,left_images/camera_left_23.png,right_images/camera_right_23.png
2025-05-30 16:54:38,1.395862340927124,24,-0.034323033,-0.0002772142,0.11403807,-0.00067435455,0.00029359377,-0.02766482,0.8871755,0.057907082,2.669249e-05,0.002031132,0.8332780058761996,-0.000580244588957221,0.5528538941159783,0.0006732554898309048,0.9999997727582193,3.479303536545574e-05,-0.5528537886729453,0.000343219648160269,0.8332782071734767,0.07067476,0.00053163274,0.110866636,0.0007737785,1.3874507e-05,-0.015309606,0.8338389,-0.056456976,-6.065368e-05,0.0067549003,0.8369202955473061,0.0009464717073208201,-0.547323965391903,-0.000782009525331088,0.9999995519248771,0.0005334895941573009,0.5473242250824569,-1.847571443508965e-05,0.8369206606940325,-0.0013743493,0.027981529,0.09062984,-0.04640233,-0.055817932,0.048319418,0.31025425,0.00027283424,-0.011344941,0.0023925873,0.997946308308485,-0.046275277549223136,-0.04429180986603251,0.03163389468419276,0.9572861618790753,-0.2874065082456174,0.05569975260785105,0.2854151414388717,0.9567840584984959,left_images/camera_left_24.png,right_images/camera_right_24.png
2025-05-30 16:54:38,1.455061674118042,25,-0.03432218,-0.00027733142,0.11403216,-0.00067364273,0.0002931212,-0.02764806,0.8605085,0.057910524,2.6549049e-05,0.0020359824,0.8332875759904411,-0.000579697405200237,0.5528394700551809,0.0006727110895685163,0.9999997731308363,3.461308671470965e-05,-0.5528393646980692,0.0003430585871312545,0.8332877769120588,0.07067476,0.00053163624,0.110866636,0.0007737715,1.3859675e-05,-0.015309662,0.80717057,-0.056456976,-6.065368e-05,0.0067549003,0.8369202955473061,0.0009464717073208201,-0.547323965391903,-0.000782009525331088,0.9999995519248771,0.0005334895941573009,0.5473242250824569,-1.847571443508965e-05,0.8369206606940325,-0.0016722897,0.025990743,0.09048435,-0.06861152,-0.05449606,0.059833895,0.2835872,0.00033023558,-0.0112079345,0.0025816131,0.9961807707796605,-0.06840754792518461,-0.05426121373232404,0.049862298287834866,0.9558427892524105,-0.28961752958622305,0.07167721491726894,0.28580582502992374,0.9556031641014319,left_images/camera_left_25.png,right_images/camera_right_25.png
2025-05-30 16:54:38,1.5075209140777588,26,-0.034321744,-0.0002773342,0.11402786,-0.0006731217,0.00029274847,-0.027636357,0.8338413,0.05791293,2.6572445e-05,0.00203961,0.8332945073494419,-0.0005791263118472264,0.5528290229663834,0.0006722793726827366,0.9999997734345898,3.422300782050962e-05,-0.5528289175338933,0.0003431377043188427,0.8332947078884037,0.07067476,0.00053163973,0.110866636,0.00077376276,1.3894468e-05,-0.0153097175,0.78050226,-0.056456976,-6.065368e-05,0.0067549003,0.8369202955473061,0.0009464717073208201,-0.547323965391903,-0.000782009525331088,0.9999995519248771,0.0005334895941573009,0.5473242250824569,-1.847571443508965e-05,0.8369206606940325,-0.0018927401,0.023209764,0.09029795,-0.0876165,-0.050382394,0.06912395,0.25691986,0.0003829194,-0.011058278,0.0028137239,0.9942146069117976,-0.08734138907811013,-0.06252037393622834,0.06563985070452906,0.9547723144866189,-0.2900021335944823,0.08502191130941936,0.28422052924405544,0.9549816570769945,left_images/camera_left_26.png,right_images/camera_right_26.png
2025-05-30 16:54:38,1.5564091205596924,27,-0.034321573,-0.00027734268,0.11402515,-0.00067282224,0.00029251876,-0.027628511,0.8071737,0.05791443,2.6602565e-05,0.0020418605,0.8332988440895035,-0.000578781205235851,0.5528224863836616,0.0006719543125711086,0.9999997736578207,3.4083856483567844e-05,-0.5528223809837108,0.00034306941560191485,0.833299044393354,0.07067476,0.0005316432,0.110866636,0.0007737558,1.3879648e-05,-0.015309773,0.75383395,-0.056456976,-6.065368e-05,0.0067549003,0.8369202955473061,0.0009464717073208201,-0.547323965391903,-0.000782009525331088,0.9999995519248771,0.0005334895941573009,0.5473242250824569,-1.847571443508965e-05,0.8369206606940325,-0.0020330606,0.019565068,0.09009984,-0.10821856,-0.04019353,0.076300204,0.23025304,0.00043642966,-0.010939134,0.003046318,0.9917371157457073,-0.1078774495580658,-0.06942585346420038,0.08384461698803675,0.9546506980550561,-0.2856783591823568,0.09709569225519263,0.27749684787370327,0.9558074732735896,left_images/camera_left_27.png,right_images/camera_right_27.png
2025-05-30 16:54:38,1.6093740463256836,28,-0.034321334,-0.0002773754,0.11402425,-0.0006726398,0.0002924787,-0.02762498,0.78050625,0.057914935,2.6604352e-05,0.002042619,0.8333008575277402,-0.0005788140520675488,0.5528194513743397,0.0006721878213123368,0.9999997735108914,3.378903004725838e-05,-0.5528193457243203,0.00034344207488498776,0.8333010578659285,0.07067476,0.0005316467,0.110866636,0.0007737488,1.3864816e-05,-0.015309829,0.72716564,-0.056456976,-6.065368e-05,0.0067549003,0.8369202955473061,0.0009464717073208201,-0.547323965391903,-0.000782009525331088,0.9999995519248771,0.0005334895941573009,0.5473242250824569,-1.847571443508965e-05,0.8369206606940325,-0.0018357084,0.015565269,0.08990297,-0.1293539,-0.027508225,0.08169477,0.20358622,0.0005173844,-0.010831747,0.00327483,0.9887722523160881,-0.1289213808395852,-0.07555600976881383,0.10311214250213407,0.9546055605127775,-0.2794568122388607,0.10815414517433,0.26852839961631786,0.9571808499343838,left_images/camera_left_28.png,right_images/camera_right_28.png
2025-05-30 16:54:38,1.671236515045166,29,-0.03658558,-0.0014685625,0.114018716,0.07366824,0.009189169,0.0064795255,0.7538394,0.057950407,-1.7287457e-06,0.0020239335,0.8481262128584786,0.05823613846841529,0.5265837817846482,-0.07355029859884238,0.9972580230958639,0.0081724504862506,-0.5246639692587585,-0.045661663868245696,0.8500839557446238,0.07289611,-0.0017390454,0.11087281,-0.104545355,0.013992416,-0.048977762,0.7004987,-0.056485437,-0.00010602732,0.0067412285,0.8491602275267631,-0.07942297202796178,-0.5221291980927146,0.1036333519962423,0.9944655985794633,0.017271409786475754,0.5178677788207319,-0.06877619323744974,0.8526915027740374,-0.0010458599,0.010864821,0.08971062,-0.15198655,-0.011227472,0.0884339,0.17691982,0.00068404374,-0.01072017,0.003503766,0.9848498479552094,-0.15139185255625554,-0.08456526451318959,0.12347528718947905,0.9546249455592735,-0.27100750316076017,0.12175643899226195,0.2564599779605753,0.9588553849608316,left_images/camera_left_29.png,right_images/camera_right_29.png
2025-05-30 16:54:38,1.7315669059753418,30,-0.038609177,-0.00404334,0.11416901,0.15828408,0.014153108,0.035774913,0.7271726,0.05787654,0.00016328224,0.0019002147,0.8536627815591823,0.12791497395208093,0.5048738603052038,-0.1571668205838422,0.9874494163328282,0.015564083382043625,-0.49654651935967314,-0.09263589813239417,0.8630528051567867,0.07579016,-0.0038938043,0.11097987,-0.2064276,0.019971099,-0.077075526,0.67383206,-0.056327302,-6.312094e-05,0.0067388127,0.8488979633082706,-0.1600596111093618,-0.5037391872612159,0.20314909977879103,0.9786445904217953,0.03138803748601774,0.4879576735231625,-0.12897940350953993,0.8632853655195287,-0.00034830585,0.006618468,0.08956307,-0.18454704,0.0056501096,0.09673925,0.15025328,0.000870023,-0.0106360195,0.0036856402,0.9783563866185376,-0.18350210849980148,-0.09563345094079363,0.1529553098059736,0.9525816511528294,-0.26304537838385866,0.1393680521671905,0.24272448179587455,0.9600319640366393,left_images/camera_left_30.png,right_images/camera_right_30.png
2025-05-30 16:54:38,1.7938368320465088,31,-0.04030303,-0.0067637563,0.114409536,0.23604558,0.01550825,0.062242873,0.7005063,0.05776307,0.00037990822,0.0017018272,0.8526474448363639,0.19282845191552375,0.485602227080851,-0.23288419273903008,0.9722361251325752,0.02284446890356706,-0.4677149640393282,-0.13256736068526936,0.8738813462333612,0.07908133,-0.005156435,0.111158095,-0.29234615,0.021306602,-0.09962079,0.6471654,-0.05604807,-5.3828204e-05,0.006733643,0.8408964260224604,-0.22805645155866802,-0.4907987934022675,0.28525008344939806,0.9574503018671023,0.043832742860857116,0.45991911310008005,-0.17685919358931698,0.8701696587724559,-0.0001676124,0.0024179118,0.08946129,-0.24402207,0.028909517,0.10536844,0.123586476,0.0010618977,-0.010621045,0.003810756,0.9642752592212175,-0.24151170556799775,-0.10883620963397342,0.208159490613173,0.9449253578069737,-0.2525582994894976,0.16383787999579888,0.22088042975102878,0.9614410979521745,left_images/camera_left_31.png,right_images/camera_right_31.png
2025-05-30 16:54:38,1.8427321910858154,32,-0.04203811,-0.00849695,0.1145568,0.3138838,0.011656586,0.08401529,0.67384064,0.05767185,0.00055222184,0.001600882,0.8439074667559898,0.25869825840337496,0.4699951049240289,-0.30743749234991063,0.9511416907944298,0.02848986364151833,-0.4396616606563358,-0.16853692512851381,0.8822091186431589,0.082513936,-0.0059172017,0.1113456,-0.3661192,0.019021027,-0.11753399,0.6204989,-0.05572653,-4.1174528e-05,0.0067447964,0.8282716183544117,-0.28643981049153605,-0.4815790290223787,0.35412904703325593,0.9336512237561136,0.053740212374251556,0.43423351353376927,-0.21505261529282674,0.8747534672008072,-0.0008489764,-0.0022040464,0.08940634,-0.3357982,0.06458371,0.11182771,0.096919864,0.0012918906,-0.010712911,0.0038777553,0.9359719655631012,-0.32888838003600845,-0.12565394206802624,0.2938289869095925,0.9263047403857265,-0.23584752360500674,0.19396135215972113,0.18382589974272331,0.9636322080815641,left_images/camera_left_32.png,right_images/camera_right_32.png
2025-05-30 16:54:38,1.8987152576446533,33,-0.044764493,-0.009103255,0.11477962,0.39378843,0.00372349,0.10303654,0.6471739,0.057442125,0.00063955685,0.0014996491,0.827683219033132,0.3258447827915566,0.4569088163501287,-0.3822211444593614,0.923451505934249,0.03382769451121041,-0.41091055676281707,-0.20263882578442644,0.8888700808473534,0.08662827,-0.007035923,0.111522675,-0.4400617,0.013660291,-0.14113097,0.59383243,-0.0554032,1.9908242e-05,0.0067813005,0.8135622302555355,-0.3448479855390979,-0.46818411375362246,0.42100041215782313,0.9047148219488332,0.06519005989438781,0.40109244628212803,-0.2501418753741903,0.8812229523336879,-0.0034893027,-0.0062900847,0.0894059,-0.4297472,0.10420858,0.11333853,0.07025346,0.0014299052,-0.010866291,0.0038925568,0.8987337464470282,-0.4147209069998685,-0.14242268883325931,0.3805087302654715,0.8990223009562236,-0.21673026686445104,0.21792374627159772,0.14058972821861446,0.9657866064148791,left_images/camera_left_33.png,right_images/camera_right_33.png
2025-05-30 16:54:38,1.9645421504974365,34,-0.049116623,-0.0090827495,0.11506492,0.47368214,-0.008308065,0.12595999,0.6205072,0.0570804,0.000672068,0.0014173416,0.8073383499382258,0.3921991212265198,0.44089073252697036,-0.4546031759502871,0.8897517992706057,0.04095959119220259,-0.37621900687622783,-0.23349857602106638,0.8966257155921858,0.09114505,-0.008435431,0.11165534,-0.50786924,0.0052958876,-0.16668856,0.56716585,-0.055104893,0.00012932107,0.0068645487,0.7975531398581923,-0.3984177812312152,-0.45295944708233454,0.4801905774136562,0.8737841370224698,0.07693043124172062,0.36513832785052586,-0.27886296542691574,0.8882057464618367,-0.007836986,-0.008133578,0.08953914,-0.5303253,0.14888538,0.105204426,0.04358784,0.0014973602,-0.011227414,0.0037412029,0.8508151127798639,-0.5013104816080717,-0.15748474496049036,0.47178477232463517,0.8607481883418951,-0.19113263684870122,0.23137150314587057,0.0883196314305523,0.9688482183685904,left_images/camera_left_34.png,right_images/camera_right_34.png
2025-05-30 16:54:38,2.018742084503174,35,-0.05572441,-0.008420167,0.11524209,0.5541667,-0.026112748,0.14968017,0.5938404,0.056615602,0.0006691307,0.0015412252,0.7810471679929027,0.4583803228895514,0.42409055749678864,-0.5248980972262798,0.8497995590103229,0.048194367244438804,-0.33830061912224946,-0.2602464007311754,0.9043364982173235,0.0971866,-0.010422298,0.111726254,-0.58611447,-0.0063654515,-0.20022768,0.5404991,-0.05477618,0.00026514864,0.0070698494,0.7758766774736857,-0.45860813131565664,-0.4332366134614614,0.5451750804789204,0.8329679430071588,0.0945967100232634,0.3174893903380032,-0.30958518668305846,0.8963021249607851,-0.013013646,-0.007847145,0.08978638,-0.64146984,0.19331181,0.08692538,0.016922297,0.0015576197,-0.011688203,0.0034712655,0.7893166184311391,-0.589597802416391,-0.17132923642564252,0.5674144934393006,0.8070750871281296,-0.16331134795887248,0.23456357028203112,0.031689669024530215,0.9715841169830137,left_images/camera_left_35.png,right_images/camera_right_35.png
2025-05-30 16:54:38,2.0688600540161133,36,-0.06373566,-0.0075459853,0.11529399,0.62483025,-0.04432345,0.16794689,0.56717366,0.0560662,0.00063705706,0.0018728646,0.7520780980743835,0.5143386550177141,0.4121095513954832,-0.5839797848032003,0.8099085892687978,0.0549152799303914,-0.3055260141755942,-0.2819642264245489,0.9094778885045969,0.104839966,-0.013734422,0.111695744,-0.6867976,-0.016445398,-0.24192335,0.51383245,-0.05437527,0.00038642145,0.0074849203,0.7410669094639669,-0.5286936799865155,-0.41388745866459936,0.6218773789744646,0.7728771640045182,0.12621178582122652,0.2531567917662387,-0.3509186260412076,0.9015363313144825,-0.018672891,-0.006175477,0.090050496,-0.7576634,0.23170128,0.061502315,0.0013389976,0.0015911413,-0.0121166,0.0032018656,0.7164431300814149,-0.6729508558705621,-0.18397387570582557,0.6589532021181363,0.739356088633889,-0.1383229974308369,0.22910678466033974,-0.022129613260845483,0.973149711729663,left_images/camera_left_36.png,right_images/camera_right_36.png
2025-05-30 16:54:39,2.142148017883301,37,-0.0719196,-0.006935148,0.11523798,0.67860484,-0.059104085,0.18146197,0.54050696,0.05551431,0.0006026205,0.0023357337,0.7268867095629348,0.5548420024527851,0.40470490950191473,-0.6269334603991501,0.7766620019433266,0.06124190533720553,-0.28033934381873093,-0.2982389764124864,0.9123943036076647,0.11329316,-0.01744157,0.111511946,-0.79683846,-0.025181662,-0.27886996,0.4871663,-0.053911485,0.00047396682,0.00814101,0.6926501529958623,-0.596901248859517,-0.4049008084269004,0.6970600974815947,0.6982041844014235,0.1631506585438524,0.1853186068741029,-0.39524652559420675,0.8996872778648978,-0.02444962,-0.0038128807,0.090257935,-0.8742799,0.26014712,0.034525122,8.763117e-05,0.0015742742,-0.012410712,0.0030119466,0.6350544707190631,-0.7472798348968157,-0.19564934852004584,0.740497408480844,0.6610329686808485,-0.1212394422213262,0.21993046003881456,-0.06788418573992065,0.9731507232045523,left_images/camera_left_37.png,right_images/camera_right_37.png
2025-05-30 16:54:39,2.2054193019866943,38,-0.08115068,-0.006682229,0.115035295,0.7200882,-0.072472654,0.1999899,0.51384056,0.05497588,0.0005587021,0.0029848907,0.7083943946160253,0.5850239946550028,0.3948725203841086,-0.6584301011251158,0.7492737262427374,0.07112443387959747,-0.2542581043132446,-0.31038010380858294,0.9159787156647301,0.12321441,-0.020013496,0.11117779,-0.8892538,-0.03913086,-0.30928302,0.4605003,-0.053418662,0.00051635795,0.009007822,0.6457223881626286,-0.6503385044165443,-0.4001280133892199,0.7531918879177485,0.6286007543560146,0.19381194905873783,0.12547739796652216,-0.42652188841406663,0.8957312662306978,-0.029939376,-0.00082478626,0.09040107,-0.98175216,0.27395657,0.0137762455,5.788329e-06,0.00143876,-0.012527933,0.0028861333,0.5525852595465824,-0.8081913973812236,-0.20365705519530006,0.8057244348997186,0.5805136647504603,-0.11752455081181767,0.21320803441091393,-0.09914913129713016,0.971962851052271,left_images/camera_left_38.png,right_images/camera_right_38.png
2025-05-30 16:54:39,2.2699596881866455,39,-0.090403065,-0.0064470493,0.11468057,0.7529714,-0.08505823,0.21903268,0.48717403,0.054529667,0.00050031836,0.003768338,0.6939779359253367,0.6084728910889943,0.3849095546470762,-0.6823233431518823,0.7264593801128898,0.08180234981976423,-0.2298466441757382,-0.31940180001965734,0.9193220384094763,0.13620654,-0.021458985,0.11074177,-0.96506035,-0.06661377,-0.33867514,0.43383402,-0.05288718,0.0005616266,0.010062549,0.6027187257286188,-0.6962730233218035,-0.38978714018087574,0.794908243685873,0.5665461904946104,0.21713198326429417,0.0696492769259745,-0.4407145232805022,0.8949411640959024,-0.035151854,0.0025903082,0.09053211,-1.057919,0.2759944,0.0020137194,5.700672e-07,0.0011199231,-0.012593444,0.0027391743,0.48989352635421823,-0.8474622532505951,-0.2044799798309203,0.8464483247372321,0.5185220008880373,-0.1210791813013291,0.20863740409083592,-0.11376582927439564,0.9713535760492916,left_images/camera_left_39.png,right_images/camera_right_39.png
2025-05-30 16:54:39,2.322199583053589,40,-0.099356264,-0.006445151,0.11418905,0.77950335,-0.0975812,0.2381628,0.4605074,0.05420518,0.00046609383,0.0046480903,0.6825452011581863,0.6276089235041135,0.3744850965177902,-0.7009311799945991,0.7072369173142635,0.09225737747842418,-0.20694813187682998,-0.3254581108619438,0.922631827321638,0.15010293,-0.022574332,0.11029844,-1.0321428,-0.100002974,-0.35843322,0.4071686,-0.05233814,0.00064942474,0.011149272,0.5580661056127375,-0.7368723468647039,-0.3815512628629822,0.8294823804347243,0.5080345408311049,0.23207732735205244,0.022829855772128316,-0.44600454005383405,0.8947394860722264,-0.039479572,0.0044514462,0.09064317,-1.0665752,0.26884624,0.0085780565,6.304018e-07,0.000652727,-0.012576197,0.0025956668,0.48091080680756,-0.8540071908107743,-0.19848555095822767,0.8505619316795747,0.5093601475889271,-0.13075412202181894,0.21276558996513517,-0.10594318331858771,0.9713428054168682,left_images/camera_left_40.png,right_images/camera_right_40.png
2025-05-30 16:54:39,2.3976662158966064,41,-0.10715219,-0.0071474514,0.113650694,0.8042539,-0.10742922,0.2579531,0.43384063,0.05400488,0.00046591164,0.005507892,0.6722580582814547,0.6444345548023203,0.3643805807838606,-0.7172489402573199,0.6888658732432309,0.10496554854137828,-0.18336592043070532,-0.3319155212664455,0.9253156358600151,0.16359882,-0.024668003,0.1099652,-1.1038692,-0.13778411,-0.37277287,0.38050282,-0.051812958,0.00083538494,0.012107359,0.5049657791161255,-0.777727773969293,-0.37436489087307934,0.8627834653268792,0.4423555421601385,0.24479841968189212,-0.024784145742516667,-0.4466106625652573,0.894385074899417,-0.041428164,0.005176408,0.090791725,-1.0284564,0.25651824,0.023458803,4.887817e-07,0.00025640253,-0.012524925,0.0024064546,0.5112193385517927,-0.8383817339253222,-0.1891318484841668,0.8309200881001851,0.5383627494838948,-0.14048970481754736,0.2196055442884995,-0.0853323982348516,0.971849672906896,left_images/camera_left_41.png,right_images/camera_right_41.png
2025-05-30 16:54:39,2.4637207984924316,42,-0.112336226,-0.009386775,0.11315151,0.8262942,-0.10964409,0.27457988,0.40717378,0.053928893,0.000567822,0.006218288,0.6631440557728203,0.6567835015384581,0.3589921912800571,-0.730477528293391,0.6724803303248446,0.11904951064396083,-0.163225432918872,-0.34118270388909,0.9257169225067546,0.17693868,-0.028841343,0.10987588,-1.1795688,-0.181864,-0.3900514,0.35383534,-0.051272083,0.0011732208,0.01284379,0.4456248664622513,-0.8185016076306748,-0.36259288009626134,0.891647687487114,0.3696634687730541,0.2613681718449192,-0.07989292702976072,-0.4397772597129987,0.8945462995563411,-0.042937186,0.0060066963,0.09114342,-1.0199659,0.24625215,0.0290939,3.177253e-07,-4.854938e-05,-0.012398744,0.002037106,0.5176452521651422,-0.8362176230138307,-0.18106208844477956,0.8262201662225428,0.5435273055151217,-0.14811585022091714,0.2222692732657396,-0.07292568217418544,0.9722541926067224,left_images/camera_left_42.png,right_images/camera_right_42.png
2025-05-30 16:54:39,2.5327227115631104,43,-0.115037285,-0.012769141,0.11274332,0.8498587,-0.10595756,0.28787798,0.3805072,0.053942952,0.0007435136,0.0067386366,0.652690633278153,0.6677165048888668,0.35797989654442786,-0.7436397891048984,0.6549834199801241,0.1341513459163287,-0.14489582910141197,-0.3537674216913369,0.9240421040509345,0.18962207,-0.034704655,0.110008486,-1.2447218,-0.22902676,-0.40829322,0.32716864,-0.050732963,0.0016573272,0.013365018,0.39023210213593845,-0.8531494302383088,-0.3462007454449159,0.9111882801198806,0.30389747568409237,0.2781766389275173,-0.13211670838595813,-0.42400751639196854,0.8959703127941093,-0.04492366,0.0075652315,0.09179833,-1.0733715,0.23981836,0.019496173,2.0031452e-07,-0.00030077528,-0.012184248,0.0013906285,0.4730780378559832,-0.8636264712954277,-0.17420243447248548,0.8532811088176985,0.4983628162223353,-0.15344657943982243,0.21933654377046205,-0.07605143972832143,0.9726806562701232,left_images/camera_left_43.png,right_images/camera_right_43.png
2025-05-30 16:54:39,2.587200403213501,44,-0.1151477,-0.015617642,0.112380914,0.8637714,-0.09617952,0.27966413,0.35383886,0.053973753,0.00096503855,0.007119432,0.6418586818405397,0.6707719958246503,0.3715943516300271,-0.752177165226064,0.6449941435354792,0.1349520911931934,-0.14915409702186244,-0.36612495738797846,0.9185344690969652,0.20095854,-0.041978866,0.11023616,-1.3004652,-0.2741671,-0.4226513,0.3005041,-0.050235383,0.0022787002,0.013760004,0.3384812176142933,-0.8810107186984819,-0.3305307532752889,0.924310328639274,0.24548814708583488,0.29220880549894596,-0.17629770756621535,-0.40442018146817044,0.8974204338704068,-0.046308048,0.009019814,0.092391275,-1.1545072,0.231944,0.0028857123,1.007103e-05,-0.0005077082,-0.011928314,0.0008139489,0.403076079609311,-0.8999549703429391,-0.16616475378920584,0.8899207101195205,0.42779468598018966,-0.15821768658237534,0.21347319210419893,-0.08409969085644683,0.9733223711857717,left_images/camera_left_44.png,right_images/camera_right_44.png
2025-05-30 16:54:39,2.660548686981201,45,-0.11370153,-0.018186826,0.112091765,0.87026995,-0.08184608,0.26154065,0.32717144,0.053997878,0.0011969322,0.0073842946,0.6326211404577331,0.667892878191401,0.3920581537312589,-0.7566930803127615,0.6408695355935008,0.1292355235798394,-0.16494264109908569,-0.37842481632337077,0.9108175358093855,0.2101402,-0.050199542,0.11042475,-1.3435117,-0.3118115,-0.43396252,0.27383998,-0.049859427,0.0030013155,0.014100106,0.29551608618496433,-0.9009928979273419,-0.317619332992202,0.9319695896639181,0.1988034443518873,0.30316641379858433,-0.21000696833102742,-0.38560211150655876,0.8984475971664092,-0.046460703,0.009796762,0.09240144,-1.2264746,0.21918553,-0.0057061967,1.7598646e-05,-0.0006562029,-0.011709805,0.00081332866,0.33766844071153884,-0.9280403646177189,-0.1572294685726864,0.9166095502315934,0.36218538188130306,-0.1692592141531175,0.2140255979355605,-0.0869645375524189,0.972949234357384,left_images/camera_left_45.png,right_images/camera_right_45.png
2025-05-30 16:54:39,2.7259531021118164,46,-0.11218387,-0.02187879,0.11192432,0.8795745,-0.06855452,0.24540317,0.30050504,0.053980406,0.0015532013,0.007545597,0.6212444932152643,0.6673182749190594,0.4107816933710168,-0.7631140637310778,0.6343308395590475,0.12361760279245951,-0.17807921098643067,-0.39027004233397755,0.9033145015281697,0.21775594,-0.06074579,0.11060532,-1.3856469,-0.351457,-0.4456317,0.24717402,-0.049669385,0.003938201,0.01435944,0.25028527469813183,-0.9196976429861033,-0.302512027455251,0.9371148253301108,0.1516218254432568,0.3143670246634824,-0.24325518579425315,-0.3621699428929193,0.8998110062947346,-0.04598945,0.008912851,0.092439495,-1.2859008,0.20649824,-0.005731327,2.3999786e-05,-0.00075810635,-0.01132828,0.0008268794,0.2812310516672222,-0.9478475685441196,-0.14998027331335376,0.9335896401076834,0.30640282603193214,-0.18581628583967355,0.2220798943212869,-0.08776271990227738,0.9710706593928169,left_images/camera_left_46.png,right_images/camera_right_46.png
2025-05-30 16:54:39,2.78981351852417,47,-0.111692004,-0.026332539,0.111875534,0.8962796,-0.061993923,0.23236038,0.2738386,0.053892545,0.002041716,0.007636803,0.6044854317906277,0.6738364719244249,0.4249020732561118,-0.7747141267585954,0.6214730019686969,0.11657328006315698,-0.1855138392507833,-0.39964448817475257,0.897702009866289,0.22220378,-0.07315331,0.11075814,-1.424825,-0.38348642,-0.45502624,0.22051007,-0.04966021,0.005052166,0.014491999,0.2070807944195337,-0.9337767152263826,-0.29185371452767506,0.9399617665009184,0.10718177727959793,0.3240122592366825,-0.27127370329437994,-0.3414280491116884,0.8999096983479724,-0.045530543,0.0072526173,0.09249517,-1.3397306,0.19668792,-0.0034558265,0.0006271351,-0.0008315833,-0.010905173,0.0008448949,0.2289575459345004,-0.9626337501063028,-0.1446191734035545,0.9454577433461052,0.25527204623793914,-0.20235077948054878,0.23170692200825888,-0.09040157944290403,0.9685759942966206,left_images/camera_left_47.png,right_images/camera_right_47.png
2025-05-30 16:54:39,2.8573310375213623,48,-0.11308704,-0.030919688,0.111865744,0.9293133,-0.06336117,0.21468274,0.24717128,0.053668782,0.0026389617,0.007783276,0.573177307457448,0.6914573317785851,0.4397209712368398,-0.797082957353657,0.5949409848001284,0.10346005848346271,-0.19006981168028286,-0.40979504991482385,0.8921555266617636,0.22333594,-0.08732501,0.11088559,-1.4567494,-0.40600133,-0.46494618,0.1938461,-0.049828712,0.006357795,0.014489292,0.17058459819879285,-0.9431714307458378,-0.28518160368825635,0.9406557937932415,0.06970648336189716,0.33212600587807667,-0.2933727534393115,-0.32491330905668797,0.8990905233274733,-0.044428892,0.0020743166,0.09262323,-1.381729,0.18871586,0.0011817144,0.0010571211,-0.0008345109,-0.010179926,0.00087421667,0.1875010087432149,-0.9721392892431979,-0.14067186651923952,0.9511376311621806,0.21545450314848597,-0.22117089243441246,0.2453173012803464,-0.09232854045618256,0.9650361974090707,left_images/camera_left_48.png,right_images/camera_right_48.png
2025-05-30 16:54:39,2.9273529052734375,49,-0.11765499,-0.03475725,0.111812726,0.9656182,-0.074592754,0.1945507,0.22050416,0.053296912,0.0032691704,0.008105564,0.5360715316116369,0.7134589462190641,0.4512246059952145,-0.8212894031528941,0.5643942429920934,0.0833237945976121,-0.1952204632314886,-0.4152535015353448,0.8885119583879098,0.22298652,-0.101558335,0.110998504,-1.4819151,-0.4229379,-0.4735841,0.1671825,-0.050065693,0.0077048414,0.0144327935,0.13999979765451687,-0.9495146089664179,-0.280752674103106,0.9405541524617471,0.03891402079311712,0.3374071505950601,-0.3094478032619703,-0.3113000262529114,0.8985178633234165,-0.043157633,-0.007920006,0.09287348,-1.4207841,0.18509263,0.0034544473,0.0008661347,-0.000764258,-0.0090334965,0.00090807024,0.14916680762589218,-0.9788650749129493,-0.13990149612626207,0.9538669545417156,0.17972874452320642,-0.24048994038301275,0.26055152376451973,-0.09757429737271207,0.9605166109735993,left_images/camera_left_49.png,right_images/camera_right_49.png
2025-05-30 16:54:39,2.993302822113037,50,-0.12301544,-0.039505865,0.111752704,1.0036525,-0.08262598,0.17785752,0.19383755,0.05285064,0.003937773,0.008507321,0.49834871091493804,0.7332167966099055,0.462646400070862,-0.8442876910631494,0.5317153003004341,0.0667617715888005,-0.1970453172462507,-0.4238773037041824,0.8840255507369664,0.22270373,-0.11395627,0.11111988,-1.5015574,-0.4365219,-0.48019627,0.14051718,-0.05024628,0.008895047,0.014384826,0.11509202713005484,-0.9537249198679664,-0.27778157338804155,0.9400680648549203,0.01421459302079886,0.34069044422346006,-0.3209764146024131,-0.30034433999676813,0.8982023261497856,-0.042017557,-0.021195592,0.093219236,-1.4547907,0.18486379,0.0018995573,0.0002753127,-0.00066105917,-0.007620359,0.00094174314,0.11625984482530127,-0.983111074975374,-0.14133740744035733,0.9545454765892372,0.14991843006301164,-0.25761870555234945,0.2744568847819692,-0.10496227221343196,0.955853723018104,left_images/camera_left_50.png,right_images/camera_right_50.png
2025-05-30 16:54:39,3.054753303527832,51,-0.12829848,-0.045581214,0.111750945,1.0414988,-0.079233035,0.16769779,0.16717124,0.052268617,0.0046017584,0.008941811,0.4637811421737873,0.7458012087249137,0.4782129329372373,-0.8644146660428942,0.49921363927032925,0.05977480653607373,-0.1941502956318345,-0.4410967007708525,0.8762073745838597,0.22292793,-0.12459723,0.111268945,-1.5250202,-0.4520257,-0.48105425,0.11385216,-0.050371163,0.009906395,0.014334271,0.08659859166004841,-0.9573727057883826,-0.2755688410069739,0.9396189461445602,-0.013436215220244074,0.34195862932047943,-0.33108446047599693,-0.28854283968240474,0.8984019755651319,-0.040978394,-0.03721944,0.09336537,-1.483793,0.18732725,-0.0019265882,1.8787703e-05,-0.00051476597,-0.0060526486,0.0012590848,0.0886190384925648,-0.9854616228276675,-0.144955358474647,0.9534705582605222,0.12602839409615196,-0.2738808836189796,0.288167591076827,-0.11393960599986779,0.9507771587693793,left_images/camera_left_51.png,right_images/camera_right_51.png
2025-05-30 16:54:40,3.104584217071533,52,-0.13448918,-0.05117306,0.1118838,1.0667102,-0.0777332,0.1630122,0.140505,0.051581684,0.005221482,0.009308189,0.4399119852688619,0.7530699927425417,0.48924741312300946,-0.8772324364160455,0.47694662351341494,0.054636716763743404,-0.19219962985494363,-0.45321904676425606,0.8704319605424204,0.22312838,-0.13308896,0.1114125,-1.5489471,-0.46724555,-0.47820115,0.14051852,-0.050480623,0.0106986165,0.014272325,0.05840563182974429,-0.9600397562204612,-0.27370138590574516,0.9387705199225662,-0.0404365676181464,0.3421619425412148,-0.33955661250354535,-0.2769269767924757,0.8988952978126521,-0.039791968,-0.054368224,0.09309821,-1.507559,0.19311632,-0.0053807055,1.7978347e-06,-0.00027799525,-0.0045324173,0.0020328425,0.06612197190234875,-0.9861634043604255,-0.15201850128191807,0.9507720050491948,0.10849574509147969,-0.2902779146124939,0.30275481704917373,-0.12534118715450315,0.9447905098783651,left_images/camera_left_52.png,right_images/camera_right_52.png
2025-05-30 16:54:40,3.155532121658325,53,-0.14164686,-0.05582332,0.112164184,1.0905974,-0.08122555,0.16484207,0.16392827,0.05081147,0.0057361587,0.0095750475,0.4196524392599754,0.761252218610146,0.4943550241317299,-0.8887841004699064,0.45518830182583314,0.05353907575606298,-0.1842678837319513,-0.46184268917245486,0.8676097495319559,0.22283055,-0.13943458,0.11153417,-1.566842,-0.47863725,-0.4753329,0.1671849,-0.05059275,0.011292309,0.014187651,0.03707742733540492,-0.9615953165527867,-0.2719553484782632,0.937785520424755,-0.06053497951668474,0.34189740264673807,-0.3452297525762502,-0.2677124641077818,0.8995256830671821,-0.03890214,-0.071702786,0.09254317,-1.5281131,0.2037781,-0.013189566,1.5760969e-06,2.7516042e-05,-0.0031611407,0.0031080544,0.04758121162508966,-0.9854108060476477,-0.1634061554067463,0.9485475955987915,0.09584409565834617,-0.3017803310542046,0.3130391144634165,-0.14063944202093193,0.9392694289520984,left_images/camera_left_53.png,right_images/camera_right_53.png
2025-05-30 16:54:40,3.208143949508667,54,-0.14999977,-0.0599515,0.11258383,1.1100942,-0.09160639,0.178307,0.19059595,0.049988758,0.0061658025,0.009743874,0.4073327435418998,0.7705752454042163,0.49019774296589824,-0.8977376869163212,0.43643690101358795,0.05991558164441865,-0.16777091979470768,-0.46447456615393656,0.869549478676947,0.22182438,-0.14422542,0.111622155,-1.5808134,-0.4865707,-0.4730205,0.19385058,-0.050735824,0.011735326,0.014079452,0.020734335311780705,-0.9624437879801472,-0.27068809046133535,0.9366767619718362,-0.07596804000515128,0.34185596452267974,-0.34958079312389945,-0.26063540027440857,0.8999235840907073,-0.038301647,-0.08771588,0.09193149,-1.5454568,0.21543035,-0.022551758,1.3585791e-06,0.0003251885,-0.0019762728,0.0042131282,0.03263933981971656,-0.9839258434982113,-0.17556938227511795,0.9467387826084944,0.0867392462057961,-0.3100999527130506,0.32034411341730473,-0.15609688550379125,0.9343518669831496,left_images/camera_left_54.png,right_images/camera_right_54.png
2025-05-30 16:54:40,3.2731306552886963,55,-0.15992686,-0.062977456,0.1130942,1.1303,-0.11675164,0.19397788,0.21726304,0.049177527,0.006559952,0.009834111,0.39363272632931023,0.7867213083832914,0.4755237740620719,-0.9074205870464134,0.41531501436823903,0.06404152593943957,-0.1471093299790903,-0.4567089026677622,0.8773686928863553,0.22015212,-0.14801346,0.11166306,-1.5915407,-0.4923931,-0.4718515,0.22051606,-0.05093879,0.012076967,0.013959727,0.00812117112782601,-0.9630606922838252,-0.2691619392806345,0.9354600493634093,-0.08779483445026204,0.34235444073191,-0.35333913259716987,-0.2545705600057684,0.9001918058690765,-0.03713926,-0.104199514,0.09121428,-1.5588311,0.22682217,-0.033996075,1.115989e-06,0.00067398907,-0.0008431135,0.0054406533,0.022224040135556122,-0.9819040742780831,-0.18807041488802478,0.9451288649077831,0.08196482240407121,-0.31624863099528927,0.3259409774148976,-0.17072245547780068,0.929847472673584,left_images/camera_left_55.png,right_images/camera_right_55.png
2025-05-30 16:54:40,3.3266186714172363,56,-0.16847068,-0.06581884,0.113627836,1.1496657,-0.14301524,0.2028609,0.24392909,0.048472427,0.006984976,0.009823701,0.3770501595576133,0.8031305126204178,0.4613182815320059,-0.9168066349745627,0.39436878072492115,0.06276032868108572,-0.13152479326802674,-0.4466034532866979,0.8850121944177938,0.21662249,-0.15046562,0.11153439,-1.5928577,-0.48538965,-0.47028127,0.2471874,-0.051229894,0.01234342,0.013861201,0.007132449145799857,-0.9619675737822817,-0.27307053147605126,0.936622114353242,-0.08922625430171688,0.33878856304153443,-0.3502686726980376,-0.25818029075573495,0.9003637011739418,-0.035052337,-0.12127639,0.09029622,-1.5665668,0.23785053,-0.046807967,9.915441e-07,0.0011062576,0.00020361063,0.006879639,0.017892906734471414,-0.979420141642978,-0.2010373846642469,0.9435995283491694,0.08302685234817664,-0.32050970638715315,0.3306051632806368,-0.18396393106585573,0.9256659754355133,left_images/camera_left_56.png,right_images/camera_right_56.png
2025-05-30 16:54:40,3.398784875869751,57,-0.17454115,-0.068810426,0.11417291,1.1697313,-0.16621433,0.20695777,0.27059522,0.047928087,0.0074290903,0.009671463,0.3582270048594093,0.8185587692688109,0.4490378093686396,-0.9260419513840882,0.37273214622430306,0.05930473377206094,-0.11882641653355983,-0.4370724063861212,0.8915424803729985,0.21207127,-0.15218824,0.11124359,-1.5948522,-0.47225422,-0.46434054,0.2738585,-0.051606234,0.012546763,0.013822405,0.0072407728859130716,-0.9595543790982491,-0.2814302129505436,0.9391443806430068,-0.090135812843399,0.3314866023683655,-0.3434463619179533,-0.2667038222381401,0.900507450101824,-0.033556186,-0.1366311,0.089262836,-1.5723934,0.24905284,-0.0628211,7.746092e-07,0.0014860418,0.0009850715,0.008366568,0.016411190330314906,-0.9767990622288788,-0.2135281359931875,0.9436118198192932,0.08575203075963833,-0.31975509803272884,0.3306469511870087,-0.19624011121424959,0.9231264336055787,left_images/camera_left_57.png,right_images/camera_right_57.png
2025-05-30 16:54:40,3.458066701889038,58,-0.17907722,-0.071651965,0.11473514,1.1866893,-0.187571,0.21370113,0.2972626,0.04749803,0.007820107,0.00941511,0.3431611314277502,0.8322497582818126,0.4354317141838556,-0.933416909078164,0.3538637943722265,0.059273002956298115,-0.1047535761880857,-0.42677951552570464,0.8982682970045486,0.20659436,-0.1529252,0.11083115,-1.5913303,-0.45051315,-0.45373043,0.30053338,-0.052012786,0.012718341,0.013822746,0.013364004223457127,-0.95567876656781,-0.29410797085856893,0.9443758267649703,-0.08459669696374006,0.3178013478335231,-0.3285965629964717,-0.2819955566923964,0.9013893746836887,-0.032582548,-0.15014438,0.08826361,-1.5786308,0.25818235,-0.083231255,3.752426e-07,0.0017770828,0.0015567606,0.009745132,0.015678877038943495,-0.9745738314681355,-0.22351738149932682,0.9456027902802363,0.0871013864442251,-0.31344650499523025,0.32494543515647184,-0.2064441704117887,0.9229253862983503,left_images/camera_left_58.png,right_images/camera_right_58.png
2025-05-30 16:54:40,3.525327682495117,59,-0.18315433,-0.07439803,0.115356624,1.1982789,-0.21205401,0.2283967,0.32393068,0.047149025,0.008165409,0.009058359,0.3345346913125687,0.8458357217035847,0.4155098942246507,-0.9384646565046931,0.339180653657926,0.06511967963458087,-0.08585236630363077,-0.4117261420827661,0.9072546252986033,0.20080318,-0.15354,0.1104185,-1.5904751,-0.42802215,-0.44140896,0.3272009,-0.05242066,0.012870334,0.013816056,0.017242311304559166,-0.951158702756886,-0.3082204160511021,0.9493355956008334,-0.08117157569199113,0.30360023423062527,-0.31379074177879723,-0.29783938199895116,0.9015692280154614,-0.03192952,-0.16153438,0.08743765,-1.5850868,0.2654598,-0.105245814,6.804692e-07,0.0019988827,0.0019846885,0.010882474,0.015253794937189369,-0.9727188409373537,-0.23148515767864042,0.9487083227880817,0.08719631522534133,-0.30389031061181865,0.3157844834893553,-0.21497641521016614,0.9241565348417697,left_images/camera_left_59.png,right_images/camera_right_59.png
2025-05-30 16:54:40,3.5934226512908936,60,-0.18768996,-0.07738278,0.116076976,1.2201549,-0.24984139,0.24377948,0.35059786,0.046898596,0.0085577145,0.00858057,0.3152388062109089,0.8669833117227025,0.3859591069699695,-0.9471754457269784,0.3127254042518925,0.07114419545816825,-0.059018387563713165,-0.38799840042173595,0.919768487826993,0.19544505,-0.15459228,0.11011412,-1.5922799,-0.41002998,-0.43059337,0.35386547,-0.052787762,0.013048133,0.013759295,0.01755876153119096,-0.9472837775578442,-0.31991426143457796,0.9530862537687252,-0.08084673729505337,0.29170258474316185,-0.3021891506500319,-0.31002782108140775,0.9014235782277534,-0.03150773,-0.17049983,0.086827084,-1.591549,0.27060473,-0.12548767,8.161211e-07,0.0021544383,0.0023043267,0.011737525,0.01441633515161439,-0.9713296498930897,-0.2372991372073736,0.9519410098691865,0.08594766883115396,-0.2939750192647726,0.3059419601983838,-0.22165673791035062,0.9258875782344811,left_images/camera_left_60.png,right_images/camera_right_60.png
2025-05-30 16:54:40,3.6640124320983887,61,-0.19173367,-0.08091905,0.11681921,1.2391951,-0.2867281,0.26011202,0.3772648,0.046678305,0.008989421,0.008084141,0.2971367440385767,0.8859768313612211,0.3560264170441343,-0.954268668772251,0.2883847508012639,0.07877527089720956,-0.032879524658807946,-0.36315188254561404,0.9311496373095935,0.19085445,-0.15617691,0.10995747,-1.5953528,-0.39685318,-0.42244688,0.3805297,-0.053072363,0.013268513,0.013639616,0.015668423134707565,-0.9443241320198316,-0.3286433236830828,0.955687611358283,-0.0824896151831156,0.2825891945620731,-0.29396545717613054,-0.3185080800732272,0.9011863918831083,-0.03120623,-0.17840034,0.08641261,-1.5968425,0.2747486,-0.14460789,0.026667444,0.0022745011,0.0026155384,0.0123758735,0.014528571440758142,-0.9701680874403172,-0.2419975262772076,0.9550569690157579,0.08512689780527405,-0.2839359033382082,0.2960660509857972,-0.22699624089937576,0.9278025652428581,left_images/camera_left_61.png,right_images/camera_right_61.png
2025-05-30 16:54:40,3.7174222469329834,62,-0.19529949,-0.08443581,0.1174751,1.255826,-0.3166155,0.2757025,0.40393144,0.046449017,0.00937389,0.0076849163,0.28116004742708656,0.9005407550999437,0.33162535508435076,-0.9596182875649993,0.26708358626898077,0.08831251392933051,-0.009042671154958992,-0.3430637059639553,0.9392686110738824,0.187059,-0.15828113,0.10997137,-1.6079615,-0.39093542,-0.41371506,0.40719402,-0.053268224,0.013506133,0.01342937,0.004179431802326161,-0.9421354274021505,-0.33520645695388496,0.9565277547082354,-0.09398523852471097,0.2760822873932243,-0.29161136264321286,-0.32178814672579253,0.9007858801092234,-0.031157492,-0.18566063,0.08615274,-1.6001617,0.27748024,-0.16154766,0.053334147,0.0023404965,0.0029469717,0.0128496,0.016000163496476427,-0.9694170022435216,-0.24489726525478014,0.9576510087244663,0.08528047479378481,-0.2750123381013273,0.2874865914387976,-0.2301258707319339,0.9297276716129144,left_images/camera_left_62.png,right_images/camera_right_62.png
2025-05-30 16:54:40,3.771606206893921,63,-0.19845584,-0.087310866,0.118012324,1.2685025,-0.34116405,0.28652954,0.43059734,0.046236526,0.009699608,0.0073880544,0.2675232989237898,0.9115286107069946,0.31232495320660625,-0.9635164051769836,0.25030814249196753,0.09477325971519533,0.008211058869328908,-0.326284271249469,0.9452360302313108,0.18360493,-0.15999943,0.110110864,-1.6179658,-0.386114,-0.40785256,0.43385828,-0.053379692,0.0137133915,0.013142126,-0.004774371001466549,-0.9403978149695809,-0.3400428722705099,0.9568277979713946,-0.10312028802522472,0.27174762414197284,-0.29061619089574586,-0.3240650487140393,0.9002911050272655,-0.031433985,-0.19158685,0.085992545,-1.6018639,0.27855578,-0.17520566,0.0800007,0.0023436071,0.0032350998,0.013184812,0.018039625871623777,-0.9691775063404031,-0.2457021227059494,0.9596690539482065,0.0857387920871393,-0.2677389893638811,0.2805528092758402,-0.23096281245091357,0.9316363563495136,left_images/camera_left_63.png,right_images/camera_right_63.png
2025-05-30 16:54:40,3.8372323513031006,64,-0.20099314,-0.089602254,0.11843324,1.2773398,-0.3602973,0.29440403,0.45726365,0.04606259,0.009964128,0.007169375,0.2571257792930193,0.919475691785939,0.2974067683118974,-0.9661600932353374,0.23805692488592411,0.09931553127956283,0.020518476123773305,-0.312879134377201,0.9495712924309221,0.18026671,-0.16126095,0.11034885,-1.6261615,-0.38203636,-0.4040747,0.46052307,-0.053434853,0.013879841,0.012782222,-0.011816349030041806,-0.9390438467645673,-0.34359427781789925,0.9567177667464567,-0.11054068776116299,0.26920600130933436,-0.2907773868224152,-0.3255417180683492,0.8997061193022057,-0.032142874,-0.19636106,0.085897155,-1.602575,0.27872157,-0.18697764,0.1066675,0.0022893143,0.003471207,0.013418803,0.020422608176711154,-0.9692897800138319,-0.24507190666414125,0.9614622213682772,0.08626174021818378,-0.2610542262751331,0.274177522705342,-0.23029597160017282,0.9336971947627849,left_images/camera_left_64.png,right_images/camera_right_64.png
2025-05-30 16:54:40,3.889112710952759,65,-0.20268662,-0.09150982,0.11877394,1.2837635,-0.37426558,0.3005217,0.48393017,0.04593083,0.0101819,0.0069796173,0.24933993769577145,0.9251231450611961,0.2863158429810512,-0.9679590393277506,0.22899913958003304,0.10302762860176203,0.029747162109466374,-0.30283091081275987,0.9525799419485734,0.17668642,-0.16199808,0.1107131,-1.6333592,-0.3782997,-0.40198192,0.48718816,-0.053437352,0.014000947,0.01230605,-0.017510938708428014,-0.9379984312655401,-0.3461969236849683,0.9561866920996995,-0.1169117522743684,0.2684001714447504,-0.29223342874658326,-0.32632895232192133,0.8989488517148754,-0.033394273,-0.20119871,0.085890636,-1.6024643,0.27835134,-0.19754076,0.1333341,0.002174993,0.003758762,0.013575404,0.023217107378716295,-0.9696840538385033,-0.24325665798964646,0.9628857542815606,0.08713854426224454,-0.2554562551700137,0.26890888815097846,-0.2282974153055254,0.9357180665340503,left_images/camera_left_65.png,right_images/camera_right_65.png
2025-05-30 16:54:40,3.9472475051879883,66,-0.20353813,-0.09303464,0.11907345,1.2884129,-0.38491812,0.30515942,0.51059675,0.045846358,0.01035982,0.0067760563,0.2434119036583715,0.9293987384349383,0.2774322082112186,-0.9692291705683638,0.22225780835560993,0.10581248293241473,0.03668051358377197,-0.294651406954907,0.9549005646153554,0.1732376,-0.162287,0.11114342,-1.6393458,-0.37499052,-0.40099406,0.51385427,-0.05339657,0.014081658,0.011782149,-0.021870126833500814,-0.9372140185309902,-0.3480683568227356,0.9554641923406376,-0.1220775002915741,0.2686731491560213,-0.2942955567234061,-0.3266909355821697,0.8981442856809294,-0.03421161,-0.20658617,0.085993655,-1.6009096,0.27698582,-0.20720084,0.1600008,0.0020746514,0.0041411985,0.013652892,0.027000777263763043,-0.9702433180093906,-0.24062182337701912,0.9638985533250535,0.08905654036724986,-0.25093527355811407,0.2648972195494354,-0.22515958002258116,0.9376207264128886,left_images/camera_left_66.png,right_images/camera_right_66.png
2025-05-30 16:54:40,3.999408483505249,67,-0.20342016,-0.0942862,0.119390294,1.2915314,-0.39411956,0.30859423,0.53726375,0.045814846,0.010521983,0.006494756,0.2387123681272788,0.9331070643469623,0.2689379329303711,-0.9701891760185097,0.2172343540472773,0.10743462271627098,0.041825447273063907,-0.28656664475729976,0.9571469009890551,0.17010815,-0.16186193,0.111652054,-1.6441809,-0.37252313,-0.4001753,0.5405202,-0.05329235,0.014099418,0.01120438,-0.025186831086364492,-0.9367912795984541,-0.3489809765705256,0.9547246159878475,-0.1260524551175113,0.269465556585076,-0.29642289244706443,-0.3263937453860576,0.8975525565704647,-0.034650017,-0.21187395,0.08616922,-1.5990534,0.27492806,-0.21558212,0.18666756,0.0019917637,0.0045598866,0.013665359,0.03058524753774472,-0.9708757508134523,-0.23762327140974673,0.9646012913478322,0.09096980148808465,-0.24752544101023885,0.26193299021534044,-0.2216410875709505,0.9392903368699247,left_images/camera_left_67.png,right_images/camera_right_67.png
2025-05-30 16:54:40,4.051551103591919,68,-0.20246059,-0.09534871,0.11975318,1.2930527,-0.40187845,0.3116064,0.563931,0.045808412,0.010675302,0.0061238036,0.23547766683503846,0.9362521121515069,0.26073406166776253,-0.9708009332494297,0.2139564473535026,0.10848127321295553,0.04578008763603077,-0.2786657875084594,0.9592963892605493,0.16753761,-0.16087411,0.112180844,-1.6480552,-0.37048697,-0.39976457,0.56718576,-0.0531334,0.014058616,0.010637973,-0.02737378321694195,-0.9364976333627565,-0.3496038596731276,0.9539230176514618,-0.12901264878527502,0.27089963611665485,-0.298800188064065,-0.3260796208893823,0.8968782127209447,-0.034985583,-0.2164511,0.086363256,-1.5967647,0.2723217,-0.2223603,0.21333435,0.0019063813,0.004944873,0.013637518,0.03402902664646479,-0.9716115401356927,-0.2341218495156772,0.9650817426990613,0.09282426070490746,-0.24495078390062425,0.2597291959992891,-0.21761128578209032,0.9408432776216389,left_images/camera_left_68.png,right_images/camera_right_68.png
2025-05-30 16:54:41,4.111727714538574,69,-0.20071766,-0.09625251,0.1202075,1.2926649,-0.41036844,0.31411263,0.5905975,0.045829583,0.010840638,0.0056226514,0.23328236278195058,0.9394847342916808,0.25089394820872146,-0.9712030410708954,0.21225817844974681,0.10821792224876747,0.048414793498632716,-0.26891429808413986,0.9619465203723121,0.16558856,-0.15930295,0.112688534,-1.6525503,-0.3694606,-0.39888877,0.5938512,-0.052943178,0.013945946,0.010115968,-0.029985247715173913,-0.936263288510258,-0.3500170560235844,0.9529315979542297,-0.13247156860833048,0.2727135000890982,-0.30169894686567583,-0.32536493065234573,0.8961670644259006,-0.035576887,-0.21969472,0.08658952,-1.5929121,0.26847443,-0.22870335,0.24000174,0.0017712534,0.0052396758,0.0135239195,0.03853119175117725,-0.9727045242550698,-0.22882581968814664,0.9657798964871178,0.09502838056790974,-0.24132716056832998,0.25648496798753334,-0.21169675335337268,0.9430800315010786,left_images/camera_left_69.png,right_images/camera_right_69.png
2025-05-30 16:54:41,4.164530515670776,70,-0.1986216,-0.097000636,0.12070184,1.2905118,-0.4195877,0.31610987,0.61726415,0.045871884,0.011012254,0.005062109,0.23204971918800854,0.9426711171259269,0.23984180778447284,-0.9714331539246436,0.21199153129601678,0.10666404321415064,0.04970468067281621,-0.25774164505435976,0.9649345517307826,0.1640996,-0.15749975,0.11310715,-1.6561277,-0.36861318,-0.39784253,0.6205174,-0.05277308,0.013797968,0.009686227,-0.031830234292013815,-0.9360891234884613,-0.3503198382500196,0.9521112987532313,-0.13503472468225586,0.27431678387663866,-0.3040903006860802,-0.324811908674223,0.8955592180375667,-0.03615788,-0.22125037,0.08681899,-1.5881686,0.2637822,-0.23358765,0.26666856,0.0016192526,0.005413928,0.013341209,0.043258413442611166,-0.973962925588372,-0.2225419718744476,0.9665309572283817,0.09717949758586719,-0.2374322092053787,0.25287668612510805,-0.2048227644289026,0.9455691496585991,left_images/camera_left_70.png,right_images/camera_right_70.png
2025-05-30 16:54:41,4.219824314117432,71,-0.19638555,-0.09775196,0.121133,1.2882884,-0.42693996,0.3178789,0.6439307,0.0459398,0.011174906,0.0045481343,0.2313114012179669,0.9452175961927229,0.2303448100440542,-0.9715633378902866,0.2121175882360833,0.10521791305852943,0.050593637288354615,-0.24813267541490394,0.9674039793474991,0.16288401,-0.15572914,0.113410965,-1.6574917,-0.36724818,-0.39719245,0.647184,-0.052650698,0.013645586,0.009362415,-0.03179062302076513,-0.9360015283755502,-0.35055740637816474,0.9516864313151417,-0.1355231843098707,0.2755474604585621,-0.30542150012499386,-0.3248609016073602,0.8950883207082145,-0.03647123,-0.22104768,0.08712613,-1.5825506,0.25807658,-0.23904714,0.2933359,0.0014654832,0.0054779854,0.013015758,0.04860151182446826,-0.9753435298200778,-0.21527399259196842,0.9678175547960813,0.09926650075458154,-0.23124736205300722,0.246915114314434,-0.1971069777203523,0.948779092126844,left_images/camera_left_71.png,right_images/camera_right_71.png
2025-05-30 16:54:41,4.271639585494995,72,-0.194508,-0.09839673,0.12141228,1.2869574,-0.43239117,0.31885195,0.67059827,0.04603882,0.011302784,0.0041822046,0.23037112017985018,0.947155237788831,0.22321761246878366,-0.9717603513342388,0.2118738374761301,0.10388116560712699,0.051097617966378434,-0.24084524600315751,0.9692175199179185,0.16168329,-0.15423802,0.113608085,-1.6557566,-0.36478224,-0.39750925,0.6738508,-0.05259045,0.013519663,0.009126709,-0.02907366407166434,-0.936016476661357,-0.3507533000214074,0.9517756427711488,-0.13313866442997113,0.27640047369961296,-0.3054142234490969,-0.3258024730603851,0.894748512523336,-0.036264487,-0.22015758,0.08759146,-1.5761843,0.25060692,-0.2439424,0.3200028,0.0013178731,0.005565807,0.012518653,0.054039516794095355,-0.976926791619898,-0.20662471885017347,0.9690948469353595,0.10119048115961737,-0.22497925274570846,0.24069671428582678,-0.18808118018009584,0.9522030042979646,left_images/camera_left_72.png,right_images/camera_right_72.png
2025-05-30 16:54:41,4.332393407821655,73,-0.1934593,-0.09888217,0.12150258,1.2857134,-0.43768236,0.31870246,0.6972649,0.04617581,0.011402313,0.0040185424,0.229302643499756,0.9487916772823851,0.21728932510296456,-0.9720458504959378,0.21164023744157917,0.10166255175481537,0.05046941863794664,-0.23452667868570948,0.9707986788036937,0.16044152,-0.15307795,0.11373152,-1.6517242,-0.36148846,-0.3986739,0.7005174,-0.05257802,0.013427813,0.008951281,-0.024400168289847923,-0.9360922206265603,-0.3509073756276182,0.9522173931451909,-0.12865795731969137,0.2770003000180709,-0.30444485211480243,-0.32738125251877165,0.8945025698789447,-0.035667136,-0.21860977,0.08821346,-1.5696203,0.24217136,-0.24674268,0.34666923,0.0011818501,0.005692967,0.011859887,0.05892003254668993,-0.9785406449461224,-0.19745033794127562,0.970016304630179,0.10284069861261519,-0.2202093537079681,0.2357897336957416,-0.17855530487021717,0.9552597576504493,left_images/camera_left_73.png,right_images/camera_right_73.png
2025-05-30 16:54:41,4.3961286544799805,74,-0.19318704,-0.099252544,0.121442944,1.2844895,-0.44217625,0.3180582,0.72393155,0.046320554,0.011474101,0.004027916,0.2284648168328146,0.949980199422025,0.2129353145338696,-0.9723076411160402,0.2115924350418742,0.0992294939038388,0.04921055269868656,-0.22970908153388225,0.9720144337220257,0.15939185,-0.15212893,0.11381127,-1.64733,-0.35834467,-0.39993024,0.7271842,-0.052581027,0.013353197,0.008822962,-0.01955908344692764,-0.9361672695981529,-0.35101037817685,0.952720533131626,-0.12392485903661882,0.2774278555987922,-0.30321778972234836,-0.32898856005322324,0.894329636850977,-0.035324242,-0.21684362,0.08885227,-1.5638157,0.23417212,-0.24762218,0.37333563,0.0010332954,0.0058286125,0.011185779,0.06273926405839741,-0.9800277540841044,-0.1887044937734062,0.9705567727156427,0.10396990043612236,-0.21727818744434413,0.23255824148201548,-0.1695165508974555,0.9576955692132147,left_images/camera_left_74.png,right_images/camera_right_74.png
2025-05-30 16:54:41,4.4613120555877686,75,-0.19382958,-0.099404655,0.121271044,1.282972,-0.44714594,0.31668234,0.7505983,0.04645509,0.011519165,0.0041848263,0.22773389033884983,0.950998676003681,0.20913821609256017,-0.9725866960830316,0.21178426723726906,0.09603407079295247,0.047036090328869073,-0.22527525916091778,0.9731591153642634,0.15845902,-0.15129514,0.11386137,-1.6411616,-0.3546578,-0.4017613,0.753851,-0.05259039,0.013293136,0.008728064,-0.013122993112572534,-0.9362493608426968,-0.3510910442796985,0.9534389882233519,-0.11751840913853845,0.27774722185681433,-0.3013003199258154,-0.33109901515285267,0.8941988366003463,-0.03557859,-0.21512227,0.08946263,-1.556174,0.22456713,-0.24566041,0.4000018,0.00080078456,0.0059760762,0.010537114,0.0674094426064813,-0.9817998935989591,-0.17755262875146613,0.9704045040595457,0.10587693464916736,-0.21703726226213588,0.23188588906708127,-0.15766750977410787,0.9598801439831959,left_images/camera_left_75.png,right_images/camera_right_75.png
2025-05-30 16:54:41,4.520748853683472,76,-0.19493629,-0.099544026,0.12101868,1.2838272,-0.45068446,0.31466907,0.77726483,0.04656961,0.011535656,0.0044410434,0.22561116823850869,0.9518360936728335,0.2076238222066444,-0.9731545532925071,0.21023508739237595,0.0936558777396324,0.045495232410839165,-0.22317987994163135,0.9737150122171903,0.1576119,-0.1505667,0.113890864,-1.635185,-0.35116878,-0.40351433,0.7805178,-0.05260839,0.013240305,0.0086548645,-0.006938098199321396,-0.936293077908893,-0.3511511569869421,0.9541074089676788,-0.1113324474394567,0.2780002487411175,-0.29938422628181194,-0.33310712752361227,0.8940965980511328,-0.035825096,-0.21384814,0.089985326,-1.542315,0.21153024,-0.24267195,0.42666847,0.00049669226,0.0061149895,0.009969738,0.0771660037105355,-0.9838243256265495,-0.1616635524068755,0.96962387489377,0.11180112460628167,-0.21755470524160445,0.23210977813813952,-0.13996501292192856,0.9625668008249755,left_images/camera_left_76.png,right_images/camera_right_76.png
2025-05-30 16:54:41,4.5781776905059814,77,-0.19598632,-0.09934744,0.12074268,1.2778859,-0.45173383,0.3153391,0.8039315,0.046672896,0.011531581,0.004720783,0.22991293273644087,0.9510407649503586,0.20654662128237622,-0.972284068055644,0.21519962735659626,0.0913937163635979,0.0424703939903609,-0.22183458654641447,0.9741589612820306,0.15686174,-0.14973259,0.11390394,-1.6260201,-0.34697935,-0.40558073,0.8071854,-0.052626997,0.013189291,0.008599187,0.0019225518028944677,-0.9364621994624613,-0.350763243189041,0.9552333813803626,-0.10205285679280596,0.27769479922581497,-0.29584707348764466,-0.3355946414923161,0.8943437514236011,-0.035746675,-0.21239536,0.09039949,-1.526621,0.19716556,-0.24130262,0.45333552,0.00019563036,0.006175326,0.00948792,0.08869651538575668,-0.9855606226170597,-0.14423310058754898,0.9690322458581198,0.11888320137615899,-0.21643310956904055,0.23045484296406724,-0.12056966275655512,0.9655845492639046,left_images/camera_left_77.png,right_images/camera_right_77.png
2025-05-30 16:54:41,4.633644104003906,78,-0.19681445,-0.09902927,0.12046986,1.2703042,-0.4517477,0.31674725,0.8305981,0.046780083,0.011516431,0.0049854806,0.23591668341575328,0.9497423223392645,0.20574945842877004,-0.9709813905059919,0.22183457592410122,0.08935636639672158,0.039223179080260906,-0.2208595528434193,0.9745165981863229,0.15580313,-0.1488623,0.11388876,-1.6160184,-0.34030148,-0.4086101,0.8338512,-0.05265329,0.013128906,0.008560383,0.01258570427977207,-0.9359464336364021,-0.3519174241368028,0.9562185048487517,-0.09164534121740625,0.2779339893175412,-0.29238291850345854,-0.3400079481371655,0.8938158782271406,-0.035719633,-0.21060392,0.09074331,-1.5126928,0.18391499,-0.24172543,0.48000243,-8.600217e-05,0.006166226,0.00906239,0.09902068244864165,-0.9868106627547537,-0.12806100234235696,0.9688725215099911,0.12495453365624626,-0.21371102353791185,0.22689411960268424,-0.10291297484901454,0.968466818273837,left_images/camera_left_78.png,right_images/camera_right_78.png
2025-05-30 16:54:41,4.689230442047119,79,-0.19724147,-0.09853828,0.120197125,1.2606648,-0.4497985,0.31919783,0.85726464,0.046895172,0.011480286,0.005228175,0.24428417763447446,0.9476266777856441,0.20573993318359868,-0.9690419251560816,0.23072267094335935,0.08789082092322187,0.035818819735497526,-0.22084095784456614,0.9746518781036903,0.15467075,-0.14785722,0.113853216,-1.604795,-0.3328204,-0.4122716,0.8605171,-0.052689217,0.013050615,0.008535984,0.02472575455731596,-0.9352231712447012,-0.3531943615469754,0.9570811225229063,-0.07990685573518735,0.27858682545448793,-0.28876350526315603,-0.34492392548723,0.8931086852419559,-0.03532595,-0.2076147,0.09106861,-1.5017021,0.17100132,-0.24467096,0.5066695,-0.00032397907,0.006035283,0.008610211,0.1068150849765711,-0.9878360779154444,-0.11300628650690145,0.9696333526474507,0.12864117978181488,-0.20799665453561358,0.22000386145500375,-0.08735748412686115,0.9715796266451415,left_images/camera_left_79.png,right_images/camera_right_79.png
2025-05-30 16:54:41,4.755166530609131,80,-0.19724007,-0.098131314,0.119931206,1.2523901,-0.4478193,0.3211657,0.8839312,0.047044586,0.011447783,0.005434908,0.25149904663255557,0.9457515826214353,0.20567492193256387,-0.967300439405091,0.2384041448282958,0.08656398590295518,0.032834272789780086,-0.220720202287284,0.9747843365753407,0.15338317,-0.14651226,0.11380507,-1.5917041,-0.32360166,-0.41703683,0.8871822,-0.05272339,0.01293147,0.008518262,0.03942898920161708,-0.934029800566709,-0.3550122342453176,0.9576998622915472,-0.06603062364532458,0.2800909325696936,-0.2850549571175529,-0.3510388702043165,0.8919166906322512,-0.034512233,-0.20367183,0.09140826,-1.4927229,0.15786159,-0.24892569,0.5333366,-0.000524953,0.0058246525,0.008111268,0.11263546850883399,-0.9887458528084578,-0.09846263142873715,0.9709463261821707,0.13057736603003112,-0.20053125231246494,0.21113143514678637,-0.07301499869708379,0.9747267961116712,left_images/camera_left_80.png,right_images/camera_right_80.png
2025-05-30 16:54:41,4.814643144607544,81,-0.19639699,-0.097964294,0.119669065,1.2453201,-0.4452928,0.32289284,0.91059774,0.047262862,0.011433926,0.0055811508,0.25777762483077965,0.9440892814878065,0.2055386209850576,-0.9657269764189319,0.24506737460240274,0.08551835430030924,0.03036615144119223,-0.22053890923218733,0.9749053730292636,0.15200168,-0.14485104,0.11377688,-1.5839076,-0.31401423,-0.41908044,0.91384906,-0.052726142,0.012771829,0.008481635,0.04983486182980057,-0.9320532421303785,-0.35887775130349714,0.9580535315321684,-0.05692460563103513,0.28087901308658064,-0.2822231692564328,-0.35782166383269914,0.8901200703426778,-0.033566695,-0.19921978,0.09176974,-1.4844912,0.14578187,-0.25295094,0.5600034,-0.00069369626,0.005580907,0.00758012,0.11784709681982658,-0.9893672310731676,-0.08523229346762862,0.9722489947019965,0.13242288482252113,-0.19286283176454383,0.20209887202083998,-0.060138686832145336,0.9775169483308254,left_images/camera_left_81.png,right_images/camera_right_81.png
2025-05-30 16:54:41,4.876880645751953,82,-0.19530624,-0.09780863,0.11944601,1.2397432,-0.44444832,0.32376304,0.93726444,0.047504194,0.011427589,0.0056734122,0.26228843394451923,0.9431561984373295,0.2041106630437926,-0.9645784572677417,0.25007170584611,0.08397941241875978,0.028163401675136326,-0.21890757703757474,0.9753390669513979,0.15087686,-0.1432046,0.11381772,-1.5785211,-0.30690512,-0.4203865,0.94051534,-0.052694608,0.012612978,0.008396715,0.05744282137703577,-0.9305212232406554,-0.36170509447747634,0.9581390956935976,-0.05040362879284582,0.2818314168221276,-0.2804813640434972,-0.36275298386536686,0.888673436714,-0.032569926,-0.19459838,0.092115946,-1.4776065,0.13461603,-0.25552168,0.58667004,-0.0008352196,0.005327643,0.0070644356,0.12178650388432577,-0.9898371854660786,-0.07341930086990389,0.9733178266580411,0.13359194065658653,-0.18656259459300722,0.19447482043005154,-0.048739508206376486,0.9796958735028438,left_images/camera_left_82.png,right_images/camera_right_82.png
2025-05-30 16:54:41,4.934176683425903,83,-0.19405688,-0.097620256,0.11925216,1.2355983,-0.44338176,0.32430768,0.96393096,0.04773509,0.011410552,0.005732662,0.2657880121122983,0.9424077203563888,0.20303797977242544,-0.9636651298670964,0.25392152963104964,0.08290581564679615,0.026575366330971795,-0.21769599307865783,0.9756547568181442,0.1496492,-0.14164655,0.11397604,-1.5759664,-0.29987565,-0.41972914,0.96718395,-0.052592084,0.012482005,0.008215094,0.06224902124470372,-0.9287398780591489,-0.3654686009177177,0.9583878944670647,-0.046592505334786094,0.28164122955564325,-0.2785995389318924,-0.3677925738093491,0.887192718386277,-0.031589914,-0.19064718,0.0924133,-1.4726504,0.12445518,-0.2570219,0.6133365,-0.00095155713,0.00511958,0.0066267624,0.12403023926836448,-0.9902652615443949,-0.06317603600609879,0.9741618769218675,0.13362924961715855,-0.18207652566659938,0.1887462245956113,-0.03896069076860385,0.9812527336398797,left_images/camera_left_83.png,right_images/camera_right_83.png
2025-05-30 16:54:41,4.993832111358643,84,-0.19302729,-0.0972841,0.11910464,1.2317545,-0.44297686,0.32475913,0.99059755,0.04792432,0.011381512,0.005769603,0.2689543961041996,0.941806566322461,0.20165298026094622,-0.9628235703374824,0.2574288971393006,0.08186046249702343,0.025185416788461673,-0.21617297367973548,0.9760301943237474,0.14829238,-0.14024042,0.11429368,-1.5757272,-0.29237854,-0.41747713,0.9938519,-0.05238852,0.012392707,0.007906554,0.06487908169158507,-0.9265897827419569,-0.3704349865726371,0.9588283987988016,-0.04496432601888867,0.28040383564172866,-0.27647568865233546,-0.3733759283937307,0.8855233535488134,-0.030377246,-0.18790767,0.09266793,-1.4687015,0.11525704,-0.25859937,0.6400031,-0.0010238814,0.004994742,0.00627804,0.1255856817150942,-0.9905937561763195,-0.05433458173801817,0.9748204504501047,0.13338762644452562,-0.17869759510343347,0.18426428284507557,-0.030524602142960322,0.9824026276082551,left_images/camera_left_84.png,right_images/camera_right_84.png
2025-05-30 16:54:41,5.049079895019531,85,-0.1921293,-0.097010165,0.11902113,1.2284894,-0.4431007,0.32521087,1.0172629,0.048067708,0.011364438,0.0057661347,0.2715098242617389,0.941421362512693,0.20002058277613466,-0.9621336853127487,0.26029239008260935,0.08091132956262516,0.0241078185630436,-0.21441476131513815,0.9764451460344836,0.14703421,-0.13894859,0.11478184,-1.5773475,-0.2854425,-0.4145107,1.0205178,-0.05207469,0.0123356655,0.0074714227,0.06564818969986297,-0.924407535213678,-0.37571401894167206,0.9592600329684942,-0.045224667201081814,0.2788815494539477,-0.27479174721671334,-0.3787155110590583,0.8837782851738676,-0.02916122,-0.18641292,0.09289961,-1.4663651,0.10810762,-0.25952116,0.6666696,-0.001052356,0.0049709016,0.006003201,0.12610321634226324,-0.9908569250549193,-0.04796387076588286,0.9752149989257528,0.1326834423210675,-0.1770615994620967,0.18180672346857907,-0.02444704899454947,0.9830303439350576,left_images/camera_left_85.png,right_images/camera_right_85.png
2025-05-30 16:54:42,5.098529100418091,86,-0.19133343,-0.096785426,0.11900611,1.2252164,-0.44421786,0.32571623,1.0421491,0.048174057,0.0113634905,0.0057158004,0.273754396332302,0.9412845246694476,0.19759042007786937,-0.9615224640022187,0.26290636616740964,0.07971696085369696,0.023088562273100494,-0.211810496072456,0.9770379890494028,0.14614321,-0.1377265,0.11537806,-1.5804362,-0.28111923,-0.4119254,1.0435681,-0.051699646,0.0122881,0.006964327,0.06457585904617585,-0.9229005439923439,-0.37958469980636,0.959381803831773,-0.04726252269324682,0.27812372862660273,-0.2746206709352781,-0.38212673270435604,0.8823619706490935,-0.028190203,-0.18561405,0.09310218,-1.4658854,0.102599725,-0.26003316,0.6933367,-0.001067394,0.0049970686,0.005785223,0.12523586613987175,-0.9911744306781143,-0.04346522520489467,0.9755560626968971,0.13099956263045504,-0.17643549281807597,0.1805722746368444,-0.02030671220423412,0.9833520687281492,left_images/camera_left_86.png,right_images/camera_right_86.png
2025-05-30 16:54:42,5.150700330734253,87,-0.19057503,-0.0966185,0.11904477,1.2219398,-0.44602636,0.32628554,1.0468472,0.048254006,0.011378032,0.0056256335,0.2757693924947169,0.9413260703005731,0.19456739586985228,-0.9609690770322094,0.26532938889348245,0.07835016513878754,0.022128604812751626,-0.20857982827179658,0.9777549693492482,0.14537872,-0.13628794,0.11599824,-1.5850558,-0.2786961,-0.40893027,1.0469408,-0.05132282,0.01221191,0.0064334264,0.06170428520591842,-0.921911651173433,-0.38245455758547525,0.9593402211312753,-0.0509586295323457,0.27761404538672274,-0.2754249830843653,-0.384034016080425,0.8812825614898534,-0.027398426,-0.18507043,0.09326199,-1.4708418,0.09798234,-0.26081637,0.7200048,-0.0010682783,0.0050294707,0.005619268,0.11939155444435795,-0.9919980647469799,-0.04105479589045376,0.9764427391014052,0.12480420886632365,-0.17602126776442778,0.17973656829789875,-0.01907220457886219,0.9835298760225828,left_images/camera_left_87.png,right_images/camera_right_87.png
2025-05-30 16:54:42,5.200720548629761,88,-0.18974614,-0.096581526,0.11910651,1.2190835,-0.4476309,0.3269289,1.047158,0.0483232,0.011404894,0.005515186,0.27747258767900396,0.9414119740519281,0.19170930649911022,-0.9604950042431727,0.2673782623812866,0.07718945284086315,0.021408173920851578,-0.2055537883805993,0.9784116363636313,0.14476518,-0.13435821,0.11658587,-1.59047,-0.27756485,-0.40537205,1.0471642,-0.050966926,0.012072477,0.005924546,0.05789536069706974,-0.9212813524990066,-0.38456312452880537,0.9591949567765915,-0.05545406560565724,0.2772541821184239,-0.27675469662520435,-0.3849227404887957,0.8804778939590059,-0.02670112,-0.18462346,0.09337948,-1.4793485,0.094332546,-0.26163602,0.7466729,-0.001050041,0.0050535863,0.0054975282,0.11037998230489171,-0.9930671935604213,-0.04042039807325898,0.9776016339566945,0.11581377796372411,-0.175733360859486,0.17919627449133227,-0.020117601939548785,0.9836076338157553,left_images/camera_left_88.png,right_images/camera_right_88.png
2025-05-30 16:54:42,5.258118152618408,89,-0.1887504,-0.096744224,0.11917847,1.2166057,-0.44897977,0.32767013,1.0471789,0.04839876,0.011451588,0.00538742,0.27886827514786716,0.9415559832872301,0.18895717888471647,-0.9601019412519868,0.26907004191936146,0.07619432357912052,0.020898505214969262,-0.20266633385328298,0.9790248258355094,0.1444337,-0.131788,0.11713219,-1.5965432,-0.27755365,-0.4010248,1.047179,-0.050621144,0.011852721,0.0054525137,0.05335245601204547,-0.9209128944397275,-0.38609967144783464,0.9589786322416364,-0.060549850587800436,0.27693627154591927,-0.2784124608228641,-0.38503656507978323,0.8799053046834748,-0.026082674,-0.18414564,0.09346884,-1.4901718,0.09150266,-0.26255864,0.7733409,-0.0010181519,0.0050622215,0.0054009724,0.0993429719041975,-0.9942039083394397,-0.041104289019820536,0.9788877710159313,0.1050614070826581,-0.17533063764577494,0.17863287964063013,-0.022818619248217473,0.9836511601817491,left_images/camera_left_89.png,right_images/camera_right_89.png
2025-05-30 16:54:42,5.323575496673584,90,-0.18768011,-0.09703108,0.119242825,1.2144171,-0.45024228,0.32835937,1.0471792,0.048485752,0.011509996,0.005261816,0.27999137183745415,0.9417574829524996,0.1862731193692556,-0.9597849227843848,0.2704768250375189,0.07520099143891544,0.020438534496214425,-0.19983776024714606,0.9796158103496754,0.14415435,-0.12896356,0.117614225,-1.6027058,-0.27803195,-0.39643,1.0471793,-0.0503165,0.011592713,0.005027895,0.048628972426641826,-0.9206997060306719,-0.3872302601240814,0.9587177286989361,-0.06572157096142223,0.27666042685703385,-0.28017055469674595,-0.3846982277388311,0.8794951585173851,-0.025093302,-0.18376741,0.093534485,-1.5005593,0.08984597,-0.2636436,0.800009,-0.00093071075,0.00506428,0.005329339,0.08905620525798097,-0.9950910036200911,-0.04316117259074946,0.9800009262484113,0.09528306976326606,-0.17469779955324147,0.1779527377066853,-0.026740066021770925,0.9836756538675983,left_images/camera_left_90.png,right_images/camera_right_90.png
2025-05-30 16:54:42,5.3809285163879395,91,-0.18649483,-0.09732081,0.119306855,1.2123355,-0.45213076,0.32880855,1.0471799,0.048594236,0.011573239,0.0051258532,0.28079785839267113,0.9421587418827624,0.18300127818127382,-0.9595610191051289,0.2716376474664429,0.07386229818265377,0.019879973239825224,-0.19634126813481434,0.98033407218723,0.14353897,-0.12570138,0.11807033,-1.608872,-0.27840844,-0.3919076,1.0471799,-0.050056282,0.011274308,0.004597594,0.044122468350024646,-0.9205866647310295,-0.38803788540051104,0.9583029594395838,-0.07076653354032864,0.2768529134035276,-0.2823271962033354,-0.384073287863247,0.8790785310959872,-0.022946503,-0.1832337,0.09358965,-1.5126617,0.0896701,-0.26548105,0.8266771,-0.0007024866,0.0050414084,0.005260898,0.07762769058408969,-0.9958163799830889,-0.04820455385082742,0.9812332852703399,0.08487215247584379,-0.1731414381703376,0.17650830442830884,-0.033859342750467133,0.983716607248424,left_images/camera_left_91.png,right_images/camera_right_91.png
2025-05-30 16:54:42,5.443044662475586,92,-0.18506996,-0.097537845,0.119384535,1.2088413,-0.45385385,0.3297638,1.0471799,0.048715983,0.011635924,0.004963734,0.2828065875006837,0.942272962000885,0.17928217744186625,-0.9589869396560604,0.2740472196455869,0.07240283816002444,0.01909145451036673,-0.19240526626525092,0.9811298231518988,0.14226459,-0.12218159,0.118512236,-1.6145364,-0.27809212,-0.38805416,1.0471804,-0.049858782,0.010917416,0.0041354178,0.04042715800182084,-0.920524804801812,-0.3885868353926595,0.9577047776932126,-0.07519050871358579,0.2777551910999804,-0.2848985849025759,-0.3833803218006608,0.8785512649678058,-0.021271834,-0.18230085,0.0936517,-1.5262742,0.089785464,-0.26817894,0.8533438,-0.0005102948,0.0049803257,0.005171058,0.0648274049465904,-0.9964645927516025,-0.05343896481289384,0.9826515759690528,0.07307029100611456,-0.17046000357215313,0.17376215874990594,-0.041461403312775674,0.9839144598093412,left_images/camera_left_92.png,right_images/camera_right_92.png
2025-05-30 16:54:42,5.501216650009155,93,-0.18341057,-0.0977734,0.11949052,1.2056489,-0.45598212,0.33142522,1.0471799,0.04885062,0.011696722,0.0047623515,0.2845788096539583,0.9425783651600277,0.17481683737039055,-0.9584591532829079,0.2760869354869362,0.0716383664082553,0.01926012939071911,-0.18794155896363576,0.9819913532359492,0.13997841,-0.11809105,0.11896845,-1.6202947,-0.27685285,-0.3845618,1.0471804,-0.04973402,0.010488185,0.0035938676,0.037151019194345825,-0.9205189566817398,-0.3889275667298254,0.9568575337445109,-0.07946513354940643,0.2794797893700856,-0.28817262515581477,-0.3825312313256742,0.8778532879537846,-0.019785756,-0.18122794,0.09371299,-1.5441464,0.0878716,-0.27105626,0.8800105,-0.0003614417,0.004913115,0.005078017,0.04739536046410642,-0.9972063398496382,-0.0577338338426039,0.984179179718708,0.05649839872598028,-0.16792639205798232,0.17071913195271482,-0.04886150535020518,0.9841074795367748,left_images/camera_left_93.png,right_images/camera_right_93.png
2025-05-30 16:54:42,5.55462908744812,94,-0.18178147,-0.0979597,0.11961041,1.2030405,-0.45776668,0.33279988,1.0471799,0.04896675,0.011749085,0.004553552,0.28600778505911545,0.9428729919001401,0.17085101120817853,-0.9580287348869369,0.27773703558338286,0.07101466184028427,0.019506153298742696,-0.18399092426158692,0.9827343739652403,0.13651994,-0.113545135,0.11946903,-1.6262802,-0.27511144,-0.38095367,1.0471804,-0.049688555,0.010006204,0.00293512,0.03373244449085866,-0.9207694519375603,-0.3886460324862151,0.9558902641084802,-0.08380497212723587,0.28151470588474287,-0.2917806113697262,-0.3809991378275786,0.8773276080252752,-0.018574076,-0.18042275,0.093763195,-1.5615019,0.08543195,-0.27385288,0.9066771,-0.00024848944,0.004864314,0.00500462,0.030302419827424043,-0.9976662778731222,-0.06118628398091363,0.9853557883780726,0.040092654240121706,-0.16573035143210688,0.16779670337175917,-0.05526822840269554,0.9842711462126672,left_images/camera_left_94.png,right_images/camera_right_94.png
2025-05-30 16:54:42,5.608415365219116,95,-0.1802701,-0.09807035,0.11973521,1.2007968,-0.45911103,0.3332153,1.0471799,0.04905793,0.01179666,0.0043496694,0.28719060070585073,0.9430759132727097,0.1677181584416485,-0.957684525225791,0.27922074468795793,0.06982926234004036,0.01902390625672319,-0.1806753927372167,0.9833587816509235,0.13240528,-0.109071046,0.119981445,-1.6323446,-0.273273,-0.37730086,1.0471804,-0.049704522,0.009529924,0.0022220993,0.029990409949256613,-0.9212173370723705,-0.38789069747593335,0.9549240725592946,-0.08825330843184676,0.283427890648758,-0.29533132403767554,-0.3789062831731929,0.8770458583301273,-0.017459583,-0.17993554,0.09380324,-1.5796188,0.08212542,-0.27667707,0.93334365,-0.00015753438,0.004839655,0.004952278,0.012248268046930577,-0.9978754881508243,-0.06398820264396507,0.9862193415069469,0.02261456198222289,-0.16389018281750894,0.16498906135697253,-0.06109903218633499,0.9844010960469511,left_images/camera_left_95.png,right_images/camera_right_95.png
2025-05-30 16:54:42,5.659490585327148,96,-0.179094,-0.0981433,0.11985286,1.1986932,-0.4606423,0.33361349,1.0471799,0.049124587,0.011838766,0.004174141,0.2882418657643032,0.9432746212558719,0.16477140442232396,-0.9573778794478899,0.28055507396230706,0.06867638908581444,0.018553241349564195,-0.17754390828354555,0.9839379746034955,0.12810117,-0.10496677,0.12048563,-1.638584,-0.27283865,-0.37217548,1.0471804,-0.04977426,0.00910347,0.0014919117,0.024759265812954456,-0.9222084322859083,-0.385899709998817,0.9543737573997786,-0.09310419873198306,0.28372934174156966,-0.2975864747313501,-0.37531748640216994,0.8778263350217541,-0.016386114,-0.17960231,0.09383556,-1.5962754,0.0787348,-0.280658,0.9600103,-7.495965e-05,0.0048110634,0.0049101077,-0.004338619778747277,-0.9977870746491377,-0.06634854965657969,0.986947020042938,0.006408850473716088,-0.16091770028175928,0.16098681935730025,-0.06618066408492518,0.9847351743969026,left_images/camera_left_96.png,right_images/camera_right_96.png
2025-05-30 16:54:42,5.716437101364136,97,-0.1781679,-0.09824018,0.11994574,1.1971165,-0.46169132,0.33397365,1.0471799,0.049174853,0.011874844,0.004036666,0.2890432220182345,0.9434076903535982,0.1625913453631736,-0.9571422794249178,0.28155625433834597,0.06785817990657489,0.018239318588973222,-0.17523699787616145,0.9843573141053811,0.12381402,-0.101407215,0.12096104,-1.6422868,-0.27320307,-0.36585844,1.0471799,-0.049889904,0.008756899,0.00077623315,0.020306498115061633,-0.9237256870108569,-0.38251601442374117,0.9546603764866196,-0.09574098984095608,0.2818815858311786,-0.2970037233785616,-0.3708969102332813,0.8799001479024062,-0.015298493,-0.17960851,0.09388495,-1.6153511,0.07588203,-0.2877547,0.9866768,2.611446e-05,0.0047931415,0.0048630564,-0.022851530227106842,-0.9972787132001807,-0.07009262275069593,0.9877885193938333,-0.011714796883519452,-0.15535959734666033,0.15411569848661805,-0.07278689258217881,0.985368164570082,left_images/camera_left_97.png,right_images/camera_right_97.png
2025-05-30 16:54:42,5.7710044384002686,98,-0.17750746,-0.098283894,0.12001439,1.1955702,-0.4631547,0.33416343,1.0471799,0.049220957,0.011905681,0.003934852,0.289704354758836,0.9435875044471955,0.16035588010696838,-0.956951356829769,0.28245106127869196,0.0668243865980458,0.017761967667772757,-0.172812092845537,0.9847946451270512,0.12100962,-0.09859127,0.12100056,-1.6444839,-0.27285355,-0.36072358,1.0471851,-0.050119482,0.008452835,0.0005215239,0.01764779878346845,-0.9245494344426268,-0.3806532522781292,0.9550592831902542,-0.09707836002327563,0.2800670591256832,-0.2958890345893471,-0.36848898937011687,0.8812863007688103,-0.014881228,-0.18036027,0.09398497,-1.6385177,0.07663396,-0.2955134,1.0133425,0.00014065072,0.0048633884,0.004806415,-0.04418551469080817,-0.9959703174613951,-0.07804336632511577,0.988115840079648,-0.03205724762698431,-0.1503310329182687,0.14722339105997984,-0.08375834054248002,0.9855505129187292,left_images/camera_left_98.png,right_images/camera_right_98.png
