jiaqis7/OS_Teleop_Extension/rollout_10/teleop_log.csv
Epoch Time (Seconds),Time (Seconds),Frame Number,PSM1_joint_1,PSM1_joint_2,PSM1_joint_3,PSM1_joint_4,PSM1_joint_5,PSM1_joint_6,PSM1_jaw_angle,PSM1_ee_x,PSM1_ee_y,PSM1_ee_z,"PSM1_Orientation_Matrix_[1,1]","PSM1_Orientation_Matrix_[1,2]","PSM1_Orientation_Matrix_[1,3]","PSM1_Orientation_Matrix_[2,1]","PSM1_Orientation_Matrix_[2,2]","PSM1_Orientation_Matrix_[2,3]","PSM1_Orientation_Matrix_[3,1]","PSM1_Orientation_Matrix_[3,2]","PSM1_Orientation_Matrix_[3,3]",PSM2_joint_1,PSM2_joint_2,PSM2_joint_3,PSM2_joint_4,PSM2_joint_5,PSM2_joint_6,PSM2_jaw_angle,PSM2_ee_x,PSM2_ee_y,PSM2_ee_z,"PSM2_Orientation_Matrix_[1,1]","PSM2_Orientation_Matrix_[1,2]","PSM2_Orientation_Matrix_[1,3]","PSM2_Orientation_Matrix_[2,1]","PSM2_Orientation_Matrix_[2,2]","PSM2_Orientation_Matrix_[2,3]","PSM2_Orientation_Matrix_[3,1]","PSM2_Orientation_Matrix_[3,2]","PSM2_Orientation_Matrix_[3,3]",Camera Left,Camera Right
2025-06-02 14:24:21,0.0017774105072021484,1,-0.08378649,0.08792835,0.11413675,0.1741298,-0.29856136,0.2449986,0.0037188972,0.036452994,-0.0053339144,0.0030993568,0.918100775658067,0.25603608944529876,0.30254997378551257,-0.21706648623478125,0.9635013661221369,-0.1566756459519515,-0.33162193276341195,0.07817057235516899,0.9401682058695264,0.028245445,-0.028005993,0.109013125,-0.17124352,0.06846971,0.009250196,0.2740184,-0.04113513,0.001904375,0.0049984884,0.8315240569137671,-0.12332520577979546,-0.5416259192404302,0.17069843821232492,0.9845950810851264,0.03787571114640906,0.5286111860011506,-0.12394926350061233,0.8397659162600686,left_images/camera_left_1.png,right_images/camera_right_1.png
2025-06-02 14:24:21,0.048859357833862305,2,-0.0923097,0.09215718,0.11406297,0.18635479,-0.30401757,0.26363724,0.0063757165,0.035920914,-0.005800246,0.003642532,0.9191581205993389,0.2666682180963433,0.28989034270498315,-0.23156969240463715,0.961191652978207,-0.14995360550731682,-0.31862803846477983,0.07070125672393218,0.9452393905258835,0.027573075,-0.02931377,0.10907303,-0.20579886,0.08578929,0.011893467,0.28798407,-0.041065678,0.0017566533,0.004992443,0.8242389625263191,-0.14353348991482703,-0.5477483636912188,0.2048964145970725,0.9773904387585877,0.052205263226618184,0.5278708098946201,-0.15526128782206516,0.8350127786836751,left_images/camera_left_2.png,right_images/camera_right_2.png
2025-06-02 14:24:21,0.10058760643005371,3,-0.10671043,0.09741046,0.11360694,0.18905316,-0.313552,0.28397545,0.0069963913,0.03505753,-0.006251805,0.004911256,0.9200352700193136,0.2718035900638909,0.28223732982876154,-0.23810111613152918,0.9598639819539259,-0.14821941385821752,-0.31119601606930775,0.06916606520493888,0.9478254559815628,0.026721967,-0.031014098,0.10946826,-0.24255793,0.106035575,0.017220372,0.30767947,-0.040790938,0.0016270606,0.0047314907,0.8139313870829977,-0.16386810453439,-0.5573714573221826,0.24127235789726564,0.9680924508550688,0.06771008722576127,0.5284915765041494,-0.18958969094793277,0.8274976753142128,left_images/camera_left_3.png,right_images/camera_right_3.png
2025-06-02 14:24:21,0.1585237979888916,4,-0.12705885,0.10326135,0.112585194,0.1875539,-0.3241238,0.30072927,0.0066107917,0.033963352,-0.0066686096,0.00705776,0.9186686442790148,0.27438018098737266,0.28418908898811307,-0.24038626247811282,0.9591739543558258,-0.14899587275227583,-0.313468286801649,0.06856268348558951,0.9471202624814307,0.026458189,-0.032012433,0.109984495,-0.28391588,0.12694585,0.023510465,0.3338628,-0.040361773,0.0014312082,0.004432726,0.8004071168405851,-0.18661587882975328,-0.5696691680963091,0.2820047244920824,0.9558057581723205,0.0831185178451854,0.528981835864982,-0.22717805002516098,0.8176602906535689,left_images/camera_left_4.png,right_images/camera_right_4.png
2025-06-02 14:24:21,0.21269750595092773,5,-0.14969866,0.108401276,0.1114607,0.17742373,-0.33085552,0.31553352,0.0034907893,0.03271113,-0.007010599,0.009470152,0.9174861442240898,0.26908366946958595,0.2929388229333814,-0.23368746425120046,0.9605992619423526,-0.150463374306345,-0.3218840539831948,0.06959193042724116,0.9442179933737513,0.026978783,-0.03284884,0.110499114,-0.33433342,0.15099575,0.030350909,0.35043472,-0.039804354,0.001193763,0.0042338907,0.7818847545104689,-0.21380249599318402,-0.5856148250951202,0.3311354719335754,0.9383176766122171,0.0995451504814719,0.5282097404359672,-0.2717506770260842,0.8044538766420564,left_images/camera_left_5.png,right_images/camera_right_5.png
2025-06-02 14:24:21,0.26412177085876465,6,-0.16758949,0.111892626,0.11084788,0.17085929,-0.33484584,0.32615712,0.0066835564,0.031587668,-0.007264292,0.011168708,0.9159252367467698,0.26566969859028505,0.3008331297269647,-0.22937935448313718,0.9615825919490765,-0.1508112416147926,-0.32934187773083606,0.06912691307619019,0.9416769071508997,0.026644388,-0.033628732,0.11098644,-0.3729389,0.17126802,0.0364165,0.36162814,-0.03936849,0.0010217937,0.003992153,0.7659947037040558,-0.23303394295622132,-0.5991221038549763,0.3684746939169132,0.9228475131234947,0.11215555030679121,0.5267622934874645,-0.30667189136283524,0.7927634181821008,left_images/camera_left_6.png,right_images/camera_right_6.png
2025-06-02 14:24:21,0.3195645809173584,7,-0.1866773,0.11520546,0.11077733,0.17478564,-0.3375531,0.33240384,0.007795438,0.0300493,-0.0076095895,0.012533405,0.9111754806450618,0.26928358633797034,0.3118422575601344,-0.23361194603889157,0.9611013972532194,-0.1473416535329746,-0.33938871834396966,0.061404025331162064,0.938639890231588,0.026342107,-0.034595687,0.11131627,-0.43203127,0.20296657,0.039642632,0.36683404,-0.038909193,0.00072295975,0.0039992617,0.742686949272375,-0.2603703562873485,-0.6169468153311856,0.42404425252801903,0.8959162976447368,0.1323648726532115,0.5182688175825808,-0.35991841461829444,0.7757938950134934,left_images/camera_left_7.png,right_images/camera_right_7.png
2025-06-02 14:24:21,0.3738062381744385,8,-0.2059912,0.11753841,0.11079305,0.16871579,-0.33641118,0.3385135,0.0042714775,0.028394932,-0.007880969,0.013900394,0.9077015582299869,0.263945905732239,0.3262061312024068,-0.2278537670723215,0.9628325211041385,-0.14503860567173532,-0.35236421784540795,0.05732447253518242,0.9341056486451397,0.027142545,-0.03585623,0.11159148,-0.48868832,0.23157778,0.044332173,0.37875116,-0.038352672,0.0005515185,0.004143151,0.7159580405879563,-0.28538129459863115,-0.6371511600952036,0.4761343857768967,0.8670547400922195,0.14667012089880876,0.5105880245347629,-0.40837922863047665,0.75665466021486,left_images/camera_left_8.png,right_images/camera_right_8.png
2025-06-02 14:24:21,0.42419981956481934,9,-0.22729255,0.11696007,0.11055208,0.15327781,-0.32996356,0.334815,0.0022394191,0.026612224,-0.007830866,0.015673712,0.9009421020130356,0.250726814966693,0.3541742411257354,-0.21143892051741475,0.9663846475498745,-0.14626789077010377,-0.37894183156622235,0.05689268174873035,0.9236700228180378,0.028146714,-0.03761775,0.11166606,-0.5496476,0.26119933,0.049385983,0.37070698,-0.0378347,0.0004740822,0.00452459,0.6840391957163323,-0.3106623198070545,-0.6599843193408862,0.5304497697280351,0.8329149041470204,0.1577206525640653,0.5007129122753157,-0.45797563854626533,0.734537197137703,left_images/camera_left_9.png,right_images/camera_right_9.png
2025-06-02 14:24:21,0.4790158271789551,10,-0.24542324,0.11669479,0.110536024,0.15095453,-0.32276222,0.33073908,0.0014226995,0.025029887,-0.007906893,0.01704432,0.8931855085270837,0.24565984366307836,0.37665752158777716,-0.20654674614264507,0.9681317035649836,-0.14163137438522827,-0.39944722932460136,0.04870570565955142,0.9154614493364014,0.029490491,-0.039044064,0.1117642,-0.6114034,0.29321718,0.052653998,0.38000968,-0.03724272,0.00037291273,0.0049596564,0.6498095642447255,-0.3318416602371972,-0.6838337829817277,0.5832646759805868,0.7945788388793019,0.16866175191335347,0.48739085749462013,-0.5084541093709845,0.7098764474853478,left_images/camera_left_10.png,right_images/camera_right_10.png
2025-06-02 14:24:21,0.5265886783599854,11,-0.26298237,0.11532786,0.110646434,0.1549279,-0.30998594,0.32326487,0.003267977,0.023397634,-0.007989394,0.01829562,0.8834872968251148,0.24166327733489756,0.40130917848512754,-0.2056371801336862,0.9697831652533242,-0.1312781875937873,-0.42090800241301835,0.033458523263887666,0.9064860620691763,0.031005137,-0.03979122,0.11174025,-0.6739209,0.32479066,0.053601358,0.39288813,-0.03669086,0.00024693448,0.0055344673,0.614090610272372,-0.3502668797979952,-0.7072523137409183,0.6339930397116117,0.7526367759502954,0.1777377536832713,0.4700484527924076,-0.557540129859476,0.6842539408901802,left_images/camera_left_11.png,right_images/camera_right_11.png
2025-06-02 14:24:22,0.5828254222869873,12,-0.2761799,0.114435665,0.11100566,0.16465874,-0.29984683,0.31576753,0.0022852586,0.02199555,-0.00812838,0.019055001,0.8744522209840331,0.24240905254078043,0.4202037178112217,-0.2108093092735398,0.9700228544698706,-0.12089291513458197,-0.4369127468267603,0.01713222263471236,0.8993407244242251,0.032423433,-0.04066774,0.11177869,-0.72785795,0.35287255,0.05588236,0.40628836,-0.036146343,0.00021684275,0.0060321074,0.5799434921944449,-0.3628961007771613,-0.7293640832273304,0.6759524318547719,0.7140700574708726,0.18218743890061287,0.45470194163972033,-0.5986738453150238,0.6594207846320823,left_images/camera_left_12.png,right_images/camera_right_12.png
2025-06-02 14:24:22,0.6313011646270752,13,-0.2874461,0.114622146,0.11131283,0.18450093,-0.2928355,0.30332217,0.00087244355,0.020807121,-0.008354239,0.01971979,0.8626800130854466,0.2508442878807884,0.43915867093850475,-0.22542798094447777,0.9680191001426609,-0.11009653566888108,-0.4527310685497406,-0.004020571672434768,0.8916380513264545,0.033089954,-0.041608013,0.11176651,-0.762309,0.37189966,0.05969564,0.4129234,-0.0358163,0.00026774034,0.0064014657,0.5553088250676854,-0.3690843508053855,-0.7452575734553215,0.7021203109768294,0.6883339536587816,0.18227297428382183,0.44571198964774017,-0.6244782704234291,0.641379538224611,left_images/camera_left_13.png,right_images/camera_right_13.png
2025-06-02 14:24:22,0.6827564239501953,14,-0.29512024,0.113964155,0.11183087,0.22502819,-0.27829778,0.278401,4.4555404e-07,0.019682702,-0.008682359,0.019969152,0.8443368003869595,0.2680435555890897,0.46394829433835644,-0.2562182307076358,0.9624427746740223,-0.08975591195468771,-0.4705821774837636,-0.04308779159956447,0.8813034984894318,0.03430812,-0.042811807,0.11153625,-0.79272676,0.3888838,0.06150399,0.41848415,-0.035587765,0.0003529688,0.0069588874,0.5336154288659805,-0.37318822416982583,-0.7589368375676249,0.7241802471107557,0.6651287505645267,0.18211731072876167,0.4368266747472966,-0.6467876734396253,0.6251785038817123,left_images/camera_left_14.png,right_images/camera_right_14.png
2025-06-02 14:24:22,0.7357845306396484,15,-0.30339745,0.11173615,0.11219916,0.2609058,-0.26081085,0.26251996,0.00066606904,0.018638827,-0.0088614505,0.020368721,0.8290925026175079,0.28071785336409527,0.4835319109491039,-0.28385796351395787,0.9564140609721433,-0.06853320745800472,-0.4816952134422205,-0.08043401505226307,0.87263972552791,0.03663186,-0.043315157,0.11165586,-0.82917076,0.40921566,0.06250655,0.43993342,-0.03502939,0.0003814462,0.0073533426,0.5077565303371807,-0.3759680509330593,-0.7751331050713446,0.7495326058121267,0.6363627849572238,0.18232739439253104,0.42471658635427806,-0.6735654612575401,0.6049176726435477,left_images/camera_left_15.png,right_images/camera_right_15.png
2025-06-02 14:24:22,0.7914643287658691,16,-0.31020525,0.10959759,0.11290985,0.31325015,-0.2415393,0.24051623,0.0020426598,0.017435968,-0.009146661,0.020445641,0.8079281129044532,0.3023058772438479,0.5058293397604339,-0.3260683243790273,0.944341511083408,-0.0435724486500219,-0.4908478503724982,-0.12973151902499597,0.8615324258297912,0.036934502,-0.043382246,0.11152334,-0.84661317,0.42563757,0.06692653,0.4387312,-0.034873642,0.00032812578,0.0077542155,0.4922761927846031,-0.37227877424567063,-0.7868117082654763,0.7622965432551467,0.6207497885050192,0.18323122062636582,0.42020010728074586,-0.6899842130926725,0.5893671652918363,left_images/camera_left_16.png,right_images/camera_right_16.png
2025-06-02 14:24:22,0.8433825969696045,17,-0.31646317,0.10785308,0.1133441,0.3440193,-0.22881836,0.23056129,0.0022011073,0.016537579,-0.009283457,0.020676637,0.794929354449596,0.31363845077649494,0.5193440513078673,-0.3509971778091851,0.9359581978376198,-0.027986301480229292,-0.49486190255902285,-0.1600411637519396,0.8541068570738611,0.03856445,-0.043877136,0.111571014,-0.87456536,0.44353482,0.06876451,0.45977587,-0.034463838,0.0003741862,0.008132475,0.4707402817981325,-0.37125614976127835,-0.8003577065019403,0.7808844469749423,0.5975412428301372,0.18210970207447363,0.41063739182550507,-0.7107132574966125,0.5711948862282473,left_images/camera_left_17.png,right_images/camera_right_17.png
2025-06-02 14:24:22,0.9008033275604248,18,-0.32051468,0.106129006,0.113889284,0.38429907,-0.21339728,0.21123508,2.0436504e-07,0.015659606,-0.009470551,0.020703916,0.7756502318123655,0.329057782470535,0.5385978961015329,-0.38374009631611455,0.9233695306865172,-0.011499925176281511,-0.5011090264291022,-0.19776168889685125,0.8424844556642824,0.039433017,-0.04506522,0.11153065,-0.8978773,0.46042925,0.071367644,0.45846185,-0.034193408,0.00049727573,0.008519921,0.45139638401934595,-0.368788056898924,-0.8125494899284441,0.7960729270439534,0.577815265095289,0.179992817219279,0.40312429760798485,-0.7280967576576456,0.5544059092095719,left_images/camera_left_18.png,right_images/camera_right_18.png
2025-06-02 14:24:22,0.9538102149963379,19,-0.32583517,0.10461362,0.114557154,0.42159855,-0.20340781,0.19782983,0.0014299187,0.0146490615,-0.009601072,0.020739507,0.7580513274712001,0.34542341347531547,0.5532095898863401,-0.4149720959104549,0.9098339852164391,0.0005281674512808698,-0.5031464444223326,-0.22996692103046829,0.8330419381381293,0.041391198,-0.04576597,0.11132735,-0.9307297,0.48297903,0.072366446,0.48364133,-0.03384659,0.00057100866,0.009220457,0.4259544855931553,-0.36433923789783795,-0.8281423162301832,0.8162234523667783,0.5496263707359732,0.17801721376894925,0.39031019972520287,-0.7517764111221001,0.5314980486049287,left_images/camera_left_19.png,right_images/camera_right_19.png
2025-06-02 14:24:22,1.004655361175537,20,-0.3300756,0.10250835,0.11511008,0.45114845,-0.18835251,0.18661569,0.0024305296,0.013764927,-0.009707336,0.020799091,0.7432341612316797,0.35362850080051955,0.5679347365673441,-0.4386304704836471,0.8985500440307789,0.014530269632040474,-0.50517946508299,-0.2599128734669801,0.8229453239824635,0.044642787,-0.04553306,0.11135712,-0.967198,0.50189126,0.0718504,0.50939107,-0.033279844,0.00062823924,0.009773634,0.39870587013102016,-0.36174486559909735,-0.8427183879183822,0.8370409716361475,0.5189902812798002,0.1732382744647611,0.37469459687254636,-0.7744609351993197,0.5097197454726617,left_images/camera_left_20.png,right_images/camera_right_20.png
2025-06-02 14:24:22,1.0518701076507568,21,-0.33420238,0.10196456,0.11555023,0.48465687,-0.17671762,0.17734128,0.00075448334,0.013019913,-0.009938759,0.020918924,0.7282449474442784,0.3651649757357512,0.579925716810169,-0.4658376312319175,0.8844246390968095,0.02807773293402341,-0.5026475881272248,-0.2905986893542134,0.8141853621230839,0.045232203,-0.045371532,0.11128412,-0.98706174,0.51646805,0.07286337,0.51098776,-0.033095118,0.0006326797,0.010140546,0.3829001746392378,-0.35715647917988025,-0.8519546382531602,0.8482610556148795,0.5011618993608367,0.1711430166736848,0.36584236740483145,-0.7882106317532583,0.4948569108366154,left_images/camera_left_21.png,right_images/camera_right_21.png
2025-06-02 14:24:22,1.1010236740112305,22,-0.33619565,0.10010143,0.116324194,0.51668394,-0.16443434,0.16676238,8.2180065e-08,0.012158748,-0.010038673,0.020654336,0.7128057670955049,0.37643172903478,0.5917829769191362,-0.49184973914825986,0.869799081810353,0.03915854161808824,-0.4999917724274846,-0.31898073712648045,0.8051456494616795,0.04703561,-0.0457956,0.1114949,-1.0170063,0.53250045,0.07095652,0.51706266,-0.03261701,0.00077336666,0.0103934575,0.3612342642227506,-0.3537658478669392,-0.8627627317139015,0.8636208984552272,0.4758637334412589,0.16647117151847246,0.35166567944972127,-0.8052350166742205,0.47741786499756556,left_images/camera_left_22.png,right_images/camera_right_22.png
2025-06-02 14:24:22,1.1523056030273438,23,-0.33863282,0.09919427,0.117264085,0.5694179,-0.13913648,0.15413815,6.203445e-08,0.011054719,-0.010502288,0.020417046,0.6902895308304391,0.3894488076274538,0.6097786400518197,-0.5329182055472227,0.843710515126557,0.0644263367048587,-0.4893858905017801,-0.36943496437456236,0.7899488953567474,0.048880413,-0.04692447,0.11190043,-1.03613,0.55202293,0.07946226,0.5437238,-0.032015145,0.0009816741,0.010548366,0.33787625511972863,-0.3429142364650274,-0.8764984099562733,0.8747969243374808,0.4579885564552906,0.15804057493467577,0.34723187842701286,-0.8201562708323373,0.45472377771394557,left_images/camera_left_23.png,right_images/camera_right_23.png
2025-06-02 14:24:22,1.2138938903808594,24,-0.33926916,0.098738275,0.11804906,0.59240985,-0.12749788,0.1458656,4.1775603e-08,0.010293959,-0.010718966,0.020062707,0.6784328445665229,0.3945596458254695,0.6197189373413212,-0.5507870298408827,0.8313904852792302,0.07364447532724278,-0.4861712899508104,-0.3912959837172448,0.7813609472928109,0.049220413,-0.047584645,0.1120598,-1.0591851,0.5666505,0.07830939,0.53960717,-0.031734183,0.0011361705,0.010717823,0.32066005797133335,-0.3381027884135426,-0.8847958135574606,0.8856974059417455,0.4381294782558484,0.15356648524766414,0.33573387128778676,-0.832903994917929,0.43994738653601584,left_images/camera_left_24.png,right_images/camera_right_24.png
2025-06-02 14:24:22,1.260648250579834,25,-0.34105557,0.097568326,0.11871073,0.6194389,-0.120442666,0.14195593,0.0010528251,0.009588867,-0.010792745,0.019838734,0.6665102981862318,0.40500166350640754,0.6258895069968365,-0.5720974733549185,0.8161661099536137,0.08110093676465163,-0.4779837898847813,-0.41212441509843645,0.7756835457112345,0.050880637,-0.04908469,0.1123691,-1.0758253,0.5812007,0.080536135,0.56481683,-0.03126935,0.001373871,0.01084842,0.3043308538576678,-0.3298643542974668,-0.8936286919935921,0.8937296837822857,0.4234721219590379,0.14804936423343829,0.3295906305049923,-0.8437184777444577,0.42368519751803524,left_images/camera_left_25.png,right_images/camera_right_25.png
2025-06-02 14:24:22,1.3135037422180176,26,-0.34343165,0.09682599,0.11945162,0.6484757,-0.099730685,0.1370727,3.1906865e-08,0.00866738,-0.01111898,0.019740634,0.6535617371603406,0.40589807834430347,0.6388300288154585,-0.5931529181747989,0.7989558042645988,0.09919293569921411,-0.4701347374749903,-0.44375260317919246,0.762926573000975,0.051799983,-0.049904235,0.11268954,-1.0844067,0.59471333,0.08863798,0.58528996,-0.030883508,0.0015253557,0.010902021,0.2893966657854157,-0.3201747085315393,-0.9020741243650813,0.8989561084532877,0.4146487555479684,0.1412243767805043,0.32882743940675796,-0.8517949081435419,0.4078209773343322,left_images/camera_left_26.png,right_images/camera_right_26.png
2025-06-02 14:24:22,1.3617255687713623,27,-0.34306905,0.09706853,0.119884096,0.67687994,-0.08732684,0.12879263,2.3757293e-08,0.008242827,-0.011380661,0.019560983,0.6394199276232702,0.412648836852268,0.6487396192639402,-0.6145423977457236,0.7813576862659611,0.10870973960984551,-0.46203874029261727,-0.46818917496838164,0.7532058808262434,0.05226204,-0.050995845,0.11299611,-1.0958548,0.60267246,0.08885065,0.57037425,-0.030593533,0.0017145752,0.010834045,0.27946082571069497,-0.3164921056667353,-0.9064956668091321,0.9039043714410584,0.40512780079522737,0.13721644330242555,0.32381867485190197,-0.8577320164675322,0.3992959475673396,left_images/camera_left_27.png,right_images/camera_right_27.png
2025-06-02 14:24:22,1.4182007312774658,28,-0.3440815,0.09684115,0.120346256,0.70418966,-0.07695126,0.12695539,0.00018190674,0.0077294135,-0.011584989,0.019448604,0.6284288780188403,0.4196024808268164,0.6549892391146307,-0.634374424329974,0.7637537782202789,0.11937024759236795,-0.45016245404075594,-0.4905241322689745,0.7461500121515605,0.053030472,-0.051453114,0.11312037,-1.1038464,0.610652,0.09378707,0.5970378,-0.03037493,0.001832901,0.010945847,0.26807584367017134,-0.311240688723702,-0.911737119856004,0.9080399911022352,0.3978104233426446,0.13118781055798734,0.32186754511689797,-0.8630620491961986,0.38926235707769136,left_images/camera_left_28.png,right_images/camera_right_28.png
2025-06-02 14:24:22,1.4684276580810547,29,-0.34326094,0.09686554,0.12075964,0.72748965,-0.068374775,0.12579998,7.412853e-09,0.007415476,-0.011780442,0.019188665,0.6198650970680565,0.4261989308777946,0.6588791488242995,-0.6509147720631626,0.7482159667581915,0.12838546100733383,-0.43826615309280914,-0.5084558372235778,0.7412121428083195,0.05486163,-0.0519413,0.11350117,-1.1213088,0.62173057,0.09352571,0.5993849,-0.029890072,0.0019984283,0.010976247,0.2535668729597327,-0.3048550722928885,-0.9180235431810672,0.9151853314763787,0.3829591985933643,0.12561075297600616,0.31327248520719764,-0.8720124065115278,0.37610465684710725,left_images/camera_left_29.png,right_images/camera_right_29.png
2025-06-02 14:24:22,1.5164852142333984,30,-0.34120172,0.096330546,0.12133292,0.77207917,-0.048354458,0.11755141,2.0222934e-08,0.0069432175,-0.012056562,0.018853374,0.5987115963954882,0.4362108075235246,0.6717622762117865,-0.682375048442852,0.716955981354575,0.1426128117053791,-0.4194147322212007,-0.543777759934675,0.726909231057252,0.056276675,-0.052435517,0.113913305,-1.1186814,0.6272393,0.10387795,0.5970975,-0.029492592,0.0020990595,0.010844466,0.24523459229318106,-0.29809187889891164,-0.9224972772194582,0.9155966108934243,0.383986306584261,0.1193204193600298,0.3186578743154996,-0.8738968749745558,0.3670986393960522,left_images/camera_left_30.png,right_images/camera_right_30.png
2025-06-02 14:24:22,1.5647058486938477,31,-0.3400196,0.09631107,0.121976614,0.8198613,-0.040962797,0.11438092,4.891408e-09,0.00647249,-0.012254032,0.018425878,0.5777177866546788,0.45559403339763604,0.6772564032294514,-0.7151165297166897,0.6825289892929238,0.15087255449795697,-0.3935104927556293,-0.5714790070573493,0.7201119611449098,0.058187462,-0.052902494,0.11429663,-1.1186581,0.63249904,0.112410754,0.620559,-0.029065132,0.0022074915,0.010770174,0.23634879105221623,-0.2918126595092934,-0.9268142320434387,0.9167338027051917,0.38314176131482314,0.11314382755702512,0.32208443605029197,-0.8763833422005967,0.35806962111784507,left_images/camera_left_31.png,right_images/camera_right_31.png
2025-06-02 14:24:23,1.6201221942901611,32,-0.34053114,0.09682829,0.12247707,0.8445202,-0.032347023,0.113544196,1.923341e-09,0.005977064,-0.012496918,0.018257242,0.5670805672204995,0.46075996487706006,0.6827297306016242,-0.7308328916183536,0.6637601998790976,0.15907759611339242,-0.37987223484960286,-0.5891711566454608,0.7131440481189038,0.06032472,-0.052029412,0.114617825,-1.1344676,0.6435047,0.113086514,0.63974214,-0.028592404,0.0022178045,0.010872455,0.22273864988661984,-0.2840917982010162,-0.9325659998314323,0.9231824263699653,0.3688368148707797,0.10813700401639476,0.3132438371115215,-0.8850148327519101,0.34442276974781927,left_images/camera_left_32.png,right_images/camera_right_32.png
2025-06-02 14:24:23,1.669299840927124,33,-0.33684894,0.09523801,0.12298428,0.9283066,-0.009005493,0.11075923,1.5553066e-08,0.0056381496,-0.012676697,0.017881904,0.5285755960541102,0.4855255515972198,0.6963280677972541,-0.7821776861134052,0.5973077821065204,0.17726105263500108,-0.32985740343718395,-0.6383481433991993,0.6954895694519608,0.06322406,-0.052370124,0.11527255,-1.1199025,0.6417839,0.12796888,0.62424093,-0.02799137,0.0022788048,0.0105159385,0.21921141823633822,-0.27928332331752403,-0.9348514210458966,0.9193687269712276,0.37992193992087075,0.10208067120697356,0.32666113632037275,-0.8818504095840072,0.3400475806918809,left_images/camera_left_33.png,right_images/camera_right_33.png
2025-06-02 14:24:23,1.7268314361572266,34,-0.33300325,0.09617006,0.12334754,0.96452326,-0.0027815006,0.11309693,3.5801904e-08,0.0056287646,-0.012936959,0.017380495,0.5147552361136689,0.49888798196545564,0.6972358484358047,-0.8020955879720522,0.5674409755613385,0.1861542559539384,-0.3027700689456093,-0.6550736757834432,0.69224906258242,0.064802505,-0.051945914,0.116053924,-1.1251338,0.65034986,0.13345206,0.63138473,-0.027348101,0.0023133655,0.01014862,0.20937602154221624,-0.27147622765749424,-0.9393946664847581,0.9222767334395152,0.3740399343991452,0.09746668369663963,0.32491123181461584,-0.8867890308813815,0.3286912018128405,left_images/camera_left_34.png,right_images/camera_right_34.png
2025-06-02 14:24:23,1.7757000923156738,35,-0.3297841,0.09588722,0.123448245,1.0176288,0.013252543,0.11982944,4.002272e-08,0.0056682895,-0.013149365,0.017227653,0.49430209696379634,0.5113673188376697,0.7029714803332827,-0.828609785931036,0.5216574070721766,0.2031732568672766,-0.26281411605261334,-0.6829180147510436,0.6815803148066828,0.067921124,-0.052119814,0.11672611,-1.1157264,0.64637804,0.14235513,0.63528347,-0.026722219,0.0023734625,0.009758182,0.20738891301525803,-0.2698194613612637,-0.9403123401450537,0.9195435910241914,0.381761121962932,0.09326322943120774,0.3338104596394254,-0.8839999457173744,0.3272837805437274,left_images/camera_left_35.png,right_images/camera_right_35.png
2025-06-02 14:24:23,1.8289425373077393,36,-0.32696295,0.095830545,0.12395739,1.0610105,0.026210876,0.12015832,6.2798797e-09,0.005367314,-0.0133235715,0.016828805,0.47316976575557823,0.520666002835168,0.7106456826481534,-0.8495878605223877,0.48307705014808344,0.21174756403136713,-0.2330468622998453,-0.7039484903825526,0.6709289700559382,0.07103485,-0.0513141,0.11708815,-1.1266192,0.6479676,0.14363948,0.63603425,-0.026198374,0.0024131723,0.009742426,0.19700339615799012,-0.26836000515709296,-0.9429594739617939,0.9237128695209329,0.37312379288239206,0.08679383541739505,0.32854862133879364,-0.8881224818780025,0.3213942448134925,left_images/camera_left_36.png,right_images/camera_right_36.png
2025-06-02 14:24:23,1.8786342144012451,37,-0.32343948,0.09457337,0.12421392,1.1222351,0.038065635,0.12971486,3.1107493e-08,0.0053301356,-0.013366047,0.016512211,0.4471623112561561,0.5370647684405605,0.7152672940180753,-0.8751777860371097,0.42782524267766653,0.2258968892104954,-0.18468814314740317,-0.7269986218884343,0.661334479331814,0.0739784,-0.050918307,0.11765309,-1.1010436,0.64621484,0.15935138,0.6296284,-0.025662888,0.0022739805,0.009450537,0.20133964470636145,-0.2603272055025713,-0.9442944951363099,0.915990739412377,0.39157406743765,0.08735396396902567,0.3470206229898783,-0.8825528288921616,0.3172966930715793,left_images/camera_left_37.png,right_images/camera_right_37.png
2025-06-02 14:24:23,1.9337804317474365,38,-0.3209641,0.09326522,0.124398336,1.1580745,0.04761831,0.13667397,2.4241338e-08,0.005285581,-0.01333992,0.016300296,0.4321083276667894,0.5441290920670805,0.7191703027289609,-0.8882816303840866,0.3944754665368556,0.23525486482264119,-0.15568602468815101,-0.7404813552458864,0.6537960111915763,0.076836295,-0.050758094,0.11842725,-1.095885,0.6488233,0.16747373,0.6300905,-0.02495414,0.0022908433,0.009080971,0.19661911643065155,-0.25397883411775507,-0.9470140837781746,0.9150199774556553,0.3945303912815331,0.08416775636959872,0.352249008389068,-0.8830857954782344,0.3099679240074561,left_images/camera_left_38.png,right_images/camera_right_38.png
2025-06-02 14:24:23,1.9877007007598877,39,-0.31960395,0.092644125,0.12461057,1.1880127,0.054893963,0.15178038,5.8166258e-08,0.0051902845,-0.013446673,0.016140195,0.4260380119292882,0.5493009675551606,0.7188602502811687,-0.8959799597541349,0.36626640877609407,0.25113508221919567,-0.1253456186323188,-0.7510774692701333,0.6482060714344271,0.07936734,-0.050154157,0.119299114,-1.0963807,0.6561817,0.1736029,0.6312725,-0.024183895,0.0022682946,0.00869322,0.18953021412856358,-0.2451028022689722,-0.9507906784630769,0.9163062973644905,0.3920804699400599,0.0815823173350676,0.35279040143200996,-0.8866778002247936,0.2989003366441101,left_images/camera_left_39.png,right_images/camera_right_39.png
2025-06-02 14:24:23,2.0401809215545654,40,-0.3167704,0.09158461,0.12482699,1.2282265,0.057791203,0.16425419,3.4526206e-08,0.0052285464,-0.013437829,0.015797175,0.4111913757246468,0.5615311813575663,0.7180559761556533,-0.907233842665782,0.32866015501238666,0.26250572799295857,-0.08859123687787357,-0.759384773925847,0.6445823127251,0.08231017,-0.05022836,0.1195675,-1.0754572,0.6536686,0.1827579,0.6217234,-0.023815334,0.0021650589,0.008633185,0.19590635320654715,-0.23883976124476491,-0.9510921454947756,0.9092866584296965,0.4073999998526463,0.08498831050103522,0.3671763521457614,-0.8814651488111187,0.2969860566698786,left_images/camera_left_40.png,right_images/camera_right_40.png
2025-06-02 14:24:23,2.089055299758911,41,-0.31739286,0.091781944,0.124968216,1.2519783,0.060751256,0.17649508,5.0384692e-08,0.005059394,-0.013584451,0.015828455,0.40617196360010366,0.5653733811916856,0.7178978171196213,-0.9115294919699736,0.3059848138083191,0.2747494840534742,-0.06432978512476223,-0.7659805699615164,0.6396369635873405,0.0839539,-0.048793267,0.11986996,-1.0804471,0.65804476,0.18352251,0.6103987,-0.023456834,0.0020366614,0.008594013,0.1913167669055058,-0.2345526397955982,-0.9530912620865541,0.9117767467308462,0.40198371585890036,0.08409670805201236,0.36340206221448285,-0.8850955605747819,0.2907658677167487,left_images/camera_left_41.png,right_images/camera_right_41.png
2025-06-02 14:24:23,2.1497721672058105,42,-0.31617436,0.09122267,0.12505688,1.2816558,0.060034025,0.19150497,5.6958292e-08,0.0051144524,-0.0136291385,0.0156743,0.3986382438412215,0.5748268213011898,0.7146059585953346,-0.9165044032696394,0.2779659053376028,0.28767105217106737,-0.033275055740734305,-0.7696161906967766,0.6376391531915477,0.08676956,-0.04893556,0.120313495,-1.076065,0.6614887,0.19102004,0.6142535,-0.022930536,0.0020670295,0.008517086,0.18625840641981267,-0.2277264299428623,-0.9557449864600026,0.9110343910166652,0.4042512239180386,0.0812236809413488,0.3678643016423938,-0.8858451450825062,0.2827617981816275,left_images/camera_left_42.png,right_images/camera_right_42.png
2025-06-02 14:24:23,2.2049472332000732,43,-0.31617633,0.090401374,0.12497838,1.3062954,0.06576087,0.20128182,3.070564e-08,0.005105001,-0.013614299,0.01583476,0.39072604305515896,0.5766081616111938,0.7175347986277858,-0.9204438680408462,0.253865205046378,0.2972129597658312,-0.01078170044395671,-0.7765793492168843,0.6299271936544866,0.09040177,-0.047979027,0.120734304,-1.0744951,0.6582776,0.19516271,0.5900088,-0.02236576,0.0020151495,0.008410764,0.18279450270342468,-0.22673421182469466,-0.956649239256292,0.9107324534673809,0.4055847248397721,0.0778937043536338,0.37034115080921354,-0.8854900497266363,0.28063286310128854,left_images/camera_left_43.png,right_images/camera_right_43.png
2025-06-02 14:24:23,2.2558977603912354,44,-0.3166862,0.09048765,0.1251033,1.3294922,0.071004406,0.21507646,5.697421e-08,0.0049304925,-0.013761027,0.01591212,0.38711285726504907,0.5774605539690519,0.7188066112313138,-0.9219330840769054,0.2309805677982416,0.3109459209959947,0.013528644593425343,-0.7830627598790262,0.6217955370265271,0.09311991,-0.047064938,0.121018074,-1.0700538,0.65208995,0.19578397,0.5919787,-0.021988776,0.001923085,0.008280466,0.18531668108392635,-0.2284079396850759,-0.9557654214297863,0.9088518534167168,0.40970211007481333,0.07831021351805967,0.3736924353703682,-0.8831613635622112,0.28351361459002083,left_images/camera_left_44.png,right_images/camera_right_44.png
2025-06-02 14:24:23,2.3039615154266357,45,-0.31858525,0.08920002,0.12533145,1.3592511,0.0784405,0.22373955,1.3234111e-08,0.0044940584,-0.013695927,0.016087256,0.37514405069096857,0.5766884213661368,0.7257392134185701,-0.9262072328629706,0.20151285995158152,0.3186420076927289,0.037511371922269,-0.7917215621267158,0.6097293375262025,0.09670672,-0.046032168,0.12146609,-1.0833176,0.65188646,0.19153306,0.600017,-0.021371124,0.0019255949,0.008210762,0.17854756831899515,-0.22899629847578312,-0.9569124626274673,0.9135167757613076,0.3998729231705207,0.07475791408090326,0.36552409804284947,-0.8875034313170024,0.28058829831357623,left_images/camera_left_45.png,right_images/camera_right_45.png
2025-06-02 14:24:23,2.349558115005493,46,-0.3199298,0.08740718,0.12557921,1.380888,0.08417198,0.23487985,0.0043364633,0.0041220095,-0.01358333,0.016159896,0.3694448811581528,0.5755803802463817,0.7295325254308194,-0.9274881981473782,0.18004341796955198,0.32764311368190113,0.057237418559613285,-0.7976788786982341,0.6003601289187681,0.10051484,-0.045379184,0.12166984,-1.0802214,0.6415539,0.18855876,0.5970974,-0.020958968,0.0018743125,0.008159887,0.18313823879224872,-0.23393080201066557,-0.9548490798878743,0.9115178706869262,0.4042151323540132,0.07579774531210909,0.36823301985352297,-0.884243465707649,0.28725935396933655,left_images/camera_left_46.png,right_images/camera_right_46.png
2025-06-02 14:24:23,2.402863025665283,47,-0.32532364,0.08700605,0.12586485,1.4141004,0.08839268,0.24907446,0.0020443592,0.003401116,-0.013654035,0.016616782,0.35997245123863164,0.5738418880418024,0.7356122088966921,-0.9289265105347551,0.14718721845919402,0.33975205775384065,0.08669124739542367,-0.8056310633601866,0.5860402864770992,0.10570617,-0.043384,0.12176542,-1.1017376,0.6424077,0.18163703,0.59456974,-0.020377297,0.0017977377,0.008534746,0.17263438408900683,-0.2341276792451194,-0.9567557678119866,0.9190993447922475,0.38757707991457657,0.07099578527878553,0.35419452823649145,-0.891609912986719,0.2820957270699874,left_images/camera_left_47.png,right_images/camera_right_47.png
2025-06-02 14:24:23,2.465019702911377,48,-0.33016664,0.08654312,0.1263254,1.44021,0.089846045,0.26064283,0.0014245309,0.002625328,-0.013705373,0.016860127,0.3527243242103933,0.5729377538785249,0.7398161131598529,-0.9292283282722488,0.12144902173664202,0.3489768603440267,0.1100920753128174,-0.8105507172903146,0.5752280153586693,0.11116747,-0.040830348,0.12163465,-1.1330857,0.64363575,0.17009827,0.6082678,-0.019890333,0.0017067456,0.009128674,0.15934548643727814,-0.23584676294779455,-0.9586372204119314,0.9294049868633958,0.3632721322857099,0.06511319603617105,0.33288945063717235,-0.9013377071395828,0.27708293224744307,left_images/camera_left_48.png,right_images/camera_right_48.png
2025-06-02 14:24:23,2.5301754474639893,49,-0.3354485,0.08755104,0.12689431,1.4541187,0.08436462,0.27506247,7.239129e-08,0.0018479582,-0.01397991,0.01697681,0.3553122906107834,0.5750069929208694,0.7369668474449971,-0.925885039313888,0.10818641832423126,0.36198424394563755,0.12841366794714115,-0.8109640294009801,0.5708303363540587,0.11543032,-0.037475448,0.12169381,-1.1846846,0.65098315,0.15215963,0.6087055,-0.019344982,0.0016534722,0.009599799,0.13733389634523852,-0.23686663088539311,-0.9617866707787328,0.9450814790031481,0.3220655062619447,0.055630996049504444,0.2965811844332981,-0.9166067907501234,0.2680887766970147,left_images/camera_left_49.png,right_images/camera_right_49.png
2025-06-02 14:24:24,2.582662343978882,50,-0.3390945,0.08896757,0.12738252,1.4804832,0.08366046,0.28268105,3.189222e-08,0.001175127,-0.014237251,0.017083878,0.3461641617676864,0.5760271320094458,0.740515439607202,-0.9258245533415189,0.08209502320938933,0.3689299440194941,0.15172102536449011,-0.813297700939344,0.5617184170998182,0.12214792,-0.033796284,0.121430025,-1.2520022,0.65090436,0.118624724,0.58204776,-0.018807564,0.0016333412,0.010391298,0.1178664677600611,-0.24380435756559743,-0.9626354091813747,0.9616823779066654,0.269669384436121,0.04945126006104256,0.24753686554036308,-0.9315781547083797,0.26624733213420626,left_images/camera_left_50.png,right_images/camera_right_50.png
2025-06-02 14:24:24,2.6329660415649414,51,-0.34357607,0.09107264,0.12807293,1.4924992,0.082685724,0.29178634,5.2186508e-08,0.00032040244,-0.014633108,0.017125845,0.34759670173191454,0.5745142641192227,0.7410194958762167,-0.9229171071128139,0.07011571503782249,0.37856016682061205,0.16553110385546643,-0.8154858348422018,0.5546010339226821,0.12845041,-0.028821694,0.120814405,-1.3343935,0.652932,0.073757224,0.55538726,-0.018522501,0.0015050425,0.011464524,0.09837971607720997,-0.2483540727679936,-0.9636605657616784,0.9779347502801781,0.2034619960398286,0.04740084769215408,0.18429610863773976,-0.9470604366707751,0.2628906115363337,left_images/camera_left_51.png,right_images/camera_right_51.png
2025-06-02 14:24:24,2.6973021030426025,52,-0.34729284,0.093615845,0.12891655,1.4949241,0.087157175,0.2975433,4.346722e-08,-0.0006323145,-0.015093313,0.017059999,0.35354997939280963,0.5680003097359625,0.7432214072611167,-0.9199074947618697,0.06704407847427873,0.3863616086291124,0.16962491901924237,-0.8202930815759606,0.5462111745161664,0.13490202,-0.02050973,0.11995532,-1.4457946,0.6598887,0.0062697586,0.53676295,-0.018369755,0.0010898898,0.012833869,0.08008313667227107,-0.24598335600806032,-0.9659600818811005,0.992346821978907,0.11105299256822876,0.05399090432660242,0.09399189395417978,-0.9628911783834415,0.2529942735760109,left_images/camera_left_52.png,right_images/camera_right_52.png
2025-06-02 14:24:24,2.7536683082580566,53,-0.3504673,0.0956182,0.12947945,1.5088193,0.095826395,0.30047974,2.1951225e-08,-0.001406535,-0.015422379,0.0172025,0.3507431115699363,0.5598181744297879,0.7507215737304602,-0.9191315954317905,0.05223716758265928,0.3904720074498973,0.17937775772166026,-0.8269672846618787,0.5328683985129055,0.13948849,-0.014012002,0.11925794,-1.5264481,0.66620946,-0.04109708,0.5278299,-0.018339206,0.0007693342,0.013907396,0.06617639477475873,-0.23869518359063852,-0.9688370833660562,0.9974022399171993,0.04350983165907457,0.05740789455425305,0.02845095047214652,-0.9701193245573609,0.24095443456720428,left_images/camera_left_53.png,right_images/camera_right_53.png
2025-06-02 14:24:24,2.79996395111084,54,-0.35357764,0.09768892,0.13007174,1.5044879,0.100608096,0.3066572,5.1260425e-08,-0.0021107434,-0.015815383,0.017234571,0.36079976624507415,0.5527219249816901,0.7512136861919083,-0.9154242819543204,0.055814713140612426,0.39860143226718125,0.17838697454107183,-0.8314945528634364,0.5261130067509423,0.14315826,-0.008147255,0.11877771,-1.59992,0.6710521,-0.08583313,0.54964006,-0.018289823,0.00049317157,0.014707049,0.05557420400596624,-0.2303289092859458,-0.9715246272721293,0.9979622319440451,-0.017738890371305494,0.0612920499057964,-0.03135109985890561,-0.9729511423065093,0.2288737276799056,left_images/camera_left_54.png,right_images/camera_right_54.png
2025-06-02 14:24:24,2.85145902633667,55,-0.3565927,0.09835062,0.1305787,1.5041147,0.107177444,0.3097563,1.8073715e-08,-0.0027941884,-0.015985528,0.017331101,0.36545234115124936,0.5446974840529158,0.7548173535455409,-0.913776948205648,0.05542598754534861,0.4024172571257292,0.1773591702592318,-0.8367990265117702,0.5179875615822358,0.14561039,-0.0027653433,0.11845346,-1.6576538,0.67674327,-0.119947806,0.54336053,-0.018263113,0.00021112332,0.015292775,0.047185758291299396,-0.22034128413330606,-0.9742808746562568,0.9958271048259466,-0.06589864122458328,0.06313276786841143,-0.07811454095396159,-0.9731942702211307,0.2163123456955532,left_images/camera_left_55.png,right_images/camera_right_55.png
2025-06-02 14:24:24,2.9003844261169434,56,-0.35898864,0.09963145,0.13123968,1.4990442,0.11031442,0.31463656,3.920634e-08,-0.0034875143,-0.0162738,0.01721722,0.373997242665786,0.5394173115399687,0.7544236386072359,-0.9107333265237514,0.05995148191381988,0.40862039569179465,0.1751881001591462,-0.839901651282654,0.5136870114527908,0.14958698,0.0015628826,0.11826816,-1.7065867,0.6812603,-0.14523135,0.5700257,-0.018036688,4.3970475e-05,0.015864696,0.0369559676296119,-0.2089857942520449,-0.9772201360273952,0.9925252230405127,-0.10613956319829371,0.06023350191094401,-0.11630966462396553,-0.9721416208171098,0.20350118179053234,left_images/camera_left_56.png,right_images/camera_right_56.png
2025-06-02 14:24:24,2.954446315765381,57,-0.36051783,0.10036678,0.13175972,1.4993033,0.11636707,0.31490114,3.1626906e-09,-0.0040625446,-0.016431477,0.017147532,0.37583301232230004,0.5330731331742512,0.7580122568511231,-0.9102456731209746,0.05895884577299648,0.4098495688294181,0.17378826604028752,-0.8440123750235555,0.5073861935388144,0.15249155,0.004798984,0.11804378,-1.7413981,0.68206084,-0.16547681,0.591347,-0.01794513,-0.00011382121,0.016308824,0.0322166270117189,-0.20246355591613002,-0.9787597240741898,0.989025406457896,-0.13481644862950948,0.060442291152142114,-0.14419027125566164,-0.969965480676876,0.19589826944232003,left_images/camera_left_57.png,right_images/camera_right_57.png
2025-06-02 14:24:24,3.004657745361328,58,-0.36222497,0.09916946,0.13222198,1.5060376,0.12466043,0.31374255,3.8007233e-08,-0.004671927,-0.016303342,0.017161172,0.37177901102442135,0.5255161827595409,0.7652536237219291,-0.9117382547426296,0.051586009520528164,0.40751961727088903,0.17468177294888865,-0.8492182436097264,0.498311802910431,0.15561679,0.0073116734,0.11800059,-1.7661322,0.6860085,-0.17874543,0.6125188,-0.017710015,-0.00023010495,0.016678762,0.02833590610811762,-0.19318563246996473,-0.9807529698309416,0.9861808169691773,-0.15481549092584473,0.058987795444448266,-0.16323134707230208,-0.9688712376660635,0.1861291276409801,left_images/camera_left_58.png,right_images/camera_right_58.png
2025-06-02 14:24:24,3.0566089153289795,59,-0.36446,0.09920151,0.13287683,1.4941225,0.12821284,0.31760198,0.0005141834,-0.0053569777,-0.016433079,0.017018441,0.3827277299148721,0.5191820507057755,0.7641789600474187,-0.9088207740796254,0.06293329013185994,0.41241265935285,0.16602495401450784,-0.8523434749079298,0.4959297484789109,0.15976618,0.011446924,0.11837484,-1.793875,0.69084007,-0.18681361,0.63918597,-0.017129483,-0.00045117142,0.016814666,0.018452456452361654,-0.1815846144746272,-0.9832021840074272,0.982731649845761,-0.17778912492947235,0.051278957168035655,-0.1841141255914453,-0.9671701271456401,0.17516830168379233,left_images/camera_left_59.png,right_images/camera_right_59.png
2025-06-02 14:24:24,3.1070642471313477,60,-0.36564296,0.10032215,0.13349348,1.4838662,0.12624334,0.32194486,0.0014784485,-0.005861783,-0.016700141,0.016721401,0.39270013852946234,0.518471084852689,0.759588267004314,-0.9054091260470845,0.07308632654328623,0.41820174956958617,0.16130999866590967,-0.8519660339732353,0.4981294623753149,0.16287415,0.014465774,0.11864856,-1.8141413,0.69181275,-0.19159172,0.66585255,-0.016709637,-0.00061078824,0.016872821,0.010207930191095171,-0.17532565242560233,-0.9844575733685785,0.9798247229463155,-0.19476232712155367,0.04484582742432813,-0.1995978718934383,-0.9650536521539792,0.16980028857418578,left_images/camera_left_60.png,right_images/camera_right_60.png
2025-06-02 14:24:24,3.158269166946411,61,-0.36632937,0.10023049,0.13382891,1.4780937,0.12749568,0.32408008,0.007909728,-0.0061708004,-0.0167524,0.016592,0.397934988011968,0.5160661539914483,0.7585008042318675,-0.903802262401537,0.07863465988720009,0.4206638334136743,0.1574459138681536,-0.8529316004046861,0.497713239965869,0.16521525,0.016937414,0.11884652,-1.8316944,0.6952073,-0.19776553,0.6925185,-0.016394172,-0.0007411699,0.016972538,0.005095020369635717,-0.16762796199488883,-0.985837160551819,0.9770941993278184,-0.20890407611923267,0.040571081088617456,-0.21274624886789972,-0.9634624815415542,0.16272393878722247,left_images/camera_left_61.png,right_images/camera_right_61.png
2025-06-02 14:24:24,3.2112679481506348,62,-0.36673725,0.09961189,0.13390934,1.4665201,0.124439605,0.32741892,0.01500684,-0.0062093665,-0.016722692,0.016509512,0.40630043640888136,0.5167449476891861,0.7535878279349082,-0.9011947825009166,0.09042782046321662,0.42387589372291223,0.1508904217207901,-0.8513503792939617,0.5024287136589125,0.16806304,0.018722733,0.11900815,-1.8462057,0.6952081,-0.19990878,0.7191861,-0.016068367,-0.0008025998,0.017077347,-0.002032932366601542,-0.1629757204592075,-0.9866279854771984,0.9747136041944737,-0.2207844514596407,0.03446180192450854,-0.22344855556528298,-0.9616096612110694,0.15930349174239983,left_images/camera_left_62.png,right_images/camera_right_62.png
2025-06-02 14:24:24,3.2606215476989746,63,-0.3670526,0.09872378,0.1340828,1.4667779,0.12935914,0.32682845,0.021638125,-0.0064293602,-0.016622279,0.016500024,0.4059430254015457,0.5124148174316934,0.7567306753424787,-0.9017023343285682,0.08974782561794736,0.42293998163245483,0.14880578078236978,-0.8540353521215001,0.49847814087726494,0.17084709,0.020458588,0.11914686,-1.8585229,0.69619113,-0.20233805,0.7458521,-0.015759405,-0.00088282244,0.017214648,-0.0071660430771030015,-0.15769451626200232,-0.9874619422375277,0.9725423847423769,-0.23080979546856464,0.029801815303273638,-0.2326154717688147,-0.9601350310537851,0.15501859384318825,left_images/camera_left_63.png,right_images/camera_right_63.png
2025-06-02 14:24:24,3.3188838958740234,64,-0.36778507,0.0970477,0.13434996,1.4686816,0.13439593,0.32646275,0.024954133,-0.0067706634,-0.016422492,0.016474754,0.40432071458940366,0.5078943606072105,0.7606366269233337,-0.9026616860869273,0.0875599224495881,0.42134919063803544,0.1473995937057473,-0.8569577460085268,0.4938590703139567,0.17273863,0.021906475,0.11909003,-1.8702966,0.69810575,-0.20266418,0.7725198,-0.015647199,-0.00090830843,0.017438626,-0.014273141893469482,-0.1523616279209013,-0.9882217422004949,0.9704890969055522,-0.2400463430548114,0.022992737406785646,-0.24072222624413908,-0.9587302475270634,0.151291514199445,left_images/camera_left_64.png,right_images/camera_right_64.png
2025-06-02 14:24:24,3.372830390930176,65,-0.36787945,0.096331745,0.13437259,1.4688957,0.13654412,0.32708094,0.040187143,-0.006822767,-0.016335715,0.016497698,0.4045279379353453,0.5060640193859087,0.7617455977639488,-0.9026621439822513,0.08721801436922844,0.42141911654652553,0.1468271134741208,-0.8580747206697488,0.49208695623475934,0.17506486,0.02288623,0.119163804,-1.8778518,0.7001307,-0.19874997,0.7991877,-0.015412389,-0.00089213764,0.017595833,-0.022561823623557853,-0.14708669161184262,-0.98886625448817,0.969203965237656,-0.24583487577412996,0.01445294505360356,-0.24522364870131075,-0.958087010142503,0.14810348785162133,left_images/camera_left_65.png,right_images/camera_right_65.png
2025-06-02 14:24:24,3.42246675491333,66,-0.36782935,0.09498362,0.13442126,1.4675267,0.13248843,0.32902807,0.06685336,-0.0068262005,-0.016170396,0.016385127,0.40518316433316715,0.5094603185736222,0.7591289660787719,-0.902314832388267,0.08919386785378569,0.4217492112493099,0.14715483883683633,-0.8558590057574582,0.4958334555783422,0.17770864,0.023042168,0.11915744,-1.8843962,0.7004912,-0.19335778,0.82585526,-0.015207725,-0.00078325166,0.017809542,-0.0320181601439222,-0.1431335489635971,-0.9891853337884078,0.9680694133802895,-0.25063377637489465,0.004931634374279736,-0.24862913807223075,-0.9574421639457629,0.14658804316967572,left_images/camera_left_66.png,right_images/camera_right_66.png
2025-06-02 14:24:24,3.4784326553344727,67,-0.3669559,0.09363407,0.134119,1.4644723,0.12951681,0.3307926,0.08169487,-0.0064954176,-0.015975013,0.016417086,0.40671907187693734,0.5124041140469855,0.7563211093704091,-0.9017796652023669,0.09269871864099771,0.4221378720155582,0.1461951845960371,-0.8537265203038036,0.49977794722345403,0.18071012,0.022662945,0.119169235,-1.8912276,0.70077145,-0.18786901,0.8525225,-0.014963789,-0.00060827937,0.018036991,-0.042006876824127015,-0.13876032636201524,-0.9894346841138075,0.9668475599058954,-0.25530040242950197,-0.005244084605595167,-0.2518754021406198,-0.9568527976377774,0.14488445551286627,left_images/camera_left_67.png,right_images/camera_right_67.png
2025-06-02 14:24:24,3.5288002490997314,68,-0.36677822,0.09265121,0.1338787,1.4619968,0.12616836,0.33418205,0.108360946,-0.0062575974,-0.015847508,0.016486343,0.4094318405194677,0.5151199701696444,0.7530053016422038,-0.9004982197796217,0.09561849580364568,0.4242169956920404,0.14652141189114204,-0.8517678789392525,0.5030138728352861,0.18325038,0.022759113,0.11904402,-1.8963759,0.7029831,-0.1817933,0.87918854,-0.014841756,-0.0004915124,0.018364603,-0.0510759962736613,-0.13331803461699193,-0.9897563054866159,0.9658482429103596,-0.25867390522828615,-0.014999414019166879,-0.25402443636710154,-0.9567204985782474,0.14197701690261752,left_images/camera_left_68.png,right_images/camera_right_68.png
2025-06-02 14:24:25,3.5733447074890137,69,-0.3661825,0.09132432,0.13386466,1.4635595,0.12566315,0.33523613,0.13502815,-0.006208119,-0.015671948,0.016416363,0.40822005670782535,0.5163671973634585,0.7528089417564506,-0.9008339693999003,0.09431525639155336,0.42379569604588396,0.14783282746629567,-0.8511577702745847,0.503662491381399,0.18555762,0.023426048,0.11907936,-1.902306,0.70412034,-0.17798808,0.9058541,-0.0146393,-0.00046149967,0.018535845,-0.05818836389382559,-0.12908453143206733,-0.9899248951573667,0.9644916630295196,-0.26316361581075637,-0.02237729340113337,-0.2576236523572934,-0.9560764064960354,0.1398140146327121,left_images/camera_left_69.png,right_images/camera_right_69.png
2025-06-02 14:24:25,3.6228225231170654,70,-0.36548018,0.08988906,0.13371582,1.4606917,0.12212172,0.33905226,0.1616942,-0.0059980224,-0.015495641,0.016365483,0.41102833917294135,0.5196674480993497,0.7490002989202629,-0.8995074504280984,0.09768869672368474,0.42584417943277103,0.148128494966619,-0.8487653750703652,0.5075975640806275,0.18761295,0.02286175,0.11905681,-1.9023569,0.7047258,-0.1689628,0.9325224,-0.014490545,-0.0003102002,0.018717347,-0.06697294210610655,-0.1264292978887276,-0.9897122095139654,0.9643510474615962,-0.26272120271613336,-0.03169584993513541,-0.25601109797306515,-0.956552770253033,0.13951743774838282,left_images/camera_left_70.png,right_images/camera_right_70.png
2025-06-02 14:24:25,3.6742777824401855,71,-0.36389717,0.08881541,0.1336403,1.4532349,0.11888982,0.3425813,0.18836075,-0.005759573,-0.015380738,0.016172158,0.41642383591036075,0.5227745419696886,0.7438400144883868,-0.89746260297389,0.10548333170039942,0.4282921234352945,0.145437495677803,-0.8459196445300026,0.5130963748158852,0.18915111,0.022536013,0.11902751,-1.9032817,0.7054575,-0.1636573,0.9442251,-0.014388053,-0.00020956021,0.01886959,-0.07270013085523719,-0.12403218074811811,-0.9896113929783235,0.9640432302546791,-0.26303553096391985,-0.037854453511477704,-0.2556077877799408,-0.9567801877073934,0.13869510170460175,left_images/camera_left_71.png,right_images/camera_right_71.png
2025-06-02 14:24:25,3.7298672199249268,72,-0.36351484,0.08713124,0.13351238,1.4588215,0.11955493,0.34349638,0.21214087,-0.0056638084,-0.01514169,0.016221259,0.4127661161157401,0.5234495630192181,0.7454023667534984,-0.8985672759520641,0.10014360156876867,0.4272564916451504,0.1489999462241987,-0.8461511768235184,0.51169053341386,0.19159935,0.022708274,0.11905471,-1.9006262,0.70642257,-0.15475841,0.9636167,-0.01417132,-0.00017708744,0.019059345,-0.07880612718138297,-0.12125484861966918,-0.989488178810082,0.9642849899524326,-0.2610490376527454,-0.04480912957213429,-0.25287161262409136,-0.9576798325258795,0.1374964941447413,left_images/camera_left_72.png,right_images/camera_right_72.png
2025-06-02 14:24:25,3.7806358337402344,73,-0.36207864,0.08580603,0.13350607,1.4506507,0.115976095,0.34460682,0.2388069,-0.005497738,-0.01497899,0.015988126,0.4165487632458744,0.5266411723689547,0.7410372483243912,-0.8975597967729668,0.10869687901415004,0.4272837461330044,0.14447677687158922,-0.8431097580140063,0.5179694941657865,0.19310173,0.022562461,0.11897114,-1.8948866,0.70656306,-0.14651354,0.96852076,-0.014100797,-0.00015060499,0.019245243,-0.08246924124570207,-0.12065105059251813,-0.9892634372295783,0.9652154944707741,-0.25679516242194467,-0.04914563856769044,-0.24810859211622877,-0.958905401250618,0.13763196565658029,left_images/camera_left_73.png,right_images/camera_right_73.png
2025-06-02 14:24:25,3.8364686965942383,74,-0.35937732,0.08494282,0.13358098,1.4439546,0.112656064,0.34679326,0.2654733,-0.0052832076,-0.014891541,0.015583979,0.4204552549818816,0.5308112876015358,0.7358374518281334,-0.8960792857385596,0.11570892053461573,0.4285479662523053,0.14233514052543,-0.8395539426764154,0.5242994231430094,0.19517605,0.022465413,0.11895453,-1.8905199,0.70738256,-0.13803132,0.97112584,-0.013941799,-0.000109700835,0.019439206,-0.0871981637444634,-0.11859626147380092,-0.9891063678917611,0.9658028500231726,-0.25342954111460536,-0.05475694090759681,-0.24417480444696021,-0.960056453785338,0.13663919795728588,left_images/camera_left_74.png,right_images/camera_right_74.png
2025-06-02 14:24:25,3.8869287967681885,75,-0.3571518,0.0842224,0.13352731,1.4501275,0.11156568,0.34814247,0.29214022,-0.0050603496,-0.014788972,0.015378235,0.4168477301081679,0.5345282228063751,0.7351989859399468,-0.8967887921859822,0.10983837532828444,0.428608671768141,0.1483503694409794,-0.8379827625486702,0.5251447967542132,0.19661409,0.021910263,0.11903028,-1.8865879,0.7084235,-0.13101177,0.94772077,-0.01377282,-2.4305424e-05,0.019515928,-0.0912526710063957,-0.11677574489435988,-0.9889572161820579,0.9663963373004445,-0.25004089801622376,-0.059646194945914666,-0.24031452158886307,-0.9611675060693676,0.13566855195625863,left_images/camera_left_75.png,right_images/camera_right_75.png
2025-06-02 14:24:25,3.955239772796631,76,-0.3550777,0.083943315,0.13371114,1.446515,0.10538001,0.34947932,0.3188066,-0.004956046,-0.014770998,0.014941736,0.418290263973902,0.5409156924146105,0.7296872403737547,-0.8960228048998707,0.11402060944569203,0.4291182048352191,0.14891738704399654,-0.8333123749958686,0.5323665067551987,0.19787215,0.021869153,0.119055554,-1.8792249,0.70827067,-0.12138196,0.95830274,-0.013650681,-2.0527339e-05,0.019595327,-0.0951189698138335,-0.1169200358664313,-0.9885757870768166,0.9674692781980183,-0.24472160287272693,-0.0641446243297798,-0.23442605939732952,-0.9625180737525896,0.13639420946302655,left_images/camera_left_76.png,right_images/camera_right_76.png
2025-06-02 14:24:25,4.011156797409058,77,-0.35330242,0.0828841,0.1335671,1.4487603,0.10586485,0.34991005,0.3422668,-0.00471442,-0.014617145,0.014850672,0.4163890029470516,0.5424026986505965,0.7296708235371008,-0.8965993115108823,0.11188827979060034,0.4284748387521867,0.15076429558410837,-0.8326345689088647,0.5329069354352381,0.19915351,0.02186755,0.11916393,-1.8752865,0.70792735,-0.11466886,0.96696013,-0.013476028,-9.805488e-06,0.019611636,-0.09858306410849627,-0.11665426781545124,-0.9882677578831666,0.9679081234819384,-0.24193092178031927,-0.06799480556776183,-0.23116064537168268,-0.9632555273067297,0.13676090502910965,left_images/camera_left_77.png,right_images/camera_right_77.png
2025-06-02 14:24:25,4.064290761947632,78,-0.3508693,0.08257113,0.13340077,1.444693,0.10306833,0.3508135,0.35801452,-0.004343477,-0.014569072,0.014649198,0.4183193205896161,0.546188656861051,0.7257319733467468,-0.8958368180921532,0.11618977346529158,0.42892462262338193,0.14995112994562065,-0.8295648785106596,0.537900335535893,0.20107564,0.020891665,0.11920144,-1.865596,0.7080571,-0.10497276,0.9558028,-0.013288481,7.851602e-05,0.019749936,-0.10127363647715174,-0.11604998252237625,-0.9880668257315646,0.9695178226463494,-0.23424635977084488,-0.07185982539075647,-0.22311172565729448,-0.9652259033462913,0.13623550705876972,left_images/camera_left_78.png,right_images/camera_right_78.png
2025-06-02 14:24:25,4.116456985473633,79,-0.3494931,0.081506826,0.13331267,1.4528114,0.10321265,0.35281193,0.38258132,-0.004182466,-0.014423711,0.014577668,0.4140990587941126,0.5484372322906542,0.7264561733120567,-0.8966277473655034,0.1083077631295929,0.4293344979152348,0.15678218062041627,-0.8291477737310949,0.5365941829322007,0.2024673,0.020683946,0.1192622,-1.8625611,0.70920163,-0.09825306,0.95038724,-0.013135525,0.00013180572,0.019837478,-0.10550934319180269,-0.11402900683161915,-0.9878588786361284,0.9697464099552897,-0.23170948123227117,-0.07682848876490322,-0.22013559202923427,-0.9660787244878476,0.13502673518186017,left_images/camera_left_79.png,right_images/camera_right_79.png
2025-06-02 14:24:25,4.169179439544678,80,-0.3468324,0.08109133,0.13323857,1.4497234,0.09862203,0.35476536,0.39446324,-0.0038432167,-0.014373319,0.014271835,0.41574693148188635,0.5540247247672391,0.7212566071170379,-0.895686036134243,0.11181989612873011,0.4303984613168218,0.15780055018130795,-0.8249563110712866,0.5427209883412761,0.2041309,0.019470451,0.11938415,-1.8564707,0.7086771,-0.09129872,0.9497111,-0.01291853,0.00026133034,0.01987931,-0.10836431019250933,-0.11367041280247453,-0.9875911165709301,0.9706655190759497,-0.22658293946505512,-0.08042774160942306,-0.2146290435927034,-0.9673361405409653,0.13488945418301332,left_images/camera_left_80.png,right_images/camera_right_80.png
2025-06-02 14:24:25,4.220620393753052,81,-0.3445811,0.08083084,0.13323128,1.4507636,0.09872344,0.35494772,0.40622884,-0.003649909,-0.014337891,0.014045025,0.41474963668239256,0.5559635130540981,0.7203383309420437,-0.8958652948405865,0.11081429608221566,0.43028544628419874,0.1593992232478329,-0.8237868437504625,0.5440286055821318,0.20515603,0.018694177,0.119531,-1.8502451,0.70928985,-0.0856293,0.9328872,-0.012732475,0.00033085956,0.01987061,-0.10970600243125575,-0.11289106253003639,-0.9875323797382,0.9716666345613554,-0.22144161282441935,-0.08262907109443518,-0.20935267925384327,-0.9686171690149618,0.133985952915513,left_images/camera_left_81.png,right_images/camera_right_81.png
2025-06-02 14:24:25,4.273136377334595,82,-0.341515,0.08138783,0.13315518,1.4507194,0.09560394,0.35717914,0.41733545,-0.0032822243,-0.014419088,0.013739677,0.4156564648331438,0.5609817256556608,0.7159114517332505,-0.8947826169677373,0.1110859438795897,0.4324626937028767,0.1630759688451398,-0.8203410367358063,0.5481302872788927,0.2066373,0.01779895,0.11969596,-1.8424442,0.7086148,-0.07916205,0.9081569,-0.01249847,0.00039780297,0.019867225,-0.11069097773167008,-0.11311450082712876,-0.9873968893770307,0.9728989644311923,-0.2152755245981492,-0.08440410841721535,-0.2030150547558488,-0.9699801844427653,0.13387803901633216,left_images/camera_left_82.png,right_images/camera_right_82.png
2025-06-02 14:24:25,4.32270884513855,83,-0.33844474,0.080991626,0.1330033,1.4453483,0.09347751,0.35838163,0.42170626,-0.0028678738,-0.014366145,0.013475007,0.4185085956823209,0.5645092475124206,0.7114631858451794,-0.893724525892638,0.11661302026655629,0.4331949622540542,0.16157669125833501,-0.817147913769149,0.5533193109450785,0.20844172,0.016695416,0.119919084,-1.8349977,0.70909095,-0.07293755,0.9043109,-0.012198028,0.0004953847,0.019870246,-0.11177006360810054,-0.1117925452509782,-0.9874258856781855,0.9740668192647974,-0.20903516480527123,-0.08659175181386125,-0.19672642041271787,-0.9714971573304478,0.13225728263675124,left_images/camera_left_83.png,right_images/camera_right_83.png
2025-06-02 14:24:25,4.391921520233154,84,-0.30075547,0.10385035,0.13048962,1.3288087,-0.00719785,0.36384353,0.39503372,0.003970252,-0.016919855,0.009961054,0.47933081641337216,0.646105107201192,0.5939614119494853,-0.8661396681766255,0.2390814045964511,0.43891019262153497,0.14157698841045852,-0.724836721217078,0.6742163480129362,0.18539077,0.009826032,0.120077945,-1.749139,0.6823699,-0.061306942,0.9056515,-0.013931059,0.00032878589,0.017374719,-0.06822301919513049,-0.16983926523992432,-0.9831074425690528,0.9886295418377198,-0.14386578231088906,-0.043752322061989035,-0.13400465908930548,-0.9749139760321617,0.1777230730083196,left_images/camera_left_84.png,right_images/camera_right_84.png
2025-06-02 14:24:25,4.437965631484985,85,-0.2544873,0.12243365,0.12783194,1.2121388,-0.08365587,0.3676055,0.36836505,0.011501084,-0.018459223,0.0065806056,0.5386104833375428,0.6927055655322458,0.47964335366973454,-0.8339945219912102,0.35737649416207895,0.42039883290641333,0.11979935111490136,-0.6264511480563134,0.7701993732608301,0.16483043,0.0038627905,0.12012806,-1.687491,0.6625306,-0.053752847,0.89901686,-0.015642934,0.00036048918,0.015272193,-0.035061540725014606,-0.2139639585740597,-0.9762121248956632,0.9954410901632352,-0.09417367898220036,-0.015111393105441628,-0.08870019378004684,-0.9722914905614856,0.21629039045946213,left_images/camera_left_85.png,right_images/camera_right_85.png
2025-06-02 14:24:25,4.491181373596191,86,-0.21862493,0.13472696,0.12583375,1.0954927,-0.14084335,0.36927098,0.34185892,0.017293822,-0.018996535,0.0043076286,0.5980768387656921,0.7015723234257487,0.3874278899808752,-0.7966777351295262,0.46782647063430816,0.38267868992502757,0.0872277552211734,-0.5375264350493318,0.8387232263042628,0.15023188,-0.00070338947,0.12004922,-1.6433816,0.6480321,-0.048691,0.90135664,-0.016983293,0.0004371032,0.013867924,-0.009919578681526875,-0.2445122384613842,-0.9695954657491878,0.99834245430689,-0.05739507558236007,0.004260191003993219,-0.0566916738796478,-0.9679460576610137,0.24467628322178125,left_images/camera_left_86.png,right_images/camera_right_86.png
2025-06-02 14:24:25,4.542881727218628,87,-0.18982314,0.14218841,0.124363735,0.9788574,-0.185044,0.36875018,0.3231861,0.021757977,-0.01883631,0.0026314529,0.6566709066769579,0.6850070377283232,0.31551335722395246,-0.7526876019201504,0.568984048793732,0.3312378694140887,0.047378204268998525,-0.45499726425656606,0.8892315757322641,0.14005114,-0.00399886,0.119878925,-1.6131444,0.63733214,-0.04571222,0.89794683,-0.018016476,0.0005145245,0.01297456,0.008255041449288514,-0.2657121857563234,-0.9640170582677816,0.9993498001132959,-0.031644662258971945,0.017279825347238098,-0.035097454383273774,-0.9635329001601931,0.2652781917246522,left_images/camera_left_87.png,right_images/camera_right_87.png
2025-06-02 14:24:26,4.596500873565674,88,-0.16776414,0.14699472,0.12332054,0.862376,-0.22005644,0.36771467,0.3318118,0.025044708,-0.018332485,0.001438587,0.7140285073175761,0.6492147820254368,0.2620752898262232,-0.7001062676355525,0.660069111521012,0.27232330424199425,0.0038085108967060854,-0.3779271554354441,0.9258275003634442,0.1329313,-0.00650349,0.119600624,-1.5933877,0.6293235,-0.045317408,0.8934889,-0.018850029,0.00059620605,0.012471309,0.021632054936905676,-0.28068402502982664,-0.9595564247569094,0.9995377980263889,-0.014433799404379721,0.02675548077146067,-0.021359880986666746,-0.959691691913507,0.28024205957783294,left_images/camera_left_88.png,right_images/camera_right_88.png
2025-06-02 14:24:26,4.649430751800537,89,-0.15211578,0.14992182,0.12123199,0.75188,-0.246288,0.36652207,0.34034967,0.028114814,-0.017473068,0.0017348388,0.7659540135962105,0.6013895216346106,0.22725556610114184,-0.6416851135616672,0.7368342360523068,0.2128744315660375,-0.0394292288690304,-0.3088785389911504,0.9502838439442639,0.12857443,-0.008032969,0.11939728,-1.5807662,0.62377506,-0.044800114,0.87925565,-0.01938723,0.0006440411,0.012180341,0.03006636739063062,-0.29034457676636755,-0.956449706097655,0.9994675517590292,-0.003400017249245879,0.03245077600793661,-0.012673852324532775,-0.956916123087632,0.2900877571394425,left_images/camera_left_89.png,right_images/camera_right_89.png
2025-06-02 14:24:26,4.704890012741089,90,-0.13954958,0.15077785,0.11989233,0.66556275,-0.26630682,0.36525217,0.35013112,0.03024902,-0.016631128,0.0018077856,0.8031097196790666,0.5594246012323904,0.20508265088249714,-0.5915624236995501,0.7897630613244206,0.1622596864109924,-0.07119464181892618,-0.251631521283524,0.965200963775324,0.12609757,-0.008888311,0.11934072,-1.5718269,0.61968774,-0.043588687,0.87325126,-0.019663423,0.0006607247,0.011951901,0.03541945987341699,-0.2966886668017773,-0.9543171888076099,0.9993515269989611,0.004323411121574416,0.035746798473687724,-0.006479764433989732,-0.9549644721703827,0.296649405098379,left_images/camera_left_90.png,right_images/camera_right_90.png
2025-06-02 14:24:26,4.757941961288452,91,-0.12969777,0.15035476,0.11910332,0.60051787,-0.28196615,0.36371017,0.36276168,0.031697836,-0.015873674,0.0017106021,0.8287194351319385,0.5260155310268217,0.19113283065232736,-0.5517089233040988,0.8251999203444189,0.12108821334133443,-0.09402851578767277,-0.20579784396862652,0.9740666741227892,0.12471791,-0.009295304,0.11929444,-1.5673488,0.6168273,-0.043239366,0.86010647,-0.0198298,0.00066425366,0.011826649,0.03836068953254912,-0.30075336779488315,-0.9529301492022504,0.9992577683813685,0.008189065555541442,0.03764108838509472,-0.0035170766376129148,-0.953666792420373,0.3008442773372337,left_images/camera_left_91.png,right_images/camera_right_91.png
2025-06-02 14:24:26,4.813763380050659,92,-0.12162179,0.1487324,0.118984096,0.54900795,-0.29475063,0.36218995,0.3740191,0.032528024,-0.015182715,0.0012378814,0.8473499466710378,0.49895177128910456,0.18178338153982845,-0.5191931205622038,0.8502907372675104,0.08627957856848302,-0.11151937695965977,-0.16748967742681692,0.9795461380241313,0.12461881,-0.00961801,0.119192906,-1.5677092,0.6139525,-0.045025386,0.8486167,-0.019916689,0.00068957056,0.011849738,0.03954149052401423,-0.30358840530122994,-0.9519824319249779,0.9992093442985293,0.008064271890118047,0.03893139845144855,-0.004142076006363238,-0.952769147110431,0.3036672447282042,left_images/camera_left_92.png,right_images/camera_right_92.png
2025-06-02 14:24:26,4.869459629058838,93,-0.11408042,0.14738199,0.11818965,0.5112324,-0.303487,0.3594539,0.39055115,0.033679865,-0.014553239,0.0013662875,0.8603467907310813,0.4783360965784029,0.17606242753315018,-0.4944125418153156,0.8671485864578503,0.060079676263033274,-0.12393400733635543,-0.13873682897590262,0.9825438687973496,0.12451045,-0.009512292,0.1191044,-1.5675199,0.61152667,-0.045353644,0.8454576,-0.019993315,0.00067117834,0.011868978,0.04003449933677433,-0.3060021196092635,-0.9511886992902574,0.999188954876725,0.008143641592769424,0.039434928096378274,-0.004321031730018243,-0.9519959999371039,0.3060799646963873,left_images/camera_left_93.png,right_images/camera_right_93.png
2025-06-02 14:24:26,4.922970294952393,94,-0.10832764,0.14533079,0.11769557,0.4797293,-0.3097289,0.35788795,0.40076673,0.03446411,-0.0139648495,0.0013839602,0.8707454689163409,0.46053804610051424,0.17235729301535804,-0.4731419378292852,0.8801415785782583,0.03856822947608908,-0.13393668290953833,-0.11513257467672668,0.9842791551280041,0.12511247,-0.009198692,0.1191071,-1.5697938,0.6102444,-0.044632427,0.8281591,-0.019944753,0.00066507806,0.011893082,0.03771254038307764,-0.30664080761651613,-0.9510779039606303,0.9992720687663936,0.0060929108339496385,0.03765911603983502,-0.005752988891607302,-0.9518058055831875,0.3066473733410295,left_images/camera_left_94.png,right_images/camera_right_94.png
2025-06-02 14:24:26,4.973160743713379,95,-0.10365428,0.14332753,0.11713022,0.45671508,-0.31447497,0.35714647,0.41961622,0.03519623,-0.013446616,0.0015333276,0.8780675834161942,0.4476562186159067,0.1691189784978383,-0.45750939238323757,0.8889219378394754,0.022426419884422406,-0.14029424376917787,-0.0970654334056115,0.9853404623798898,0.12601723,-0.009034556,0.119140536,-1.5720886,0.60862637,-0.04416625,0.82489586,-0.019853251,0.0006745047,0.011911232,0.03552592236832092,-0.30730887222709136,-0.9509464579514418,0.9993430945137047,0.004105157411893268,0.036007320511199925,-0.007161584158043244,-0.9516009692792126,0.30725283884646276,left_images/camera_left_95.png,right_images/camera_right_95.png
2025-06-02 14:24:26,5.0305726528167725,96,-0.09926435,0.14142527,0.11723547,0.43846616,-0.3175066,0.35660675,0.43829876,0.03551201,-0.013090678,0.0011675311,0.8838707361462613,0.43715256377367256,0.16634349332141365,-0.4448148693408778,0.8955669774307023,0.00997601868952011,-0.14461069738274487,-0.08280957023038481,0.986017404146973,0.12676373,-0.008333054,0.11927613,-1.5742631,0.60775644,-0.04423566,0.80973554,-0.019709509,0.0006147728,0.0118483035,0.03428153284068497,-0.30741184505248076,-0.9509588498076679,0.9993710933202398,0.0019126722246515793,0.03540846679636922,-0.00906610952953757,-0.9515746419521648,0.30728408102537275,left_images/camera_left_96.png,right_images/camera_right_96.png
2025-06-02 14:24:26,5.0839855670928955,97,-0.09551403,0.13902304,0.11701048,0.42314005,-0.31987533,0.35657263,0.4578601,0.035959445,-0.012658307,0.0011032736,0.8885524438497648,0.42854576317685067,0.16377754239144263,-0.4342820284473612,0.9007765384022024,-0.0008646570364281569,-0.14789751281294602,-0.07035735020106927,0.9864969178747738,0.12793607,-0.007760611,0.11940493,-1.5783678,0.6064482,-0.04385154,0.7928225,-0.019534288,0.0005942686,0.011818057,0.030994248996136453,-0.3075101744337954,-0.9510398777910746,0.9994486601176829,-0.0017981966384739145,0.03315331473348837,-0.011905138308052066,-0.9515430936686714,0.3072848980560549,left_images/camera_left_97.png,right_images/camera_right_97.png
2025-06-02 14:24:26,5.136219024658203,98,-0.092287794,0.1368703,0.1168751,0.41120535,-0.32143858,0.35687625,0.47574735,0.036313053,-0.0123004895,0.001001752,0.8922147155678897,0.4217998479526697,0.16136229296590524,-0.42602548304741433,0.9046645949328739,-0.009179241208112716,-0.14985055594934318,-0.06055459472281283,0.9868525482257361,0.1287841,-0.00723635,0.119550765,-1.5808133,0.60553753,-0.04327351,0.7867228,-0.019375153,0.00056392874,0.011754835,0.028819041865478068,-0.30754709855348333,-0.9510963384417425,0.9994915925619654,-0.004116607383582271,0.031616608635259835,-0.013638886461202593,-0.9515239543568954,0.30727210264050164,left_images/camera_left_98.png,right_images/camera_right_98.png
2025-06-02 14:24:26,5.190136432647705,99,-0.089103475,0.13465227,0.11687539,0.40331537,-0.32265374,0.35682154,0.49669027,0.036593523,-0.01197888,0.0007892037,0.8945088931624768,0.4178543145828978,0.15890755752228192,-0.42089631574519537,0.90697369115882,-0.01565295300786254,-0.15066562794931526,-0.05288189983540878,0.9871693741321377,0.12963027,-0.006580134,0.11966987,-1.5843443,0.6045035,-0.04289032,0.7789609,-0.019233117,0.00052715617,0.0117109185,0.026048680164390492,-0.3076889391530703,-0.9511303711818646,0.9995293193480798,-0.007407092709583563,0.029770366829380834,-0.01620512342617464,-0.9514581712826108,0.30735117093366116,left_images/camera_left_99.png,right_images/camera_right_99.png
2025-06-02 14:24:26,5.250194311141968,100,-0.08697482,0.1326252,0.11681108,0.39608407,-0.32418743,0.35750005,0.5232645,0.03681826,-0.011672568,0.00069693476,0.8965372626645005,0.4143489592971612,0.15663932004258735,-0.4163124736935776,0.9089641897846734,-0.021633907095730643,-0.15134351952157998,-0.04581529895626506,0.9874189067869672,0.13076244,-0.006160178,0.11976326,-1.5892328,0.60397005,-0.043221183,0.7590846,-0.019078486,0.000525349,0.0117197465,0.022755294710187723,-0.30705503558182384,-0.9514196769493981,0.9995488028924981,-0.01167540948754281,0.027674454817970262,-0.01960579503172938,-0.951620139518465,0.3066508158541743,left_images/camera_left_100.png,right_images/camera_right_100.png
2025-06-02 14:24:26,5.303644418716431,101,-0.08478745,0.13034636,0.11698173,0.3886153,-0.32455906,0.3587039,0.5487937,0.03690932,-0.011387035,0.00040974375,0.8988256169791398,0.41023475105442425,0.15433716107724396,-0.4112570790808356,0.9111269870836814,-0.026743752797843714,-0.15159196933864263,-0.03943427994939632,0.987656221767931,0.13225372,-0.0055968147,0.119908445,-1.5948322,0.6036338,-0.04359689,0.74890065,-0.018859461,0.00051410095,0.0117202075,0.019046993839331228,-0.305866747415454,-0.951883787471546,0.9995409703233102,-0.01660897856386928,0.02533753098074687,-0.023559725610028892,-0.9519294483608308,0.30540999438889416,left_images/camera_left_101.png,right_images/camera_right_101.png
2025-06-02 14:24:26,5.355819940567017,102,-0.083580755,0.12894644,0.117089756,0.3811556,-0.32419378,0.35800806,0.57424176,0.036923226,-0.01120118,0.00024703052,0.900960595123479,0.40526517253179983,0.15501659900641937,-0.4055533340425742,0.91353848007416,-0.031207990495157233,-0.15426113989498055,-0.03475032886986943,0.9874188145674242,0.13321528,-0.005063241,0.12003364,-1.6002874,0.60315764,-0.04361966,0.7320035,-0.018700529,0.0005074829,0.011691444,0.015093981517014465,-0.30530052026544524,-0.952136420922765,0.9995127578544123,-0.02141192110374035,0.022710713791383674,-0.027320662660905104,-0.9520152950243477,0.30482857384351847,left_images/camera_left_102.png,right_images/camera_right_102.png
2025-06-02 14:24:26,5.413763523101807,103,-0.08261625,0.12750947,0.11730631,0.37671423,-0.32401356,0.35781485,0.599346,0.03686859,-0.011039041,4.876405e-06,0.9021482507368994,0.40263670254653855,0.15495876695044652,-0.4023940517446191,0.9148221298167163,-0.034343819213303414,-0.1555877913362786,-0.031371269659634354,0.9873237982683499,0.13471901,-0.004842081,0.12016137,-1.6038898,0.60245466,-0.04244541,0.7189372,-0.018493105,0.0005297861,0.011700224,0.01129548172505479,-0.3044584118007217,-0.952458653998367,0.9995054522704072,-0.024517897444479186,0.019690697972160165,-0.02934728223069022,-0.9522100336525993,0.3040309011218894,left_images/camera_left_103.png,right_images/camera_right_103.png
2025-06-02 14:24:26,5.478703498840332,104,-0.08158431,0.12549855,0.11720778,0.37117448,-0.3235721,0.35773396,0.6246896,0.03699036,-0.010767801,1.2490898e-05,0.9036000254942307,0.39935518612412707,0.15499170701230935,-0.39845674754633437,0.916391426897981,-0.038196505634404465,-0.15728704416328282,-0.027243128007740775,0.9871770852864907,0.13590811,-0.0044239494,0.120335996,-1.6083176,0.602696,-0.041553732,0.70827097,-0.018279705,0.0005351128,0.011663223,0.00724341712125437,-0.3029910291094746,-0.952965880390053,0.9994585174466732,-0.028395146643787006,0.016624907529834754,-0.03209680376151558,-0.9525702871317472,0.3026212868620372,left_images/camera_left_104.png,right_images/camera_right_104.png
2025-06-02 14:24:26,5.529680967330933,105,-0.080032066,0.12374225,0.11715534,0.36689702,-0.3227044,0.35652798,0.64462733,0.03713243,-0.010542141,-4.792679e-05,0.9046844204195807,0.3966946786999115,0.1554973676345085,-0.39526627461855424,0.9176354048108216,-0.04135016308129147,-0.1590932795540312,-0.024054016896430594,0.9869704821684837,0.13693559,-0.003781689,0.12047119,-1.6118405,0.6021097,-0.040982395,0.69666755,-0.018109012,0.0005002853,0.011629885,0.0043395406511893,-0.3024849794911558,-0.9531442732184734,0.9993915630105198,-0.031674594891904106,0.014602185515327382,-0.03460740051386335,-0.9526277117639761,0.30216348324872794,left_images/camera_left_105.png,right_images/camera_right_105.png
2025-06-02 14:24:27,5.584840536117554,106,-0.07953345,0.12216774,0.117134824,0.36088225,-0.3222202,0.3561052,0.6712845,0.037155002,-0.010330074,-6.428175e-05,0.9062269048924928,0.392772404420735,0.1564692786924237,-0.3907010740958827,0.9194123727007439,-0.04509500665386179,-0.16157186496818157,-0.02026640694210242,0.9866528291148619,0.13814366,-0.0034060534,0.12061279,-1.6166906,0.60231143,-0.040325355,0.68455887,-0.017914537,0.00051263446,0.011620245,0.00016512013813912985,-0.30100401901333823,-0.9536228569372475,0.999290151310513,-0.035875045668616046,0.011496720927576698,-0.037671822747935235,-0.9529478273421335,0.3007844280124148,left_images/camera_left_106.png,right_images/camera_right_106.png
2025-06-02 14:24:27,5.63596510887146,107,-0.07864157,0.12094182,0.117147386,0.35734937,-0.32115608,0.35480094,0.69358563,0.037198465,-0.010182084,-0.0001320215,0.9070964280160997,0.3902707405648488,0.1576858247890322,-0.3878237024717197,0.9205192400481529,-0.04729803909569678,-0.16361187634630886,-0.01825041808111697,0.9863559581400138,0.13907813,-0.0029524222,0.12069039,-1.6200769,0.602009,-0.03922281,0.6782713,-0.017786242,0.00050362817,0.011629788,-0.0032424439342592093,-0.30030153313320024,-0.9538388101535724,0.9992027376154218,-0.03892816740986549,0.008859284618762453,-0.039791653637162916,-0.9530496246156119,0.30018833641709186,left_images/camera_left_107.png,right_images/camera_right_107.png
2025-06-02 14:24:27,5.69624400138855,108,-0.07725734,0.11902046,0.116874024,0.3533472,-0.32023492,0.35639068,0.7183559,0.037471645,-0.009923623,-5.7443976e-06,0.9084632874077169,0.38784459810208793,0.1557916016844095,-0.3849939736868997,0.9215999778330075,-0.0493266771936913,-0.16270862195081917,-0.015167352479247453,0.9865575785333746,0.14030129,-0.0023998707,0.12076647,-1.6242136,0.60171527,-0.038553078,0.66246307,-0.01763346,0.00048657772,0.011664587,-0.006751085282593272,-0.2992861617036677,-0.9541395161401676,0.9990698789591865,-0.042656160134238896,0.006311018862135809,-0.04258872860256829,-0.9532094446737758,0.299295764722337,left_images/camera_left_108.png,right_images/camera_right_108.png
2025-06-02 14:24:27,5.753787517547607,109,-0.076323435,0.117119394,0.11693034,0.34714037,-0.32004827,0.35825542,0.7347032,0.037514027,-0.009685138,-0.00011685956,0.9103456879749922,0.3840611005843247,0.1541680881482787,-0.3805598272858776,0.9232469323326948,-0.052814011345582126,-0.16261902177015208,-0.010591173505589888,0.9866320898908029,0.14160724,-0.0021630488,0.12085221,-1.6288358,0.6017664,-0.038559932,0.65349805,-0.017465807,0.0005063318,0.011704988,-0.010174120528972708,-0.29782663877989757,-0.9545657549401876,0.998906368855196,-0.04659324471286863,0.0038904765329909607,-0.045635003363525106,-0.9534822299236598,0.2979749715795203,left_images/camera_left_109.png,right_images/camera_right_109.png
2025-06-02 14:24:27,5.806884288787842,110,-0.07547903,0.11544865,0.11696598,0.34469166,-0.3188071,0.35967022,0.76119304,0.03756397,-0.009505656,-0.00020937994,0.9112251734364887,0.38250756123943097,0.1528288221845083,-0.3788163327572678,0.9239093899775068,-0.05375523367753422,-0.16176176721331928,-0.008910931828617904,0.9867896057225014,0.14237274,-0.0017439444,0.12093082,-1.631733,0.60167086,-0.037440825,0.64376485,-0.017350763,0.00049643574,0.011703683,-0.013224951379920413,-0.2970855323665193,-0.9547592822903062,0.9987869758764567,-0.049217747243014864,0.0014799242834471205,-0.04743076512729666,-0.9535815643220167,0.2973760627633212,left_images/camera_left_110.png,right_images/camera_right_110.png
2025-06-02 14:24:27,5.858386993408203,111,-0.074963264,0.11383826,0.11700909,0.34029633,-0.31738657,0.3610239,0.78216773,0.037568476,-0.009326969,-0.00028310623,0.9126419046891416,0.37935359756563997,0.1522353500977422,-0.37535304625648386,0.9252280162365869,-0.05534626127289762,-0.16184821429769786,-0.006630685101589685,0.9867933874645339,0.1431932,-0.0016003788,0.12099714,-1.6345329,0.6014559,-0.03717563,0.6360501,-0.017239135,0.0005106949,0.011714991,-0.01554979277060492,-0.29639713732390527,-0.9549381869686566,0.9986672576929879,-0.05161055575903589,-0.00024278840704461402,-0.04921292875615507,-0.9536692757557189,0.2968046497661453,left_images/camera_left_111.png,right_images/camera_right_111.png
2025-06-02 14:24:27,5.911268472671509,112,-0.074393824,0.11227777,0.11651375,0.33760193,-0.3165648,0.36329028,0.8007975,0.037898116,-0.009095597,7.790979e-05,0.913636895189108,0.37773908375376397,0.15026911976209117,-0.3735420199583841,0.9259003937692881,-0.05634554235507217,-0.1604181507018984,-0.004652464158265347,0.9870381813803552,0.14406618,-0.00133544,0.12104669,-1.6374421,0.60119474,-0.03681256,0.62694246,-0.017133646,0.00051215786,0.011742921,-0.017972460927844713,-0.29569712222093636,-0.9551126648508299,0.9985300110243236,-0.05416395661820911,-0.002020615555979821,-0.051135190739464376,-0.9537449751971003,0.2962359103051506,left_images/camera_left_112.png,right_images/camera_right_112.png
2025-06-02 14:24:27,5.9625513553619385,113,-0.07355351,0.11024107,0.11690281,0.33234748,-0.31594977,0.3671011,0.8274436,0.03776323,-0.008896444,-0.0003050007,0.9155050999329225,0.3745163013817984,0.14692839070822009,-0.36992181191359147,0.9272199803107852,-0.058488983433057765,-0.15814001728650126,-0.0008050538894762739,0.9874163695325595,0.14523749,-0.0011393866,0.121150605,-1.6416504,0.6013578,-0.036691297,0.6128286,-0.016966194,0.0005336933,0.011760375,-0.021201358628146594,-0.2942416441095213,-0.9554958698309725,0.9983226149404678,-0.057730645219581656,-0.004373682768265608,-0.053874473461439476,-0.9539858633513689,0.2949720556849345,left_images/camera_left_113.png,right_images/camera_right_113.png
2025-06-02 14:24:27,6.014357805252075,114,-0.07283316,0.109033644,0.11706852,0.32855612,-0.31448647,0.36991078,0.84543324,0.037737068,-0.008787193,-0.00049182866,0.9170576370982513,0.3715722512226698,0.14470436192834432,-0.3668738433591603,0.9284035688293212,-0.0589100708186495,-0.15623339367321712,0.0009356849347547241,0.9877197229958773,0.14577033,-0.00087344274,0.12116868,-1.6445444,0.60081446,-0.03664045,0.6091212,-0.0169117,0.0005316779,0.0117801605,-0.023327821308217478,-0.29412467486746113,-0.9554823328492903,0.9981643187181457,-0.060284376390266015,-0.005812641497367044,-0.05589101529720181,-0.9538639680779157,0.29499105886738486,left_images/camera_left_114.png,right_images/camera_right_114.png
2025-06-02 14:24:27,6.065989255905151,115,-0.07295903,0.108084776,0.11692513,0.32317227,-0.3133674,0.37273183,0.8691739,0.037796527,-0.008661148,-0.00036703143,0.9189236109956254,0.36743234162090926,0.1434324631516033,-0.3624985974194889,0.9300446409609057,-0.060097692874214334,-0.155480429712758,0.0032311222316003772,0.9878336883430634,0.1466917,-0.0007760351,0.12118926,-1.6481476,0.6004653,-0.03749605,0.5980041,-0.016820624,0.0005489687,0.011833899,-0.025219091498878354,-0.293405379354353,-0.9556554194843973,0.9979695529641868,-0.063318405789203,-0.006895712057134629,-0.05848733863352218,-0.9538889153639651,0.29440646794071235,left_images/camera_left_115.png,right_images/camera_right_115.png
2025-06-02 14:24:27,6.11916971206665,116,-0.07186784,0.10636701,0.11679993,0.32151222,-0.311895,0.37600845,0.8797167,0.037980173,-0.008472323,-0.00034550205,0.9198713914654315,0.36636639000406,0.140043891115764,-0.3614642111290596,0.9304598873945068,-0.05990010035591463,-0.15225060668613968,0.00447953403771062,0.9883317694673726,0.14688489,-8.117625e-05,0.12122128,-1.6509196,0.60108876,-0.03680623,0.5943327,-0.016781352,0.00050088164,0.011834282,-0.027596183583890488,-0.2925123977260587,-0.9558634566862342,0.9977848291162341,-0.06596302942776677,-0.00862052980965311,-0.06053003747803032,-0.9539839495113446,0.29368476064931354,left_images/camera_left_116.png,right_images/camera_right_116.png
2025-06-02 14:24:27,6.172596454620361,117,-0.071020104,0.10459957,0.117010064,0.31705907,-0.31060266,0.37885678,0.89878845,0.03793948,-0.00829483,-0.00057926495,0.9214606343885647,0.3632675969057606,0.13764792882763469,-0.35813243073717793,0.9316572047618321,-0.061286335097230436,-0.15050402428674184,0.0071767578810652335,0.9885833464204282,0.14751281,0.00026479064,0.12129328,-1.6537985,0.60104066,-0.037069194,0.5830705,-0.016682465,0.00048666363,0.011828419,-0.029341483940103052,-0.29182251617767857,-0.9560223304776523,0.9976020945494106,-0.06852716374254797,-0.009699937114786172,-0.06268283872657232,-0.9540144898695881,0.2931334420499441,left_images/camera_left_117.png,right_images/camera_right_117.png
2025-06-02 14:24:27,6.222111940383911,118,-0.07016699,0.10283266,0.11710754,0.3145044,-0.30884945,0.3813445,0.9198185,0.03796368,-0.008120828,-0.0007237373,0.9225225671005003,0.36140102585787354,0.13543046813468396,-0.35621872846692787,0.9323711125278841,-0.06158186431832809,-0.1485272051837916,0.008567790403160823,0.988871206117308,0.14814737,0.0006652647,0.121327005,-1.656271,0.6009553,-0.03705617,0.57756615,-0.016606908,0.00046389867,0.011852451,-0.03099715435213779,-0.2911826590222966,-0.9561651716658449,0.9974330455126934,-0.07078961469166423,-0.010777298876766095,-0.06454840153979935,-0.9540448047846131,0.2926294830022193,left_images/camera_left_118.png,right_images/camera_right_118.png
2025-06-02 14:24:27,6.278346061706543,119,-0.06995723,0.10153498,0.11719359,0.31048948,-0.30745703,0.38354492,0.9316058,0.037926357,-0.007986609,-0.00081208814,0.9238929266144904,0.3583382392211927,0.13422207889750143,-0.35299448952917134,0.9335340793805958,-0.0625221000691999,-0.14770494410733703,0.010384071787049459,0.9889769565259696,0.14852174,0.00090572855,0.12137061,-1.6584831,0.6012331,-0.037120007,0.56942385,-0.016546201,0.00045758663,0.01185373,-0.032485929133983404,-0.2904481368893519,-0.9563391365963261,0.9972820356572705,-0.07272950214083318,-0.011788166678386447,-0.06613021823336657,-0.954122790470834,0.2920213946623714,left_images/camera_left_119.png,right_images/camera_right_119.png
2025-06-02 14:24:27,6.334035634994507,120,-0.06978946,0.10064896,0.11705213,0.30619448,-0.30607924,0.38614437,0.9479135,0.0380163,-0.0078777475,-0.00070743356,0.925455023951748,0.35484689067011915,0.13272785248100027,-0.34939836157386644,0.9348471380358958,-0.06310002722339009,-0.1464711014909335,0.012021343013299084,0.9891419027319535,0.14897856,0.0011596314,0.12139764,-1.6608883,0.6013752,-0.037876353,0.55658144,-0.016489092,0.0004451192,0.011872757,-0.03344858062728734,-0.2897515294532,-0.9565172469085707,0.9971208339076387,-0.07484164505746688,-0.012197161654554367,-0.0680531780400816,-0.9541712526295392,0.2914206334733721,left_images/camera_left_120.png,right_images/camera_right_120.png
2025-06-02 14:24:27,6.380201578140259,121,-0.069526866,0.0992543,0.11687398,0.30253688,-0.30484045,0.38945585,0.9543289,0.03814313,-0.0077085993,-0.0005838536,0.9268198925332931,0.3521709040237464,0.13030940550732517,-0.3466340255113711,0.9358324302481521,-0.06373786044118404,-0.14439438757222323,0.013903843171402457,0.9894225305614927,0.14920862,0.0013798471,0.12139425,-1.6633228,0.60126376,-0.038950875,0.5515964,-0.016472092,0.00043349294,0.01189215,-0.0341678111473771,-0.2895075554935939,-0.9565656987335063,0.996957292773601,-0.07697073295319667,-0.012315139226982075,-0.07006223709623788,-0.9540759307208055,0.2912565902298166,left_images/camera_left_121.png,right_images/camera_right_121.png
2025-06-02 14:24:27,6.431934833526611,122,-0.0684083,0.097718686,0.117165715,0.30031127,-0.3033847,0.39227524,0.96567273,0.03809437,-0.007578007,-0.0009036958,0.9278453785343361,0.35055335304922275,0.12733931128454148,-0.34502758932045763,0.936417489392215,-0.06386116322221433,-0.14162950307117503,0.015317709565325795,0.9898012182420692,0.14949986,0.0018038753,0.121417254,-1.6655966,0.6013169,-0.038918003,0.54712474,-0.016432915,0.00040626386,0.011898392,-0.03568744498912968,-0.289064181545761,-0.9566442939867602,0.9967800699696185,-0.07907490091831504,-0.013291055493101334,-0.07180458468308182,-0.954038290107917,0.2909553962834375,left_images/camera_left_122.png,right_images/camera_right_122.png
2025-06-02 14:24:27,6.482280015945435,123,-0.06785334,0.096689194,0.11728494,0.29746056,-0.30156395,0.39532587,0.98061335,0.03808479,-0.0074937,-0.0010422729,0.9291250510403082,0.3480208407613115,0.12493251748497887,-0.3425724765380916,0.9373479857740321,-0.06342595591651379,-0.139178798126379,0.016132202613243565,0.990135856431299,0.1495376,0.0021421476,0.1214143,-1.6674963,0.6011436,-0.039556004,0.5348312,-0.016433012,0.0003788885,0.011900375,-0.036346146775835086,-0.28909586280215827,-0.956609920356895,0.9966369453675279,-0.08083450621168348,-0.013438070322644269,-0.07344220001492657,-0.9538812110091008,0.29106164044885496,left_images/camera_left_123.png,right_images/camera_right_123.png
2025-06-02 14:24:27,6.538555860519409,124,-0.06762347,0.09577622,0.11717994,0.29379722,-0.2994367,0.39853865,0.9853364,0.038164362,-0.007402827,-0.0009734044,0.9306497470230053,0.3446528566021327,0.1229042586813239,-0.33927676494247355,0.9385784519345793,-0.06294256377252053,-0.1370486232553452,0.016878921768823118,0.9904205050703141,0.14975217,0.0024439336,0.1213687,-1.6702073,0.6013829,-0.041248366,0.5346676,-0.016441956,0.00035555544,0.011958322,-0.036632817141900975,-0.2885097692781014,-0.9567759140673142,0.9964458875001698,-0.08321705981135302,-0.013058110137102175,-0.07585268612413815,-0.9538537801924625,0.2905328484359429,left_images/camera_left_124.png,right_images/camera_right_124.png
2025-06-02 14:24:28,6.592153787612915,125,-0.067302205,0.09456682,0.117306985,0.2893676,-0.29736838,0.40138328,1.0039945,0.038117774,-0.007293321,-0.0011019772,0.9322669468285415,0.34086683819418795,0.12119463053488416,-0.33544626051797366,0.9399330843305155,-0.06325822701777431,-0.1354774747162698,0.01831926855586289,0.9906110529587691,0.15005277,0.0028131062,0.121339396,-1.673427,0.60193926,-0.043032866,0.5245544,-0.016431686,0.00032854697,0.012015571,-0.03717336495519358,-0.287506548721001,-0.9570570126071105,0.9962091223432102,-0.08603668808671355,-0.01284806846340808,-0.07864811185323428,-0.9539065324997038,0.28961491977505743,left_images/camera_left_125.png,right_images/camera_right_125.png
2025-06-02 14:24:28,6.645126581192017,126,-0.06718728,0.09386601,0.11755737,0.28664884,-0.29589096,0.40466985,1.0106733,0.03799783,-0.0072550154,-0.0013199439,0.9334601061954861,0.33841951233357576,0.11884638746473013,-0.33309543818831494,0.9408041437139161,-0.06272951640862326,-0.13304006614417502,0.018968311538722415,0.9909291316525737,0.15028496,0.0030818076,0.121308774,-1.6747085,0.60211474,-0.043584973,0.5158408,-0.016429827,0.00030456326,0.0120617915,-0.037454968042676284,-0.28704896646765643,-0.9571833764847633,0.9961057748177556,-0.08722936370972662,-0.012818872084341237,-0.07981485290120233,-0.953936019320293,0.28919830618403164,left_images/camera_left_126.png,right_images/camera_right_126.png
2025-06-02 14:24:28,6.700842380523682,127,-0.06681761,0.09292824,0.117404014,0.28443953,-0.29373258,0.40766504,1.0136862,0.03812193,-0.0071634357,-0.0012221457,0.9345550997271332,0.336158483512866,0.11663721334264945,-0.3309963492689399,0.941612601805209,-0.06170190347355009,-0.1305686882244072,0.019057336748758088,0.991256089802934,0.1503879,0.003282983,0.12124695,-1.6763762,0.6030064,-0.044175025,0.51525223,-0.016455378,0.00029386778,0.012133979,-0.03804357963812932,-0.28600132525369754,-0.9574737218333704,0.9959759755297342,-0.08865943795720599,-0.01309046327320651,-0.08114519219221888,-0.9541188322291104,0.28822337131094483,left_images/camera_left_127.png,right_images/camera_right_127.png
2025-06-02 14:24:28,6.760221004486084,128,-0.06545131,0.09131572,0.117334105,0.28177884,-0.29184315,0.4120126,1.0201435,0.03831014,-0.0069976803,-0.0012594359,0.9358791256614872,0.334004994104808,0.11212014120637322,-0.3289732107163321,0.9423491858656606,-0.06127510529827086,-0.12612251496888918,0.020461569132732175,0.9918036274417171,0.15066905,0.0036163894,0.121198274,-1.677753,0.6033705,-0.04464336,0.5081247,-0.016459614,0.00026434872,0.0122016575,-0.0384319317492689,-0.28531228845582457,-0.9576637638953036,0.9958588310361045,-0.08995484319499608,-0.013164909159093241,-0.0823903833552379,-0.9542038693287007,0.2875879004560395,left_images/camera_left_128.png,right_images/camera_right_128.png
2025-06-02 14:24:28,6.815501689910889,129,-0.06490533,0.08988127,0.11723941,0.2783798,-0.2894336,0.41583833,1.0188015,0.03841989,-0.0068538096,-0.0012221606,0.9373149712103533,0.3309461647625737,0.10915713798867192,-0.32602051033015383,0.9434076092731872,-0.06076766911372776,-0.12309050161974568,0.021370980192608174,0.9921653136532271,0.15074362,0.0039545745,0.1211368,-1.6803199,0.6041286,-0.046228252,0.5022305,-0.01648828,0.00023728318,0.012269038,-0.03868472715605176,-0.2843623563050294,-0.9579360846118666,0.9956574203687986,-0.09220357767593301,-0.012837504753948015,-0.0846746310851797,-0.9542727862516094,0.28669436037386403,left_images/camera_left_129.png,right_images/camera_right_129.png
2025-06-02 14:24:28,6.875531435012817,130,-0.0648128,0.08880512,0.117527016,0.27465865,-0.28755435,0.4197451,1.0305593,0.038276613,-0.006776638,-0.0014711474,0.9387644537429128,0.32770489507799677,0.1064462405662596,-0.32284686095777376,0.9445129415776723,-0.060540957722890434,-0.12037941999562364,0.022467864478229058,0.992473672349703,0.15123524,0.0041569,0.121082604,-1.6826606,0.604646,-0.04774339,0.4964522,-0.016476905,0.00022442333,0.012361625,-0.038878345915956236,-0.2832503085558094,-0.9582576568553357,0.9954741058017489,-0.09420175351695842,-0.012543297514580054,-0.08671665870551226,-0.9544083467454428,0.28563075598678567,left_images/camera_left_130.png,right_images/camera_right_130.png
2025-06-02 14:24:28,6.926770925521851,131,-0.06492,0.08809284,0.11735758,0.27146453,-0.28581885,0.4227865,1.0424635,0.038362537,-0.006699133,-0.0013265964,0.9399937601395556,0.3247531994844033,0.10462834378572272,-0.3199639747335783,0.9455170787620051,-0.0601706626359954,-0.11846850117811947,0.02308274667382685,0.9926894786561417,0.15147197,0.0042969068,0.121017806,-1.6848248,0.60521924,-0.049542807,0.49127156,-0.016494324,0.00021451066,0.012442289,-0.038720707601179405,-0.2823330509785208,-0.9585346916664123,0.9953084259334543,-0.09601523589385452,-0.01192525648013082,-0.08866704048705698,-0.954499409534342,0.2847262424327255,left_images/camera_left_131.png,right_images/camera_right_131.png
2025-06-02 14:24:28,6.986471891403198,132,-0.06477573,0.08714508,0.11731946,0.26853168,-0.28328997,0.42679298,1.0384178,0.03840572,-0.0066227717,-0.0013094665,0.9413373175013137,0.32173719463669403,0.1018294273122518,-0.31714456146157544,0.9465456882724091,-0.058911689402498496,-0.11534028704132875,0.023161122602791042,0.9930559805897161,0.15169506,0.0044706417,0.12093355,-1.686333,0.60581845,-0.050817005,0.4876908,-0.016524535,0.00019921717,0.012537624,-0.038534854612024216,-0.2814502144434205,-0.9588017739709198,0.9951885233035951,-0.09730927820973556,-0.011432736291461021,-0.0900825624904174,-0.9546290804097961,0.28384582218364096,left_images/camera_left_132.png,right_images/camera_right_132.png
2025-06-02 14:24:28,7.038956642150879,133,-0.064667486,0.08628526,0.11736673,0.2640687,-0.28079736,0.43046886,1.0375547,0.038390823,-0.0065547684,-0.0013575107,0.9430216448015967,0.31748823775006346,0.09955599593218967,-0.3129807732880661,0.9479596066081405,-0.05844330407620256,-0.11293012435880481,0.02395418814526011,0.9933141415899636,0.15198752,0.0048015374,0.12084284,-1.6892189,0.6064967,-0.05297973,0.47714368,-0.016553076,0.00017103832,0.012644956,-0.03845992740234816,-0.28033412313286304,-0.959131697626314,0.994948715232411,-0.09981009692791509,-0.01072374042090335,-0.09272479733911981,-0.9546992845700519,0.2827567647287156,left_images/camera_left_133.png,right_images/camera_right_133.png
2025-06-02 14:24:28,7.090496063232422,134,-0.0641506,0.08544584,0.117374375,0.2616397,-0.27795118,0.43360656,1.0290959,0.038439553,-0.0065003624,-0.0014005704,0.9442237598656162,0.3146341918783382,0.09719473548656861,-0.31034335694612925,0.9489207574056001,-0.056889339635730535,-0.11012943341653204,0.02355252567872873,0.9936381566896001,0.15195626,0.0051493538,0.12075839,-1.6908174,0.60728776,-0.05365049,0.47321433,-0.01660505,0.00014176118,0.012721987,-0.03883266419485926,-0.27951172809856545,-0.9593566688395319,0.9948015785354236,-0.1012617698795844,-0.010764446306410713,-0.0941373652433442,-0.9547875406687123,0.281990972637128,left_images/camera_left_134.png,right_images/camera_right_134.png
2025-06-02 14:24:28,7.1432716846466064,135,-0.0639715,0.0849983,0.1175167,0.25990102,-0.2757008,0.43654868,1.0224079,0.038385432,-0.006496675,-0.0015331851,0.9451766112196751,0.3124081889125106,0.09509099380959403,-0.30833524832888687,0.9496718206483303,-0.05525221900022932,-0.10756648288967531,0.02290319992688228,0.9939340497195247,0.1520124,0.005609369,0.12071763,-1.6925213,0.6080463,-0.054310776,0.47043693,-0.016622502,9.963117e-05,0.012771267,-0.03921933323015658,-0.27863565194976836,-0.9595957572663135,0.9946369451493973,-0.1028643485952605,-0.010783001991471752,-0.09570366369610561,-0.9548722947340135,0.2811755848300887,left_images/camera_left_135.png,right_images/camera_right_135.png
2025-06-02 14:24:28,7.1995580196380615,136,-0.06430953,0.08449823,0.11754321,0.2573403,-0.27391946,0.4400547,1.0250092,0.038347512,-0.006466305,-0.0015369128,0.946249191957069,0.30980078996697497,0.0929297436584888,-0.3058687978409926,0.9505245308762176,-0.05428991351855893,-0.10515105909072053,0.02294747782186196,0.9941914644743813,0.15213835,0.0058837403,0.12066601,-1.6944449,0.6089266,-0.055701595,0.4678965,-0.016639866,7.617026e-05,0.012837792,-0.03918158874390526,-0.2775464651321353,-0.9599128933378069,0.9944677462580862,-0.10452938025173458,-0.010368718172991842,-0.09746129875938508,-0.9550086744929831,0.28010663485053183,left_images/camera_left_136.png,right_images/camera_right_136.png
2025-06-02 14:24:28,7.246415615081787,137,-0.064167194,0.0838827,0.117457174,0.2547895,-0.2711845,0.4433982,1.0166436,0.038413923,-0.0064282706,-0.0014778427,0.9474489993741432,0.3067820539054534,0.09069269533146729,-0.3030572233097713,0.9515157826871015,-0.052669105717906436,-0.10245346741182673,0.022416215088727875,0.9944851936134542,0.15228912,0.006359769,0.12066382,-1.6965092,0.6102073,-0.05670895,0.46393946,-0.01662248,3.364461e-05,0.012874332,-0.03948631887753834,-0.27605138499549847,-0.9603314341744564,0.9942704517847687,-0.10639655524923192,-0.010297656957244217,-0.09933327402846093,-0.9552357854860569,0.2786709435833283,left_images/camera_left_137.png,right_images/camera_right_137.png
2025-06-02 14:24:28,7.2987141609191895,138,-0.06451233,0.08338249,0.11743245,0.2515719,-0.2697438,0.4460437,1.018094,0.038396247,-0.0063821906,-0.0014365893,0.9485346717754837,0.30381609145858485,0.08931830165539512,-0.3001172812709853,0.9524508995606293,-0.05260134417160912,-0.10105243155059482,0.023088232868207582,0.9946131607719333,0.1524216,0.0065938416,0.120673575,-1.6979613,0.61086893,-0.05753365,0.46012735,-0.016602054,1.4587451e-05,0.012889333,-0.0396514441790648,-0.275195036859316,-0.9605703798590265,0.9941348693679005,-0.10766612196627173,-0.01019154981400966,-0.10061622374836998,-0.9553406187683762,0.27785009924395265,left_images/camera_left_138.png,right_images/camera_right_138.png
2025-06-02 14:24:28,7.349727153778076,139,-0.0649338,0.0824647,0.117341265,0.24851933,-0.26768562,0.45017377,1.0093318,0.038416628,-0.0062962812,-0.001339755,0.9497044302041173,0.30089609643262005,0.08673542760766498,-0.2973204848379436,0.9533682170229818,-0.05186108431329767,-0.09829559779767971,0.02346448213859073,0.9948805925997173,0.15257925,0.006959887,0.12065612,-1.7005153,0.6121332,-0.05908941,0.4459098,-0.016593736,-1.432914e-05,0.012938418,-0.03987425193671862,-0.273659878054818,-0.9609996436916662,0.9938967703095654,-0.10986416318067344,-0.00995367353420773,-0.10285550058554149,-0.955531337419989,0.27637042028347597,left_images/camera_left_139.png,right_images/camera_right_139.png
2025-06-02 14:24:28,7.407368898391724,140,-0.065132074,0.082394265,0.11750285,0.24606785,-0.26650983,0.45280972,0.9960593,0.038316417,-0.006315773,-0.0014607315,0.9506356587049398,0.2984267431778584,0.08504894681818047,-0.2949359696975507,0.9541384384427007,-0.05130900568798794,-0.09646044877145547,0.02369217681812045,0.9950548038075231,0.15269883,0.007168945,0.12066759,-1.7023242,0.6131331,-0.060156044,0.44807374,-0.016571755,-2.8131413e-05,0.012956969,-0.04009349378932042,-0.27245951255034195,-0.9613315379080185,0.9937285292469553,-0.11138249425506458,-0.009876747146899123,-0.10438449078502515,-0.9556985685844417,0.2752165040276481,left_images/camera_left_140.png,right_images/camera_right_140.png
2025-06-02 14:24:28,7.4586896896362305,141,-0.06528616,0.0821376,0.117378116,0.24536692,-0.26460198,0.45539516,0.97890306,0.038379744,-0.006310222,-0.0013511386,0.9512111193326608,0.2970740546953599,0.08333314157503391,-0.2937943380127703,0.954587507500373,-0.04947299744166759,-0.09424591985621669,0.02257646010966894,0.9952929267503974,0.15248029,0.0074621555,0.12061783,-1.7032993,0.61374927,-0.060761686,0.4441885,-0.01661931,-5.7094665e-05,0.012988377,-0.04009795028961838,-0.2720203783390063,-0.9614557026461878,0.9936275100147363,-0.11229830018174758,-0.009667632502589119,-0.10534004805621783,-0.9557164880573077,0.2747898628605496,left_images/camera_left_141.png,right_images/camera_right_141.png
