jiaqis7/OS_Teleop_Extension/rollout_12/teleop_log.csv
Epoch Time (Seconds),Time (Seconds),Frame Number,PSM1_joint_1,PSM1_joint_2,PSM1_joint_3,PSM1_joint_4,PSM1_joint_5,PSM1_joint_6,PSM1_jaw_angle,PSM1_ee_x,PSM1_ee_y,PSM1_ee_z,"PSM1_Orientation_Matrix_[1,1]","PSM1_Orientation_Matrix_[1,2]","PSM1_Orientation_Matrix_[1,3]","PSM1_Orientation_Matrix_[2,1]","PSM1_Orientation_Matrix_[2,2]","PSM1_Orientation_Matrix_[2,3]","PSM1_Orientation_Matrix_[3,1]","PSM1_Orientation_Matrix_[3,2]","PSM1_Orientation_Matrix_[3,3]",PSM2_joint_1,PSM2_joint_2,PSM2_joint_3,PSM2_joint_4,PSM2_joint_5,PSM2_joint_6,PSM2_jaw_angle,PSM2_ee_x,PSM2_ee_y,PSM2_ee_z,"PSM2_Orientation_Matrix_[1,1]","PSM2_Orientation_Matrix_[1,2]","PSM2_Orientation_Matrix_[1,3]","PSM2_Orientation_Matrix_[2,1]","PSM2_Orientation_Matrix_[2,2]","PSM2_Orientation_Matrix_[2,3]","PSM2_Orientation_Matrix_[3,1]","PSM2_Orientation_Matrix_[3,2]","PSM2_Orientation_Matrix_[3,3]",Camera Left,Camera Right
2025-06-02 14:44:52,0.001697540283203125,1,-0.07381554,-0.014321152,0.11373318,0.031232921,0.08570575,0.11985765,0.5235896,0.03537776,6.346626e-05,0.003167943,0.887471611433967,-0.014415157292828159,0.4606368875144728,-0.022477183683053795,0.9969673645359362,0.07450402850818284,-0.4603139310432352,-0.07647403017033223,0.8844562214134915,-0.00090618804,1.9074658e-05,0.107087806,0.00070370093,0.00011565693,-0.014005227,0.005959486,-0.04523655,-4.347822e-06,0.0047314344,0.8732870267041586,0.00067667784036986,-0.4872056148047869,-0.0007055760580121622,0.9999997433693004,0.00012419242935595936,0.4872055738111341,0.00023530497976392153,0.8732872800395812,left_images/camera_left_1.png,right_images/camera_right_1.png
2025-06-02 14:44:52,0.04533576965332031,2,-0.073815815,-0.014318627,0.11373318,0.03125547,0.085688084,0.119865045,0.5235896,0.03537767,6.347016e-05,0.0031680344,0.8874741736799421,-0.014388251884099893,0.46063279220961223,-0.022500785117614962,0.9969677260299665,0.07449206617975275,-0.4603078379956124,-0.07647438435422309,0.8844593618801531,-0.00090618804,1.9074658e-05,0.107087806,0.00070370093,0.00011565693,-0.014005227,0.005959486,-0.04523655,-4.347822e-06,0.0047314344,0.8732870267041586,0.00067667784036986,-0.4872056148047869,-0.0007055760580121622,0.9999997433693004,0.00012419242935595936,0.4872055738111341,0.00023530497976392153,0.8732872800395812,left_images/camera_left_2.png,right_images/camera_right_2.png
2025-06-02 14:44:52,0.09620189666748047,3,-0.07381595,-0.014316718,0.11373318,0.031272154,0.08567489,0.11987051,0.5235896,0.035377823,6.353232e-05,0.003168039,0.8874763813126069,-0.014368227334542252,0.4606291639220683,-0.02251821647619951,0.9969680088227529,0.0744830135717314,-0.46030272923263427,-0.07647446258234589,0.8844620139009532,-0.00090618804,1.9074658e-05,0.107087806,0.00070370093,0.00011565693,-0.014005227,0.005959486,-0.04523655,-4.347822e-06,0.0047314344,0.8732870267041586,0.00067667784036986,-0.4872056148047869,-0.0007055760580121622,0.9999997433693004,0.00012419242935595936,0.4872055738111341,0.00023530497976392153,0.8732872800395812,left_images/camera_left_3.png,right_images/camera_right_3.png
2025-06-02 14:44:53,0.15012335777282715,4,-0.07381618,-0.014315226,0.11373318,0.0312846,0.085665084,0.11987452,0.5235896,0.03537767,6.3543615e-05,0.0031679962,0.8874777867334863,-0.014353056293259893,0.46062692911908093,-0.02253146756970876,0.9969682225558522,0.07447614505987593,-0.46029937108776003,-0.07647452509736188,0.8844637561750879,-0.00090618804,1.9074658e-05,0.107087806,0.00070370093,0.00011565693,-0.014005227,0.005959486,-0.04523655,-4.347822e-06,0.0047314344,0.8732870267041586,0.00067667784036986,-0.4872056148047869,-0.0007055760580121622,0.9999997433693004,0.00012419242935595936,0.4872055738111341,0.00023530497976392153,0.8732872800395812,left_images/camera_left_4.png,right_images/camera_right_4.png
2025-06-02 14:44:53,0.19826245307922363,5,-0.07381618,-0.014313906,0.11373318,0.031293757,0.08565758,0.119877614,0.5235896,0.035377726,6.344332e-05,0.0031680437,0.8874789468422306,-0.014342383163083394,0.4606250264119484,-0.022540727358151547,0.9969683785847744,0.07447125426774509,-0.4602966809808326,-0.07647449344225149,0.8844651589128768,-0.00090618804,1.9074658e-05,0.107087806,0.00070370093,0.00011565693,-0.014005227,0.005959486,-0.04523655,-4.347822e-06,0.0047314344,0.8732870267041586,0.00067667784036986,-0.4872056148047869,-0.0007055760580121622,0.9999997433693004,0.00012419242935595936,0.4872055738111341,0.00023530497976392153,0.8732872800395812,left_images/camera_left_5.png,right_images/camera_right_5.png
2025-06-02 14:44:53,0.24631023406982422,6,-0.07381618,-0.0143130645,0.11373318,0.031300545,0.08565218,0.11987986,0.5235896,0.035377715,6.348087e-05,0.0031681806,0.8874798389709744,-0.014334146408662733,0.4606235639508559,-0.022547881773123404,0.9969684976128097,0.07446749489006668,-0.4602946104915834,-0.0764744860354869,0.8844662370820096,-0.00090618804,1.9074658e-05,0.107087806,0.00070370093,0.00011565693,-0.014005227,0.005959486,-0.04523655,-4.347822e-06,0.0047314344,0.8732870267041586,0.00067667784036986,-0.4872056148047869,-0.0007055760580121622,0.9999997433693004,0.00012419242935595936,0.4872055738111341,0.00023530497976392153,0.8732872800395812,left_images/camera_left_6.png,right_images/camera_right_6.png
2025-06-02 14:44:53,0.29670000076293945,7,-0.07381575,-0.014315608,0.11373318,0.03127408,0.08567268,0.11987115,0.5235896,0.03537778,6.342761e-05,0.0031681266,0.887476598036421,-0.01436594304740495,0.4606288176157237,-0.02252034934334245,0.996968018010087,0.07448224574012685,-0.4603022070370234,-0.07647477195387736,0.8844622589186312,-0.00090618804,1.9074658e-05,0.107087806,0.00070370093,0.00011565693,-0.014005227,0.005959486,-0.04523655,-4.347822e-06,0.0047314344,0.8732870267041586,0.00067667784036986,-0.4872056148047869,-0.0007055760580121622,0.9999997433693004,0.00012419242935595936,0.4872055738111341,0.00023530497976392153,0.8732872800395812,left_images/camera_left_7.png,right_images/camera_right_7.png
2025-06-02 14:44:53,0.34081196784973145,8,-0.07381571,-0.014317817,0.11373318,0.031254493,0.08568797,0.11986493,0.5235896,0.03537777,6.34825e-05,0.0031680902,0.887474338666993,-0.014389174716518512,0.4606324455122117,-0.022500029262427303,0.9969676979350913,0.07449267049310417,-0.4603075568473465,-0.07647457698465406,0.8844594915451159,-0.00090618804,1.9074658e-05,0.107087806,0.00070370093,0.00011565693,-0.014005227,0.005959486,-0.04523655,-4.347822e-06,0.0047314344,0.8732870267041586,0.00067667784036986,-0.4872056148047869,-0.0007055760580121622,0.9999997433693004,0.00012419242935595936,0.4872055738111341,0.00023530497976392153,0.8732872800395812,left_images/camera_left_8.png,right_images/camera_right_8.png
2025-06-02 14:44:53,0.4202284812927246,9,-0.07381571,-0.014319355,0.11373318,0.031239923,0.08569923,0.11986008,0.5235896,0.035377733,6.344955e-05,0.0031682001,0.8874724112786709,-0.014406788998567616,0.4606356083174337,-0.02248463900978344,0.9969674579205324,0.07450052923349651,-0.46031202485685857,-0.07647438968845777,0.884457182397179,0.0071846065,-0.0043121544,0.108195886,0.0019261364,0.011145042,-0.026092753,0.032627136,-0.044005528,0.0002738183,0.004167849,0.875229309249478,0.005120939760964536,-0.48368112657684476,-0.0021037529784076123,0.9999747999811217,0.006780385396207147,0.4837036597484941,-0.0049168464161320445,0.8752180266466366,left_images/camera_left_9.png,right_images/camera_right_9.png
2025-06-02 14:44:53,0.4697284698486328,10,-0.073815495,-0.014320483,0.11373318,0.031229163,0.08570755,0.11985655,0.5235896,0.03537777,6.341864e-05,0.0031679478,0.8874712214836646,-0.014419750001160268,0.4606374950524507,-0.02247325722480536,0.9969672844931214,0.07450628403107552,-0.460314874567399,-0.07647420781097118,0.8844557149974691,0.013691016,-0.008062255,0.109359495,-0.0003321779,0.019743158,-0.035947584,0.059293568,-0.04286866,0.0005407097,0.0034931386,0.876839663115535,0.0056953234141020135,-0.4807491741840478,-8.827081834816147e-05,0.9999317246200335,0.011684960704598025,0.48078290048180555,-0.010203400884712567,0.8767802992852246,left_images/camera_left_10.png,right_images/camera_right_10.png
2025-06-02 14:44:53,0.5246407985687256,11,-0.073815495,-0.014321576,0.11373318,0.031221228,0.08571405,0.11985408,0.5235896,0.035377726,6.3398795e-05,0.0031681983,0.8874701219224602,-0.014429445391330308,0.460639309873389,-0.022464800589435056,0.9969671507421158,0.07451062391111839,-0.46031740726308673,-0.07647412272687949,0.884454404208461,0.01824726,-0.0106467055,0.11018607,-0.004456425,0.026630336,-0.04362586,0.08596003,-0.042065956,0.00071110245,0.003016091,0.8783076098148282,0.004429043426254473,-0.4780754397746153,0.003754894289192217,0.9998623448913188,0.016161436734107453,0.4780812099531213,-0.01598983560772024,0.8781700756954758,left_images/camera_left_11.png,right_images/camera_right_11.png
2025-06-02 14:44:53,0.5840511322021484,12,-0.07381562,-0.014322351,0.11373318,0.031215288,0.08571881,0.11985229,0.5235896,0.035377674,6.348401e-05,0.0031680567,0.887469462008825,-0.014436368736620072,0.4606403643401938,-0.022458767896234324,0.9969670507998443,0.07451377969237236,-0.4603189739152072,-0.07647411900218706,0.8844535891591427,0.021164542,-0.012868315,0.11083083,-0.012087165,0.0317648,-0.051065195,0.11262657,-0.041507185,0.0008720545,0.0026064208,0.8803608903674651,-0.0005350556718557754,-0.4743041391626602,0.011105463636258537,0.9997484668621144,0.01948516574924285,0.4741744103057733,-0.0224213452379589,0.8801453924715463,left_images/camera_left_12.png,right_images/camera_right_12.png
2025-06-02 14:44:53,0.6414415836334229,13,-0.07381562,-0.014322849,0.11373318,0.03121092,0.08572227,0.119850874,0.5235896,0.035377614,6.3475454e-05,0.0031680642,0.8874689957276867,-0.014441965804853595,0.4606410872314615,-0.022453781246741654,0.9969669863724056,0.07451614450068708,-0.46032011614724705,-0.07647390213148042,0.8844530134286218,0.02363299,-0.014974292,0.11134957,-0.022380289,0.037562124,-0.05760942,0.13929312,-0.041045465,0.001006563,0.002287359,0.8820628168111132,-0.007336794032465481,-0.47107468479272974,0.021038650716578566,0.9994946955267607,0.0238270600346258,0.470661834415401,-0.03092773944524612,0.881771462771129,left_images/camera_left_13.png,right_images/camera_right_13.png
2025-06-02 14:44:53,0.698143482208252,14,-0.0738154,-0.014323239,0.11373318,0.031207649,0.08572484,0.11984953,0.5235896,0.03537765,6.341009e-05,0.0031681322,0.8874683885434124,-0.014445851232683216,0.4606421351964262,-0.022450492750378047,0.9969669204765568,0.07451801695400037,-0.4603214471555987,-0.0764740273403634,0.8844523098680456,0.024928402,-0.016755523,0.111570045,-0.032079127,0.042985737,-0.06235922,0.16595957,-0.04083663,0.0011074851,0.0021638814,0.8833809640644865,-0.013654639356096636,-0.46845663956502237,0.030373283958538853,0.9991420803338049,0.028152565208353013,0.46767032827631083,-0.03909800673041452,0.8830378304011874,left_images/camera_left_14.png,right_images/camera_right_14.png
2025-06-02 14:44:53,0.759899377822876,15,-0.073815264,-0.014323473,0.11373318,0.031205246,0.08572668,0.11984864,0.5235896,0.03537777,6.357161e-05,0.0031681852,0.8874682937262223,-0.01444844879245757,0.46064223640278523,-0.022448166864874025,0.9969668892179829,0.07451913584727782,-0.4603217433872471,-0.07647394412811467,0.8844521628863913,0.025993269,-0.01848597,0.111770995,-0.040447135,0.04692436,-0.06738184,0.19262642,-0.04066264,0.001230312,0.002042259,0.884889055157726,-0.019573306815863396,-0.46539042289497023,0.03842493520111215,0.9987788300192394,0.031054356541228092,0.46421426563264667,-0.04536225706125588,0.8845605582533347,left_images/camera_left_15.png,right_images/camera_right_15.png
2025-06-02 14:44:53,0.8175044059753418,16,-0.073815264,-0.014323417,0.11373318,0.0312035,0.08572789,0.11984812,0.5235896,0.035377786,6.35375e-05,0.0031682197,0.8874679983896872,-0.01445072762278941,0.46064273391140576,-0.02244615710482432,0.9969668623856515,0.07452010021554571,-0.46032241077904057,-0.07647386335266045,0.8844518225197406,0.026228726,-0.019989258,0.11188121,-0.054918382,0.051047835,-0.07346177,0.21929303,-0.04061952,0.0013175849,0.0019485308,0.8868787227105208,-0.030486079983168664,-0.46099536888196047,0.0524580245820798,0.9980123642235826,0.03492100390596917,0.4590144734758381,-0.05515360173292988,0.8867151703650864,left_images/camera_left_16.png,right_images/camera_right_16.png
2025-06-02 14:44:53,0.8914756774902344,17,-0.073815264,-0.01432339,0.11373318,0.031202216,0.08572879,0.11984767,0.5235896,0.035377726,6.339449e-05,0.0031681638,0.8874678624164443,-0.014452450043536846,0.4606429418386072,-0.022444960018891597,0.9969667862683476,0.07452147910175573,-0.46032273129592216,-0.07647453017509902,0.8844515980463602,0.02637568,-0.021507354,0.11197308,-0.06701908,0.054666225,-0.07834999,0.24595967,-0.040585726,0.0014169291,0.0018701712,0.8883039526251959,-0.039642470681300515,-0.45754186941605224,0.06416253897066922,0.9972092469380989,0.03816918146865357,0.45475186238573106,-0.06326288279419365,0.8883684772194909,left_images/camera_left_17.png,right_images/camera_right_17.png
2025-06-02 14:44:53,0.957294225692749,18,-0.07381483,-0.014326831,0.11373318,0.031169662,0.08575439,0.11983714,0.5235896,0.03537768,6.3445186e-05,0.0031680586,0.8874639165135749,-0.01449135746398573,0.46064932155082716,-0.022410902612450226,0.9969662552776823,0.07453883069709662,-0.46033199794331225,-0.07647408970655452,0.8844468131397569,0.02620392,-0.022721399,0.111956775,-0.084023125,0.060108695,-0.0837131,0.27262625,-0.040635616,0.0014411011,0.0018693963,0.8895811963295034,-0.051838900327137276,-0.4538259837755469,0.08050083381456129,0.9957806253874993,0.04405180879420631,0.4496275246157982,-0.07572103086827366,0.8900007947143171,left_images/camera_left_18.png,right_images/camera_right_18.png
2025-06-02 14:44:53,1.0136444568634033,19,-0.07381455,-0.014329591,0.11373318,0.031145522,0.08577339,0.11982938,0.5235896,0.03537773,6.3405954e-05,0.0031680893,0.887460990602628,-0.01452055133619811,0.4606540391090639,-0.02238548037805048,0.9969658329214185,0.07455211771335493,-0.4603388756414627,-0.07647405819096334,0.8844432361644013,0.025833974,-0.024164237,0.11187079,-0.09967267,0.063545786,-0.08896496,0.29929286,-0.040741522,0.0015265029,0.0019154539,0.8907321265924794,-0.06405079982012482,-0.44999308183397885,0.09561450999802179,0.9942729509237148,0.047740596344061415,0.44435812599059993,-0.08554995092839457,0.8917550458294429,left_images/camera_left_19.png,right_images/camera_right_19.png
2025-06-02 14:44:53,1.0707111358642578,20,-0.07381434,-0.014331683,0.11373318,0.031127634,0.08578754,0.1198236,0.5235896,0.035377864,6.336509e-05,0.0031681145,0.8874587718367968,-0.01454190109611242,0.46065764012163674,-0.022366745170917225,0.996965549505999,0.07456153035353325,-0.46034406371798015,-0.07647369620145539,0.8844405671320735,0.024971742,-0.025250388,0.11175086,-0.11474278,0.06795038,-0.09301766,0.32595938,-0.04090066,0.0015528591,0.0019685477,0.8914142800704488,-0.07510045315247801,-0.4469233751134261,0.11003602324437253,0.992530038128778,0.052689628966718506,0.43962785953013445,-0.09614595856498082,0.8930192045956087,left_images/camera_left_20.png,right_images/camera_right_20.png
2025-06-02 14:44:54,1.1351392269134521,21,-0.073814206,-0.014333154,0.11373318,0.031114422,0.085797876,0.11981945,0.5235896,0.035377923,6.351137e-05,0.0031682206,0.887457286611156,-0.014557640568798548,0.4606600042784638,-0.02235294973675385,0.996965333482323,0.07456855552139167,-0.46034759701646194,-0.07647351787089689,0.8844387434896884,0.024499737,-0.026074909,0.111609675,-0.13535683,0.07389005,-0.09709318,0.35262597,-0.041021314,0.001516227,0.002071756,0.8910936186456407,-0.08981060717024242,-0.4448440374431581,0.12969405047042654,0.9897384404385591,0.05997726895102233,0.434892648916479,-0.11113898666967058,0.8935975098222056,left_images/camera_left_21.png,right_images/camera_right_21.png
2025-06-02 14:44:54,1.2005810737609863,22,-0.073814206,-0.014334152,0.11373318,0.031104626,0.08580552,0.11981645,0.5235896,0.035377752,6.3539075e-05,0.003168175,0.8874561974534249,-0.014569776728844373,0.46066171884320883,-0.02234234511527785,0.9969651598296985,0.07457405514315046,-0.4603502114871435,-0.0764734705098144,0.8844373867560817,0.023385875,-0.027389446,0.11128434,-0.15728275,0.078709625,-0.10294799,0.37929314,-0.041311942,0.0015471021,0.00228969,0.8912429761816634,-0.10648620136081223,-0.4408476452546798,0.15057518673745718,0.9863828040701352,0.06615192343172997,0.427800269455071,-0.1253381536264282,0.8951409256087485,left_images/camera_left_22.png,right_images/camera_right_22.png
2025-06-02 14:44:54,1.2594311237335205,23,-0.073814206,-0.014334947,0.11373318,0.031097341,0.08581132,0.11981399,0.5235896,0.035377838,6.3386164e-05,0.003168215,0.8874551749425075,-0.014578732316187079,0.46066340535342776,-0.022334778105678202,0.9969649945489601,0.07457853130065067,-0.460352549851452,-0.07647391848234911,0.8844361308976593,0.021985788,-0.028754946,0.11090613,-0.17735942,0.08320048,-0.107549496,0.40595976,-0.041646603,0.0015894038,0.0025418513,0.8908145855818121,-0.12179576957334182,-0.4377386944613661,0.16963698404287347,0.9828920524363697,0.07173915877857875,0.42151235777796797,-0.13816296092461852,0.8962356433823642,left_images/camera_left_23.png,right_images/camera_right_23.png
2025-06-02 14:44:54,1.3217639923095703,24,-0.073814206,-0.014335778,0.11373318,0.031091973,0.08581572,0.11981243,0.5235896,0.035377827,6.338139e-05,0.0031681908,0.887454576710992,-0.014584860263002281,0.46066436385488146,-0.02232934951666077,0.9969649203416281,0.07458114881371838,-0.46035396644851095,-0.07647371744148379,0.8844354109350232,0.020890675,-0.03036338,0.11053278,-0.20193379,0.08789398,-0.11392533,0.4326269,-0.04195295,0.0016481528,0.0028088745,0.8898575529356936,-0.14076613053067408,-0.43397975987218634,0.19283793959906556,0.9781140135513919,0.07814413314878263,0.41348163748162553,-0.15322490982150638,0.8975271931678197,left_images/camera_left_24.png,right_images/camera_right_24.png
2025-06-02 14:44:54,1.3786709308624268,25,-0.073814206,-0.014336529,0.11373318,0.031087924,0.08581923,0.11981109,0.5235896,0.03537772,6.35499e-05,0.0031681424,0.8874539043669943,-0.014589404093084884,0.4606655152189996,-0.022325309520593573,0.9969648738934648,0.07458297913999906,-0.4603554585085175,-0.07647345624984214,0.8844346568914043,0.019888168,-0.03155267,0.110095546,-0.2322231,0.095708735,-0.119737975,0.4592934,-0.0422548,0.0015970031,0.0031562923,0.8870515455442146,-0.16245400080277517,-0.4321437876110131,0.22102731869332248,0.971236137117739,0.088584932961837,0.4053226861882529,-0.174094984361367,0.8974432887271232,left_images/camera_left_25.png,right_images/camera_right_25.png
2025-06-02 14:44:54,1.4351646900177002,26,-0.073814206,-0.01433673,0.11373318,0.031084921,0.085821494,0.11981018,0.5235896,0.035377793,6.350805e-05,0.0031682337,0.8874536296872777,-0.014593146514657623,0.4606659258396239,-0.022322182215495277,0.9969647948684219,0.07458497150300236,-0.4603561396745072,-0.07647377241752354,0.8844342750008156,0.018587615,-0.032751404,0.10969467,-0.26606667,0.1028847,-0.12903087,0.4859604,-0.042582415,0.0015487566,0.0034512132,0.8842890076025461,-0.18724718929954956,-0.4277516114905037,0.25206083789117817,0.9625590737086329,0.0997264439493147,0.393062698605326,-0.19600642775326854,0.8983780914762456,left_images/camera_left_26.png,right_images/camera_right_26.png
2025-06-02 14:44:54,1.4923276901245117,27,-0.073814206,-0.014336898,0.11373318,0.031082703,0.08582316,0.11980951,0.5235896,0.035377707,6.34031e-05,0.0031682393,0.8874533370208046,-0.014596037612656234,0.4606663980546526,-0.02231968491295577,0.9969647494958771,0.07458632534190912,-0.46035682494780517,-0.07647381217536278,0.8844339148717347,0.017879643,-0.034658216,0.10931988,-0.29019886,0.1055016,-0.13542494,0.51262707,-0.042843334,0.001672303,0.0037471093,0.8813441259499186,-0.20657915599464857,-0.42492067961222224,0.2743899229122053,0.9559361283688685,0.10438528959279779,0.384633204310039,-0.20859331434079303,0.8991919302098497,left_images/camera_left_27.png,right_images/camera_right_27.png
2025-06-02 14:44:54,1.5463073253631592,28,-0.073813826,-0.014337268,0.11373318,0.031081052,0.0858246,0.11980882,0.5235896,0.035377823,6.341556e-05,0.003168175,0.8874532114951004,-0.014597926099262696,0.4606665800344465,-0.02231790524579001,0.9969647427417785,0.07458694815622474,-0.46035715321093096,-0.07647353975997112,0.8844337675621095,0.017009398,-0.036339276,0.1089146,-0.31873882,0.10962747,-0.14312497,0.5392938,-0.04312811,0.0017350581,0.004069235,0.877400854850876,-0.2284025668194084,-0.4219004709374686,0.30030114773088645,0.9472825436040486,0.11169155408783685,0.3741483136116805,-0.2246954606870142,0.8997360665040534,left_images/camera_left_28.png,right_images/camera_right_28.png
2025-06-02 14:44:54,1.60050368309021,29,-0.073813826,-0.014337591,0.11373318,0.031079765,0.08582574,0.11980847,0.5235896,0.035377756,6.3404674e-05,0.0031680875,0.8874530593751202,-0.014599527553073536,0.46066682233580336,-0.022316582328887908,0.9969647072992187,0.07458781772475534,-0.46035751059247154,-0.07647369609879207,0.8844335680231118,0.015799586,-0.037919622,0.108603895,-0.3537158,0.11677627,-0.14981113,0.5659603,-0.043355472,0.0017356102,0.0043193316,0.8707104765712013,-0.2534740541970785,-0.4214429615476431,0.3315780906203423,0.9354504476490475,0.12242724293948953,0.36320687742623997,-0.246339935540491,0.8985529479937101,left_images/camera_left_29.png,right_images/camera_right_29.png
2025-06-02 14:44:54,1.657806634902954,30,-0.073813826,-0.014337678,0.11373318,0.03107887,0.08582641,0.11980825,0.5235896,0.03537782,6.35623e-05,0.0031681452,0.8874531016332483,-0.014600281375155781,0.4606667170366159,-0.022315727244697096,0.9969647261537904,0.07458782154372005,-0.46035747058027365,-0.07647330638114076,0.8844336225472595,0.014334227,-0.03967851,0.10817412,-0.39361164,0.124978386,-0.15792125,0.59262705,-0.043654043,0.0017279373,0.004671677,0.862173149594792,-0.2815439594419016,-0.4211774673692475,0.3665546938895128,0.9205504582499978,0.13499818592590326,0.34970718680828144,-0.2707763887740141,0.8968751478199972,left_images/camera_left_30.png,right_images/camera_right_30.png
2025-06-02 14:44:54,1.7143058776855469,31,-0.073813826,-0.014337747,0.11373318,0.03107823,0.08582691,0.119808026,0.5235896,0.03537785,6.356253e-05,0.0031681461,0.8874529869326824,-0.014601176190470914,0.4606669096409196,-0.02231507876164718,0.996964692080599,0.07458847098914162,-0.4603577231285708,-0.07647357974157717,0.8844334674566464,0.013235524,-0.04100946,0.10777389,-0.4253364,0.13213281,-0.16458884,0.6192936,-0.043904625,0.0017019318,0.0050148563,0.8546455786354104,-0.3030451236255298,-0.42159766124319537,0.3937203828199103,0.9076022395214332,0.1457478472150533,0.33847480714388195,-0.29055434579862427,0.8949932832521401,left_images/camera_left_31.png,right_images/camera_right_31.png
2025-06-02 14:44:54,1.7709743976593018,32,-0.073813826,-0.014337585,0.11373318,0.031077728,0.08582691,0.119808026,0.5235896,0.035377774,6.337528e-05,0.0031681191,0.8874530038977582,-0.014601796862774758,0.4606668572854182,-0.022314581628448505,0.9969646737111226,0.07458886524691241,-0.4603577145216455,-0.07647370071111381,0.8844334614768677,0.0117612695,-0.042885903,0.10720646,-0.4625668,0.14061345,-0.17020513,0.64595985,-0.044237718,0.0017112921,0.0055068256,0.8439486161145782,-0.3279073880864169,-0.4245320696915984,0.42535936780341627,0.8912713164613072,0.1571777613888377,0.3268335074317905,-0.3132286469843911,0.8916656734046463,left_images/camera_left_32.png,right_images/camera_right_32.png
2025-06-02 14:44:54,1.8373327255249023,33,-0.073813826,-0.014337622,0.11373318,0.03107734,0.085827135,0.119808026,0.5235896,0.03537779,6.336591e-05,0.0031681191,0.8874530196432361,-0.01460241778602018,0.46066680727061776,-0.022313958694156796,0.9969646762312264,0.07458901792195219,-0.4603577143629695,-0.07647354929626557,0.8844334746517309,0.0106665315,-0.04506889,0.1066474,-0.5066079,0.15223353,-0.17506596,0.67262626,-0.044475183,0.0017112334,0.0060537476,0.8291511057601471,-0.3553851128928341,-0.43152041127955143,0.46199685923117123,0.8702375185739502,0.17101334254024558,0.31474965588108106,-0.3411569767722794,0.8857452067735617,left_images/camera_left_33.png,right_images/camera_right_33.png
2025-06-02 14:44:54,1.891770362854004,34,-0.073813826,-0.014337674,0.11373318,0.031077115,0.08582736,0.119808026,0.5235896,0.035377838,6.35708e-05,0.003168176,0.8874530584189063,-0.014602405827690314,0.46066673295015836,-0.022313838927602875,0.9969646970198216,0.07458877588811998,-0.4603576454184747,-0.07647328056398935,0.8844335337743244,0.009969316,-0.046974447,0.106130935,-0.5397485,0.15795389,-0.1813895,0.6970774,-0.04472182,0.0017762681,0.006535706,0.8179928661253218,-0.37722173758017014,-0.43427114993409255,0.4889811563126714,0.8536109797041175,0.17957094447515712,0.3029605580586433,-0.3592381605920708,0.8827020132724415,left_images/camera_left_34.png,right_images/camera_right_34.png
2025-06-02 14:44:54,1.9441604614257812,35,-0.073813826,-0.0143376915,0.11373318,0.031076891,0.08582758,0.119808,0.5235896,0.035377853,6.3534826e-05,0.0031681163,0.887453059431325,-0.014602667999283276,0.4606667226892818,-0.022313576775811573,0.9969646980909816,0.074588839995187,-0.46035765617338326,-0.07647321653795108,0.8844335337123354,0.008308496,-0.049100477,0.10565581,-0.5789401,0.16710402,-0.18683627,0.7205088,-0.04498096,0.0018221753,0.006970944,0.8034005686835481,-0.40119003747171395,-0.43999327275811423,0.5201266790286321,0.8325525295760963,0.19058993483153785,0.28985472913443705,-0.38197230178363495,0.8775428175698973,left_images/camera_left_35.png,right_images/camera_right_35.png
2025-06-02 14:44:54,2.007072687149048,36,-0.07381399,-0.014337622,0.11373318,0.031076744,0.08582758,0.119808,0.5235896,0.03537768,6.3473824e-05,0.0031681797,0.8874528755634797,-0.014603149554156293,0.46066706163693755,-0.02231327912022845,0.9969646745110244,0.07458924421141507,-0.46035802505117024,-0.07647343198932739,0.8844333230779808,0.007483522,-0.05133669,0.10517465,-0.61872125,0.17629302,-0.19346882,0.73968554,-0.045161217,0.001880808,0.007464325,0.7877794980798775,-0.4244082749092415,-0.44640909331416867,0.5507037031565427,0.8099376808578419,0.2018077908711435,0.27591464936586274,-0.4048191810119456,0.8717755083449699,left_images/camera_left_36.png,right_images/camera_right_36.png
2025-06-02 14:44:54,2.0696988105773926,37,-0.07381356,-0.014340726,0.11373318,0.031045187,0.08585219,0.11979748,0.5235896,0.0353776,6.33375e-05,0.0031681936,0.8874488808959844,-0.014641014260384989,0.460673555240468,-0.02228036262408725,0.9969641183526566,0.07460651552411307,-0.46036731990640306,-0.07647344257150812,0.8844284840186108,0.006212072,-0.0534027,0.104760796,-0.6632619,0.18703824,-0.20073202,0.7578363,-0.04531434,0.0019092453,0.007903156,0.7693288476220016,-0.44897520318085143,-0.4544825531803351,0.5837510654827407,0.7830669694041473,0.21457123520166715,0.2595531116445495,-0.430380515772865,0.8645257624146978,left_images/camera_left_37.png,right_images/camera_right_37.png
2025-06-02 14:44:55,2.1280369758605957,38,-0.073812954,-0.01434335,0.11373318,0.03102174,0.08587058,0.11978952,0.5235896,0.03537768,6.341166e-05,0.003168189,0.8874461320777545,-0.014669328167163882,0.4606779498427913,-0.02225550418048805,0.9969637357740366,0.0746190463966773,-0.4603738211431071,-0.07647300414264666,0.8844251378401078,0.0054393057,-0.055437896,0.1043145,-0.70561004,0.19700162,-0.2079569,0.7670969,-0.04543897,0.0019535099,0.008396733,0.7507138606644848,-0.4711672057835223,-0.46306604669352786,0.6140560759494209,0.756191056368922,0.22607569939569505,0.2436469474379342,-0.45406668063380484,0.8570061928261515,left_images/camera_left_38.png,right_images/camera_right_38.png
2025-06-02 14:44:55,2.1931633949279785,39,-0.07381251,-0.014345499,0.11373318,0.03100442,0.08588456,0.119783595,0.5235896,0.03537779,6.3379295e-05,0.003168366,0.8874438674987177,-0.014689837498195642,0.46068165875493167,-0.02223762151237659,0.9969634449668808,0.07462826267066557,-0.46037905059677836,-0.07647285841425162,0.8844224283098904,0.004693005,-0.05712673,0.10392248,-0.7511599,0.20796037,-0.2170217,0.7634442,-0.045515127,0.001954803,0.008865325,0.7303839072508178,-0.4933286710389552,-0.4724046680124649,0.6449796698767546,0.725771625351699,0.2392838759298792,0.22481230721359885,-0.4794604990667025,0.8482788788835939,left_images/camera_left_39.png,right_images/camera_right_39.png
2025-06-02 14:44:55,2.2492032051086426,40,-0.073812254,-0.014347114,0.11373318,0.03099157,0.08589486,0.11977923,0.5235896,0.03537774,6.349821e-05,0.0031682607,0.8874423286899518,-0.01470565179929776,0.4606841185177902,-0.02222394513962011,0.9969631961690456,0.0746356600214153,-0.4603826772499012,-0.07647306250934996,0.8844205228276051,0.0042179003,-0.058711734,0.10364694,-0.7946311,0.21824121,-0.22286074,0.78399646,-0.045488723,0.0019916343,0.009253528,0.7086140315127074,-0.5131200981122584,-0.4843283176282114,0.6739531698610356,0.6954572577260857,0.24925153461989902,0.20893367171801092,-0.5030377397267314,0.8386296877842159,left_images/camera_left_40.png,right_images/camera_right_40.png
2025-06-02 14:44:55,2.3075788021087646,41,-0.07381184,-0.01434809,0.11373318,0.030982018,0.085902214,0.119775966,0.5235896,0.035377778,6.334309e-05,0.0031682737,0.8874411165114793,-0.014717122505591273,0.46068608729807986,-0.022214153673431682,0.9969629967872802,0.07464123802227729,-0.4603854864148433,-0.07647345514674037,0.8844190265685645,0.004150886,-0.060300615,0.10342127,-0.847009,0.23165818,-0.23008549,0.78523564,-0.045337237,0.0020153518,0.009677077,0.6813966745974191,-0.5341067510600651,-0.5004283668215069,0.706995628463441,0.6572019851705984,0.2612330990158199,0.18935615432608285,-0.5318040326660626,0.8254263853663453,left_images/camera_left_41.png,right_images/camera_right_41.png
2025-06-02 14:44:55,2.371107578277588,42,-0.073811516,-0.0143491,0.11373318,0.030974865,0.08590794,0.11977343,0.5235896,0.03537787,6.339402e-05,0.0031681852,0.8874404878540669,-0.014725672098260803,0.4606870251033671,-0.022206489586230452,0.9969629015101839,0.07464479106175054,-0.4603870679521662,-0.07647305142107419,0.8844182382045033,0.0041361256,-0.061852787,0.10330833,-0.886664,0.24130541,-0.23445034,0.8005104,-0.045181505,0.0021041206,0.009955479,0.6592210863442393,-0.5490171938646927,-0.5138167768378719,0.7312501061847348,0.6272880624902641,0.26792343843349087,0.17521655607828618,-0.5523493527634018,0.8149903993164066,left_images/camera_left_42.png,right_images/camera_right_42.png
2025-06-02 14:44:55,2.4237353801727295,43,-0.0738115,-0.014349954,0.11373318,0.030969635,0.08591238,0.119771816,0.5235896,0.035377815,6.3391286e-05,0.0031681657,0.8874396635058026,-0.01473195083905591,0.46068841233656316,-0.022201089768928248,0.9969628032794642,0.07464770920948749,-0.46038891738374804,-0.07647312274013565,0.8844172693070801,0.004512257,-0.06322666,0.103191815,-0.94409895,0.25503212,-0.24367866,0.80265653,-0.044906646,0.0021521854,0.010342164,0.6276819103482745,-0.5680739547705145,-0.5322662879921363,0.7635948635492054,0.5823097149148773,0.27899512590191317,0.1514539658867034,-0.5815559971551676,0.7992836282509779,left_images/camera_left_43.png,right_images/camera_right_43.png
2025-06-02 14:44:55,2.4793341159820557,44,-0.073811375,-0.014350643,0.11373318,0.030965755,0.085915655,0.119770475,0.5235896,0.035377767,6.35513e-05,0.003168323,0.8874392037362375,-0.014736370914350667,0.46068915663847276,-0.022197154739855316,0.9969627530667815,0.07464955002515802,-0.46038999336806563,-0.07647292573047229,0.884416726230782,0.005114399,-0.06438184,0.103161566,-1.0058749,0.26947343,-0.25273788,0.81319946,-0.044533428,0.0022207422,0.010697965,0.5920379196654013,-0.5855962225084396,-0.5536859812764906,0.7960459382889701,0.5320886746513687,0.28843111212451333,0.12570587023642724,-0.6115216320716679,0.7811781664233239,left_images/camera_left_44.png,right_images/camera_right_44.png
2025-06-02 14:44:55,2.5399270057678223,45,-0.073811315,-0.014350907,0.11373318,0.03096287,0.08591789,0.11976958,0.5235896,0.03537786,6.347819e-05,0.0031682644,0.8874387529689082,-0.014739871646697218,0.4606899129705667,-0.022194137332991935,0.9969626991439877,0.07465116732897834,-0.46039100772825026,-0.07647295403849469,0.8844161957492597,0.0065748845,-0.06599814,0.10321424,-1.0608734,0.2821084,-0.2601835,0.8221265,-0.04407257,0.0023877819,0.011007652,0.5585472419885595,-0.5982435891915201,-0.5745690441176076,0.8229857885334737,0.48615406693589747,0.2938513485992933,0.1035343920584362,-0.6369920181548075,0.7638859852544457,left_images/camera_left_45.png,right_images/camera_right_45.png
2025-06-02 14:44:55,2.59814453125,46,-0.07381133,-0.014351169,0.11373318,0.030960744,0.08591959,0.119769014,0.5235896,0.03537783,6.357784e-05,0.0031681787,0.8874386712926576,-0.014742638006380045,0.46068998178703174,-0.02219153933906895,0.9969626846097647,0.07465213377696418,-0.4603912903999003,-0.07647261026213269,0.8844160783271701,0.0065207956,-0.067167066,0.103193305,-1.1203964,0.29620326,-0.2699348,0.8015329,-0.04375842,0.0025205822,0.011331156,0.5227966681849818,-0.6096234002824752,-0.5958548091294684,0.849025954333579,0.43501994452242065,0.29985425915878805,0.07641055295335597,-0.6626590055946898,0.7450130667992471,left_images/camera_left_46.png,right_images/camera_right_46.png
2025-06-02 14:44:55,2.6501855850219727,47,-0.07381176,-0.014348234,0.11373318,0.0309907,0.085896365,0.11977876,0.5235896,0.035377894,6.351818e-05,0.003168255,0.8874422783036158,-0.014706540920855844,0.4606841871970762,-0.0222230585791906,0.9969632007419782,0.07463586291921495,-0.46038281717139856,-0.07647283191077192,0.8844204699309448,0.008289327,-0.068019055,0.10326666,-1.1718953,0.3030711,-0.27962705,0.8054127,-0.04334267,0.002682353,0.011576027,0.49101410503634346,-0.619619022498854,-0.612353995343317,0.869632038121058,0.39013175804400285,0.30255136694272267,0.05143215850781557,-0.681079641688885,0.7304007494164876,left_images/camera_left_47.png,right_images/camera_right_47.png
2025-06-02 14:44:55,2.7009620666503906,48,-0.07381221,-0.0143457735,0.11373318,0.031012837,0.08587901,0.11978605,0.5235896,0.035377916,6.34719e-05,0.003168202,0.8874449434299473,-0.014679963354001395,0.4606799008601778,-0.02224641100567755,0.9969635555219657,0.07462416604805248,-0.46037655194197774,-0.07647331323361121,0.8844236896335884,0.010702941,-0.06911542,0.103256784,-1.2367371,0.31409365,-0.29019922,0.80754983,-0.042822316,0.002908179,0.012019508,0.4496970044956308,-0.6271415703242067,-0.6359764578338926,0.8929334842825745,0.3324318614086825,0.3035767615733132,0.021033230722796392,-0.7044022347293106,0.7094893198024301,left_images/camera_left_48.png,right_images/camera_right_48.png
2025-06-02 14:44:55,2.7562551498413086,49,-0.07381246,-0.014343955,0.11373318,0.031029258,0.08586614,0.1197914,0.5235896,0.03537774,6.325927e-05,0.003168242,0.8874468658287986,-0.014660580895823866,0.46067681480452133,-0.022263282539009964,0.9969638407782582,0.07461532303255165,-0.46037203062439674,-0.07647331265520556,0.8844260431886369,0.011990479,-0.0698382,0.10300239,-1.2998493,0.32421887,-0.30272692,0.7835432,-0.042553503,0.0030940408,0.012597908,0.41041629215842107,-0.6321312462002961,-0.6572431473269189,0.9118245101179392,0.27531174641532236,0.30459728336596414,-0.011598701613274531,-0.7243020984803273,0.6893851900482635,left_images/camera_left_49.png,right_images/camera_right_49.png
2025-06-02 14:44:55,2.807582378387451,50,-0.07381246,-0.014342937,0.11373318,0.031041468,0.085856885,0.119795196,0.5235896,0.03537773,6.3373416e-05,0.003168282,0.8874483695957327,-0.01464555332662284,0.460674395934518,-0.022276497846254077,0.9969640389851805,0.07460873014642064,-0.4603684925639262,-0.07647360811490866,0.8844278593058372,0.015279887,-0.07034392,0.1030054,-1.3700489,0.33437288,-0.31397367,0.7656826,-0.041956432,0.003355541,0.013092101,0.36448377902380874,-0.6331186055679495,-0.6828707096604878,0.9300528870012365,0.2109589442090684,0.3008287739543212,-0.046402609939401984,-0.74475308333829,0.6657249001268628,left_images/camera_left_50.png,right_images/camera_right_50.png
2025-06-02 14:44:55,2.8588244915008545,51,-0.07381246,-0.01434216,0.11373318,0.031050466,0.08585004,0.11979798,0.5235896,0.035377793,6.367499e-05,0.0031681526,0.8874493570532397,-0.01463450135965683,0.4606728449081254,-0.02228600524544291,0.9969642229738667,0.07460343209473931,-0.4603661288974153,-0.076473325284497,0.8844291141091749,0.017950261,-0.07134124,0.10292192,-1.423287,0.33941293,-0.3226299,0.76286644,-0.041572902,0.0036447602,0.013518599,0.3287541390274986,-0.6330123905610738,-0.7008680542501866,0.9415549580965121,0.16196910293544808,0.29536464002680096,-0.0734505068475606,-0.7570081393818965,0.6492639678539044,left_images/camera_left_51.png,right_images/camera_right_51.png
2025-06-02 14:44:55,2.908632755279541,52,-0.07381246,-0.014341195,0.11373318,0.031057227,0.085844606,0.1198002,0.5235896,0.03537776,6.337708e-05,0.0031682039,0.8874502019055117,-0.014626906951768062,0.46067145855901553,-0.02229267912282904,0.9969643214647913,0.07460012187506716,-0.46036417714174177,-0.0764734942269059,0.8844301154332853,0.020340689,-0.07136158,0.10278848,-1.4900995,0.34841207,-0.33467197,0.74875206,-0.041172426,0.0038871444,0.014055654,0.2857683745635683,-0.6280577943303709,-0.723795442842911,0.9520443454770935,0.09991564451162716,0.289185802256817,-0.10930690895084727,-0.7717255152984743,0.6264916030506039,left_images/camera_left_52.png,right_images/camera_right_52.png
2025-06-02 14:44:55,2.9625558853149414,53,-0.07381246,-0.014340883,0.11373318,0.03106221,0.08584099,0.11980177,0.5235896,0.035377704,6.340834e-05,0.0031682262,0.887450801108109,-0.014621009808952111,0.46067049144127126,-0.0222978557616477,0.9969644003806077,0.07459752008055254,-0.4603627713456081,-0.07647359312796942,0.8844308386262261,0.022185925,-0.07122465,0.10265095,-1.5510024,0.35799196,-0.34410605,0.7398502,-0.040837973,0.004132402,0.01455531,0.24588546204366715,-0.6194804916413797,-0.7455093963400637,0.9589587103623735,0.043426532029659126,0.2802005141608596,-0.1412038645919631,-0.7838099621666152,0.6047341662521336,left_images/camera_left_53.png,right_images/camera_right_53.png
2025-06-02 14:44:55,3.0169923305511475,54,-0.07381246,-0.014340656,0.11373318,0.031065956,0.08583825,0.119802825,0.5235896,0.035377756,6.343378e-05,0.0031682784,0.8874512847251325,-0.014616314237433372,0.4606697087912603,-0.02230184239680255,0.9969644854825535,0.07459519094563456,-0.4603616459539393,-0.07647338128146357,0.8844314427302773,0.024618177,-0.07112965,0.102663666,-1.6127772,0.36737454,-0.35253036,0.71450824,-0.04038958,0.004437673,0.014956562,0.20475318315403002,-0.6074849634434594,-0.767488210449119,0.9633964946443871,-0.013543461055899098,0.2677382467439691,-0.17304140572475535,-0.7942157099004818,0.5824758175684844,left_images/camera_left_54.png,right_images/camera_right_54.png
2025-06-02 14:44:55,3.0801355838775635,55,-0.07381228,-0.014340439,0.11373318,0.031068688,0.08583611,0.119803496,0.5235896,0.035377767,6.344658e-05,0.003168092,0.8874517756248801,-0.014612942482496947,0.46066887007073865,-0.02230476477744581,0.9969645327990986,0.07459368477892933,-0.46036055805039455,-0.07647340879468298,0.8844320066228104,0.027265662,-0.07077101,0.102521725,-1.671389,0.37385482,-0.36235633,0.69821537,-0.040061176,0.004696928,0.015452702,0.16715834376919383,-0.5949082254175418,-0.7862202563142794,0.9643108735213887,-0.06742811414866146,0.2560429429427248,-0.2053354020054905,-0.800960456422729,0.5624052986328786,left_images/camera_left_55.png,right_images/camera_right_55.png
2025-06-02 14:44:56,3.1321299076080322,56,-0.07381228,-0.014340268,0.11373318,0.031070706,0.08583458,0.119804166,0.5235896,0.035377912,6.348151e-05,0.0031682346,0.8874519896017112,-0.014610274289893522,0.4606685424870455,-0.022307118489830437,0.9969645680962181,0.07459250917754695,-0.4603600315151668,-0.07647345844079392,0.8844322763996457,0.030697558,-0.07040076,0.102452785,-1.7262957,0.37901422,-0.36820906,0.6749633,-0.039660294,0.0049882806,0.015895482,0.12974610538871295,-0.5806416409098598,-0.8037544606271035,0.9635310471200378,-0.11749864199729032,0.2404204449803634,-0.23403817930462611,-0.8056359934674578,0.5442212570797631,left_images/camera_left_56.png,right_images/camera_right_56.png
2025-06-02 14:44:56,3.186396360397339,57,-0.07381246,-0.014340002,0.11373318,0.031072205,0.08583331,0.11980483,0.5235896,0.035377808,6.358279e-05,0.0031683585,0.8874521562396326,-0.014608617416359177,0.46066827401375193,-0.02230868153011616,0.9969645722503595,0.07459198620525959,-0.4603596345402306,-0.07647372081205561,0.8844324603445677,0.034377664,-0.07085435,0.10245636,-1.77519,0.3806943,-0.3746114,0.6513128,-0.03926425,0.005327642,0.016231898,0.09696712132622476,-0.5677363735886441,-0.8174795333744574,0.9605682309082998,-0.16166436658378436,0.2262151770919959,-0.2605878952511119,-0.807180303700158,0.5296733957516804,left_images/camera_left_57.png,right_images/camera_right_57.png
2025-06-02 14:44:56,3.2374730110168457,58,-0.07381246,-0.014339867,0.11373318,0.031073295,0.08583242,0.11980505,0.5235896,0.035377834,6.335665e-05,0.0031683613,0.8874520157589181,-0.014607235966685821,0.460668588448189,-0.022309854400938637,0.9969646048798484,0.0745911993024444,-0.4603598485120551,-0.0764735593141945,0.8844323629332977,0.038110476,-0.07085676,0.102446795,-1.8196642,0.3844634,-0.378753,0.6438043,-0.03886558,0.0056230593,0.016594883,0.06699528968299923,-0.5523518952404314,-0.8309145653944183,0.9565824430946634,-0.2012000208027801,0.2108757482310526,-0.28365764703835583,-0.8089659668077915,0.5148906717191516,left_images/camera_left_58.png,right_images/camera_right_58.png
2025-06-02 14:44:56,3.2964236736297607,59,-0.07381246,-0.014339806,0.11373318,0.031074038,0.08583175,0.11980528,0.5235896,0.035377793,6.3343614e-05,0.003168297,0.8874522108392329,-0.0146062691859944,0.4606682432912257,-0.022310640020960178,0.9969646256680263,0.07459068647269004,-0.4603594343753723,-0.07647347296336349,0.8844325859637403,0.04120548,-0.07066552,0.10241757,-1.8719027,0.38912228,-0.38472614,0.6171378,-0.03852849,0.0059512155,0.016957022,0.03306687621037857,-0.5332979939593676,-0.8452809185925123,0.949629658527261,-0.24693436165514898,0.1929428223058881,-0.31162492413650894,-0.809083846503487,0.498270243927968,left_images/camera_left_59.png,right_images/camera_right_59.png
2025-06-02 14:44:56,3.3543813228607178,60,-0.07381246,-0.0143397255,0.11373318,0.031074597,0.0858313,0.11980528,0.5235896,0.035377838,6.337231e-05,0.0031683557,0.8874522217235227,-0.014605726281433523,0.4606682395366274,-0.022311171565078832,0.9969646249829228,0.07459053663873093,-0.4603593876325075,-0.07647358558647611,0.8844326005559557,0.044775043,-0.07047625,0.102391884,-1.9182516,0.39261267,-0.38991502,0.59632313,-0.038181305,0.0062480504,0.017313462,0.0036002624517826876,-0.5146070758643764,-0.8574185649848003,0.9416374199346094,-0.2868744281290687,0.1761307237948907,-0.33660957723922613,-0.8080115221678066,0.48354045596505546,left_images/camera_left_60.png,right_images/camera_right_60.png
2025-06-02 14:44:56,3.42145037651062,61,-0.07381246,-0.014339928,0.11373318,0.03107509,0.0858313,0.1198055,0.5235896,0.03537784,6.362598e-05,0.0031683268,0.887452299548117,-0.014605172374074497,0.46066810717335593,-0.022311655389976922,0.9969646322055251,0.07459029538124064,-0.46035921415837644,-0.07647359721646017,0.8844326898460145,0.048481856,-0.070627786,0.102397226,-1.9620067,0.39353743,-0.39414096,0.5696567,-0.037845172,0.0065640714,0.017606677,-0.024715308093892607,-0.49714560312649414,-0.867315053967022,0.9324765939039187,-0.3242218708931104,0.15927203224646114,-0.3603838999832962,-0.8048145300170504,0.4715898821076041,left_images/camera_left_61.png,right_images/camera_right_61.png
2025-06-02 14:44:56,3.4715025424957275,62,-0.07381246,-0.014339828,0.11373318,0.031075424,0.08583085,0.119805716,0.5235896,0.03537786,6.3365966e-05,0.0031683566,0.8874523372334601,-0.014604877902992568,0.4606680439104796,-0.022311818114371034,0.9969646518405696,0.074589984266273,-0.46035913362428266,-0.07647339747814472,0.8844327490357022,0.052170012,-0.07029706,0.102399945,-2.0040004,0.3956997,-0.39852682,0.54298973,-0.03751124,0.006826496,0.017910076,-0.05046761968798791,-0.47813904385464057,-0.8768329795946309,0.9222183492309325,-0.3593131346709545,0.14285442798424614,-0.3833618860878091,-0.8014219400507465,0.45908227835595566,left_images/camera_left_62.png,right_images/camera_right_62.png
2025-06-02 14:44:56,3.5311763286590576,63,-0.07381246,-0.014339768,0.11373318,0.031075703,0.08583063,0.119805716,0.5235896,0.03537782,6.338302e-05,0.0031683277,0.887452308739551,-0.014604456841014333,0.46066811215149184,-0.022312178519817847,0.9969646609145612,0.07458975517598845,-0.4603591710855126,-0.07647335959596038,0.8844327328121493,0.056611545,-0.070576794,0.102456465,-2.0472987,0.39602202,-0.4008787,0.51632345,-0.03711684,0.007174268,0.01818189,-0.07866788451200227,-0.45820248894496185,-0.8853597252366117,0.9103786839535473,-0.3949181639062824,0.12349208727646505,-0.40622901884209806,-0.7962977602263697,0.4482051553798255,left_images/camera_left_63.png,right_images/camera_right_63.png
2025-06-02 14:44:56,3.5898966789245605,64,-0.07381246,-0.014339941,0.11373318,0.031075926,0.08583063,0.119805716,0.5235896,0.035377722,6.361469e-05,0.0031682327,0.8874523727391816,-0.014603905090184041,0.4606680063513349,-0.022312719035807393,0.9969646587417976,0.07458962252941216,-0.46035902151345504,-0.07647349328994961,0.8844327991064139,0.060703184,-0.07065935,0.10246317,-2.086396,0.39727598,-0.4016563,0.4896567,-0.036782246,0.007487204,0.018472161,-0.10440901791433882,-0.43839025999575854,-0.8926996902200731,0.8986043269258686,-0.4262064214840006,0.10420340645060056,-0.4261560988748957,-0.7913040289463044,0.4384391784102744,left_images/camera_left_64.png,right_images/camera_right_64.png
2025-06-02 14:44:56,3.6497247219085693,65,-0.07381246,-0.014339873,0.11373318,0.031075982,0.085830405,0.119805716,0.5235896,0.035377774,6.337563e-05,0.0031682365,0.8874523078068041,-0.014604116646450182,0.46066812473336394,-0.02231261162065411,0.9969646440773576,0.07458985066598034,-0.4603591518923493,-0.07647364406567975,0.8844327182054452,0.06411199,-0.07037352,0.10252749,-2.1151152,0.39885786,-0.4020204,0.4629897,-0.036471725,0.007693569,0.018664205,-0.12265453442602212,-0.42249750217638976,-0.898026573014099,0.8891742605626605,-0.4486992515656554,0.08965554080628008,-0.4408230932444234,-0.7875054554091241,0.4307089018853525,left_images/camera_left_65.png,right_images/camera_right_65.png
2025-06-02 14:44:56,3.705015182495117,66,-0.07381246,-0.014339856,0.11373318,0.031076038,0.08583018,0.119805716,0.5235896,0.035377774,6.338424e-05,0.0031682383,0.887452292217156,-0.014603835005984344,0.46066816369446867,-0.022312696648492395,0.9969646759742549,0.07458939889703924,-0.46035917782399877,-0.07647328201840999,0.8844327360124934,0.066623494,-0.069541134,0.10257931,-2.1432495,0.40163115,-0.4027855,0.43647137,-0.03623568,0.0078456355,0.018821474,-0.139734037786122,-0.4063147641207744,-0.902985443482599,0.8793114201968023,-0.4702222698474041,0.0755145234444175,-0.4552865306545637,-0.7834534634533403,0.4229832687087002,left_images/camera_left_66.png,right_images/camera_right_66.png
2025-06-02 14:44:56,3.7551965713500977,67,-0.07381246,-0.014339778,0.11373318,0.031076094,0.08583014,0.119805716,0.5235896,0.035377774,6.338424e-05,0.0031682383,0.887452292217156,-0.014603835005984344,0.46066816369446867,-0.022312696648492395,0.9969646759742549,0.07458939889703924,-0.46035917782399877,-0.07647328201840999,0.8844327360124934,0.07001721,-0.06969695,0.10268727,-2.1731653,0.4014227,-0.4038569,0.40980506,-0.035929687,0.008090509,0.01895219,-0.1579710907299639,-0.39023306052851264,-0.907063003855926,0.8678441750980848,-0.49307885811092406,0.06098956822565643,-0.4710537360449551,-0.7775547557275806,0.41655369354203586,left_images/camera_left_67.png,right_images/camera_right_67.png
2025-06-02 14:44:56,3.803096294403076,68,-0.073817775,-0.014337219,0.11373238,0.031076467,0.08581908,0.11981246,0.5235896,0.03537774,6.338733e-05,0.0031691818,0.8874531674753295,-0.014599365519866842,0.46066661922090835,-0.022313468095317764,0.9969652479328106,0.07458152288488162,-0.46035745315956733,-0.07646667862988563,0.8844342046640609,0.07310988,-0.06970569,0.10286046,-2.20021,0.4013736,-0.40376252,0.38313845,-0.035613194,0.008312565,0.019003615,-0.17495345769816292,-0.375172755349384,-0.9102948375570458,0.8568917155141269,-0.5133595781797813,0.04688849938240386,-0.48489986133501184,-0.7718207998846807,0.4112964591905186,left_images/camera_left_68.png,right_images/camera_right_68.png
2025-06-02 14:44:56,3.8577256202697754,69,-0.073818035,-0.014317022,0.11373072,0.03109053,0.08578247,0.11981688,0.5235896,0.03537886,6.176904e-05,0.0031702826,0.8874551151561707,-0.014578269915827637,0.460663535163582,-0.022329303005202143,0.9969659804597346,0.074566990238723,-0.460352930706919,-0.0764611525692702,0.8844370363894364,0.07627952,-0.07033366,0.10285549,-2.2241836,0.39929953,-0.40479684,0.35667533,-0.03540518,0.008533975,0.019187685,-0.18905965699484972,-0.36252971002108003,-0.912594463849645,0.8463956323987432,-0.5313542830125075,0.035735967604018926,-0.49786632699281963,-0.7656597385760175,0.40730122166571403,left_images/camera_left_69.png,right_images/camera_right_69.png
2025-06-02 14:44:56,3.9117703437805176,70,-0.07382642,-0.014313025,0.113728166,0.031092439,0.0857577,0.1198286,0.5235896,0.0353795,6.153475e-05,0.0031730486,0.8874567053523972,-0.01456564001340252,0.46066087120143845,-0.022332782181552817,0.9969674040271814,0.07454691239302876,-0.4603496963886254,-0.07644499616261717,0.8844401164559405,0.07964833,-0.07046461,0.10300218,-2.24479,0.3986264,-0.4044291,0.3300733,-0.0350848,0.008711627,0.019269116,-0.20139101322117509,-0.35019452184969296,-0.9147707126161253,0.8371400135949638,-0.5464224238360788,0.02488237061312598,-0.5085648999213106,-0.7607800809666154,0.403206412365252,left_images/camera_left_70.png,right_images/camera_right_70.png
2025-06-02 14:44:56,3.965959310531616,71,-0.073817015,-0.014295295,0.11372552,0.031112034,0.08571823,0.11982476,0.5235896,0.035381824,6.031146e-05,0.0031745993,0.8874589831227646,-0.01453662148187956,0.46065739971328024,-0.022354942516194253,0.9969683584194916,0.07452750401993563,-0.4603442297018677,-0.07643807262245975,0.884443560230927,0.0826981,-0.07055547,0.103225306,-2.263874,0.39803642,-0.40361077,0.3045919,-0.03474657,0.008882285,0.019265402,-0.21304650983379894,-0.3386181246107218,-0.9164872886913135,0.8282516585722621,-0.5601703995814747,0.0144330698407506,-0.518276349759406,-0.7560072017632165,0.399803371874497,left_images/camera_left_71.png,right_images/camera_right_71.png
2025-06-02 14:44:56,4.017811059951782,72,-0.07379953,-0.014285891,0.11372207,0.03113183,0.08568228,0.119815044,0.5235896,0.03538532,5.9801096e-05,0.003176297,0.8874623487941015,-0.014503708169705531,0.46065195312967566,-0.02237874784012294,0.996969639543652,0.07450321787217697,-0.46033658459649396,-0.07642761462670998,0.8844484431579414,0.08558065,-0.07062252,0.10330465,-2.2807117,0.3976952,-0.40365764,0.28161383,-0.034498814,0.009018325,0.019376993,-0.22231506274367113,-0.32798199907587333,-0.918152395389497,0.8201802571332703,-0.572076150364086,0.005764025798891903,-0.5271435845062331,-0.751769037980949,0.39618550559948346,left_images/camera_left_72.png,right_images/camera_right_72.png
2025-06-02 14:44:56,4.077344655990601,73,-0.07379384,-0.014282808,0.1137207,0.031136716,0.085674256,0.11981208,0.5235896,0.03538664,5.9498532e-05,0.003177016,0.8874634314624846,-0.014496821184721303,0.4606500841119755,-0.022384074944254838,0.996969839874819,0.07449893669622178,-0.4603342383591751,-0.07642630800657514,0.8844497772280585,0.08872006,-0.07073618,0.1035438,-2.294203,0.39684066,-0.4019883,0.26120013,-0.03414114,0.009152464,0.019361388,-0.23084353355558657,-0.31916264854607634,-0.9191553006911425,0.8134313258493182,-0.5816563384086362,-0.0023199388091934003,-0.5338920688140919,-0.7482052577749716,0.39388850084166843,left_images/camera_left_73.png,right_images/camera_right_73.png
2025-06-02 14:44:57,4.132948637008667,74,-0.073798545,-0.014295841,0.11372314,0.031121075,0.08571372,0.11981096,0.5235896,0.035384856,6.0438528e-05,0.0031754728,0.8874607957772049,-0.014524614928577042,0.46065428633593175,-0.02236577567188755,0.9969684533382421,0.07452298388381898,-0.46034020901620665,-0.07643911701170872,0.8844455626851125,0.09129086,-0.07100799,0.10357565,-2.3049963,0.3966156,-0.40090021,0.24102312,-0.03394034,0.009269576,0.019491931,-0.2373451555699097,-0.311598424911278,-0.9200943966356417,0.8080684944765224,-0.5890202416450931,-0.008970126353752716,-0.5391591465995375,-0.7456283099005606,0.39159397098639254,left_images/camera_left_74.png,right_images/camera_right_74.png
2025-06-02 14:44:57,4.188420057296753,75,-0.073799826,-0.014300815,0.11372349,0.031119522,0.08571372,0.11981205,0.5235896,0.035384588,6.0975784e-05,0.003175294,0.8874608122434887,-0.014523301916615702,0.46065429601119084,-0.022364595931507317,0.9969688611914195,0.07451788150172055,-0.46034023458844814,-0.07643404683858422,0.8844459875554468,0.093891725,-0.071130626,0.103649616,-2.3128343,0.39569756,-0.39967632,0.2207639,-0.033711158,0.00934584,0.01958123,-0.24207182691610515,-0.30612234924649384,-0.9207010035322581,0.803904988550416,-0.5946007175966198,-0.013665870529922464,-0.5432660490010902,-0.7434642519485337,0.3900293656602699,left_images/camera_left_75.png,right_images/camera_right_75.png
2025-06-02 14:44:57,4.240755319595337,76,-0.0737915,-0.014297142,0.11372437,0.031153878,0.08569871,0.119812496,0.5235896,0.035384744,6.0788938e-05,0.0031739809,0.8874639297039719,-0.01448791517620715,0.4606494044153653,-0.022400069592344876,0.9969686111374035,0.07451057165942947,-0.46033249978319135,-0.07644402344594307,0.8844491511233161,0.09680379,-0.07120182,0.10383556,-2.3273141,0.39410904,-0.3982779,0.19820556,-0.03340941,0.009467311,0.0195859,-0.25083229535752083,-0.2973181432851084,-0.9212410549249166,0.7960475654385568,-0.6048507289932845,-0.0215376227945126,-0.5508097976298387,-0.7387540303171196,0.38839548082487785,left_images/camera_left_76.png,right_images/camera_right_76.png
2025-06-02 14:44:57,4.300923824310303,77,-0.073798515,-0.014300781,0.11372347,0.031202536,0.08565477,0.1198377,0.5235896,0.03538468,6.203551e-05,0.0031750156,0.8874710464706614,-0.014421543665280815,0.46063777608287754,-0.022452357207199358,0.9969704704055724,0.07446994558297788,-0.4603162318798992,-0.07643232442888127,0.884458629021329,0.09885094,-0.07122083,0.1040609,-2.3343365,0.39399642,-0.39669904,0.20191196,-0.033132136,0.009547651,0.019525029,-0.25542445959194393,-0.29205920373565203,-0.92166141665769,0.7922940442905237,-0.6095675825189031,-0.026410409383911537,-0.5541015185179778,-0.7369727158147423,0.3870952380496483,left_images/camera_left_77.png,right_images/camera_right_77.png
2025-06-02 14:44:57,4.355107545852661,78,-0.07379232,-0.014276036,0.11372659,0.031250194,0.08563382,0.119840436,0.5235896,0.035383448,5.942257e-05,0.003171945,0.8874745520420425,-0.014384219815989016,0.46063218916838755,-0.022498711752916803,0.9969687123012346,0.07447949155221963,-0.46030720985797624,-0.0764622842498398,0.8844607349340396,0.10096253,-0.07136203,0.10431698,-2.3415363,0.39319244,-0.39524722,0.18358287,-0.032835938,0.009635486,0.0194362,-0.2600659790545315,-0.28711383027551235,-0.9219172061540734,0.7882710653987954,-0.6145479785197377,-0.03097595119365698,-0.557668731410912,-0.734776449378876,0.38614654659172587,left_images/camera_left_78.png,right_images/camera_right_78.png
2025-06-02 14:44:57,4.409621953964233,79,-0.07381369,-0.014311041,0.113726474,0.031219747,0.085664324,0.119858116,0.5235896,0.035381846,6.308808e-05,0.0031734053,0.8874730639886362,-0.014408167536173296,0.4606343076702727,-0.02246792663039719,0.9969699933997241,0.07447163576479982,-0.46031158248251036,-0.07644106860061209,0.8844602930961024,0.10351435,-0.07115905,0.10451148,-2.3485084,0.39258626,-0.39388475,0.15863842,-0.03253632,0.009682601,0.019428508,-0.26402059443756654,-0.2819279746793234,-0.9223934858866085,0.7842643983803906,-0.6194299272966844,-0.035155634004643,-0.5614467732081807,-0.7326821836665875,0.38464833106577073,left_images/camera_left_79.png,right_images/camera_right_79.png
2025-06-02 14:44:57,4.461923360824585,80,-0.07382276,-0.014292933,0.11373325,0.031180114,0.08572942,0.11984535,0.5235897,0.0353771,5.9876067e-05,0.0031685168,0.8874643212357796,-0.014488376903116615,0.4606486355870714,-0.022419676923770407,0.9969652689332552,0.07454938381687723,-0.4603307904324357,-0.07648751189282835,0.88444628096018,0.10518668,-0.07084117,0.10463286,-2.3548539,0.39229605,-0.39333165,0.13962144,-0.032344792,0.009705034,0.019428538,-0.2672269943581646,-0.27752482435342535,-0.9228053453214833,0.780624185793406,-0.6238170446882219,-0.038447045541039504,-0.5649916937802566,-0.7306382597592692,0.3833433439297771,left_images/camera_left_80.png,right_images/camera_right_80.png
2025-06-02 14:44:57,4.530286073684692,81,-0.07385927,-0.014228463,0.113732375,0.030743217,0.08511629,0.12020416,0.5235897,0.035377245,6.3945365e-05,0.0031688092,0.887625293634863,-0.014541741357297475,0.4603366983610156,-0.022024583396354776,0.9970177382843917,0.07396314807046386,-0.4600394068184162,-0.07579028502765914,0.8846578869085981,0.10717556,-0.070580676,0.10476676,-2.3553674,0.39280587,-0.39234495,0.13298617,-0.03210562,0.009703666,0.01945441,-0.26714258480369224,-0.2755001683871643,-0.9234362439297292,0.7803483262686151,-0.6240928506888826,-0.03955506805448694,-0.5654125299939623,-0.7311687704885023,0.38170787257817806,left_images/camera_left_81.png,right_images/camera_right_81.png
2025-06-02 14:44:57,4.585049629211426,82,-0.073889434,-0.014237688,0.11373194,0.030815128,0.08527925,0.120139375,0.52358973,0.035374064,6.2178646e-05,0.003171741,0.8875795268141006,-0.014571143198735124,0.4604240060708598,-0.02208248682648078,0.9970046744782579,0.07412181085254958,-0.46012492581473513,-0.0759563088517655,0.8845991701271257,0.10963109,-0.07129236,0.10493575,-2.3583262,0.39064896,-0.3917789,0.11538914,-0.031830322,0.009792337,0.0194574,-0.2685655264096617,-0.2734213459010697,-0.9236413403642936,0.7783973349646629,-0.6264387312130323,-0.04089137997324832,-0.5674241332056751,-0.7299419727908882,0.3810702945834725,left_images/camera_left_82.png,right_images/camera_right_82.png
2025-06-02 14:44:57,4.638085603713989,83,-0.07385337,-0.014359511,0.11373766,0.031323247,0.08607157,0.11971381,0.52358985,0.035370328,6.1354425e-05,0.0031680753,0.8873844132235078,-0.014528514535586316,0.46080128627572214,-0.022538575873538455,0.9969411259440343,0.07483584701888445,-0.46047900686737453,-0.07679396894828645,0.8843425640370399,0.11171149,-0.071090244,0.10515584,-2.3618734,0.39075238,-0.39056146,0.10081431,-0.03154165,0.009822223,0.019412791,-0.2704758852438371,-0.2699282678759243,-0.9241112085150065,0.7763502542184484,-0.6287947069910199,-0.04356029424863722,-0.5693180818106105,-0.7292159808051251,0.3796326843962546,left_images/camera_left_83.png,right_images/camera_right_83.png
2025-06-02 14:44:57,4.694148063659668,84,-0.07382742,-0.014342838,0.1137425,0.031267006,0.086033426,0.11971918,0.52358985,0.03537016,6.0110993e-05,0.0031622136,0.8874004794190536,-0.014560754063987191,0.46076932793744163,-0.022484801641051322,0.9969444213019857,0.07480811807558813,-0.46045067360358605,-0.07674506678566798,0.8843615617506603,0.11324022,-0.07100568,0.10532536,-2.3676536,0.38984567,-0.39013204,0.09347585,-0.03133548,0.00986007,0.019361343,-0.2734112365129266,-0.2663042079065933,-0.9242988502641958,0.7728709569526608,-0.6328734685575607,-0.04627803685335102,-0.5726401834027632,-0.7270166721933988,0.3788535055998366,left_images/camera_left_84.png,right_images/camera_right_84.png
2025-06-02 14:44:57,4.755500555038452,85,-0.07393563,-0.014180933,0.11373513,0.03035725,0.08469493,0.12050696,0.5235899,0.035371244,6.660947e-05,0.003169219,0.8877401839208497,-0.014654082594519325,0.46011153399527926,-0.02166420891309982,0.9970558881833301,0.07355418336927089,-0.45983478326932337,-0.075264956668185,0.8848091084484782,0.11512774,-0.070766866,0.10557355,-2.3690493,0.38957766,-0.38868728,0.09148818,-0.031042285,0.009869836,0.019277817,-0.27438947505309924,-0.2644430080155837,-0.9245432988734246,0.7718862706979048,-0.63396467783656,-0.04775324453550189,-0.5734997829887691,-0.7267452667663249,0.3780731624230659,left_images/camera_left_85.png,right_images/camera_right_85.png
2025-06-02 14:44:57,4.81097412109375,86,-0.0738766,-0.014198828,0.11373115,0.030570392,0.08496462,0.12029643,0.52358997,0.03537742,6.3396525e-05,0.0031703273,0.8876646201873784,-0.014616104486842614,0.4602585051438235,-0.021861079089834777,0.9970316654033421,0.07382378616723832,-0.4599713200718337,-0.07559251069165408,0.8847102107688748,0.11719676,-0.07054769,0.105746634,-2.3711975,0.38947073,-0.3884724,0.07375256,-0.030776808,0.009874506,0.01927611,-0.27454847835997753,-0.2619021153563612,-0.9252191172917281,0.7705781349390719,-0.6354763917500714,-0.04877595188339684,-0.5751803812579517,-0.7263449851827803,0.37628511997657355,left_images/camera_left_86.png,right_images/camera_right_86.png
2025-06-02 14:44:57,4.872781038284302,87,-0.07379782,-0.014157428,0.11373073,0.030688806,0.08469124,0.11946404,0.52358997,0.03537798,6.3604966e-05,0.0031687543,0.8873155801684534,-0.014382179290332118,0.46093840598195057,-0.022067397948254106,0.997044409524486,0.07358991360072514,-0.46063444415079746,-0.0754691881156114,0.8843756614171696,0.11950065,-0.07043533,0.1059105,-2.3722858,0.38840073,-0.38753402,0.05772335,-0.030501857,0.009876622,0.01928408,-0.27476925753676656,-0.2604690536384945,-0.9255580625813604,0.7696282148292951,-0.636583649791077,-0.04933221824876943,-0.5763456133704556,-0.7258905764062094,0.3753779495832096,left_images/camera_left_87.png,right_images/camera_right_87.png
2025-06-02 14:44:57,4.924459934234619,88,-0.073792376,-0.014051114,0.113732606,0.030314889,0.08391382,0.119213045,0.52358985,0.035375822,6.596063e-05,0.0031664735,0.8872143401233038,-0.014310952026760112,0.4611354587663567,-0.021794672913653827,0.9971027915463615,0.07287671317396206,-0.46084238836304686,-0.07470756148169248,0.884331992718403,0.121254385,-0.07033156,0.10606916,-2.373339,0.3864195,-0.3862344,0.045123756,-0.030279374,0.009871267,0.019245246,-0.2757107270570002,-0.2601400376272481,-0.9253706045736456,0.7684614701959704,-0.6379697421242143,-0.04961428179679067,-0.5774517848357108,-0.7247908449734017,0.3758026972133042,left_images/camera_left_88.png,right_images/camera_right_88.png
2025-06-02 14:44:57,4.980346202850342,89,-0.073808506,-0.01386955,0.11373102,0.029622065,0.08268488,0.11937017,0.52358985,0.035376914,6.803608e-05,0.0031658849,0.887300554803589,-0.014291848306384133,0.46097013842246964,-0.021219982775091985,0.9971960112552878,0.07176229837156226,-0.4607031992251283,-0.07345650555622443,0.884509301259857,0.12248479,-0.06971756,0.106212854,-2.3727877,0.3851096,-0.38521755,0.04301828,-0.030097496,0.009804432,0.019190172,-0.2754701528398288,-0.2607796016614561,-0.9252622299930403,0.7682279641120375,-0.6383126766033692,-0.04881313392639919,-0.5778771409656861,-0.7242588806806134,0.37617427304985884,left_images/camera_left_89.png,right_images/camera_right_89.png
2025-06-02 14:44:57,5.032183408737183,90,-0.07378563,-0.013893382,0.113727115,0.029973488,0.082956806,0.118814334,0.52358997,0.035376333,6.543554e-05,0.0031706784,0.8870455518103807,-0.014141118968645684,0.4614652942180289,-0.021579092810542308,0.9971684759264791,0.07203730541835318,-0.4611773322344577,-0.07385837374853108,0.8842287084574505,0.123989485,-0.06902805,0.10633049,-2.3709016,0.385562,-0.38295382,0.039317235,-0.02990079,0.009747149,0.019192172,-0.2752540238301908,-0.26066499596065107,-0.9253588397190156,0.7690898864052529,-0.6372390129950574,-0.049266489079703935,-0.5768327045118404,-0.7252449242827688,0.37587741460167157,left_images/camera_left_90.png,right_images/camera_right_90.png
2025-06-02 14:44:57,5.088830232620239,91,-0.073739186,-0.013942951,0.11373041,0.027200494,0.08360883,0.118115544,0.52358997,0.03537697,6.244023e-05,0.003166397,0.8868065753425265,-0.01675979380284488,0.4618367755397418,-0.01880574138259111,0.997205745393006,0.07229830873699793,-0.46175799074873713,-0.07279979853588396,0.8840134316359813,0.12587924,-0.06894643,0.106394626,-2.3712144,0.3841687,-0.38196602,0.03258978,-0.029718617,0.009736159,0.019249545,-0.2753536622200484,-0.26020529332106407,-0.9254585706717002,0.7685087135598205,-0.6379378843390454,-0.049291103737410524,-0.5775592765116295,-0.724795461528783,0.3756285679532926,left_images/camera_left_91.png,right_images/camera_right_91.png
2025-06-02 14:44:58,5.140746593475342,92,-0.07377708,-0.014014566,0.113745436,0.015470198,0.08483766,0.11719643,0.5235899,0.03537323,6.102171e-05,0.0031519867,0.8865621352066273,-0.027072332798907903,0.46181670521397455,-0.007089152355016682,0.9973739002776849,0.07207667420022924,-0.4625552122036387,-0.06717433916090136,0.8840420147377289,0.12736923,-0.069389045,0.10649079,-2.3702333,0.38149875,-0.38226396,0.022208173,-0.029552102,0.009750896,0.019249717,-0.2741228546169951,-0.2615200559752678,-0.9254533596564023,0.7685742959157094,-0.6380048990848035,-0.04736349228531889,-0.5780572741816346,-0.7242630800106288,0.3758893170857826,left_images/camera_left_92.png,right_images/camera_right_92.png
2025-06-02 14:44:58,5.198370933532715,93,-0.07379455,-0.01416172,0.11378793,-0.0008644508,0.08699096,0.11579155,0.52358997,0.035358727,5.68073e-05,0.0031119762,0.8859886555173417,-0.04165332346553416,0.46183233206310753,0.009265254455994808,0.9973487552210366,0.07217766634433431,-0.46361434118719674,-0.05966959949022588,0.8840256113610268,0.12911505,-0.068853274,0.10658329,-2.3717458,0.37989518,-0.38165757,0.010816928,-0.029364556,0.009696762,0.019270053,-0.27444073150689513,-0.26083602440980597,-0.925552188296288,0.7671471469044213,-0.6397335097050564,-0.047183594149418306,-0.5797995687186794,-0.722983820656132,0.3756685443088037,left_images/camera_left_93.png,right_images/camera_right_93.png
2025-06-02 14:44:58,5.255619525909424,94,-0.07388119,-0.01431006,0.11383297,-0.013602632,0.08823492,0.115082264,0.52358985,0.035337176,6.549957e-05,0.0030735908,0.8855348984945428,-0.052762449980369136,0.46156696959415144,0.021990661492795383,0.9971766810162574,0.07179886938183606,-0.46405210306103406,-0.053430241525466785,0.8841950321819058,0.1302338,-0.068410106,0.10662055,-2.37226,0.3790255,-0.38129085,0.0010487679,-0.02925496,0.0096481675,0.019302668,-0.27430051045501236,-0.26057183882325935,-0.9256681623434959,0.7664999703102919,-0.6405349784789206,-0.046826668249297376,-0.5807211253936271,-0.722369197957162,0.3754273782827849,left_images/camera_left_94.png,right_images/camera_right_94.png
2025-06-02 14:44:58,5.30946946144104,95,-0.07382713,-0.014346535,0.11381545,-0.018225152,0.08800253,0.11497021,0.52358985,0.035357304,7.894216e-05,0.0030807517,0.8854483662669981,-0.05641602723272235,0.46130079400146357,0.0265423002402419,0.9971231865227173,0.0709989943361126,-0.4639791988581609,-0.05062195936606194,0.8843985076066558,0.13144158,-0.06811898,0.10672628,-2.3703969,0.37819612,-0.38037652,0.006256757,-0.029093787,0.00960818,0.01928861,-0.2733333625028773,-0.2614772236993075,-0.9256989437335299,0.7672353422824914,-0.6397251640911883,-0.04584369074551681,-0.5802058276987048,-0.7227595560869498,0.3754727974027632,left_images/camera_left_95.png,right_images/camera_right_95.png
2025-06-02 14:44:58,5.365387439727783,96,-0.07382983,-0.01422227,0.113774434,-0.015525472,0.086831294,0.115501635,0.52358985,0.03537967,8.239981e-05,0.0031138733,0.8857361059440135,-0.05360630462264681,0.46108341407150966,0.023778935174736844,0.9972450937593831,0.07026226024541948,-0.46357967262283073,-0.05126974817124995,0.8845706868607878,0.13260986,-0.06772629,0.10682433,-2.3710823,0.37731197,-0.3802764,3.0672975e-08,-0.028943248,0.009568205,0.019278437,-0.27303837457520724,-0.2610759928144079,-0.9258992234499931,0.76651495618215,-0.6406196127291411,-0.04540191335001026,-0.5812958523492194,-0.7221120673155494,0.3750323909729107,left_images/camera_left_96.png,right_images/camera_right_96.png
2025-06-02 14:44:58,5.428478002548218,97,-0.07396352,-0.014113356,0.11375277,-0.014051305,0.085552685,0.116328955,0.52358997,0.035382733,9.1446505e-05,0.0031368928,0.8860802031485124,-0.05174366758733557,0.4606348515395921,0.022237941900803394,0.9973509908650381,0.0692565878494098,-0.4629982154698949,-0.05112332036495519,0.8848836412696048,0.1340928,-0.06748656,0.106935576,-2.3732557,0.37683526,-0.37956816,5.254595e-09,-0.028762972,0.009564793,0.019282088,-0.27399402206389184,-0.25925398322680865,-0.9261288506759117,0.7650579977099525,-0.6422769201178916,-0.046546944302648385,-0.5827637051269493,-0.7212958686037991,0.37432436992774193,left_images/camera_left_97.png,right_images/camera_right_97.png
2025-06-02 14:44:58,5.491741418838501,98,-0.07393444,-0.014419537,0.1137798,-0.009711648,0.08796607,0.11502548,0.52359,0.0353561,7.84031e-05,0.0031244345,0.8855255175811254,-0.04934888516468096,0.46196238509827087,0.018078801948722998,0.9972497302271183,0.07187581291393288,-0.46423885515193447,-0.055296139964223216,0.8839822522382891,0.13425244,-0.067552,0.106936,-2.3717146,0.3761761,-0.37926936,8.144033e-09,-0.028750833,0.0095557915,0.019285226,-0.2734012757634891,-0.2604693657710323,-0.9259629862503863,0.7657873378224819,-0.6414705685208149,-0.045664679483590764,-0.5820837531160382,-0.7215755117909831,0.37484301399643044,left_images/camera_left_98.png,right_images/camera_right_98.png
2025-06-02 14:44:58,5.559152126312256,99,-0.0739736,-0.014578314,0.11385011,-0.010208956,0.08841565,0.115151174,0.5235901,0.035314746,9.015348e-05,0.003068298,0.8855601148913466,-0.049923826052516884,0.46183427168834407,0.01861526607365883,0.9972233611036089,0.07210436837132836,-0.4641516506300845,-0.05525558488966855,0.8840305795366293,0.13578102,-0.06725811,0.1070396,-2.3741257,0.37587807,-0.37841752,4.6781863e-09,-0.028571006,0.009550668,0.019299285,-0.2745508969183951,-0.2583698590412638,-0.9262110023856888,0.7642114051480724,-0.6432441028538585,-0.04709514184439645,-0.5836118001230902,-0.7207510250306498,0.3740524384018288,left_images/camera_left_99.png,right_images/camera_right_99.png
2025-06-02 14:44:58,5.615009546279907,100,-0.07420015,-0.014679554,0.113924734,-0.012977537,0.08772807,0.1142676,0.5235902,0.03524652,0.00011858449,0.0030219415,0.8850248995677262,-0.051773282902124185,0.46265587029959165,0.021211771960071887,0.9972493109873686,0.07102022574965763,-0.46506019812003896,-0.053040917344584465,0.8836886743711243,0.13696922,-0.066996455,0.10715396,-2.3764584,0.37526858,-0.37810433,3.6959906e-09,-0.028412072,0.009541766,0.019280348,-0.27539378775282997,-0.2567831807141376,-0.926401996850978,0.7626354127528772,-0.6450516076653915,-0.047912948808669975,-0.5852738580206684,-0.7197018976983625,0.3734751525429476,left_images/camera_left_100.png,right_images/camera_right_100.png
2025-06-02 14:44:58,5.672607421875,101,-0.07341736,-0.013265818,0.11396269,-0.01722892,0.07662981,0.10391935,0.52358997,0.0352111,0.0001593479,0.002971678,0.880552322549291,-0.04981354872647903,0.4713238988384993,0.023700811008019573,0.9978452127754573,0.06118172029834102,-0.47335597472791163,-0.04270294725633108,0.8798355411581256,0.13790895,-0.06669272,0.10718536,-2.3781788,0.37483025,-0.37710604,2.0347318e-08,-0.028323352,0.009525048,0.019307593,-0.27663238668161994,-0.25560310276376774,-0.9263593128459202,0.7614023760486281,-0.6464243830996219,-0.04900957744948131,-0.5862942472737851,-0.7188898182557658,0.3734387296757767,left_images/camera_left_101.png,right_images/camera_right_101.png
2025-06-02 14:44:58,5.721599102020264,102,-0.07273678,-0.011705124,0.11392974,-0.027075246,0.06495927,0.0943361,0.5168322,0.03521662,0.00019749143,0.0029824656,0.8761894866714276,-0.052254027462851044,0.47912576643337806,0.031960839100458244,0.9982166195978485,0.050419094821694856,-0.4809059036968198,-0.02886341928039792,0.8762969900764176,0.13883679,-0.06604429,0.1073186,-2.3788745,0.37577143,-0.37586617,6.7960952e-09,-0.028163418,0.009488514,0.019269187,-0.2772348508669512,-0.2540916374388206,-0.9265949909471983,0.7609729498522521,-0.6468302651981738,-0.05030683469293512,-0.5865671377241838,-0.7190605313930944,0.3726807549830543,left_images/camera_left_102.png,right_images/camera_right_102.png
2025-06-02 14:44:58,5.773775577545166,103,-0.07248948,-0.010205416,0.11382831,-0.038661826,0.05555025,0.087601125,0.5116911,0.03524367,0.00020192922,0.0030696327,0.8727837183228415,-0.05739188483642166,0.4847213143502953,0.04246358614805695,0.9982260549457019,0.041732326546542464,-0.4862565422511058,-0.015840289847841197,0.8736725132082015,0.14003617,-0.06616145,0.107411735,-2.3831537,0.37483785,-0.37665975,9.771047e-10,-0.028021514,0.009520706,0.019270858,-0.27832546805880737,-0.251508251128236,-0.926972779235864,0.7583447993869394,-0.6498253596922173,-0.05138255680347925,-0.5894472826916994,-0.7172660604791616,0.37159292163882135,left_images/camera_left_103.png,right_images/camera_right_103.png
2025-06-02 14:44:58,5.831307888031006,104,-0.072587624,-0.008729564,0.11368891,-0.053816542,0.04669363,0.082018055,0.5057318,0.035268378,0.00020107697,0.003207542,0.8694695149198147,-0.06578068088484688,0.4895872390569713,0.05671121064285099,0.9978333413950242,0.03335358133489112,-0.4907204919427395,-0.0012348371418746222,0.8713161733634404,0.14079536,-0.065845534,0.107477486,-2.3841057,0.3749558,-0.37458894,5.046318e-08,-0.027924523,0.009513406,0.019260423,-0.2801689504734697,-0.250469814242518,-0.926698565523824,0.7576185436119701,-0.6505237234952452,-0.05322619228499387,-0.5895078469078014,-0.7169963440096472,0.37201712475493365,left_images/camera_left_104.png,right_images/camera_right_104.png
2025-06-02 14:44:58,5.898710250854492,105,-0.07297612,-0.007433708,0.11352937,-0.06768086,0.038702667,0.079047345,0.5093806,0.035294533,0.00020464958,0.0033731433,0.8671474172580662,-0.07347641921494079,0.4926018397874854,0.06987759758406605,0.9972235022941266,0.025737284785219024,-0.4931252154357395,0.012103813101102482,0.8698741400972149,0.14164121,-0.0655105,0.10762418,-2.3858354,0.3751091,-0.37512174,2.737305e-08,-0.027765658,0.009496886,0.019206855,-0.2799660346895479,-0.24891574368087016,-0.9271785005963039,0.7565767112683628,-0.6517135784040475,-0.05348917357876842,-0.5909405210226822,-0.7164568125655522,0.37078152103610845,left_images/camera_left_105.png,right_images/camera_right_105.png
2025-06-02 14:44:58,5.953124284744263,106,-0.07340692,-0.0061345156,0.1133839,-0.082923144,0.03211441,0.077418655,0.51503533,0.035319604,0.0001840204,0.003525719,0.8651924457829495,-0.08307511683640792,0.4945104212478593,0.08457847377629005,0.9962282764807028,0.01938305739459021,-0.4942555144192035,0.02505486186163742,0.8689555456772821,0.14268722,-0.06524592,0.10780031,-2.3894708,0.3757793,-0.37533858,6.1118213e-09,-0.027575273,0.009511166,0.01914785,-0.28097629576838484,-0.24573169738402634,-0.9277220780584248,0.7545448446289601,-0.653912613921711,-0.05532061819912526,-0.5930551396456616,-0.7155516936286576,0.3691495294389852,left_images/camera_left_106.png,right_images/camera_right_106.png
2025-06-02 14:44:58,6.00628924369812,107,-0.07369501,-0.0051136175,0.11327354,-0.09622799,0.026848778,0.076609425,0.51325095,0.03534413,0.00017062687,0.0036386186,0.863668232752782,-0.09164441916321478,0.4956596454926743,0.09744995944102003,0.9951392292681038,0.014192243537511296,-0.49455099751049947,0.03604462245497199,0.8684008844153999,0.1439169,-0.06514853,0.10800534,-2.392231,0.37555027,-0.37447983,3.1321658e-08,-0.027358215,0.009536384,0.019064885,-0.28254204343961387,-0.24352051682697412,-0.9278295918827395,0.7527914162232823,-0.6557759189096403,-0.05712291868210412,-0.5945377005283288,-0.714601778658954,0.3686044229088238,left_images/camera_left_107.png,right_images/camera_right_107.png
2025-06-02 14:44:58,6.0622217655181885,108,-0.07371038,-0.005058926,0.11325445,-0.09622879,0.026848411,0.0766093,0.52180135,0.035353273,0.00016430001,0.0036555156,0.8636575705118043,-0.09167513092992244,0.4956725443946125,0.09745501655453692,0.9951379575916155,0.014246582353058592,-0.4945686207656147,0.03600160731646748,0.8683926321800687,0.14550552,-0.06503987,0.108077176,-2.3967981,0.37447533,-0.37359977,3.79083e-08,-0.02720153,0.009554341,0.019099485,-0.2849660704518917,-0.24068483870383506,-0.9278281883567217,0.7497521987012826,-0.6590553759621074,-0.05930979647611029,-0.5972151867072704,-0.7125425038785784,0.36826240771037977,left_images/camera_left_108.png,right_images/camera_right_108.png
2025-06-02 14:44:59,6.132896661758423,109,-0.07371004,-0.0050601577,0.11325521,-0.09622879,0.026848579,0.076609075,0.52347153,0.03535273,0.00016430777,0.00365486,0.8636575529518398,-0.09167450234656811,0.49567269124771157,0.09745482249974032,0.9951379897471417,0.014245663675715784,-0.4945686896688712,0.036002319113170714,0.8683925634283662,0.15854158,-0.06649147,0.10969129,-2.4431307,0.38175985,-0.37441447,0.026665054,-0.02522591,0.010218605,0.01885072,-0.30107917740512624,-0.1989414485191613,-0.93261654981785,0.7238363911908832,-0.6843766023005172,-0.08769005081169978,-0.6208157598843729,-0.7014634461500454,0.3500526046103515,left_images/camera_left_109.png,right_images/camera_right_109.png
2025-06-02 14:44:59,6.187337398529053,110,-0.07371004,-0.0050601596,0.11325521,-0.09622879,0.026848579,0.076609075,0.5235823,0.03535273,0.00016430777,0.00365486,0.8636575529518398,-0.09167450234656811,0.49567269124771157,0.09745482249974032,0.9951379897471417,0.014245663675715784,-0.4945686896688712,0.036002319113170714,0.8683925634283662,0.16924286,-0.06807331,0.111272156,-2.4772875,0.38649225,-0.37483385,0.05333208,-0.02343796,0.01078864,0.018462157,-0.31170476652300433,-0.1673484233288352,-0.9353259558764487,0.7038501928590999,-0.701940083044698,-0.10897259209273907,-0.6383063876689997,-0.6922966308054341,0.33658628973325283,left_images/camera_left_110.png,right_images/camera_right_110.png
2025-06-02 14:44:59,6.243221759796143,111,-0.07371004,-0.0050601596,0.11325521,-0.09622879,0.026848579,0.076609075,0.5235895,0.03535273,0.00016430777,0.00365486,0.8636575529518398,-0.09167450234656811,0.49567269124771157,0.09745482249974032,0.9951379897471417,0.014245663675715784,-0.4945686896688712,0.036002319113170714,0.8683925634283662,0.17712988,-0.06939863,0.1123422,-2.5023909,0.38971806,-0.3751538,0.07049733,-0.022178823,0.011219312,0.018261097,-0.31898835307896883,-0.14409164703971672,-0.93674117441978,0.6886905595540989,-0.7142601357225131,-0.12465059846915744,-0.6511157683400313,-0.6848868926845064,0.3270752213909394,left_images/camera_left_111.png,right_images/camera_right_111.png
2025-06-02 14:44:59,6.304438352584839,112,-0.07371004,-0.0050601596,0.11325521,-0.09622879,0.026848579,0.076609075,0.5235895,0.03535273,0.00016430777,0.00365486,0.8636575529518398,-0.09167450234656811,0.49567269124771157,0.09745482249974032,0.9951379897471417,0.014245663675715784,-0.4945686896688712,0.036002319113170714,0.8683925634283662,0.18299037,-0.070712365,0.113085024,-2.520939,0.39194807,-0.37519336,0.07594773,-0.021278849,0.011572409,0.018158559,-0.3243618781679473,-0.12677980568339658,-0.9373986627162648,0.6772757922988561,-0.7229411662372283,-0.13657807776328107,-0.6603687402938742,-0.6791781438109123,0.3203594478273511,left_images/camera_left_112.png,right_images/camera_right_112.png
2025-06-02 14:44:59,6.358404874801636,113,-0.07371004,-0.0050601596,0.11325521,-0.09622879,0.026848579,0.076609075,0.5235895,0.03535273,0.00016430777,0.00365486,0.8636575529518398,-0.09167450234656811,0.49567269124771157,0.09745482249974032,0.9951379897471417,0.014245663675715784,-0.4945686896688712,0.036002319113170714,0.8683925634283662,0.18731529,-0.07190738,0.11356334,-2.5344431,0.39351293,-0.37498796,0.07973609,-0.020661596,0.011853897,0.018139781,-0.32838128018236334,-0.11403516279681847,-0.9376362388856861,0.6688547609152347,-0.7289976821081646,-0.145587390532106,-0.6669325630277897,-0.674950636066688,0.3156621536490505,left_images/camera_left_113.png,right_images/camera_right_113.png
2025-06-02 14:44:59,6.412610769271851,114,-0.07371004,-0.0050601596,0.11325521,-0.09622879,0.026848579,0.076609075,0.5235895,0.03535273,0.00016430777,0.00365486,0.8636575529518398,-0.09167450234656811,0.49567269124771157,0.09745482249974032,0.9951379897471417,0.014245663675715784,-0.4945686896688712,0.036002319113170714,0.8683925634283662,0.19037747,-0.07281236,0.11383832,-2.5436418,0.39435968,-0.37438416,0.080319755,-0.020267649,0.012052925,0.01817161,-0.3314360567178542,-0.1053808971501527,-0.9375740007184225,0.6629502808037293,-0.7330793289937668,-0.1519592793622862,-0.6713025141391741,-0.6719297313840771,0.31283121742010717,left_images/camera_left_114.png,right_images/camera_right_114.png
2025-06-02 14:44:59,6.47457480430603,115,-0.07371004,-0.0050601596,0.11325521,-0.09622879,0.026848579,0.076609075,0.5235895,0.03535273,0.00016430777,0.00365486,0.8636575529518398,-0.09167450234656811,0.49567269124771157,0.09745482249974032,0.9951379897471417,0.014245663675715784,-0.4945686896688712,0.036002319113170714,0.8683925634283662,0.1926912,-0.073695295,0.114020795,-2.5496755,0.3946672,-0.37385002,0.08452077,-0.01998604,0.012214403,0.018214878,-0.3334571567139414,-0.09954005268609406,-0.9374956546819317,0.659041147998628,-0.7356865470361453,-0.15630121482152398,-0.6741447098961058,-0.6699679711906259,0.31092093480145766,left_images/camera_left_115.png,right_images/camera_right_115.png
2025-06-02 14:44:59,6.5385072231292725,116,-0.07371004,-0.0050601596,0.11325521,-0.09622879,0.026848579,0.076609075,0.5235895,0.03535273,0.00016430777,0.00365486,0.8636575529518398,-0.09167450234656811,0.49567269124771157,0.09745482249974032,0.9951379897471417,0.014245663675715784,-0.4945686896688712,0.036002319113170714,0.8683925634283662,0.19420289,-0.07435017,0.114074945,-2.553307,0.39488745,-0.3732431,0.08790377,-0.019845143,0.012323556,0.018292362,-0.3348952137479406,-0.09585578313695908,-0.9373669850426362,0.6566750035927172,-0.737173255705322,-0.15922792069646918,-0.6757389551189322,-0.6688701368068517,0.30982189177454433,left_images/camera_left_116.png,right_images/camera_right_116.png
2025-06-02 14:44:59,6.593659400939941,117,-0.075288944,-0.0059506027,0.11326907,-0.1502491,0.036734212,0.09464231,0.52359015,0.035380952,0.00015513052,0.003641026,0.8662259797933544,-0.1409266594104776,0.47936648672852206,0.15188104745398184,0.9882679100669297,0.016083698462230418,-0.4760091378905707,0.05887456665951682,0.8774674273415107,0.19564003,-0.07486802,0.11403857,-2.5550473,0.39454985,-0.3728327,0.093390346,-0.01976344,0.012389585,0.01842944,-0.3353125560596123,-0.09384727697536754,-0.9374210251285586,0.6554576363860024,-0.7379638536275436,-0.16057595599111435,-0.676713215957871,-0.6682829036744049,0.3089614603869901,left_images/camera_left_117.png,right_images/camera_right_117.png
2025-06-02 14:44:59,6.646010160446167,118,-0.08073007,-0.009344244,0.11346225,-0.20109574,0.0625661,0.14617199,0.5235903,0.035274934,0.00023427654,0.0035672896,0.8798124333979375,-0.19436354289704014,0.43376594521805234,0.20516898241152823,0.9784726811656493,0.022291273376003704,-0.42876073828490635,0.06938317811268203,0.9007498009438393,0.1964659,-0.07513198,0.11394101,-2.5565817,0.39462936,-0.3723738,0.09461877,-0.019768722,0.012426523,0.018566096,-0.33597119238165024,-0.09218114158036134,-0.9373505187637083,0.6544115358756721,-0.7385976367766797,-0.16192304548997244,-0.6773986268088354,-0.6678144713053507,0.3084719311585072,left_images/camera_left_118.png,right_images/camera_right_118.png
2025-06-02 14:44:59,6.700658559799194,119,-0.0872318,-0.012568724,0.1138078,-0.24116436,0.087834075,0.19533478,0.5235907,0.034988206,0.00034126628,0.0034650862,0.8896235638395524,-0.23821157215561553,0.3896474836984887,0.24837476218460988,0.9683433800617204,0.02492139242460827,-0.3832491254669116,0.07460794315481975,0.9206268313747188,0.19700979,-0.07545491,0.113791496,-2.5561008,0.3945972,-0.371765,0.10479438,-0.019825831,0.012452013,0.018721448,-0.33610219630465016,-0.09197479741957515,-0.937323823595036,0.6547324609241966,-0.7382230167748649,-0.16233355203396016,-0.6770234251865553,-0.6682569970778047,0.30833726275819967,left_images/camera_left_119.png,right_images/camera_right_119.png
2025-06-02 14:44:59,6.758193492889404,120,-0.09276805,-0.014999481,0.11415672,-0.2743083,0.10766619,0.22732155,0.52359056,0.034644157,0.00043825334,0.0033819824,0.8918471686502457,-0.27355247051645715,0.36024668443288044,0.28383127560969623,0.9585430809652173,0.025198589632787705,-0.352205103251377,0.07977598515876698,0.932516679440982,0.19762228,-0.07552839,0.11365608,-2.555616,0.39462987,-0.37115622,0.10713568,-0.01986606,0.012451144,0.018870257,-0.33607612219151384,-0.09179746585671977,-0.9373505562781723,0.6550014818389935,-0.7379310901527174,-0.16257541319260088,-0.6767761069079179,-0.6686037177942601,0.30812849538829756,left_images/camera_left_120.png,right_images/camera_right_120.png
2025-06-02 14:44:59,6.815365552902222,121,-0.09720912,-0.018269273,0.11451219,-0.30030087,0.12611689,0.24952036,0.5235907,0.034320418,0.0006382596,0.0032671802,0.8912437428687325,-0.3017693254165038,0.33855555679238375,0.3117892209194061,0.9498004888077859,0.025816916526978043,-0.3293509868146785,0.0825488079753995,0.9405921654925892,0.19780934,-0.07556405,0.11358608,-2.5535517,0.39485377,-0.37142494,0.11065924,-0.019889656,0.012437657,0.018946808,-0.3347972568141164,-0.09273059050859528,-0.9377162867379824,0.6565532607067239,-0.7367757786384619,-0.16155267830357045,-0.675905772046009,-0.6697480792026324,0.3075530811409199,left_images/camera_left_121.png,right_images/camera_right_121.png
2025-06-02 14:44:59,6.867557764053345,122,-0.100908816,-0.022732692,0.11485877,-0.32125315,0.14110003,0.26519397,0.52359056,0.034004316,0.0010208483,0.0031445138,0.8895345269027447,-0.32331525076616296,0.3227933922339854,0.33370483608192536,0.9423647585321875,0.02428465054530329,-0.3120407150091886,0.08611568090995587,0.9461578524104576,0.1977313,-0.07523564,0.1133849,-2.5502398,0.39584014,-0.37172773,0.122125894,-0.020012563,0.012374515,0.019108873,-0.3329275672989088,-0.09419155560062953,-0.938236210016414,0.6590718320278827,-0.7348427155611895,-0.16009529541516082,-0.6743764194868037,-0.6716651950489847,0.30672839875037394,left_images/camera_left_122.png,right_images/camera_right_122.png
2025-06-02 14:44:59,6.926907539367676,123,-0.10539737,-0.02915775,0.115186654,-0.33856863,0.15777107,0.27938238,0.52359056,0.033624638,0.0016017599,0.0031002136,0.8877786938096559,-0.3416398383335688,0.3084334801558257,0.35203351362953095,0.935700699938846,0.0231647451011356,-0.29651542303777056,0.08801375459191972,0.9509638178728806,0.19772275,-0.075052656,0.11320898,-2.5469902,0.39632037,-0.37170735,0.12632954,-0.020116527,0.012325317,0.019250767,-0.3314136775340866,-0.09587401625733177,-0.9386016979262402,0.66139445227792,-0.733066302955469,-0.1586542592154101,-0.6728464556192018,-0.6733661474100767,0.3063587418089913,left_images/camera_left_123.png,right_images/camera_right_123.png
2025-06-02 14:44:59,6.981810092926025,124,-0.110668674,-0.037117947,0.11550681,-0.35551473,0.17484587,0.28943917,0.52359056,0.033152398,0.0023531627,0.0031334152,0.8845469614562256,-0.35879431496447833,0.29806595331860547,0.36944756720203575,0.9289937708365131,0.02188764115781213,-0.28475457514683694,0.09075909483972741,0.9542943039947464,0.19749357,-0.07492108,0.11304841,-2.5422573,0.3970369,-0.37200212,0.13297772,-0.020222541,0.012274446,0.019371884,-0.32909652863746863,-0.09838362158445735,-0.9391571422518672,0.6648575239143469,-0.7303998518678784,-0.15646254914791835,-0.6705668853539155,-0.6758969739503998,0.3057831468074085,left_images/camera_left_124.png,right_images/camera_right_124.png
2025-06-02 14:44:59,7.038520812988281,125,-0.11612403,-0.045949224,0.11585038,-0.37256706,0.19232693,0.29572013,0.5235903,0.032632083,0.0032009387,0.0031786757,0.8800236943361823,-0.3755435242070902,0.29073245232174577,0.3865274542970419,0.9220382555710852,0.021023375991463637,-0.2759616358872112,0.09387500567003407,0.9565733943764615,0.19706501,-0.07498955,0.11291206,-2.5374355,0.39714527,-0.3725456,0.13540083,-0.020330358,0.012237962,0.019455269,-0.32673320247783627,-0.10143621586398077,-0.9396574421084384,0.6682998518518594,-0.7278171365332685,-0.15381002497658042,-0.6682968819419705,-0.6782277713863605,0.305591831872075,left_images/camera_left_125.png,right_images/camera_right_125.png
2025-06-02 14:44:59,7.091245412826538,126,-0.122753724,-0.055535875,0.11627475,-0.3918058,0.21129517,0.29939237,0.5235902,0.03195657,0.004129029,0.0032504983,0.8735895802960585,-0.39394138770618403,0.2857471404061334,0.405382487530891,0.913914672627076,0.020615769697283036,-0.2692699092015733,0.09782716498534744,0.9580832749764011,0.19711328,-0.0747456,0.11277352,-2.53192,0.39784962,-0.37307638,0.14608674,-0.02039571,0.01216888,0.019583935,-0.3235734198936817,-0.10426879104070402,-0.9404404612484605,0.6722621763717098,-0.7247611455695545,-0.15094650738814408,-0.665855696197216,-0.6810648288434933,0.30460940687067395,left_images/camera_left_126.png,right_images/camera_right_126.png
2025-06-02 14:45:00,7.147863149642944,127,-0.12984009,-0.06496322,0.116785094,-0.40836868,0.22913976,0.3019078,0.5235902,0.031174466,0.0050609224,0.0033039358,0.8674746171691561,-0.40956345014957224,0.2823925793444391,0.4214070747540866,0.9066415920279745,0.02042304953193689,-0.264393392342604,0.10128575371965773,0.9590815034078236,0.19694619,-0.07482149,0.11273055,-2.5267282,0.39805543,-0.37350816,0.15111959,-0.020420173,0.012139393,0.019619277,-0.32094014612979993,-0.10726851092796713,-0.9410052545897282,0.6759274591341178,-0.7219051096779526,-0.14823994943792534,-0.663415022885884,-0.6836274418015706,0.3041940634285325,left_images/camera_left_127.png,right_images/camera_right_127.png
2025-06-02 14:45:00,7.20701265335083,128,-0.1374876,-0.07424654,0.11735072,-0.42133462,0.24552971,0.3042952,0.5235902,0.030293914,0.0060015307,0.0033728722,0.8623889359226801,-0.42162819644162763,0.28020525898620813,0.43383174972994154,0.9007676598451466,0.020189995130157193,-0.2609125066462033,0.10415030937293772,0.9597277618851694,0.19679104,-0.074695535,0.11267055,-2.5200148,0.3985844,-0.37338564,0.16053912,-0.020449832,0.012083047,0.019670146,-0.31800106190454014,-0.11099841894360335,-0.9415703243091326,0.6805427425506223,-0.7181814617196085,-0.14517907426335136,-0.6601037041172108,-0.6869459505916797,0.3039216359136532,left_images/camera_left_128.png,right_images/camera_right_128.png
2025-06-02 14:45:00,7.269654750823975,129,-0.14504135,-0.0830469,0.117876455,-0.43231168,0.2603126,0.30611473,0.5235901,0.029431654,0.0069094608,0.0034855846,0.8578686329476161,-0.43154228148792545,0.2789850675086114,0.4441460629675537,0.8957352077310764,0.01981697205395322,-0.2584486087310398,0.10690976063560098,0.9600909434662054,0.19655147,-0.07477274,0.11265011,-2.5124197,0.39984182,-0.37372506,0.16800229,-0.020456636,0.012052598,0.019699838,-0.3143061313186077,-0.11463425593278287,-0.9423750013568204,0.6860300778830024,-0.7135804733072573,-0.14200577577842444,-0.6561816730566099,-0.6911308815856283,0.3029252654753321,left_images/camera_left_129.png,right_images/camera_right_129.png
2025-06-02 14:45:00,7.320667028427124,130,-0.15350838,-0.09233851,0.11827548,-0.44071555,0.2738695,0.30870298,0.5235901,0.028559912,0.007887131,0.0037834179,0.8544773272908739,-0.4384916041893325,0.27855629628732276,0.4517224945855672,0.8919681099064762,0.018430376970120267,-0.2565448986653938,0.11008180578703416,0.9602430478808106,0.19639158,-0.07453675,0.1126205,-2.5062647,0.40028736,-0.3739488,0.16780257,-0.020466767,0.011986066,0.019726008,-0.31119969608316106,-0.1181179353482385,-0.9429755577462322,0.6902034271416739,-0.7101741875801832,-0.13882309770609141,-0.6532794029507101,-0.6940466674827395,0.30253139512531174,left_images/camera_left_130.png,right_images/camera_right_130.png
2025-06-02 14:45:00,7.376576662063599,131,-0.16207421,-0.10106932,0.11850112,-0.44789904,0.28600338,0.31121302,0.52359,0.027778205,0.008805034,0.004238425,0.8515052263798178,-0.4440356080422233,0.2788749329689353,0.45799444740680717,0.8887971161781538,0.016756265035225516,-0.2553036145305987,0.113455123568618,0.9601812325512519,0.19618504,-0.074326456,0.11268535,-2.4992144,0.40141687,-0.37376088,0.17323264,-0.020416021,0.011934192,0.019685633,-0.30804646259576596,-0.12160321926339585,-0.9435677156129358,0.6950663873921292,-0.7059776749036506,-0.1359346889329225,-0.6496076461987577,-0.6977164034207698,0.30199623573431467,left_images/camera_left_131.png,right_images/camera_right_131.png
2025-06-02 14:45:00,7.431636571884155,132,-0.17045875,-0.10967859,0.11863238,-0.453332,0.29861405,0.31247038,0.52358997,0.027072309,0.009681294,0.004768919,0.8487388286265655,-0.44861862404812003,0.27997094659763727,0.4629073826103898,0.8862476891458934,0.01678656034934726,-0.2556543680565692,0.11535321252889133,0.9598616986070758,0.19594815,-0.0741438,0.11263766,-2.491813,0.4020592,-0.3734458,0.1840424,-0.020442517,0.011869513,0.019721396,-0.30486851070255594,-0.12565074662648612,-0.944069425971529,0.6999903117298827,-0.7017242870532243,-0.13265213320541075,-0.6458086052897618,-0.7012809100723125,0.30188794361789584,left_images/camera_left_132.png,right_images/camera_right_132.png
2025-06-02 14:45:00,7.490100622177124,133,-0.1783298,-0.11793129,0.11878835,-0.45784006,0.31006306,0.31383815,0.52358997,0.02639576,0.010534305,0.0052552884,0.8465227433961872,-0.4521484299871487,0.28100007504118124,0.4668170355383208,0.8842011455891964,0.01643744110154332,-0.25589275144913165,0.11726095428107822,0.9595669691881248,0.1958594,-0.07389053,0.11259189,-2.484878,0.40324178,-0.373594,0.17918225,-0.020454278,0.011803381,0.019775333,-0.3012912802119594,-0.12892021016678507,-0.9447767693369639,0.7047515038712042,-0.6975227863900202,-0.1295657372069411,-0.6422996825933472,-0.7048698758474887,0.3010142452828958,left_images/camera_left_133.png,right_images/camera_right_133.png
2025-06-02 14:45:00,7.542003393173218,134,-0.18526544,-0.124798,0.11904593,-0.46022505,0.31967768,0.31539118,0.52358997,0.025720717,0.011255251,0.005601625,0.8451491984264345,-0.4541134979993273,0.28196411710352554,0.46896209021712143,0.8830631267483574,0.016555123575602515,-0.2565100199570072,0.11823893230332347,0.9592821089488881,0.1958837,-0.07347576,0.11249225,-2.4778001,0.403915,-0.373028,0.18354096,-0.02049382,0.0117120715,0.019866398,-0.298165707861338,-0.13263430011923072,-0.9452541209047594,0.7093028817842179,-0.6934724596307085,-0.12643326155066759,-0.6387383130423221,-0.7081695349036257,0.3008475981061366,left_images/camera_left_134.png,right_images/camera_right_134.png
2025-06-02 14:45:00,7.59735369682312,135,-0.19109279,-0.12986182,0.11938787,-0.46073678,0.3271621,0.31717873,0.52358985,0.025064606,0.011798834,0.005802977,0.8444875853132116,-0.4548254699516334,0.28279764874400426,0.46964737156881875,0.8826870071429764,0.01717538353210809,-0.25743361208350646,0.11831077425260539,0.9590258057348551,0.19602138,-0.07340501,0.11244801,-2.4722898,0.40461913,-0.37274036,0.17820114,-0.02049467,0.011673098,0.019927364,-0.2956016135178761,-0.1351710329359725,-0.9456999936241146,0.7129597741465961,-0.6901155259191005,-0.12421320917775908,-0.6358522206727462,-0.7109636789178653,0.3003707720886168,left_images/camera_left_135.png,right_images/camera_right_135.png
2025-06-02 14:45:00,7.654073715209961,136,-0.19569257,-0.13348074,0.119813286,-0.45933324,0.3329099,0.31903058,0.52358985,0.024439417,0.012200453,0.0058502676,0.844568337959349,-0.4542998220277635,0.2834007660930458,0.4688409797966237,0.8830905494455996,0.018417848495705345,-0.258635763536145,0.11731476115737241,0.9588246912938069,0.19615813,-0.07335848,0.112386025,-2.4667132,0.40528968,-0.37279552,0.17624286,-0.02050639,0.011632227,0.020003399,-0.2926777365834914,-0.13774569252038388,-0.9462377432233635,0.7166779063771498,-0.6867020887820217,-0.12170874978107954,-0.6330185787314853,-0.7137691261566921,0.29970170757985726,left_images/camera_left_136.png,right_images/camera_right_136.png
2025-06-02 14:45:00,7.714849233627319,137,-0.19882086,-0.13611194,0.12034339,-0.45551416,0.33746073,0.32045034,0.52358985,0.023854248,0.012503929,0.0057124784,0.8455182747171104,-0.4522644196244712,0.28382343430580437,0.46612789257235515,0.8844734142520324,0.02077419667298097,-0.26042971198666254,0.11473305636604006,0.9586514960565446,0.19609165,-0.07313789,0.112306096,-2.4618618,0.40560368,-0.37296772,0.17256877,-0.020547453,0.011570147,0.020069929,-0.2900480777895148,-0.14039589770252803,-0.9466578603058808,0.719790065359602,-0.6838967883844503,-0.11911106013739453,-0.6306935661477984,-0.7159428571790736,0.299418521260855,left_images/camera_left_137.png,right_images/camera_right_137.png
2025-06-02 14:45:00,7.768269062042236,138,-0.20047961,-0.13793208,0.120974384,-0.4511614,0.34217966,0.32028538,0.52358973,0.02332039,0.012712627,0.0053882357,0.8462727399017895,-0.4506122129839347,0.284202539061211,0.4632962098807696,0.8858512489568099,0.024983727339493993,-0.26301914684910693,0.11052691179699758,0.9584386940015448,0.19637118,-0.07290525,0.11229418,-2.4573288,0.40665042,-0.37288225,0.17497948,-0.020516064,0.011524569,0.020119835,-0.2875447775977541,-0.142044545412208,-0.9471754578719286,0.7228328013973074,-0.6809922980058746,-0.11731253675886033,-0.6283555857159059,-0.7183820969200982,0.298490235559396,left_images/camera_left_138.png,right_images/camera_right_138.png
2025-06-02 14:45:00,7.822373867034912,139,-0.20129195,-0.13860415,0.12164978,-0.44660234,0.3451471,0.32053798,0.52358985,0.0228151,0.012817891,0.0049601514,0.8473107707258504,-0.44865514853144833,0.2842059385519403,0.4602339729582314,0.8873348480005364,0.02866282712760014,-0.2650455582481005,0.10651490609341381,0.9583347154480337,0.1965495,-0.072676055,0.112309515,-2.4532883,0.40655658,-0.3725745,0.16823024,-0.020479627,0.011472282,0.020124773,-0.28561136634869494,-0.14436286930460374,-0.9474098951238443,0.725244611460754,-0.6787841596691588,-0.11520554730295768,-0.6264554261554223,-0.7200079350593132,0.29856686435713603,left_images/camera_left_139.png,right_images/camera_right_139.png
2025-06-02 14:45:00,7.877063512802124,140,-0.20122065,-0.13784243,0.12234893,-0.4421091,0.34582824,0.32142147,0.52359,0.022352092,0.012790376,0.0044356594,0.8486161829758878,-0.4464538732601959,0.28377722431936536,0.4571194733001439,0.8888506912190569,0.03140439219605762,-0.2662561945218055,0.10306981988134892,0.9583758402153055,0.19695789,-0.07253802,0.11232783,-2.449378,0.40707493,-0.37283784,0.1629633,-0.020420998,0.011434889,0.020157613,-0.2830610868367269,-0.14591586495912456,-0.9479372244363238,0.7278067307097098,-0.6763725529302629,-0.11321454136391929,-0.6246389227805571,-0.7219617233592299,0.2976532985735518,left_images/camera_left_140.png,right_images/camera_right_140.png
2025-06-02 14:45:00,7.933377027511597,141,-0.20013356,-0.13634439,0.123004414,-0.43955696,0.3447024,0.32227892,0.52358997,0.022001896,0.012703414,0.0038561868,0.849625143124833,-0.4451235584966406,0.2828464845837661,0.45532103499768833,0.8897343386247951,0.03248940997512841,-0.26612003167507087,0.10118213450597824,0.9586147841537147,0.19710521,-0.07256713,0.112278916,-2.4461653,0.40751365,-0.372866,0.16212437,-0.020431645,0.011417106,0.020217648,-0.2813234175375898,-0.1472487633967312,-0.9482483516585221,0.7299248618745033,-0.6743154565443576,-0.11184078452363161,-0.6229501029476261,-0.7236134788293456,0.2971812620170293,left_images/camera_left_141.png,right_images/camera_right_141.png
