jiaqis7/OS_Teleop_Extension/rollout_1/teleop_log.csv
Epoch Time (Seconds),Time (Seconds),Frame Number,PSM1_joint_1,PSM1_joint_2,PSM1_joint_3,PSM1_joint_4,PSM1_joint_5,PSM1_joint_6,PSM1_jaw_angle,PSM1_ee_x,PSM1_ee_y,PSM1_ee_z,"PSM1_Orientation_Matrix_[1,1]","PSM1_Orientation_Matrix_[1,2]","PSM1_Orientation_Matrix_[1,3]","PSM1_Orientation_Matrix_[2,1]","PSM1_Orientation_Matrix_[2,2]","PSM1_Orientation_Matrix_[2,3]","PSM1_Orientation_Matrix_[3,1]","PSM1_Orientation_Matrix_[3,2]","PSM1_Orientation_Matrix_[3,3]",PSM2_joint_1,PSM2_joint_2,PSM2_joint_3,PSM2_joint_4,PSM2_joint_5,PSM2_joint_6,PSM2_jaw_angle,PSM2_ee_x,PSM2_ee_y,PSM2_ee_z,"PSM2_Orientation_Matrix_[1,1]","PSM2_Orientation_Matrix_[1,2]","PSM2_Orientation_Matrix_[1,3]","PSM2_Orientation_Matrix_[2,1]","PSM2_Orientation_Matrix_[2,2]","PSM2_Orientation_Matrix_[2,3]","PSM2_Orientation_Matrix_[3,1]","PSM2_Orientation_Matrix_[3,2]","PSM2_Orientation_Matrix_[3,3]",Camera Left,Camera Right
2025-05-31 13:17:28,0.0025005340576171875,1,-0.0655135,-0.0006016445,0.114032716,3.749733e-05,-0.00021484419,0.012576343,0.5235896,0.035163388,7.391531e-05,0.0028098165,0.8382473089518525,0.0004845417673119634,0.5452900276497391,-4.768587162664776e-05,0.9999996665147607,-0.0008152891665276135,-0.5452902408452173,0.0006574113196015742,0.8382470525145446,-0.00090618804,1.9074982e-05,0.10708665,0.00070370076,0.00011565558,-0.014005228,0.005959485,-0.045237146,-4.344097e-06,0.0047324477,0.8732870267041586,0.00067667784036986,-0.4872056148047869,-0.0007055760580121622,0.9999997433693004,0.00012419242935595936,0.4872055738111341,0.00023530497976392153,0.8732872800395812,left_images/camera_left_1.png,right_images/camera_right_1.png
2025-05-31 13:17:29,0.05226421356201172,2,-0.0655135,-0.000601648,0.114032716,3.750116e-05,-0.00021481648,0.012576343,0.5235896,0.035163388,7.391531e-05,0.0028098165,0.8382473089518525,0.0004845417673119634,0.5452900276497391,-4.768587162664776e-05,0.9999996665147607,-0.0008152891665276135,-0.5452902408452173,0.0006574113196015742,0.8382470525145446,-0.00090618804,1.9074982e-05,0.10708665,0.00070370076,0.00011565558,-0.014005228,0.005959485,-0.045237146,-4.344097e-06,0.0047324477,0.8732870267041586,0.00067667784036986,-0.4872056148047869,-0.0007055760580121622,0.9999997433693004,0.00012419242935595936,0.4872055738111341,0.00023530497976392153,0.8732872800395812,left_images/camera_left_2.png,right_images/camera_right_2.png
2025-05-31 13:17:29,0.1016092300415039,3,-0.0655135,-0.0006016515,0.114032716,3.7504986e-05,-0.00021478877,0.012576343,0.5235896,0.035163388,7.391531e-05,0.0028098165,0.8382473089518525,0.0004845417673119634,0.5452900276497391,-4.768587162664776e-05,0.9999996665147607,-0.0008152891665276135,-0.5452902408452173,0.0006574113196015742,0.8382470525145446,-0.00090618804,1.9074982e-05,0.10708665,0.00070370076,0.00011565558,-0.014005228,0.005959485,-0.045237146,-4.344097e-06,0.0047324477,0.8732870267041586,0.00067667784036986,-0.4872056148047869,-0.0007055760580121622,0.9999997433693004,0.00012419242935595936,0.4872055738111341,0.00023530497976392153,0.8732872800395812,left_images/camera_left_3.png,right_images/camera_right_3.png
2025-05-31 13:17:29,0.15611696243286133,4,-0.0655135,-0.000601655,0.114032716,3.7508813e-05,-0.00021476106,0.012576343,0.5235896,0.035163388,7.391531e-05,0.0028098165,0.8382473089518525,0.0004845417673119634,0.5452900276497391,-4.768587162664776e-05,0.9999996665147607,-0.0008152891665276135,-0.5452902408452173,0.0006574113196015742,0.8382470525145446,-0.00090618804,1.9074982e-05,0.10708665,0.00070370076,0.00011565558,-0.014005228,0.005959485,-0.045237146,-4.344097e-06,0.0047324477,0.8732870267041586,0.00067667784036986,-0.4872056148047869,-0.0007055760580121622,0.9999997433693004,0.00012419242935595936,0.4872055738111341,0.00023530497976392153,0.8732872800395812,left_images/camera_left_4.png,right_images/camera_right_4.png
2025-05-31 13:17:29,0.2156074047088623,5,-0.0655135,-0.0006016585,0.114032716,3.751264e-05,-0.00021473336,0.012576343,0.5235896,0.035163388,7.391531e-05,0.0028098165,0.8382473089518525,0.0004845417673119634,0.5452900276497391,-4.768587162664776e-05,0.9999996665147607,-0.0008152891665276135,-0.5452902408452173,0.0006574113196015742,0.8382470525145446,-0.00090618804,1.9074982e-05,0.10708665,0.00070370076,0.00011565558,-0.014005228,0.005959485,-0.045237146,-4.344097e-06,0.0047324477,0.8732870267041586,0.00067667784036986,-0.4872056148047869,-0.0007055760580121622,0.9999997433693004,0.00012419242935595936,0.4872055738111341,0.00023530497976392153,0.8732872800395812,left_images/camera_left_5.png,right_images/camera_right_5.png
2025-05-31 13:17:29,0.26301002502441406,6,-0.0655135,-0.000601662,0.114032716,3.7516467e-05,-0.00021470565,0.012576343,0.5235896,0.035163388,7.391531e-05,0.0028098165,0.8382473089518525,0.0004845417673119634,0.5452900276497391,-4.768587162664776e-05,0.9999996665147607,-0.0008152891665276135,-0.5452902408452173,0.0006574113196015742,0.8382470525145446,-0.00090618804,1.9074982e-05,0.10708665,0.00070370076,0.00011565558,-0.014005228,0.005959485,-0.045237146,-4.344097e-06,0.0047324477,0.8732870267041586,0.00067667784036986,-0.4872056148047869,-0.0007055760580121622,0.9999997433693004,0.00012419242935595936,0.4872055738111341,0.00023530497976392153,0.8732872800395812,left_images/camera_left_6.png,right_images/camera_right_6.png
2025-05-31 13:17:29,0.3164691925048828,7,-0.0655135,-0.00060166547,0.114032716,3.7520294e-05,-0.00021467794,0.012576343,0.5235896,0.035163388,7.391531e-05,0.0028098165,0.8382473089518525,0.0004845417673119634,0.5452900276497391,-4.768587162664776e-05,0.9999996665147607,-0.0008152891665276135,-0.5452902408452173,0.0006574113196015742,0.8382470525145446,-0.00090618804,1.9074982e-05,0.10708665,0.00070370076,0.00011565558,-0.014005228,0.005959485,-0.045237146,-4.344097e-06,0.0047324477,0.8732870267041586,0.00067667784036986,-0.4872056148047869,-0.0007055760580121622,0.9999997433693004,0.00012419242935595936,0.4872055738111341,0.00023530497976392153,0.8732872800395812,left_images/camera_left_7.png,right_images/camera_right_7.png
2025-05-31 13:17:29,0.3668806552886963,8,-0.0655135,-0.00060166896,0.114032716,3.752412e-05,-0.00021465024,0.012576343,0.5235896,0.035163388,7.391531e-05,0.0028098165,0.8382473089518525,0.0004845417673119634,0.5452900276497391,-4.768587162664776e-05,0.9999996665147607,-0.0008152891665276135,-0.5452902408452173,0.0006574113196015742,0.8382470525145446,-0.00090618804,1.9074982e-05,0.10708665,0.00070370076,0.00011565558,-0.014005228,0.005959485,-0.045237146,-4.344097e-06,0.0047324477,0.8732870267041586,0.00067667784036986,-0.4872056148047869,-0.0007055760580121622,0.9999997433693004,0.00012419242935595936,0.4872055738111341,0.00023530497976392153,0.8732872800395812,left_images/camera_left_8.png,right_images/camera_right_8.png
2025-05-31 13:17:29,0.4202296733856201,9,-0.0655135,-0.00060167245,0.114032716,3.752795e-05,-0.00021462253,0.012576343,0.5235896,0.035163388,7.391531e-05,0.0028098165,0.8382473089518525,0.0004845417673119634,0.5452900276497391,-4.768587162664776e-05,0.9999996665147607,-0.0008152891665276135,-0.5452902408452173,0.0006574113196015742,0.8382470525145446,-0.00090618804,1.9074982e-05,0.10708665,0.00070370076,0.00011565558,-0.014005228,0.005959485,-0.045237146,-4.344097e-06,0.0047324477,0.8732870267041586,0.00067667784036986,-0.4872056148047869,-0.0007055760580121622,0.9999997433693004,0.00012419242935595936,0.4872055738111341,0.00023530497976392153,0.8732872800395812,left_images/camera_left_9.png,right_images/camera_right_9.png
2025-05-31 13:17:29,0.47035932540893555,10,-0.0655135,-0.00060167594,0.114032716,3.7531776e-05,-0.00021459482,0.012576343,0.5235896,0.035163388,7.391531e-05,0.0028098165,0.8382473089518525,0.0004845417673119634,0.5452900276497391,-4.768587162664776e-05,0.9999996665147607,-0.0008152891665276135,-0.5452902408452173,0.0006574113196015742,0.8382470525145446,-0.00090618804,1.9074982e-05,0.10708665,0.00070370076,0.00011565558,-0.014005228,0.005959485,-0.045237146,-4.344097e-06,0.0047324477,0.8732870267041586,0.00067667784036986,-0.4872056148047869,-0.0007055760580121622,0.9999997433693004,0.00012419242935595936,0.4872055738111341,0.00023530497976392153,0.8732872800395812,left_images/camera_left_10.png,right_images/camera_right_10.png
2025-05-31 13:17:29,0.5142924785614014,11,-0.0655135,-0.00060167944,0.114032716,3.753358e-05,-0.00021461645,0.012576343,0.5235896,0.035163388,7.391531e-05,0.0028098165,0.8382473089518525,0.0004845417673119634,0.5452900276497391,-4.768587162664776e-05,0.9999996665147607,-0.0008152891665276135,-0.5452902408452173,0.0006574113196015742,0.8382470525145446,-0.00090618804,1.9074982e-05,0.10708665,0.00070370076,0.00011565558,-0.014005228,0.005959485,-0.045237146,-4.344097e-06,0.0047324477,0.8732870267041586,0.00067667784036986,-0.4872056148047869,-0.0007055760580121622,0.9999997433693004,0.00012419242935595936,0.4872055738111341,0.00023530497976392153,0.8732872800395812,left_images/camera_left_11.png,right_images/camera_right_11.png
2025-05-31 13:17:29,0.5646626949310303,12,-0.0655135,-0.0006016829,0.114032716,3.7537404e-05,-0.00021458876,0.012576343,0.5235896,0.035163395,7.390886e-05,0.0028098156,0.8382473089574568,0.00048434423138264487,0.5452900278166172,-4.768217758558142e-05,0.9999996668055887,-0.0008149325868562432,-0.5452902408369248,0.0006571144319719864,0.838247052752726,-0.00090618804,1.9074982e-05,0.10708665,0.00070370076,0.00011565558,-0.014005228,0.005959485,-0.045237146,-4.344097e-06,0.0047324477,0.8732870267041586,0.00067667784036986,-0.4872056148047869,-0.0007055760580121622,0.9999997433693004,0.00012419242935595936,0.4872055738111341,0.00023530497976392153,0.8732872800395812,left_images/camera_left_12.png,right_images/camera_right_12.png
2025-05-31 13:17:29,0.6169922351837158,13,-0.0655135,-0.0006016766,0.114032716,3.7505233e-05,-0.0002145868,0.012576315,0.5235896,0.035163395,7.390827e-05,0.002809818,0.8382471969656192,0.00048445369952885924,0.5452901998788311,-4.777929735285186e-05,0.9999996667592215,-0.0008149837941501005,-0.5452904129878144,0.0006571042984151202,0.838246940774328,-0.00090618804,1.9074982e-05,0.10708665,0.00070370076,0.00011565558,-0.014005228,0.005959485,-0.045237146,-4.344097e-06,0.0047324477,0.8732870267041586,0.00067667784036986,-0.4872056148047869,-0.0007055760580121622,0.9999997433693004,0.00012419242935595936,0.4872055738111341,0.00023530497976392153,0.8732872800395812,left_images/camera_left_13.png,right_images/camera_right_13.png
2025-05-31 13:17:29,0.6647789478302002,14,-0.0655135,-0.00060167245,0.114032716,3.7476053e-05,-0.00021454867,0.012576315,0.5235896,0.035163395,7.390827e-05,0.002809818,0.8382471969656192,0.00048445369952885924,0.5452901998788311,-4.777929735285186e-05,0.9999996667592215,-0.0008149837941501005,-0.5452904129878144,0.0006571042984151202,0.838246940774328,-0.00090618804,1.9074982e-05,0.10708665,0.00070370076,0.00011565558,-0.014005228,0.005959485,-0.045237146,-4.344097e-06,0.0047324477,0.8732870267041586,0.00067667784036986,-0.4872056148047869,-0.0007055760580121622,0.9999997433693004,0.00012419242935595936,0.4872055738111341,0.00023530497976392153,0.8732872800395812,left_images/camera_left_14.png,right_images/camera_right_14.png
2025-05-31 13:17:29,0.7139847278594971,15,-0.0655135,-0.0006016657,0.114032716,3.7477323e-05,-0.00021459871,0.012576259,0.5235896,0.03516339,7.3916555e-05,0.0028098165,0.838247184282458,0.00048469699638048003,0.5452902191598089,-4.77948952525539e-05,0.9999996664143229,-0.0008154059667695358,-0.5452904324836249,0.0006574496667846938,0.8382469278212458,-0.00090618804,1.9074982e-05,0.10708665,0.00070370076,0.00011565558,-0.014005228,0.005959485,-0.045237146,-4.344097e-06,0.0047324477,0.8732870267041586,0.00067667784036986,-0.4872056148047869,-0.0007055760580121622,0.9999997433693004,0.00012419242935595936,0.4872055738111341,0.00023530497976392153,0.8732872800395812,left_images/camera_left_15.png,right_images/camera_right_15.png
2025-05-31 13:17:29,0.7648944854736328,16,-0.0655135,-0.0006016661,0.114032716,3.7474663e-05,-0.0002146564,0.012576287,0.5235896,0.03516339,7.3916555e-05,0.0028098165,0.838247184282458,0.00048469699638048003,0.5452902191598089,-4.77948952525539e-05,0.9999996664143229,-0.0008154059667695358,-0.5452904324836249,0.0006574496667846938,0.8382469278212458,-0.00090618804,1.9074982e-05,0.10708665,0.00070370076,0.00011565558,-0.014005228,0.005959485,-0.045237146,-4.344097e-06,0.0047324477,0.8732870267041586,0.00067667784036986,-0.4872056148047869,-0.0007055760580121622,0.9999997433693004,0.00012419242935595936,0.4872055738111341,0.00023530497976392153,0.8732872800395812,left_images/camera_left_16.png,right_images/camera_right_16.png
2025-05-31 13:17:29,0.8236470222473145,17,-0.0655135,-0.0006016694,0.114032716,3.744156e-05,-0.00021462588,0.012576343,0.5235896,0.035163414,7.389994e-05,0.0028098454,0.8382473713653025,0.0004842308314224707,0.5452899319808342,-4.732896054009228e-05,0.9999996665491813,-0.0008152677449558049,-0.545290144931238,0.0006575880384944908,0.838247114769172,-0.00090618804,1.9074982e-05,0.10708665,0.00070370076,0.00011565558,-0.014005228,0.005959485,-0.045237146,-4.344097e-06,0.0047324477,0.8732870267041586,0.00067667784036986,-0.4872056148047869,-0.0007055760580121622,0.9999997433693004,0.00012419242935595936,0.4872055738111341,0.00023530497976392153,0.8732872800395812,left_images/camera_left_17.png,right_images/camera_right_17.png
2025-05-31 13:17:29,0.8702852725982666,18,-0.0655135,-0.00060166954,0.114032716,3.7443202e-05,-0.00021463695,0.012576343,0.5235896,0.035163414,7.389994e-05,0.0028098454,0.8382473713653025,0.0004842308314224707,0.5452899319808342,-4.732896054009228e-05,0.9999996665491813,-0.0008152677449558049,-0.545290144931238,0.0006575880384944908,0.838247114769172,-0.00090618804,1.9074982e-05,0.10708665,0.00070370076,0.00011565558,-0.014005228,0.005959485,-0.045237146,-4.344097e-06,0.0047324477,0.8732870267041586,0.00067667784036986,-0.4872056148047869,-0.0007055760580121622,0.9999997433693004,0.00012419242935595936,0.4872055738111341,0.00023530497976392153,0.8732872800395812,left_images/camera_left_18.png,right_images/camera_right_18.png
2025-05-31 13:17:29,0.9165472984313965,19,-0.0655135,-0.00060166954,0.114032716,3.7444846e-05,-0.00021464804,0.012576343,0.5235896,0.035163414,7.389994e-05,0.0028098454,0.8382473713653025,0.0004842308314224707,0.5452899319808342,-4.732896054009228e-05,0.9999996665491813,-0.0008152677449558049,-0.545290144931238,0.0006575880384944908,0.838247114769172,-0.00090618804,1.9074982e-05,0.10708665,0.00070370076,0.00011565558,-0.014005228,0.005959485,-0.045237146,-4.344097e-06,0.0047324477,0.8732870267041586,0.00067667784036986,-0.4872056148047869,-0.0007055760580121622,0.9999997433693004,0.00012419242935595936,0.4872055738111341,0.00023530497976392153,0.8732872800395812,left_images/camera_left_19.png,right_images/camera_right_19.png
2025-05-31 13:17:29,0.9617600440979004,20,-0.0655135,-0.00060166954,0.114032716,3.744649e-05,-0.00021465913,0.012576343,0.5235896,0.035163414,7.389994e-05,0.0028098454,0.8382473713653025,0.0004842308314224707,0.5452899319808342,-4.732896054009228e-05,0.9999996665491813,-0.0008152677449558049,-0.545290144931238,0.0006575880384944908,0.838247114769172,-0.00090618804,1.9074982e-05,0.10708665,0.00070370076,0.00011565558,-0.014005228,0.005959485,-0.045237146,-4.344097e-06,0.0047324477,0.8732870267041586,0.00067667784036986,-0.4872056148047869,-0.0007055760580121622,0.9999997433693004,0.00012419242935595936,0.4872055738111341,0.00023530497976392153,0.8732872800395812,left_images/camera_left_20.png,right_images/camera_right_20.png
2025-05-31 13:17:29,1.0175273418426514,21,-0.0655135,-0.00060166954,0.114032716,3.7448135e-05,-0.00021467022,0.012576343,0.5235896,0.035163414,7.389994e-05,0.0028098454,0.8382473713653025,0.0004842308314224707,0.5452899319808342,-4.732896054009228e-05,0.9999996665491813,-0.0008152677449558049,-0.545290144931238,0.0006575880384944908,0.838247114769172,-0.00090618804,1.9074982e-05,0.10708665,0.00070370076,0.00011565558,-0.014005228,0.005959485,-0.045237146,-4.344097e-06,0.0047324477,0.8732870267041586,0.00067667784036986,-0.4872056148047869,-0.0007055760580121622,0.9999997433693004,0.00012419242935595936,0.4872055738111341,0.00023530497976392153,0.8732872800395812,left_images/camera_left_21.png,right_images/camera_right_21.png
2025-05-31 13:17:30,1.0736658573150635,22,-0.0655135,-0.00060166954,0.114032716,3.744978e-05,-0.0002146813,0.012576343,0.5235896,0.035163414,7.389994e-05,0.0028098454,0.8382473713653025,0.0004842308314224707,0.5452899319808342,-4.732896054009228e-05,0.9999996665491813,-0.0008152677449558049,-0.545290144931238,0.0006575880384944908,0.838247114769172,-0.00090618804,1.9074982e-05,0.10708665,0.00070370076,0.00011565558,-0.014005228,0.005959485,-0.045237146,-4.344097e-06,0.0047324477,0.8732870267041586,0.00067667784036986,-0.4872056148047869,-0.0007055760580121622,0.9999997433693004,0.00012419242935595936,0.4872055738111341,0.00023530497976392153,0.8732872800395812,left_images/camera_left_22.png,right_images/camera_right_22.png
2025-05-31 13:17:30,1.1203091144561768,23,-0.0655135,-0.00060166954,0.114032716,3.7451424e-05,-0.0002146924,0.012576343,0.5235896,0.035163388,7.391531e-05,0.0028098165,0.8382473089518525,0.0004845417673119634,0.5452900276497391,-4.768587162664776e-05,0.9999996665147607,-0.0008152891665276135,-0.5452902408452173,0.0006574113196015742,0.8382470525145446,-0.00090618804,1.9074982e-05,0.10708665,0.00070370076,0.00011565558,-0.014005228,0.005959485,-0.045237146,-4.344097e-06,0.0047324477,0.8732870267041586,0.00067667784036986,-0.4872056148047869,-0.0007055760580121622,0.9999997433693004,0.00012419242935595936,0.4872055738111341,0.00023530497976392153,0.8732872800395812,left_images/camera_left_23.png,right_images/camera_right_23.png
2025-05-31 13:17:30,1.1712396144866943,24,-0.0655135,-0.0006016728,0.114032716,3.7455247e-05,-0.00021466469,0.012576343,0.5235896,0.035163388,7.391531e-05,0.0028098165,0.8382473089518525,0.0004845417673119634,0.5452900276497391,-4.768587162664776e-05,0.9999996665147607,-0.0008152891665276135,-0.5452902408452173,0.0006574113196015742,0.8382470525145446,-0.00090618804,1.9074982e-05,0.10708665,0.00070370076,0.00011565558,-0.014005228,0.005959485,-0.045237146,-4.344097e-06,0.0047324477,0.8732870267041586,0.00067667784036986,-0.4872056148047869,-0.0007055760580121622,0.9999997433693004,0.00012419242935595936,0.4872055738111341,0.00023530497976392153,0.8732872800395812,left_images/camera_left_24.png,right_images/camera_right_24.png
2025-05-31 13:17:30,1.2171144485473633,25,-0.0655135,-0.0006016763,0.114032716,3.7459075e-05,-0.00021463698,0.012576343,0.5235896,0.035163388,7.391531e-05,0.0028098165,0.8382473089518525,0.0004845417673119634,0.5452900276497391,-4.768587162664776e-05,0.9999996665147607,-0.0008152891665276135,-0.5452902408452173,0.0006574113196015742,0.8382470525145446,-0.00090618804,1.9074982e-05,0.10708665,0.00070370076,0.00011565558,-0.014005228,0.005959485,-0.045237146,-4.344097e-06,0.0047324477,0.8732870267041586,0.00067667784036986,-0.4872056148047869,-0.0007055760580121622,0.9999997433693004,0.00012419242935595936,0.4872055738111341,0.00023530497976392153,0.8732872800395812,left_images/camera_left_25.png,right_images/camera_right_25.png
2025-05-31 13:17:30,1.2627744674682617,26,-0.0655135,-0.0006016798,0.114032716,3.74629e-05,-0.00021460927,0.012576343,0.5235896,0.035163388,7.391531e-05,0.0028098165,0.8382473089518525,0.0004845417673119634,0.5452900276497391,-4.768587162664776e-05,0.9999996665147607,-0.0008152891665276135,-0.5452902408452173,0.0006574113196015742,0.8382470525145446,-0.00090618804,1.9074982e-05,0.10708665,0.00070370076,0.00011565558,-0.014005228,0.005959485,-0.045237146,-4.344097e-06,0.0047324477,0.8732870267041586,0.00067667784036986,-0.4872056148047869,-0.0007055760580121622,0.9999997433693004,0.00012419242935595936,0.4872055738111341,0.00023530497976392153,0.8732872800395812,left_images/camera_left_26.png,right_images/camera_right_26.png
2025-05-31 13:17:30,1.3116552829742432,27,-0.0655135,-0.0006016833,0.114032716,3.746673e-05,-0.00021458157,0.012576343,0.5235896,0.035163395,7.390886e-05,0.0028098156,0.8382473089574568,0.00048434423138264487,0.5452900278166172,-4.768217758558142e-05,0.9999996668055887,-0.0008149325868562432,-0.5452902408369248,0.0006571144319719864,0.838247052752726,-0.00090618804,1.9074982e-05,0.10708665,0.00070370076,0.00011565558,-0.014005228,0.005959485,-0.045237146,-4.344097e-06,0.0047324477,0.8732870267041586,0.00067667784036986,-0.4872056148047869,-0.0007055760580121622,0.9999997433693004,0.00012419242935595936,0.4872055738111341,0.00023530497976392153,0.8732872800395812,left_images/camera_left_27.png,right_images/camera_right_27.png
2025-05-31 13:17:30,1.3615474700927734,28,-0.0655135,-0.0006016946,0.114032716,3.7485173e-05,-0.00021456224,0.012576325,0.5235896,0.035163395,7.390886e-05,0.0028098156,0.8382473089574568,0.00048434423138264487,0.5452900278166172,-4.768217758558142e-05,0.9999996668055887,-0.0008149325868562432,-0.5452902408369248,0.0006571144319719864,0.838247052752726,-0.00090618804,1.9074982e-05,0.10708665,0.00070370076,0.00011565558,-0.014005228,0.005959485,-0.045237146,-4.344097e-06,0.0047324477,0.8732870267041586,0.00067667784036986,-0.4872056148047869,-0.0007055760580121622,0.9999997433693004,0.00012419242935595936,0.4872055738111341,0.00023530497976392153,0.8732872800395812,left_images/camera_left_28.png,right_images/camera_right_28.png
2025-05-31 13:17:30,1.4096782207489014,29,-0.0655135,-0.0006016905,0.114032716,3.7450987e-05,-0.0002146096,0.012576325,0.5235896,0.035163388,7.391531e-05,0.0028098165,0.8382473089518525,0.0004845417673119634,0.5452900276497391,-4.768587162664776e-05,0.9999996665147607,-0.0008152891665276135,-0.5452902408452173,0.0006574113196015742,0.8382470525145446,-0.00090618804,1.9074982e-05,0.10708665,0.00070370076,0.00011565558,-0.014005228,0.005959485,-0.045237146,-4.344097e-06,0.0047324477,0.8732870267041586,0.00067667784036986,-0.4872056148047869,-0.0007055760580121622,0.9999997433693004,0.00012419242935595936,0.4872055738111341,0.00023530497976392153,0.8732872800395812,left_images/camera_left_29.png,right_images/camera_right_29.png
2025-05-31 13:17:30,1.4576609134674072,30,-0.0655135,-0.0006016934,0.114032716,3.7454807e-05,-0.0002145819,0.012576325,0.5235896,0.035163395,7.390886e-05,0.0028098156,0.8382473089574568,0.00048434423138264487,0.5452900278166172,-4.768217758558142e-05,0.9999996668055887,-0.0008149325868562432,-0.5452902408369248,0.0006571144319719864,0.838247052752726,-0.00090618804,1.9074982e-05,0.10708665,0.00070370076,0.00011565558,-0.014005228,0.005959485,-0.045237146,-4.344097e-06,0.0047324477,0.8732870267041586,0.00067667784036986,-0.4872056148047869,-0.0007055760580121622,0.9999997433693004,0.00012419242935595936,0.4872055738111341,0.00023530497976392153,0.8732872800395812,left_images/camera_left_30.png,right_images/camera_right_30.png
2025-05-31 13:17:30,1.5130341053009033,31,-0.0655135,-0.00060170476,0.114032716,3.747325e-05,-0.00021456258,0.012576307,0.5235896,0.035163395,7.390827e-05,0.002809818,0.8382471969656192,0.00048445369952885924,0.5452901998788311,-4.777929735285186e-05,0.9999996667592215,-0.0008149837941501005,-0.5452904129878144,0.0006571042984151202,0.838246940774328,-0.00090618804,1.9074982e-05,0.10708665,0.00070370076,0.00011565558,-0.014005228,0.005959485,-0.045237146,-4.344097e-06,0.0047324477,0.8732870267041586,0.00067667784036986,-0.4872056148047869,-0.0007055760580121622,0.9999997433693004,0.00012419242935595936,0.4872055738111341,0.00023530497976392153,0.8732872800395812,left_images/camera_left_31.png,right_images/camera_right_31.png
2025-05-31 13:17:30,1.5607125759124756,32,-0.0655135,-0.00060170045,0.114032716,3.7474532e-05,-0.00021461262,0.012576251,0.5235896,0.03516339,7.3916555e-05,0.0028098165,0.838247184282458,0.00048469699638048003,0.5452902191598089,-4.77948952525539e-05,0.9999996664143229,-0.0008154059667695358,-0.5452904324836249,0.0006574496667846938,0.8382469278212458,-0.00090618804,1.9074982e-05,0.10708665,0.00070370076,0.00011565558,-0.014005228,0.005959485,-0.045237146,-4.344097e-06,0.0047324477,0.8732870267041586,0.00067667784036986,-0.4872056148047869,-0.0007055760580121622,0.9999997433693004,0.00012419242935595936,0.4872055738111341,0.00023530497976392153,0.8732872800395812,left_images/camera_left_32.png,right_images/camera_right_32.png
2025-05-31 13:17:30,1.610323429107666,33,-0.0655135,-0.00060170336,0.114032716,3.744143e-05,-0.0002145821,0.012576307,0.5235896,0.03516341,7.3894706e-05,0.0028098477,0.8382472282181539,0.0004841778655319971,0.5452901520808684,-4.742354809805796e-05,0.9999996667426619,-0.0008150248903904527,-0.5452903649759357,0.0006573327615439974,0.8382469718275464,-0.00090618804,1.9074982e-05,0.10708665,0.00070370076,0.00011565558,-0.014005228,0.005959485,-0.045237146,-4.344097e-06,0.0047324477,0.8732870267041586,0.00067667784036986,-0.4872056148047869,-0.0007055760580121622,0.9999997433693004,0.00012419242935595936,0.4872055738111341,0.00023530497976392153,0.8732872800395812,left_images/camera_left_33.png,right_images/camera_right_33.png
2025-05-31 13:17:30,1.6564149856567383,34,-0.0655135,-0.0006017049,0.114032716,3.741405e-05,-0.00021457238,0.012576333,0.5235896,0.035163414,7.3895295e-05,0.0028098444,0.8382473402207634,0.00048405860660950264,0.5452899800107102,-4.728270283823463e-05,0.9999996667509168,-0.000815022945032087,-0.5452901928121955,0.0006574080318065272,0.8382470837632052,-0.00090618804,1.9074982e-05,0.10708665,0.00070370076,0.00011565558,-0.014005228,0.005959485,-0.045237146,-4.344097e-06,0.0047324477,0.8732870267041586,0.00067667784036986,-0.4872056148047869,-0.0007055760580121622,0.9999997433693004,0.00012419242935595936,0.4872055738111341,0.00023530497976392153,0.8732872800395812,left_images/camera_left_34.png,right_images/camera_right_34.png
2025-05-31 13:17:30,1.7064721584320068,35,-0.0655135,-0.00060170837,0.114032716,3.7355883e-05,-0.00021454005,0.012576333,0.5235896,0.035163414,7.3895295e-05,0.0028098444,0.8382473402207634,0.00048405860660950264,0.5452899800107102,-4.728270283823463e-05,0.9999996667509168,-0.000815022945032087,-0.5452901928121955,0.0006574080318065272,0.8382470837632052,-0.00090618804,1.9074982e-05,0.10708665,0.00070370076,0.00011565558,-0.014005228,0.005959485,-0.045237146,-4.344097e-06,0.0047324477,0.8732870267041586,0.00067667784036986,-0.4872056148047869,-0.0007055760580121622,0.9999997433693004,0.00012419242935595936,0.4872055738111341,0.00023530497976392153,0.8732872800395812,left_images/camera_left_35.png,right_images/camera_right_35.png
2025-05-31 13:17:30,1.7507765293121338,36,-0.0655135,-0.00060171186,0.114032716,3.7297712e-05,-0.00021450772,0.012576333,0.5235896,0.035163414,7.3895295e-05,0.0028098444,0.8382473402207634,0.00048405860660950264,0.5452899800107102,-4.728270283823463e-05,0.9999996667509168,-0.000815022945032087,-0.5452901928121955,0.0006574080318065272,0.8382470837632052,-0.00090618804,1.9074982e-05,0.10708665,0.00070370076,0.00011565558,-0.014005228,0.005959485,-0.045237146,-4.344097e-06,0.0047324477,0.8732870267041586,0.00067667784036986,-0.4872056148047869,-0.0007055760580121622,0.9999997433693004,0.00012419242935595936,0.4872055738111341,0.00023530497976392153,0.8732872800395812,left_images/camera_left_36.png,right_images/camera_right_36.png
2025-05-31 13:17:30,1.7998788356781006,37,-0.0655135,-0.00060171535,0.114032716,3.723954e-05,-0.00021447538,0.012576333,0.5235896,0.035163414,7.3895295e-05,0.0028098444,0.8382473402207634,0.00048405860660950264,0.5452899800107102,-4.728270283823463e-05,0.9999996667509168,-0.000815022945032087,-0.5452901928121955,0.0006574080318065272,0.8382470837632052,-0.00090618804,1.9074982e-05,0.10708665,0.00070370076,0.00011565558,-0.014005228,0.005959485,-0.045237146,-4.344097e-06,0.0047324477,0.8732870267041586,0.00067667784036986,-0.4872056148047869,-0.0007055760580121622,0.9999997433693004,0.00012419242935595936,0.4872055738111341,0.00023530497976392153,0.8732872800395812,left_images/camera_left_37.png,right_images/camera_right_37.png
2025-05-31 13:17:30,1.8462791442871094,38,-0.0655135,-0.00060171884,0.114032716,3.718137e-05,-0.00021444305,0.012576333,0.5235896,0.035163414,7.3895295e-05,0.0028098444,0.8382473402207634,0.00048405860660950264,0.5452899800107102,-4.728270283823463e-05,0.9999996667509168,-0.000815022945032087,-0.5452901928121955,0.0006574080318065272,0.8382470837632052,-0.00090618804,1.9074982e-05,0.10708665,0.00070370076,0.00011565558,-0.014005228,0.005959485,-0.045237146,-4.344097e-06,0.0047324477,0.8732870267041586,0.00067667784036986,-0.4872056148047869,-0.0007055760580121622,0.9999997433693004,0.00012419242935595936,0.4872055738111341,0.00023530497976392153,0.8732872800395812,left_images/camera_left_38.png,right_images/camera_right_38.png
2025-05-31 13:17:30,1.8983793258666992,39,-0.0655135,-0.00060172233,0.114032716,3.7123198e-05,-0.00021441071,0.012576333,0.5235896,0.035163414,7.3895295e-05,0.0028098444,0.8382473402207634,0.00048405860660950264,0.5452899800107102,-4.728270283823463e-05,0.9999996667509168,-0.000815022945032087,-0.5452901928121955,0.0006574080318065272,0.8382470837632052,-0.00090618804,1.9074982e-05,0.10708665,0.00070370076,0.00011565558,-0.014005228,0.005959485,-0.045237146,-4.344097e-06,0.0047324477,0.8732870267041586,0.00067667784036986,-0.4872056148047869,-0.0007055760580121622,0.9999997433693004,0.00012419242935595936,0.4872055738111341,0.00023530497976392153,0.8732872800395812,left_images/camera_left_39.png,right_images/camera_right_39.png
2025-05-31 13:17:30,1.9456968307495117,40,-0.0655135,-0.0006017258,0.114032716,3.7065027e-05,-0.00021437838,0.012576333,0.5235896,0.035163406,7.3891126e-05,0.0028098165,0.8382472964864588,0.0004836965649746592,0.545290047562557,-4.690841785330859e-05,0.9999996668408085,-0.000814934274639828,-0.545290260075075,0.0006575377591286743,0.8382470399061079,-0.00090618804,1.9074982e-05,0.10708665,0.00070370076,0.00011565558,-0.014005228,0.005959485,-0.045237146,-4.344097e-06,0.0047324477,0.8732870267041586,0.00067667784036986,-0.4872056148047869,-0.0007055760580121622,0.9999997433693004,0.00012419242935595936,0.4872055738111341,0.00023530497976392153,0.8732872800395812,left_images/camera_left_40.png,right_images/camera_right_40.png
2025-05-31 13:17:30,1.995572805404663,41,-0.0655135,-0.000601726,0.114032716,3.7013644e-05,-0.00021438558,0.012576333,0.5235896,0.035163406,7.3891126e-05,0.0028098165,0.8382472964864588,0.0004836965649746592,0.545290047562557,-4.690841785330859e-05,0.9999996668408085,-0.000814934274639828,-0.545290260075075,0.0006575377591286743,0.8382470399061079,-0.00090618804,1.9074982e-05,0.10708665,0.00070370076,0.00011565558,-0.014005228,0.005959485,-0.045237146,-4.344097e-06,0.0047324477,0.8732870267041586,0.00067667784036986,-0.4872056148047869,-0.0007055760580121622,0.9999997433693004,0.00012419242935595936,0.4872055738111341,0.00023530497976392153,0.8732872800395812,left_images/camera_left_41.png,right_images/camera_right_41.png
2025-05-31 13:17:30,2.0407283306121826,42,-0.0655135,-0.000601726,0.114032716,3.696226e-05,-0.0002143928,0.012576333,0.5235896,0.035163406,7.3891126e-05,0.0028098165,0.8382472964864588,0.0004836965649746592,0.545290047562557,-4.690841785330859e-05,0.9999996668408085,-0.000814934274639828,-0.545290260075075,0.0006575377591286743,0.8382470399061079,-0.00090618804,1.9074982e-05,0.10708665,0.00070370076,0.00011565558,-0.014005228,0.005959485,-0.045237146,-4.344097e-06,0.0047324477,0.8732870267041586,0.00067667784036986,-0.4872056148047869,-0.0007055760580121622,0.9999997433693004,0.00012419242935595936,0.4872055738111341,0.00023530497976392153,0.8732872800395812,left_images/camera_left_42.png,right_images/camera_right_42.png
2025-05-31 13:17:31,2.090787887573242,43,-0.0655135,-0.000601726,0.114032716,3.691088e-05,-0.00021440002,0.012576333,0.5235896,0.035163406,7.3891126e-05,0.0028098165,0.8382472964864588,0.0004836965649746592,0.545290047562557,-4.690841785330859e-05,0.9999996668408085,-0.000814934274639828,-0.545290260075075,0.0006575377591286743,0.8382470399061079,-0.00090618804,1.9074982e-05,0.10708665,0.00070370076,0.00011565558,-0.014005228,0.005959485,-0.045237146,-4.344097e-06,0.0047324477,0.8732870267041586,0.00067667784036986,-0.4872056148047869,-0.0007055760580121622,0.9999997433693004,0.00012419242935595936,0.4872055738111341,0.00023530497976392153,0.8732872800395812,left_images/camera_left_43.png,right_images/camera_right_43.png
2025-05-31 13:17:31,2.140371084213257,44,-0.0655135,-0.000601726,0.114032716,3.6859496e-05,-0.00021440724,0.012576333,0.5235896,0.035163406,7.3891126e-05,0.0028098165,0.8382472964864588,0.0004836965649746592,0.545290047562557,-4.690841785330859e-05,0.9999996668408085,-0.000814934274639828,-0.545290260075075,0.0006575377591286743,0.8382470399061079,-0.00090618804,1.9074982e-05,0.10708665,0.00070370076,0.00011565558,-0.014005228,0.005959485,-0.045237146,-4.344097e-06,0.0047324477,0.8732870267041586,0.00067667784036986,-0.4872056148047869,-0.0007055760580121622,0.9999997433693004,0.00012419242935595936,0.4872055738111341,0.00023530497976392153,0.8732872800395812,left_images/camera_left_44.png,right_images/camera_right_44.png
2025-05-31 13:17:31,2.1895697116851807,45,-0.0655135,-0.000601726,0.114032716,3.6808113e-05,-0.00021441445,0.012576333,0.5235896,0.035163406,7.3891126e-05,0.0028098165,0.8382472964864588,0.0004836965649746592,0.545290047562557,-4.690841785330859e-05,0.9999996668408085,-0.000814934274639828,-0.545290260075075,0.0006575377591286743,0.8382470399061079,-0.00090618804,1.9074982e-05,0.10708665,0.00070370076,0.00011565558,-0.014005228,0.005959485,-0.045237146,-4.344097e-06,0.0047324477,0.8732870267041586,0.00067667784036986,-0.4872056148047869,-0.0007055760580121622,0.9999997433693004,0.00012419242935595936,0.4872055738111341,0.00023530497976392153,0.8732872800395812,left_images/camera_left_45.png,right_images/camera_right_45.png
2025-05-31 13:17:31,2.2352354526519775,46,-0.0655135,-0.000601726,0.114032716,3.675673e-05,-0.00021442167,0.012576333,0.5235896,0.035163406,7.3891126e-05,0.0028098165,0.8382472964864588,0.0004836965649746592,0.545290047562557,-4.690841785330859e-05,0.9999996668408085,-0.000814934274639828,-0.545290260075075,0.0006575377591286743,0.8382470399061079,-0.00090618804,1.9074982e-05,0.10708665,0.00070370076,0.00011565558,-0.014005228,0.005959485,-0.045237146,-4.344097e-06,0.0047324477,0.8732870267041586,0.00067667784036986,-0.4872056148047869,-0.0007055760580121622,0.9999997433693004,0.00012419242935595936,0.4872055738111341,0.00023530497976392153,0.8732872800395812,left_images/camera_left_46.png,right_images/camera_right_46.png
2025-05-31 13:17:31,2.2834808826446533,47,-0.0655135,-0.000601726,0.114032716,3.6705347e-05,-0.00021442889,0.012576333,0.5235896,0.035163406,7.3891126e-05,0.0028098165,0.8382472964864588,0.0004836965649746592,0.545290047562557,-4.690841785330859e-05,0.9999996668408085,-0.000814934274639828,-0.545290260075075,0.0006575377591286743,0.8382470399061079,-0.00090618804,1.9074982e-05,0.10708665,0.00070370076,0.00011565558,-0.014005228,0.005959485,-0.045237146,-4.344097e-06,0.0047324477,0.8732870267041586,0.00067667784036986,-0.4872056148047869,-0.0007055760580121622,0.9999997433693004,0.00012419242935595936,0.4872055738111341,0.00023530497976392153,0.8732872800395812,left_images/camera_left_47.png,right_images/camera_right_47.png
2025-05-31 13:17:31,2.3287649154663086,48,-0.0655135,-0.00060170155,0.114032716,3.670568e-05,-0.00021446709,0.012576265,0.5235896,0.035163406,7.389171e-05,0.0028098207,0.8382471659942421,0.0004838484130882088,0.5452902480269889,-4.70601172446005e-05,0.9999996667970215,-0.0008149792584129212,-0.545290460661075,0.0006574926307042327,0.8382469094577525,-0.00090618804,1.9074982e-05,0.10708665,0.00070370076,0.00011565558,-0.014005228,0.005959485,-0.045237146,-4.344097e-06,0.0047324477,0.8732870267041586,0.00067667784036986,-0.4872056148047869,-0.0007055760580121622,0.9999997433693004,0.00012419242935595936,0.4872055738111341,0.00023530497976392153,0.8732872800395812,left_images/camera_left_48.png,right_images/camera_right_48.png
2025-05-31 13:17:31,2.3830015659332275,49,-0.0655135,-0.0006016742,0.114032716,3.6713238e-05,-0.00021450393,0.012576209,0.5235896,0.035163406,7.389171e-05,0.0028098207,0.8382471659942421,0.0004838484130882088,0.5452902480269889,-4.70601172446005e-05,0.9999996667970215,-0.0008149792584129212,-0.545290460661075,0.0006574926307042327,0.8382469094577525,-0.00090618804,1.9074982e-05,0.10708665,0.00070370076,0.00011565558,-0.014005228,0.005959485,-0.045237146,-4.344097e-06,0.0047324477,0.8732870267041586,0.00067667784036986,-0.4872056148047869,-0.0007055760580121622,0.9999997433693004,0.00012419242935595936,0.4872055738111341,0.00023530497976392153,0.8732872800395812,left_images/camera_left_49.png,right_images/camera_right_49.png
2025-05-31 13:17:31,2.4303741455078125,50,-0.0655135,-0.0006016472,0.114032716,3.6720798e-05,-0.00021454078,0.0125761535,0.5235896,0.035163406,7.389171e-05,0.0028098207,0.8382471659942421,0.0004838484130882088,0.5452902480269889,-4.70601172446005e-05,0.9999996667970215,-0.0008149792584129212,-0.545290460661075,0.0006574926307042327,0.8382469094577525,-0.00090618804,1.9074982e-05,0.10708665,0.00070370076,0.00011565558,-0.014005228,0.005959485,-0.045237146,-4.344097e-06,0.0047324477,0.8732870267041586,0.00067667784036986,-0.4872056148047869,-0.0007055760580121622,0.9999997433693004,0.00012419242935595936,0.4872055738111341,0.00023530497976392153,0.8732872800395812,left_images/camera_left_50.png,right_images/camera_right_50.png
2025-05-31 13:17:31,2.480834484100342,51,-0.0655135,-0.0006016202,0.114032716,3.6728357e-05,-0.00021457762,0.012576098,0.5235896,0.035163406,7.389171e-05,0.0028098207,0.8382471659942421,0.0004838484130882088,0.5452902480269889,-4.70601172446005e-05,0.9999996667970215,-0.0008149792584129212,-0.545290460661075,0.0006574926307042327,0.8382469094577525,-0.00090618804,1.9074982e-05,0.10708665,0.00070370076,0.00011565558,-0.014005228,0.005959485,-0.045237146,-4.344097e-06,0.0047324477,0.8732870267041586,0.00067667784036986,-0.4872056148047869,-0.0007055760580121622,0.9999997433693004,0.00012419242935595936,0.4872055738111341,0.00023530497976392153,0.8732872800395812,left_images/camera_left_51.png,right_images/camera_right_51.png
2025-05-31 13:17:31,2.526803493499756,52,-0.0655135,-0.0006016161,0.114032716,3.668525e-05,-0.00021458535,0.012576098,0.5235896,0.035163376,7.390998e-05,0.0028098505,0.8382471349112981,0.0004836315656327931,0.5452902960015966,-4.676327778562283e-05,0.9999996667632084,-0.0008150378323343592,-0.5452905084688306,0.0006577035662128645,0.8382468781927095,-0.00090618804,1.9074982e-05,0.10708665,0.00070370076,0.00011565558,-0.014005228,0.005959485,-0.045237146,-4.344097e-06,0.0047324477,0.8732870267041586,0.00067667784036986,-0.4872056148047869,-0.0007055760580121622,0.9999997433693004,0.00012419242935595936,0.4872055738111341,0.00023530497976392153,0.8732872800395812,left_images/camera_left_52.png,right_images/camera_right_52.png
2025-05-31 13:17:31,2.6095657348632812,53,-0.0655135,-0.00060161226,0.114032716,3.6662863e-05,-0.00021456418,0.012576098,0.5235896,0.035163376,7.390998e-05,0.0028098505,0.8382471349112981,0.0004836315656327931,0.5452902960015966,-4.676327778562283e-05,0.9999996667632084,-0.0008150378323343592,-0.5452905084688306,0.0006577035662128645,0.8382468781927095,0.0008760478,0.0015789258,0.10682889,0.00021278161,0.005764407,-0.027945615,0.032626208,-0.045310453,-0.00027924136,0.0049912,0.8791454460910588,0.003862452262735643,-0.47653789574373956,-0.0004178282067384487,0.9999730172234043,0.007334183302236442,0.47655336536105036,-0.006248702876536732,0.8791233381473943,left_images/camera_left_53.png,right_images/camera_right_53.png
2025-05-31 13:17:31,2.6686389446258545,54,-0.0655135,-0.00060160557,0.114032716,3.665478e-05,-0.00021461358,0.012576098,0.5235896,0.03516338,7.3916075e-05,0.0028098486,0.8382471660812466,0.00048377012975067734,0.545290247962698,-4.670803829750052e-05,0.999999666489356,-0.000815376928770072,-0.5452904605575988,0.0006580179620444479,0.8382469091128482,0.0023502258,0.0028226355,0.106584266,-0.00034921704,0.010175818,-0.038508706,0.059293088,-0.04538058,-0.0004960336,0.005237976,0.8834401047034734,0.006226070252217388,-0.46850274006747317,-0.00015182406272929404,0.9999154604586271,0.013001880066576254,0.46854408367940137,-0.01141525229796128,0.883366364349472,left_images/camera_left_54.png,right_images/camera_right_54.png
2025-05-31 13:17:31,2.725752115249634,55,-0.0655135,-0.000601605,0.114032716,3.658062e-05,-0.00021461885,0.012576098,0.5235896,0.03516338,7.3916075e-05,0.0028098486,0.8382471660812466,0.00048377012975067734,0.545290247962698,-4.670803829750052e-05,0.999999666489356,-0.000815376928770072,-0.5452904605575988,0.0006580179620444479,0.8382469091128482,0.003468853,0.0038159743,0.10643195,-0.00073630246,0.013472504,-0.046176735,0.08595988,-0.045414835,-0.0006650677,0.0053989757,0.8864890136385478,0.008062642710833573,-0.46267939492771026,-6.285364863616201e-05,0.9998502908479792,0.017302946010159057,0.46274963505936284,-0.01530979045346697,0.8863568048865522,left_images/camera_left_55.png,right_images/camera_right_55.png
2025-05-31 13:17:31,2.780247211456299,56,-0.0655135,-0.000601605,0.114032716,3.6506455e-05,-0.00021462412,0.012576098,0.5235896,0.03516338,7.3916075e-05,0.0028098486,0.8382471660812466,0.00048377012975067734,0.545290247962698,-4.670803829750052e-05,0.999999666489356,-0.000815376928770072,-0.5452904605575988,0.0006580179620444479,0.8382469091128482,0.0042337365,0.0045012813,0.10630956,-0.0015702294,0.01587615,-0.051572174,0.11262673,-0.04544925,-0.00078377436,0.005524748,0.8886222189872348,0.008910246617539662,-0.45855333324207515,0.0005174734758704889,0.9997911527623522,0.020429955441183797,0.45863960158647965,-0.01839180152517985,0.8884320218751988,left_images/camera_left_56.png,right_images/camera_right_56.png
2025-05-31 13:17:31,2.84334135055542,57,-0.0655135,-0.000601605,0.114032716,3.643229e-05,-0.00021462938,0.012576098,0.5235896,0.03516338,7.3916075e-05,0.0028098486,0.8382471660812466,0.00048377012975067734,0.545290247962698,-4.670803829750052e-05,0.999999666489356,-0.000815376928770072,-0.5452904605575988,0.0006580179620444479,0.8382469091128482,0.0048412,0.0050435117,0.10622091,-0.001826361,0.01758851,-0.0554525,0.13929355,-0.045469053,-0.00087429956,0.0056189196,0.8901180064306746,0.009837464651868758,-0.4556239226786765,0.0005686998053463605,0.9997422360019133,0.02269665469680449,0.45572975677303845,-0.02046181426750353,0.8898829714903355,left_images/camera_left_57.png,right_images/camera_right_57.png
2025-05-31 13:17:31,2.8987550735473633,58,-0.0655135,-0.000601605,0.114032716,3.6358128e-05,-0.00021463465,0.012576098,0.5235896,0.03516338,7.3916075e-05,0.0028098486,0.8382471660812466,0.00048377012975067734,0.545290247962698,-4.670803829750052e-05,0.999999666489356,-0.000815376928770072,-0.5452904605575988,0.0006580179620444479,0.8382469091128482,0.0052541173,0.0054452587,0.10621866,-0.0023230335,0.019066647,-0.058048047,0.16596025,-0.04545296,-0.00094562105,0.005633179,0.8911104627174005,0.01036542947050182,-0.45366805167156316,0.0008968838432479769,0.999696902657939,0.024602813162212543,0.4537855648155324,-0.022330711766870986,0.8908310729184478,left_images/camera_left_58.png,right_images/camera_right_58.png
2025-05-31 13:17:31,2.959596633911133,59,-0.0655135,-0.000601605,0.114032716,3.6334306e-05,-0.000214659,0.012576162,0.5235896,0.03516338,7.3916075e-05,0.0028098486,0.8382471660812466,0.00048377012975067734,0.545290247962698,-4.670803829750052e-05,0.999999666489356,-0.000815376928770072,-0.5452904605575988,0.0006580179620444479,0.8382469091128482,0.00526905,0.0057714353,0.10608518,-0.00240951,0.01962683,-0.059814475,0.19262671,-0.045533855,-0.0009906659,0.005742318,0.8919036932185958,0.010738685873584383,-0.45209786844082517,0.0008864958284517457,0.9996745777463787,0.025494170563987246,0.45222451962291393,-0.02313912775598975,0.8916039281085054,left_images/camera_left_59.png,right_images/camera_right_59.png
2025-05-31 13:17:31,3.022587776184082,60,-0.0655135,-0.000601605,0.114032716,3.6310492e-05,-0.00021468334,0.012576226,0.5235896,0.035163466,7.391297e-05,0.0028098803,0.8382471661678706,0.0004834433402168539,0.5452902481193583,-4.63812487430813e-05,0.9999996665836024,-0.0008152799912339373,-0.5452904604523302,0.0006581148996500138,0.8382469091052258,0.0054263365,0.0060184863,0.10602748,-0.0028290846,0.020543532,-0.06114977,0.21929336,-0.04555943,-0.0010344161,0.0057958607,0.892435764943381,0.010966908103168457,-0.4510411648359597,0.0012007083837865867,0.9996432586163202,0.0266817128820879,0.4511728756799325,-0.024353283753977176,0.8921042281152459,left_images/camera_left_60.png,right_images/camera_right_60.png
2025-05-31 13:17:32,3.0819461345672607,61,-0.0655135,-0.0006016085,0.114032716,3.6250563e-05,-0.00021465085,0.012576226,0.5235896,0.035163466,7.391297e-05,0.0028098803,0.8382471661678706,0.0004834433402168539,0.5452902481193583,-4.63812487430813e-05,0.9999996665836024,-0.0008152799912339373,-0.5452904604523302,0.0006581148996500138,0.8382469091052258,0.0055830893,0.006062615,0.10605984,-0.002970571,0.021026978,-0.062006257,0.24595994,-0.045535553,-0.0010482786,0.00577318,0.8927511409007155,0.011115249824631267,-0.45041297898906835,0.0012862459561010136,0.9996286892718904,0.027218176939371487,0.450548272654342,-0.024878400388661542,0.8924053558794289,left_images/camera_left_61.png,right_images/camera_right_61.png
2025-05-31 13:17:32,3.140906572341919,62,-0.0655135,-0.000601612,0.114032716,3.6190624e-05,-0.00021461834,0.012576226,0.5235896,0.035163466,7.391297e-05,0.0028098803,0.8382471661678706,0.0004834433402168539,0.5452902481193583,-4.63812487430813e-05,0.9999996665836024,-0.0008152799912339373,-0.5452904604523302,0.0006581148996500138,0.8382469091052258,0.005608852,0.0062690387,0.10605537,-0.0034377724,0.021075545,-0.06250079,0.27262652,-0.045539465,-0.0010718275,0.0057767173,0.892963194340892,0.010841442362041733,-0.4499991074213601,0.0017231593688403898,0.9996202529997908,0.027502372887145653,0.45012638700069546,-0.025334026923182852,0.8926054127135661,left_images/camera_left_62.png,right_images/camera_right_62.png
2025-05-31 13:17:32,3.208035945892334,63,-0.0655135,-0.00060161547,0.114032716,3.6130685e-05,-0.00021458583,0.012576226,0.5235896,0.03516347,7.391108e-05,0.0028098794,0.8382471350384885,0.0004832863988167611,0.5452902961121013,-4.627032090112577e-05,0.9999996666844138,-0.0008151626334935014,-0.5452905083153601,0.00065807698513098,0.83824687799947,0.005632042,0.0064629987,0.10601256,-0.0033597345,0.021173561,-0.06287905,0.29929304,-0.0455621,-0.0010943962,0.005813648,0.8931227457057161,0.011056976222968631,-0.44967711124749016,0.0016163617849839738,0.9996124905163497,0.02778949762555913,0.44981012491679523,-0.025546273319324277,0.892758780097867,left_images/camera_left_63.png,right_images/camera_right_63.png
2025-05-31 13:17:32,3.2625017166137695,64,-0.0655135,-0.0006016061,0.114032716,3.6086403e-05,-0.00021463499,0.012576226,0.5235896,0.035163466,7.391297e-05,0.0028098803,0.8382471661678706,0.0004834433402168539,0.5452902481193583,-4.63812487430813e-05,0.9999996665836024,-0.0008152799912339373,-0.5452904604523302,0.0006581148996500138,0.8382469091052258,0.005561789,0.0064987033,0.106065735,-0.0038310299,0.021428486,-0.06275694,0.32595956,-0.045540813,-0.0011035483,0.005764691,0.8930999912365037,0.010794917918822287,-0.449728668644198,0.0020719216933774024,0.9996027392458374,0.02810819867431615,0.44985343479165907,-0.02603523457440331,0.8927228314358283,left_images/camera_left_64.png,right_images/camera_right_64.png
2025-05-31 13:17:32,3.3242952823638916,65,-0.0655135,-0.0006016091,0.114032716,3.6026468e-05,-0.00021460248,0.012576226,0.5235896,0.035163466,7.391297e-05,0.0028098803,0.8382471661678706,0.0004834433402168539,0.5452902481193583,-4.63812487430813e-05,0.9999996665836024,-0.0008152799912339373,-0.5452904604523302,0.0006581148996500138,0.8382469091052258,0.0056540854,0.006523458,0.10613643,-0.0039354786,0.02146305,-0.06312513,0.35262614,-0.045499496,-0.0011075255,0.0057070972,0.8932239628144553,0.010737527798352124,-0.4494837680615625,0.0021619221607862204,0.9996006607644183,0.02817525673191476,0.449606804159603,-0.026138563390481546,0.8928440497406422,left_images/camera_left_65.png,right_images/camera_right_65.png
2025-05-31 13:17:32,3.383911371231079,66,-0.0655135,-0.00060160994,0.114032716,3.5998808e-05,-0.00021460874,0.012576226,0.5235896,0.035163466,7.391297e-05,0.0028098803,0.8382471661678706,0.0004834433402168539,0.5452902481193583,-4.63812487430813e-05,0.9999996665836024,-0.0008152799912339373,-0.5452904604523302,0.0006581148996500138,0.8382469091052258,0.0057725734,0.0063020648,0.106263265,-0.003734839,0.021565678,-0.063184805,0.3792927,-0.04542447,-0.0010859426,0.0056036506,0.8931970826875387,0.0108534241105431,-0.44953439764221204,0.0019678394904275717,0.9996047489731102,0.028044133756365473,0.44966109358739237,-0.025933549997670686,0.8928226878268206,left_images/camera_left_66.png,right_images/camera_right_66.png
2025-05-31 13:17:32,3.4527390003204346,67,-0.0655135,-0.0006016106,0.114032716,3.5971156e-05,-0.00021461501,0.012576226,0.5235896,0.035163466,7.391297e-05,0.0028098803,0.8382471661678706,0.0004834433402168539,0.5452902481193583,-4.63812487430813e-05,0.9999996665836024,-0.0008152799912339373,-0.5452904604523302,0.0006581148996500138,0.8382469091052258,0.005721491,0.006400122,0.106288545,-0.0038395457,0.021370426,-0.06305821,0.40595922,-0.0454158,-0.0010933005,0.005579686,0.8931633853864178,0.010712680950686067,-0.4496047213630232,0.0020819431933423024,0.9996070588767882,0.027953414035438426,0.4497275091848536,-0.025903017402336706,0.8927901215693649,left_images/camera_left_67.png,right_images/camera_right_67.png
2025-05-31 13:17:32,3.512458562850952,68,-0.0655135,-0.0006016109,0.114032716,3.596297e-05,-0.00021457346,0.012576142,0.5235896,0.03516347,7.391108e-05,0.0028098794,0.8382471350384885,0.0004832863988167611,0.5452902961121013,-4.627032090112577e-05,0.9999996666844138,-0.0008151626334935014,-0.5452905083153601,0.00065807698513098,0.83824687799947,0.0057304506,0.0063288356,0.106316514,-0.0041548447,0.021728415,-0.06321006,0.43262577,-0.04540183,-0.0010925436,0.005555394,0.893227751154854,0.010585683028128779,-0.4494798414630739,0.002374315546917958,0.9995977910537723,0.028259843348863504,0.44959820639380416,-0.0263096832981058,0.8928433532105323,left_images/camera_left_68.png,right_images/camera_right_68.png
2025-05-31 13:17:32,3.5712010860443115,69,-0.0655135,-0.000601601,0.114032716,3.59187e-05,-0.00021462262,0.012576142,0.5235896,0.035163365,7.391771e-05,0.0028098496,0.8382471974053063,0.00048325414513946324,0.5452902002673259,-4.607820367978334e-05,0.9999996665006168,-0.0008153989539156899,-0.5452904124583049,0.000658379894974538,0.838246940117866,0.0057825632,0.0062244553,0.10638252,-0.0043076295,0.021841131,-0.062934816,0.4592923,-0.045361146,-0.0010835613,0.0055025034,0.8930805708618,0.010459213845791682,-0.44977516471553813,0.002534179148423279,0.9995969176566923,0.02827684825583729,0.4498896218909758,-0.026393314626396422,0.8926940803308975,left_images/camera_left_69.png,right_images/camera_right_69.png
2025-05-31 13:17:32,3.627037525177002,70,-0.0655135,-0.0006016003,0.114032716,3.5891717e-05,-0.00021463158,0.012576142,0.5235896,0.035163365,7.391771e-05,0.0028098496,0.8382471974053063,0.00048325414513946324,0.5452902002673259,-4.607820367978334e-05,0.9999996665006168,-0.0008153989539156899,-0.5452904124583049,0.000658379894974538,0.838246940117866,0.005668278,0.0063141454,0.10640819,-0.0039981757,0.021621168,-0.062412202,0.4859588,-0.045354657,-0.0010893334,0.0054761646,0.8928966982041111,0.010657735931232279,-0.45013542295737696,0.0022479395300127516,0.9996018480978651,0.02812635858411109,0.4502559639850048,-0.02612580992338255,0.892517231739411,left_images/camera_left_70.png,right_images/camera_right_70.png
2025-05-31 13:17:32,3.680076837539673,71,-0.0655135,-0.0006016003,0.114032716,3.5864738e-05,-0.00021464055,0.012576142,0.5235896,0.035163365,7.391771e-05,0.0028098496,0.8382471974053063,0.00048325414513946324,0.5452902002673259,-4.607820367978334e-05,0.9999996665006168,-0.0008153989539156899,-0.5452904124583049,0.000658379894974538,0.838246940117866,0.00552902,0.006290273,0.10638974,-0.004160637,0.021379914,-0.062231127,0.5126262,-0.045375716,-0.0010822155,0.0054852357,0.8928782711501989,0.010380287587934077,-0.45017845632307124,0.0024315614876345704,0.9996085467414714,0.027871863772182114,0.4502915504609913,-0.025980818135597793,0.8925035107339585,left_images/camera_left_71.png,right_images/camera_right_71.png
2025-05-31 13:17:32,3.7354350090026855,72,-0.0655135,-0.0006016003,0.114032716,3.583776e-05,-0.00021464951,0.012576142,0.5235896,0.035163365,7.391771e-05,0.0028098496,0.8382471974053063,0.00048325414513946324,0.5452902002673259,-4.607820367978334e-05,0.9999996665006168,-0.0008153989539156899,-0.5452904124583049,0.000658379894974538,0.838246940117866,0.0055070925,0.006180356,0.10647927,-0.003930319,0.021510521,-0.061660632,0.53929436,-0.04532787,-0.0010730845,0.005408926,0.8926306511428185,0.01058871376289319,-0.45066439817362486,0.002216354077754678,0.9996089170344985,0.027876527038337498,0.4507833275698537,-0.02588227435842256,0.8922580901617454,left_images/camera_left_72.png,right_images/camera_right_72.png
2025-05-31 13:17:32,3.8016374111175537,73,-0.0655135,-0.0006016003,0.114032716,3.581078e-05,-0.00021465847,0.012576142,0.5235896,0.035163365,7.391771e-05,0.0028098496,0.8382471974053063,0.00048325414513946324,0.5452902002673259,-4.607820367978334e-05,0.9999996665006168,-0.0008153989539156899,-0.5452904124583049,0.000658379894974538,0.838246940117866,0.0054199095,0.006230269,0.10653305,-0.0040722587,0.02128404,-0.060985282,0.56596196,-0.0453032,-0.0010747631,0.0053607076,0.892365721638754,0.010374812180523347,-0.45119373013857844,0.0023876629359124305,0.9996132208686901,0.02770753923082352,0.4513066783350873,-0.02580255678691588,0.8919958016456175,left_images/camera_left_73.png,right_images/camera_right_73.png
2025-05-31 13:17:32,3.8584747314453125,74,-0.0655135,-0.0006016003,0.114032716,3.57838e-05,-0.00021466744,0.012576142,0.5235896,0.035163365,7.391771e-05,0.0028098496,0.8382471974053063,0.00048325414513946324,0.5452902002673259,-4.607820367978334e-05,0.9999996665006168,-0.0008153989539156899,-0.5452904124583049,0.000658379894974538,0.838246940117866,0.0053331414,0.0062261075,0.10653688,-0.004092025,0.02103461,-0.060301986,0.59263,-0.04530381,-0.0010695956,0.0053554066,0.8920965545532035,0.010227637270997498,-0.4517290479813715,0.002441511278290734,0.9996200834809607,0.027454102137848095,0.45183821925218026,-0.025594611490904078,0.8917326614438031,left_images/camera_left_74.png,right_images/camera_right_74.png
2025-05-31 13:17:32,3.924226999282837,75,-0.0655135,-0.0006016003,0.114032716,3.575682e-05,-0.0002146764,0.012576142,0.5235896,0.035163365,7.391771e-05,0.0028098496,0.8382471974053063,0.00048325414513946324,0.5452902002673259,-4.607820367978334e-05,0.9999996665006168,-0.0008153989539156899,-0.5452904124583049,0.000658379894974538,0.838246940117866,0.0051644384,0.0061231777,0.10656127,-0.0040221377,0.020963628,-0.06007886,0.61929804,-0.045305457,-0.0010573246,0.0053258054,0.8920720596569804,0.010195726075713542,-0.4517781397424424,0.002388653661896714,0.9996250835264032,0.027276119931451393,0.45188686052267146,-0.02541140599456133,0.8917132530877532,left_images/camera_left_75.png,right_images/camera_right_75.png
2025-05-31 13:17:32,3.9750967025756836,76,-0.0655135,-0.0006016003,0.114032716,3.572984e-05,-0.00021468537,0.012576142,0.5235896,0.035163365,7.391771e-05,0.0028098496,0.8382471974053063,0.00048325414513946324,0.5452902002673259,-4.607820367978334e-05,0.9999996665006168,-0.0008153989539156899,-0.5452904124583049,0.000658379894974538,0.838246940117866,0.0053159404,0.005906586,0.106692046,-0.0037818807,0.020890847,-0.060074147,0.645966,-0.045225088,-0.0010329335,0.005221,0.8920009596131581,0.010260965164757774,-0.45191702849427184,0.002166163084710117,0.9996338232577328,0.02697271096160023,0.45202831303657887,-0.02503861004559194,0.8916521026837144,left_images/camera_left_76.png,right_images/camera_right_76.png
2025-05-31 13:17:32,4.032552480697632,77,-0.0655135,-0.0006016003,0.114032716,3.5702862e-05,-0.00021469433,0.012576142,0.5235896,0.035163365,7.391771e-05,0.0028098496,0.8382471974053063,0.00048325414513946324,0.5452902002673259,-4.607820367978334e-05,0.9999996665006168,-0.0008153989539156899,-0.5452904124583049,0.000658379894974538,0.838246940117866,0.0051748226,0.005620855,0.10677211,-0.00410216,0.020852474,-0.059397634,0.6726337,-0.045192253,-0.001001567,0.005146644,0.8917589360513171,0.00981714324902169,-0.4524042701733165,0.0025235424904408357,0.9996412019216464,0.02666644246886329,0.45250373667619803,-0.024921699762946423,0.8914142006805835,left_images/camera_left_77.png,right_images/camera_right_77.png
2025-05-31 13:17:33,4.093795537948608,78,-0.0655135,-0.0006016003,0.114032716,3.5675883e-05,-0.0002147033,0.012576142,0.5235896,0.035163365,7.391771e-05,0.0028098496,0.8382471974053063,0.00048325414513946324,0.5452902002673259,-4.607820367978334e-05,0.9999996665006168,-0.0008153989539156899,-0.5452904124583049,0.000658379894974538,0.838246940117866,0.005028884,0.00561293,0.106755614,-0.003912951,0.020266153,-0.058355734,0.6993015,-0.045205735,-0.0009896172,0.005157183,0.8913534192323068,0.009677192563479027,-0.45320573028919736,0.002397116114740179,0.9996575056325797,0.026060031979665443,0.45330269782696836,-0.024315085369746886,0.8910249383525997,left_images/camera_left_78.png,right_images/camera_right_78.png
2025-05-31 13:17:33,4.15222430229187,79,-0.0655135,-0.0006016003,0.114032716,3.5648904e-05,-0.00021471226,0.012576142,0.5235896,0.035163365,7.391771e-05,0.0028098496,0.8382471974053063,0.00048325414513946324,0.5452902002673259,-4.607820367978334e-05,0.9999996665006168,-0.0008153989539156899,-0.5452904124583049,0.000658379894974538,0.838246940117866,0.00491055,0.0057163294,0.106694184,-0.0034644378,0.020004723,-0.05821016,0.7259697,-0.045246743,-0.0009957004,0.005204115,0.8913407057833623,0.009982168180367257,-0.45322411953914904,0.001962033779834142,0.9996632336886854,0.025876043641330018,0.4533297879436832,-0.023953612034515577,0.891020946910585,left_images/camera_left_79.png,right_images/camera_right_79.png
2025-05-31 13:17:33,4.2080078125,80,-0.0655135,-0.0006016003,0.114032716,3.5621924e-05,-0.00021472122,0.012576142,0.5235896,0.035163365,7.391771e-05,0.0028098496,0.8382471974053063,0.00048325414513946324,0.5452902002673259,-4.607820367978334e-05,0.9999996665006168,-0.0008153989539156899,-0.5452904124583049,0.000658379894974538,0.838246940117866,0.0048162453,0.00551089,0.10675813,-0.0031723543,0.019856082,-0.057730716,0.752638,-0.04521955,-0.0009707598,0.0051453933,0.8911660584599066,0.010053465456610695,-0.45356585418365347,0.001703364846160976,0.9996732453867372,0.025504921214333395,0.4536740622927823,-0.023501708241343355,0.8908577411194807,left_images/camera_left_80.png,right_images/camera_right_80.png
2025-05-31 13:17:33,4.2747273445129395,81,-0.0655135,-0.0006016003,0.114032716,3.5594945e-05,-0.00021473019,0.012576142,0.5235896,0.035163365,7.391771e-05,0.0028098496,0.8382471974053063,0.00048325414513946324,0.5452902002673259,-4.607820367978334e-05,0.9999996665006168,-0.0008153989539156899,-0.5452904124583049,0.000658379894974538,0.838246940117866,0.004794171,0.0052662157,0.106863014,-0.0032352805,0.019833576,-0.057114743,0.77930623,-0.045163516,-0.0009438337,0.005056168,0.8908961826874154,0.009864031116837537,-0.45409987069268976,0.001796970587363611,0.9996797883699324,0.025240673948121642,0.454203437426116,-0.023302824180199647,0.8905931819947462,left_images/camera_left_81.png,right_images/camera_right_81.png
2025-05-31 13:17:33,4.342194557189941,82,-0.0655135,-0.0006016003,0.114032716,3.5567966e-05,-0.00021473915,0.012576142,0.5235896,0.03516339,7.389794e-05,0.0028098198,0.8382471975357952,0.0004828337091719087,0.5452902004391739,-4.5577814079166614e-05,0.9999996665250228,-0.000815397146105282,-0.5452904122997652,0.00065865123722663,0.8382469400078353,0.0048156544,0.005019437,0.10697551,-0.0033809284,0.020114843,-0.057200618,0.80597454,-0.045105197,-0.0009228343,0.00495972,0.8909251734131849,0.009756156853969944,-0.45404532018525134,0.0019383018947180756,0.9996784395024525,0.025283602981113897,0.45414598794270067,-0.023405875274861963,0.8906197766938292,left_images/camera_left_82.png,right_images/camera_right_82.png
2025-05-31 13:17:33,4.398770570755005,83,-0.0655135,-0.0006016003,0.114032716,3.5536883e-05,-0.0002147477,0.012576137,0.5235896,0.03516339,7.389794e-05,0.0028098198,0.8382471975357952,0.0004828337091719087,0.5452902004391739,-4.5577814079166614e-05,0.9999996665250228,-0.000815397146105282,-0.5452904122997652,0.00065865123722663,0.8382469400078353,0.0046838536,0.0047712554,0.107071914,-0.0034543711,0.020062111,-0.056414902,0.83264256,-0.045062486,-0.00089494634,0.0048722373,0.890627890245983,0.009538029825610835,-0.454632804693013,0.002048517486022632,0.999685699903196,0.024986095836819502,0.45472823168580484,-0.02318463707076364,0.8903284269929823,left_images/camera_left_83.png,right_images/camera_right_83.png
2025-05-31 13:17:33,4.462982177734375,84,-0.0655135,-0.0006016003,0.114032716,3.55058e-05,-0.00021475626,0.012576131,0.5235896,0.03516339,7.389794e-05,0.0028098198,0.8382471975357952,0.0004828337091719087,0.5452902004391739,-4.5577814079166614e-05,0.9999996665250228,-0.000815397146105282,-0.5452904122997652,0.00065865123722663,0.8382469400078353,0.0045733466,0.0046332614,0.107162125,-0.003375793,0.01974576,-0.055498634,0.8593108,-0.045019887,-0.00087446155,0.004791855,0.8902613173445194,0.009374407943511884,-0.45535360689875876,0.0020179153294443237,0.999697153748106,0.024526084189262436,0.4554456222840701,-0.02275348904331414,0.8899727882798618,left_images/camera_left_84.png,right_images/camera_right_84.png
2025-05-31 13:17:33,4.523921489715576,85,-0.0655135,-0.0006016003,0.114032716,3.5474717e-05,-0.00021476482,0.012576126,0.5235896,0.03516339,7.389794e-05,0.0028098198,0.8382471975357952,0.0004828337091719087,0.5452902004391739,-4.5577814079166614e-05,0.9999996665250228,-0.000815397146105282,-0.5452904122997652,0.00065865123722663,0.8382469400078353,0.004721567,0.0043031303,0.107233874,-0.0036056167,0.019754915,-0.055731393,0.8859788,-0.044971257,-0.00083861,0.0047370614,0.8902993278743012,0.009017608949131284,-0.4552864916900217,0.0022596260574825255,0.9997041179283785,0.024219221439246486,0.45537018004767066,-0.022591133789242587,0.8900155278406489,left_images/camera_left_85.png,right_images/camera_right_85.png
2025-05-31 13:17:33,4.57268500328064,86,-0.0655135,-0.0006016003,0.114032716,3.5443634e-05,-0.00021477338,0.01257612,0.5235896,0.03516339,7.389794e-05,0.0028098198,0.8382471975357952,0.0004828337091719087,0.5452902004391739,-4.5577814079166614e-05,0.9999996665250228,-0.000815397146105282,-0.5452904122997652,0.00065865123722663,0.8382469400078353,0.0044437167,0.0043123583,0.10715925,-0.004012558,0.019581344,-0.05559264,0.9109993,-0.045034137,-0.00083635916,0.004786812,0.8903628731614869,0.008576602684525191,-0.45517073278278086,0.0026787956037331753,0.99970651587996,0.024077087890041527,0.45524364701743536,-0.02265665450906554,0.8900785908315745,left_images/camera_left_86.png,right_images/camera_right_86.png
2025-05-31 13:17:33,4.631668329238892,87,-0.0655135,-0.0006016003,0.114032716,3.541255e-05,-0.00021478193,0.012576114,0.5235896,0.03516339,7.389794e-05,0.0028098198,0.8382471975357952,0.0004828337091719087,0.5452902004391739,-4.5577814079166614e-05,0.9999996665250228,-0.000815397146105282,-0.5452904122997652,0.00065865123722663,0.8382469400078353,0.004492413,0.0040548053,0.10727907,-0.003964727,0.020023128,-0.05584966,0.92026055,-0.04497118,-0.0008166517,0.004684801,0.8904570226933206,0.008712092297902676,-0.45498394497381983,0.002614455110171943,0.9997022829647714,0.02425922627581345,0.4550598371210362,-0.022791333502387413,0.8901691410942972,left_images/camera_left_87.png,right_images/camera_right_87.png
2025-05-31 13:17:33,4.6920530796051025,88,-0.0655135,-0.0006016003,0.114032716,3.538147e-05,-0.00021479049,0.012576109,0.5235896,0.03516339,7.389794e-05,0.0028098198,0.8382471975357952,0.0004828337091719087,0.5452902004391739,-4.5577814079166614e-05,0.9999996665250228,-0.000815397146105282,-0.5452904122997652,0.00065865123722663,0.8382469400078353,0.0045884936,0.0036962403,0.10745697,-0.0040064068,0.020071428,-0.05563067,0.9175563,-0.044870425,-0.00077869825,0.0045371605,0.8903130783769696,0.008521932894368714,-0.4552691502075095,0.002678484621473266,0.9997095456810808,0.023950991508897942,0.45534102405895355,-0.022543312397929602,0.890031657231962,left_images/camera_left_88.png,right_images/camera_right_88.png
2025-05-31 13:17:33,4.756191253662109,89,-0.0655135,-0.0006016003,0.114032716,3.5350386e-05,-0.00021479905,0.012576103,0.5235896,0.03516339,7.389794e-05,0.0028098198,0.8382471975357952,0.0004828337091719087,0.5452902004391739,-4.5577814079166614e-05,0.9999996665250228,-0.000815397146105282,-0.5452904122997652,0.00065865123722663,0.8382469400078353,0.00461383,0.0034768144,0.107536785,-0.0042671515,0.019531075,-0.054887988,0.9145032,-0.04482139,-0.0007450772,0.0044725155,0.8899629452258246,0.007914249726321015,-0.4559641661098437,0.0029984827092896077,0.9997262324333859,0.02320494098225043,0.45602298760744264,-0.022018738288491057,0.8896955714949721,left_images/camera_left_89.png,right_images/camera_right_89.png
2025-05-31 13:17:33,4.820513725280762,90,-0.0655135,-0.0006016003,0.114032716,3.5319303e-05,-0.0002148076,0.012576098,0.5235896,0.03516339,7.389794e-05,0.0028098198,0.8382471975357952,0.0004828337091719087,0.5452902004391739,-4.5577814079166614e-05,0.9999996665250228,-0.000815397146105282,-0.5452904122997652,0.00065865123722663,0.8382469400078353,0.0047590747,0.0034986052,0.10760651,-0.003978544,0.018985229,-0.05432013,0.9132996,-0.044767685,-0.0007372484,0.004422522,0.8896382015001723,0.00790206599942887,-0.4565976651106306,0.002752084275021133,0.9997393488047142,0.02266407914893795,0.456657745432706,-0.021419425866881045,0.889384569088002,left_images/camera_left_90.png,right_images/camera_right_90.png
2025-05-31 13:17:33,4.880114316940308,91,-0.0655135,-0.0006016003,0.114032716,3.528822e-05,-0.00021481616,0.012576092,0.5235896,0.03516339,7.389794e-05,0.0028098198,0.8382471975357952,0.0004828337091719087,0.5452902004391739,-4.5577814079166614e-05,0.9999996665250228,-0.000815397146105282,-0.5452904122997652,0.00065865123722663,0.8382469400078353,0.004853408,0.0031553868,0.107667245,-0.0055548423,0.019127302,-0.053964987,0.91203517,-0.044724535,-0.0007031623,0.0043768967,0.8894295933503271,0.006442122379846377,-0.45702680176540494,0.004344955400213038,0.9997363239437946,0.022547814748182012,0.4570515505227412,-0.022040454772786728,0.889167081328457,left_images/camera_left_91.png,right_images/camera_right_91.png
2025-05-31 13:17:33,4.936278820037842,92,-0.0655135,-0.0006016003,0.114032716,3.5257137e-05,-0.00021482471,0.012576086,0.5235896,0.03516339,7.389794e-05,0.0028098198,0.8382471975357952,0.0004828337091719087,0.5452902004391739,-4.5577814079166614e-05,0.9999996665250228,-0.000815397146105282,-0.5452904122997652,0.00065865123722663,0.8382469400078353,0.0049081207,0.0029564677,0.10767394,-0.0063699177,0.01879439,-0.05334574,0.908378,-0.044710334,-0.00067533157,0.0043765344,0.8891188090752485,0.005471689299578687,-0.45764375224056136,0.005200906879147451,0.9997431741522742,0.02205756794321641,0.4576469096544255,-0.021991961079995747,0.8888620026368603,left_images/camera_left_92.png,right_images/camera_right_92.png
2025-05-31 13:17:33,4.9927897453308105,93,-0.0655135,-0.0006016003,0.114032716,3.5226054e-05,-0.00021483327,0.012576081,0.5235896,0.03516339,7.389794e-05,0.0028098198,0.8382471975357952,0.0004828337091719087,0.5452902004391739,-4.5577814079166614e-05,0.9999996665250228,-0.000815397146105282,-0.5452904122997652,0.00065865123722663,0.8382469400078353,0.004842038,0.002801215,0.1077354,-0.0071433377,0.018485406,-0.052299146,0.90738356,-0.04467666,-0.00065314985,0.0043243533,0.8886663426194679,0.004568458694338419,-0.4585316354195165,0.006020463324825568,0.9997479426896778,0.021628802766468544,0.4585148694608417,-0.02198136194403092,0.8884148435333532,left_images/camera_left_93.png,right_images/camera_right_93.png
2025-05-31 13:17:33,5.0493059158325195,94,-0.0655135,-0.0006016003,0.114032716,3.519497e-05,-0.00021484183,0.012576075,0.5235896,0.03516341,7.390152e-05,0.0028098477,0.8382472599652079,0.0004824488401048142,0.5452901048102178,-4.5159120160870314e-05,0.9999996665945964,-0.0008153351153716808,-0.5452903163650308,0.0006588276050480698,0.8382470022760068,0.0050074453,0.00248142,0.10780415,-0.0084993625,0.01870737,-0.052182283,0.9083016,-0.044624817,-0.00062262977,0.004274859,0.8885297785877929,0.0033516013479980545,-0.4588067123867429,0.00738275050918512,0.9997394195791591,0.021600646620988352,0.45875955309687716,-0.022580073248990716,0.8882735010876005,left_images/camera_left_94.png,right_images/camera_right_94.png
2025-05-31 13:17:34,5.107782602310181,95,-0.0655135,-0.0006015936,0.114032716,3.5146175e-05,-0.000214888,0.012576075,0.5235896,0.03516341,7.390152e-05,0.0028098477,0.8382472599652079,0.0004824488401048142,0.5452901048102178,-4.5159120160870314e-05,0.9999996665945964,-0.0008153351153716808,-0.5452903163650308,0.0006588276050480698,0.8382470022760068,0.005193505,0.0021390165,0.10786565,-0.009641171,0.018656014,-0.051991276,0.90435135,-0.044573884,-0.00058458303,0.004232688,0.8883486553308579,0.002172023093733486,-0.45916440289675853,0.008547194988341719,0.9997373283595387,0.021265458903189035,0.45908998249764477,-0.022815709504905694,0.8880967466273593,left_images/camera_left_95.png,right_images/camera_right_95.png
2025-05-31 13:17:34,5.163103103637695,96,-0.0655135,-0.0006015866,0.114032716,3.5097375e-05,-0.00021493419,0.012576075,0.5235896,0.03516341,7.390152e-05,0.0028098477,0.8382472599652079,0.0004824488401048142,0.5452901048102178,-4.5159120160870314e-05,0.9999996665945964,-0.0008153351153716808,-0.5452903163650308,0.0006588276050480698,0.8382470022760068,0.0054107984,0.0018287112,0.10802369,-0.010532027,0.01912159,-0.052075535,0.90867805,-0.044473767,-0.00055945606,0.0041083666,0.888280106221026,0.0014861454339311925,-0.459299732488178,0.009427428210853264,0.9997251011236502,0.021467318897258305,0.4592053750657672,-0.023399007565633654,0.8880219084885527,left_images/camera_left_96.png,right_images/camera_right_96.png
2025-05-31 13:17:34,5.2334370613098145,97,-0.0655135,-0.0006015796,0.114032716,3.5048575e-05,-0.00021498038,0.012576075,0.5235896,0.03516341,7.391099e-05,0.0028098472,0.8382472472869593,0.0004827170150049129,0.54529012406252,-4.515341179493011e-05,0.9999996661866131,-0.0008158356645274406,-0.5452903358551336,0.0006592502905091508,0.8382469892651269,0.0057039163,0.0019422092,0.108086824,-0.012406722,0.019745518,-0.053125765,0.9107602,-0.04442185,-0.00058473286,0.004066227,0.8886131006384438,0.000248366601345475,-0.4586574927849348,0.011237394778636174,0.9996878786986884,0.0223129142315779,0.45851987779410425,-0.024981663214205876,0.8883329545675608,left_images/camera_left_97.png,right_images/camera_right_97.png
2025-05-31 13:17:34,5.2944159507751465,98,-0.0655135,-0.0006015726,0.114032716,3.5058958e-05,-0.00021503093,0.012576131,0.5235896,0.03516341,7.391099e-05,0.0028098472,0.8382472472869593,0.0004827170150049129,0.54529012406252,-4.515341179493011e-05,0.9999996661866131,-0.0008158356645274406,-0.5452903358551336,0.0006592502905091508,0.8382469892651269,0.006332863,0.0017706798,0.10821743,-0.015233248,0.021992266,-0.05623664,0.91961086,-0.04432023,-0.00060891727,0.0039769495,0.8897196799108982,-0.0011241500028795369,-0.45650588984811596,0.013873094754998413,0.9996016792446448,0.024576820241952013,0.4562964260447017,-0.028199630104975004,0.8893808815354504,left_images/camera_left_98.png,right_images/camera_right_98.png
2025-05-31 13:17:34,5.355973958969116,99,-0.0655135,-0.00060156564,0.114032716,3.5069348e-05,-0.00021508148,0.012576187,0.5235896,0.03516341,7.391099e-05,0.0028098472,0.8382472472869593,0.0004827170150049129,0.54529012406252,-4.515341179493011e-05,0.9999996661866131,-0.0008158356645274406,-0.5452903358551336,0.0006592502905091508,0.8382469892651269,0.0069798245,0.0015688475,0.108339824,-0.018263292,0.024530662,-0.05908335,0.9171214,-0.04421831,-0.00063534954,0.0038972087,0.8906828949794624,-0.002534669830332197,-0.45461803312215315,0.01668948484722376,0.9994927106803011,0.027125309076178643,0.45431865654685394,-0.03174738959025032,0.8902733633933269,left_images/camera_left_99.png,right_images/camera_right_99.png
2025-05-31 13:17:34,5.409808397293091,100,-0.0655135,-0.00060155866,0.114032716,3.5079738e-05,-0.00021513204,0.012576243,0.5235896,0.03516341,7.391099e-05,0.0028098472,0.8382472472869593,0.0004827170150049129,0.54529012406252,-4.515341179493011e-05,0.9999996661866131,-0.0008158356645274406,-0.5452903358551336,0.0006592502905091508,0.8382469892651269,0.0080393255,0.0014665149,0.10809993,-0.028734451,0.032247093,-0.07071746,0.93797815,-0.04432913,-0.0007738712,0.004122656,0.8952571907879542,-0.00765618734286545,-0.44548394487100335,0.026277798823598656,0.9990191798363014,0.03563924253108778,0.4447741445176941,-0.043612625632655576,0.894580292234285,left_images/camera_left_100.png,right_images/camera_right_100.png
2025-05-31 13:17:34,5.4816882610321045,101,-0.0655135,-0.00060155167,0.114032716,3.509013e-05,-0.00021518259,0.012576299,0.5235896,0.03516341,7.391099e-05,0.0028098472,0.8382472472869593,0.0004827170150049129,0.54529012406252,-4.515341179493011e-05,0.9999996661866131,-0.0008158356645274406,-0.5452903358551336,0.0006592502905091508,0.8382469892651269,0.009463978,0.0011788092,0.10804541,-0.03858568,0.040489603,-0.08261533,0.9560926,-0.04431213,-0.000903382,0.00421099,0.8996242345566261,-0.012017279002253191,-0.43649950928241216,0.03500921119938409,0.998388298043631,0.04466723027834512,0.43525922360083485,-0.05546522635781626,0.8985950238764261,left_images/camera_left_101.png,right_images/camera_right_101.png
2025-05-31 13:17:34,5.544382333755493,102,-0.0655135,-0.000601543,0.114032716,3.511648e-05,-0.0002152527,0.012576327,0.5235896,0.035163414,7.39102e-05,0.0028098454,0.8382473592824495,0.0004825617451048572,0.5452899520348438,-4.504439223828368e-05,0.9999996662869015,-0.0008157187557988143,-0.5452901636991105,0.0006592118384824689,0.8382471012850264,0.010514401,0.0011306931,0.10813912,-0.04758293,0.048840452,-0.09354803,0.96452326,-0.04424668,-0.0010622405,0.004158388,0.9036103788821794,-0.015449664140374294,-0.42807661820561277,0.042695831339221516,0.9976212194053075,0.054119946216901714,0.4262221828608374,-0.06718043219730889,0.9021205243021166,left_images/camera_left_102.png,right_images/camera_right_102.png
2025-05-31 13:17:34,5.60900616645813,103,-0.0655135,-0.0006015416,0.114032716,3.512283e-05,-0.00021526407,0.012576383,0.5235896,0.035163414,7.39102e-05,0.0028098454,0.8382473592824495,0.0004825617451048572,0.5452899520348438,-4.504439223828368e-05,0.9999996662869015,-0.0008157187557988143,-0.5452901636991105,0.0006592118384824689,0.8382471012850264,0.011902555,0.0009774124,0.10796427,-0.056963965,0.058005445,-0.10594121,0.97885305,-0.044296276,-0.001226224,0.0043545915,0.9079134781197631,-0.018785846373535857,-0.4187364424366528,0.05039020326546543,0.996641770722283,0.06454462228890367,0.4161177040974578,-0.07970114696528571,0.9058111191131838,left_images/camera_left_103.png,right_images/camera_right_103.png
2025-05-31 13:17:34,5.675342082977295,104,-0.0655135,-0.0006015416,0.114032716,3.5129175e-05,-0.00021527542,0.0125764385,0.5235896,0.035163414,7.39102e-05,0.0028098454,0.8382473592824495,0.0004825617451048572,0.5452899520348438,-4.504439223828368e-05,0.9999996662869015,-0.0008157187557988143,-0.5452901636991105,0.0006592118384824689,0.8382471012850264,0.012976023,0.0007826113,0.10792735,-0.06569173,0.065508075,-0.116523854,0.9832479,-0.04428993,-0.0013554674,0.004422553,0.9114705290246226,-0.022417995882898008,-0.4107540726276111,0.05751409716235147,0.9956513013672474,0.07328447798344624,0.40732493582786466,-0.09042079155980105,0.9087961691746531,left_images/camera_left_104.png,right_images/camera_right_104.png
2025-05-31 13:17:34,5.73787260055542,105,-0.0655135,-0.0006015416,0.114032716,3.513552e-05,-0.00021528677,0.012576494,0.5235896,0.035163414,7.39102e-05,0.0028098454,0.8382473592824495,0.0004825617451048572,0.5452899520348438,-4.504439223828368e-05,0.9999996662869015,-0.0008157187557988143,-0.5452901636991105,0.0006592118384824689,0.8382471012850264,0.014483806,0.0007611801,0.10784246,-0.07296209,0.07334612,-0.12593056,0.9913875,-0.044257488,-0.0015089411,0.004562838,0.9143421518209697,-0.024464269552716852,-0.40420283140850316,0.06304507530987068,0.9946019361438021,0.08241545424356322,0.40000468482577994,-0.10083892172297432,0.9109488262153788,left_images/camera_left_105.png,right_images/camera_right_105.png
2025-05-31 13:17:34,5.79475998878479,106,-0.0655135,-0.0006015416,0.114032716,3.5141864e-05,-0.00021529812,0.01257655,0.5235896,0.035163414,7.39102e-05,0.0028098454,0.8382473592824495,0.0004825617451048572,0.5452899520348438,-4.504439223828368e-05,0.9999996662869015,-0.0008157187557988143,-0.5452901636991105,0.0006592118384824689,0.8382471012850264,0.015783034,0.00076366717,0.10773493,-0.08046148,0.0808768,-0.13532071,1.0007412,-0.04425569,-0.0016601417,0.0047134412,0.9171951496843243,-0.026832493560485626,-0.3975337403100229,0.06867302255921412,0.9934446027315428,0.09138838698734744,0.39247557040933373,-0.11112082879862806,0.9130252395410405,left_images/camera_left_106.png,right_images/camera_right_106.png
2025-05-31 13:17:34,5.864848375320435,107,-0.0655135,-0.0006015416,0.114032716,3.514821e-05,-0.00021530947,0.012576606,0.5235896,0.035163414,7.39102e-05,0.0028098454,0.8382473592824495,0.0004825617451048572,0.5452899520348438,-4.504439223828368e-05,0.9999996662869015,-0.0008157187557988143,-0.5452901636991105,0.0006592118384824689,0.8382471012850264,0.016581167,0.0006443173,0.10763411,-0.086931765,0.087640904,-0.1426707,1.0040486,-0.044281658,-0.0017821663,0.0048374496,0.9194157597210482,-0.028806591630656093,-0.3922305967861158,0.07345030523471316,0.9923437754495559,0.09929191300125623,0.38636732967151277,-0.12010000668254012,0.91449235915745,left_images/camera_left_107.png,right_images/camera_right_107.png
2025-05-31 13:17:34,5.91679048538208,108,-0.0655135,-0.0006015416,0.114032716,3.5154553e-05,-0.00021532082,0.012576662,0.5235896,0.035163414,7.39102e-05,0.0028098454,0.8382473592824495,0.0004825617451048572,0.5452899520348438,-4.504439223828368e-05,0.9999996662869015,-0.0008157187557988143,-0.5452901636991105,0.0006592118384824689,0.8382471012850264,0.016805362,0.0005605037,0.10750938,-0.09319144,0.09378142,-0.1488128,1.0070567,-0.044364013,-0.0018960689,0.004954369,0.9213423411564169,-0.030955775004065263,-0.3875177807356851,0.07812129976475875,0.9912330860436527,0.10655529857985185,0.3808219438470918,-0.12844730096920823,0.915683317505702,left_images/camera_left_108.png,right_images/camera_right_108.png
2025-05-31 13:17:34,5.985479116439819,109,-0.0655135,-0.0006015416,0.114032716,3.5160898e-05,-0.00021533217,0.012576718,0.5235896,0.03516341,7.3911615e-05,0.0028098444,0.8382475150807654,0.00048261505097582647,0.5452897124865226,-4.504230354233075e-05,0.9999996662043472,-0.0008158200689952378,-0.5452899241982312,0.0006592980408399484,0.8382472570154826,0.017215692,0.0003005834,0.1073367,-0.09877911,0.09921387,-0.15414914,1.0097523,-0.044447288,-0.0019769378,0.0051245075,0.9228771124827404,-0.03295332294443467,-0.38368204774583714,0.08226862943221053,0.9902018811606488,0.11283663925010207,0.37620434323232455,-0.13569934801918485,0.9165456775743931,left_images/camera_left_109.png,right_images/camera_right_109.png
2025-05-31 13:17:34,6.046097755432129,110,-0.0655135,-0.000601527,0.114032716,3.514277e-05,-0.00021540526,0.012576802,0.5235896,0.035163406,7.3915384e-05,0.0028098472,0.8382474966002535,0.00048270874550406125,0.5452897408127856,-4.5009909514859194e-05,0.9999996660250102,-0.0008160416509122498,-0.5452899526100915,0.0006595014291053669,0.8382472383732315,0.01764628,-0.00032947684,0.106894754,-0.104223244,0.10459409,-0.15929657,1.0142064,-0.044665147,-0.0020159772,0.005527544,0.9242897387965334,-0.03502755547356699,-0.38008097704697397,0.08629808906398019,0.9891726957721682,0.1187013806268787,0.3718079054825778,-0.14251473010312996,0.9173049837018714,left_images/camera_left_110.png,right_images/camera_right_110.png
2025-05-31 13:17:35,6.105839014053345,111,-0.0655135,-0.0006015129,0.114032716,3.513922e-05,-0.00021549356,0.012576858,0.5235896,0.035163406,7.3915384e-05,0.0028098472,0.8382474966002535,0.00048270874550406125,0.5452897408127856,-4.5009909514859194e-05,0.9999996660250102,-0.0008160416509122498,-0.5452899526100915,0.0006595014291053669,0.8382472383732315,0.018294418,-0.0004491603,0.10644544,-0.11130211,0.109846935,-0.16433744,1.0179491,-0.0448627,-0.0021111565,0.0059525883,0.9254423654048765,-0.03824390446465111,-0.3769533553175063,0.09182498186269417,0.9878716564815833,0.12521087423322713,0.36759298282168473,-0.1504891826399219,0.917730028324575,left_images/camera_left_111.png,right_images/camera_right_111.png
2025-05-31 13:17:35,6.170428514480591,112,-0.0655135,-0.00060149893,0.114032716,3.513567e-05,-0.0002155819,0.012576913,0.5235896,0.035163406,7.3915384e-05,0.0028098472,0.8382474966002535,0.00048270874550406125,0.5452897408127856,-4.5009909514859194e-05,0.9999996660250102,-0.0008160416509122498,-0.5452899526100915,0.0006595014291053669,0.8382472383732315,0.018324196,-0.0006289633,0.10648855,-0.1136579,0.113717124,-0.16662447,1.0167602,-0.044849962,-0.0021664533,0.0059226137,0.9261202274605554,-0.03829762939546416,-0.3752793837544185,0.09324736316640247,0.9872019679338699,0.12937234546071652,0.36552189202689556,-0.15480815899099637,0.917838864049075,left_images/camera_left_112.png,right_images/camera_right_112.png
2025-05-31 13:17:35,6.236083984375,113,-0.0655135,-0.00060148496,0.114032716,3.5132118e-05,-0.00021567022,0.012576969,0.5235896,0.035163406,7.3915384e-05,0.0028098472,0.8382474966002535,0.00048270874550406125,0.5452897408127856,-4.5009909514859194e-05,0.9999996660250102,-0.0008160416509122498,-0.5452899526100915,0.0006595014291053669,0.8382472383732315,0.01742863,-0.0008414366,0.10651132,-0.11785084,0.118257135,-0.16803953,1.0187677,-0.04492307,-0.0022319015,0.0058665397,0.9266537616468775,-0.03971420580804503,-0.3738122361329658,0.09646586591445688,0.9862267922806882,0.13435419941750362,0.36332787222984414,-0.1605599453312704,0.9177218321562115,left_images/camera_left_113.png,right_images/camera_right_113.png
2025-05-31 13:17:35,6.293203115463257,114,-0.0655135,-0.000601471,0.114032716,3.5128567e-05,-0.00021575855,0.012577025,0.5235896,0.03516341,7.3923344e-05,0.0028098444,0.8382474839334012,0.0004829225640961539,0.5452897600956021,-4.4962127764754784e-05,0.9999996656471484,-0.0008165071944143236,-0.5452899720861639,0.0006599177134690962,0.8382472253761907,0.015789108,-0.00084873725,0.10648746,-0.123192,0.12276357,-0.16828178,1.0241221,-0.04507751,-0.002319179,0.005816048,0.9269152147329542,-0.042142466262253125,-0.37289703301836036,0.10093111856075429,0.9850561549870489,0.13956102904538245,0.36144307159307426,-0.1669981558564824,0.9173170236825967,left_images/camera_left_114.png,right_images/camera_right_114.png
2025-05-31 13:17:35,6.351358413696289,115,-0.0655135,-0.00060146855,0.114032716,3.5145225e-05,-0.0002157705,0.012577025,0.5235896,0.03516341,7.3923344e-05,0.0028098444,0.8382474839334012,0.0004829225640961539,0.5452897600956021,-4.4962127764754784e-05,0.9999996656471484,-0.0008165071944143236,-0.5452899720861639,0.0006599177134690962,0.8382472253761907,0.0153058395,-0.0013524855,0.10644844,-0.12746339,0.12692702,-0.1687138,1.0267754,-0.045134053,-0.0023450474,0.005838802,0.9268759406645212,-0.04390900098723114,-0.372790812989755,0.10445501909269139,0.9840787620862593,0.14379895339369134,0.36054145337756194,-0.17222366168177608,0.9167054438331412,left_images/camera_left_115.png,right_images/camera_right_115.png
2025-05-31 13:17:35,6.4070703983306885,116,-0.0655135,-0.0006014662,0.114032716,3.5161887e-05,-0.00021578246,0.012577025,0.5235896,0.03516341,7.3923344e-05,0.0028098444,0.8382474839334012,0.0004829225640961539,0.5452897600956021,-4.4962127764754784e-05,0.9999996656471484,-0.0008165071944143236,-0.5452899720861639,0.0006599177134690962,0.8382472253761907,0.014879543,-0.0013581833,0.106229894,-0.13193908,0.13076916,-0.16864584,1.0295634,-0.045272663,-0.0024193525,0.00602118,0.9266222627551909,-0.04575317202790752,-0.3731994499136282,0.10821904750150496,0.9830210629667688,0.14818308783916956,0.36008307364317615,-0.17769703715332097,0.9158405663993129,left_images/camera_left_116.png,right_images/camera_right_116.png
2025-05-31 13:17:35,6.47580361366272,117,-0.0655135,-0.0006014639,0.114032716,3.517855e-05,-0.00021579443,0.012577025,0.5235896,0.03516341,7.3923344e-05,0.0028098444,0.8382474839334012,0.0004829225640961539,0.5452897600956021,-4.4962127764754784e-05,0.9999996656471484,-0.0008165071944143236,-0.5452899720861639,0.0006599177134690962,0.8382472253761907,0.013029108,-0.0009857198,0.10579784,-0.13684219,0.13614547,-0.16676168,1.0332272,-0.045636315,-0.0025606472,0.006322922,0.9261806137613466,-0.047224781121986824,-0.3741113346861282,0.11236608958705416,0.9816181900509146,0.15427116020851475,0.359949069457847,-0.1849203855964711,0.9144622017269401,left_images/camera_left_117.png,right_images/camera_right_117.png
2025-05-31 13:17:35,6.528501510620117,118,-0.0655135,-0.00060146156,0.114032716,3.519521e-05,-0.00021580639,0.012577025,0.5235896,0.03516341,7.3923344e-05,0.0028098444,0.8382474839334012,0.0004829225640961539,0.5452897600956021,-4.4962127764754784e-05,0.9999996656471484,-0.0008165071944143236,-0.5452899720861639,0.0006599177134690962,0.8382472253761907,0.01041743,-0.0007791016,0.10545848,-0.14602086,0.14170542,-0.16431959,1.0331781,-0.046006672,-0.0026909527,0.0065138573,0.9253393711494362,-0.05245220525014019,-0.37549409364883884,0.12081145924055423,0.9795509546391523,0.16088666377824246,0.3593767375845767,-0.1942387536768152,0.9127538918312776,left_images/camera_left_118.png,right_images/camera_right_118.png
2025-05-31 13:17:35,6.580161809921265,119,-0.0655135,-0.00060145924,0.114032716,3.5211873e-05,-0.00021581835,0.012577025,0.5235896,0.035163395,7.391902e-05,0.0028098174,0.8382474964656393,0.0004833955563296031,0.5452897404113011,-4.5502911692473576e-05,0.9999996655931931,-0.0008165433160999519,-0.5452899527761106,0.0006596531195717885,0.838247238145876,0.008137904,-0.0013139811,0.105285525,-0.15381218,0.14746203,-0.16257577,1.0345182,-0.04626711,-0.0027430928,0.006576705,0.9246822212107313,-0.0567336501440496,-0.37648915351988643,0.1278953109329914,0.9776617462068221,0.16679418288771553,0.3586162004401663,-0.20238281286996634,0.9112824029008233,left_images/camera_left_119.png,right_images/camera_right_119.png
2025-05-31 13:17:35,6.639776945114136,120,-0.0655135,-0.0006013144,0.114032716,3.5242705e-05,-0.00021609609,0.012576997,0.5235896,0.035163388,7.404252e-05,0.0028098132,0.8382475957420598,0.00048345443949156523,0.5452895877462373,-4.556190566744277e-05,0.9999996655762036,-0.0008165608328779395,-0.5452898001583829,0.0006596357221787338,0.838247337439222,0.0062446212,-0.0020548638,0.10504142,-0.16308688,0.15135592,-0.16102709,1.0356406,-0.046525333,-0.002740936,0.006717407,0.9237003672240031,-0.06326863330021537,-0.3778554110113608,0.13673588965878675,0.9757577261795141,0.17088053218609886,0.35788395894404323,-0.20950880611875758,0.909958862855476,left_images/camera_left_120.png,right_images/camera_right_120.png
2025-05-31 13:17:35,6.707935333251953,121,-0.0655135,-0.00060127914,0.114032716,3.523987e-05,-0.00021618431,0.012576997,0.5235896,0.035163388,7.404252e-05,0.0028098132,0.8382475957420598,0.00048345443949156523,0.5452895877462373,-4.556190566744277e-05,0.9999996655762036,-0.0008165608328779395,-0.5452898001583829,0.0006596357221787338,0.838247337439222,0.004253308,-0.0025399968,0.10458267,-0.17358702,0.15696722,-0.15871097,1.038926,-0.04688761,-0.0027971992,0.007052022,0.9222668606282264,-0.06983813155410418,-0.38019267900366954,0.14660681452213523,0.9732561842379157,0.17685825335088143,0.35767342607835423,-0.21884934366747358,0.9078406716234342,left_images/camera_left_121.png,right_images/camera_right_121.png
2025-05-31 13:17:35,6.767384052276611,122,-0.0655135,-0.0006012652,0.114032716,3.5237026e-05,-0.00021627253,0.012576997,0.5235896,0.035163388,7.404252e-05,0.0028098132,0.8382475957420598,0.00048345443949156523,0.5452895877462373,-4.556190566744277e-05,0.9999996655762036,-0.0008165608328779395,-0.5452898001583829,0.0006596357221787338,0.838247337439222,0.0024356383,-0.0032811726,0.10413327,-0.18559018,0.16440894,-0.15688667,1.0429615,-0.047223143,-0.0028601892,0.0073977346,0.9206593644001788,-0.07679952013481753,-0.38273772801922856,0.15763148836802324,0.9701062744947513,0.18451593443601677,0.35712553621540555,-0.23020784064183486,0.9052434487417642,left_images/camera_left_122.png,right_images/camera_right_122.png
2025-05-31 13:17:35,6.8233962059021,123,-0.0655135,-0.0006012512,0.114032716,3.523418e-05,-0.00021636074,0.012576997,0.5235896,0.035163388,7.404252e-05,0.0028098132,0.8382475957420598,0.00048345443949156523,0.5452895877462373,-4.556190566744277e-05,0.9999996655762036,-0.0008165608328779395,-0.5452898001583829,0.0006596357221787338,0.838247337439222,0.00051473203,-0.0046986896,0.10394212,-0.20130304,0.17283306,-0.15624861,1.0471971,-0.047431942,-0.0028712,0.0075229174,0.918825732214678,-0.08668624275271994,-0.3850256733486453,0.17200750565414039,0.9660067047627804,0.1929882492588488,0.3552079557369205,-0.24354987511959683,0.9025025022183745,left_images/camera_left_123.png,right_images/camera_right_123.png
2025-05-31 13:17:35,6.881618976593018,124,-0.0655135,-0.00060123723,0.114032716,3.5231336e-05,-0.00021644896,0.012576997,0.5235896,0.035163388,7.404252e-05,0.0028098132,0.8382475957420598,0.00048345443949156523,0.5452895877462373,-4.556190566744277e-05,0.9999996655762036,-0.0008165608328779395,-0.5452898001583829,0.0006596357221787338,0.838247337439222,-0.0009284563,-0.0060010804,0.10412752,-0.21468839,0.1780687,-0.15709513,1.043949,-0.047429644,-0.0028353727,0.007327212,0.9175309029491869,-0.0960895621490592,-0.385880600936678,0.18426400088423903,0.9626392498102317,0.1984249296407266,0.35239724759336977,-0.2531649082530915,0.9009571072575103,left_images/camera_left_124.png,right_images/camera_right_124.png
2025-05-31 13:17:35,6.94439435005188,125,-0.0655135,-0.0006012222,0.114032716,3.5213823e-05,-0.000216488,0.012576997,0.5235896,0.03516338,7.404997e-05,0.0028098123,0.8382475645438043,0.0004837769636525511,0.5452896354197739,-4.5690549645752365e-05,0.9999996652488208,-0.0008169544785157821,-0.5452898481071825,0.0006598955188005468,0.838247306043479,-0.0019193343,-0.008045229,0.103698835,-0.23421851,0.18530221,-0.15863182,1.0471977,-0.047671683,-0.0027643102,0.0077054035,0.9150751383191209,-0.10973447572174067,-0.3880667933079514,0.20210131120454228,0.9574955579800671,0.20580893191949792,0.3489878955488948,-0.2667594446060242,0.8983578615862606,left_images/camera_left_125.png,right_images/camera_right_125.png
2025-05-31 13:17:35,6.99936842918396,126,-0.0655135,-0.0006012146,0.114032716,3.5199002e-05,-0.00021653634,0.012577025,0.5235896,0.03516338,7.404078e-05,0.0028098444,0.8382475461967094,0.0004833129298501552,0.5452896640353707,-4.5158728728783104e-05,0.9999996653003331,-0.0008169209943255375,-0.545289876355581,0.0006601574309131753,0.8382472874613325,-0.0013668144,-0.009822423,0.103500776,-0.25835815,0.18923849,-0.16084531,1.0471977,-0.047650892,-0.0026653865,0.007958458,0.911092784114161,-0.1282528759790198,-0.3917411626804323,0.22460282461021863,0.9513530172814734,0.21090521019298683,0.3456349373431716,-0.280140386793027,0.895576827399657,left_images/camera_left_126.png,right_images/camera_right_126.png
2025-05-31 13:17:36,7.057412147521973,127,-0.0655135,-0.000601214,0.114032716,3.51326e-05,-0.00021654186,0.012577081,0.5235896,0.03516338,7.404103e-05,0.0028098421,0.8382476893220592,0.0004833016786566232,0.5452894440255704,-4.515983184726749e-05,0.9999996653182646,-0.0008168989828956701,-0.5452896563358027,0.0006601385052215511,0.8382474306016904,-0.0009575206,-0.013622503,0.1030737,-0.28583658,0.19601914,-0.1660084,1.0471976,-0.04775802,-0.0024119187,0.008412502,0.9069310980205402,-0.1487680647384911,-0.39413709081640796,0.24939006577604542,0.9436186288583372,0.21768894864859656,0.3395299376129844,-0.2957227522282918,0.8928983566336357,left_images/camera_left_127.png,right_images/camera_right_127.png
2025-05-31 13:17:36,7.117083311080933,128,-0.0655135,-0.000601214,0.114032716,3.5107576e-05,-0.00021655047,0.012577061,0.5235896,0.03516338,7.404078e-05,0.0028098444,0.8382475461967094,0.0004833129298501552,0.5452896640353707,-4.5158728728783104e-05,0.9999996653003331,-0.0008169209943255375,-0.545289876355581,0.0006601574309131753,0.8382472874613325,0.0005822636,-0.01591312,0.10218485,-0.30707887,0.20448436,-0.16785799,1.0471976,-0.04797861,-0.0023432528,0.009340297,0.9021988946158538,-0.16198880947765892,-0.3997458944854122,0.2682574307796699,0.936474144800375,0.22595160311866996,0.3377500634869255,-0.3110880931897218,0.8883406401207595,left_images/camera_left_128.png,right_images/camera_right_128.png
2025-05-31 13:17:36,7.180715084075928,129,-0.0655135,-0.00060121267,0.114032716,3.5058278e-05,-0.00021655766,0.012577033,0.5235896,0.03516338,7.404078e-05,0.0028098444,0.8382475461967094,0.0004833129298501552,0.5452896640353707,-4.5158728728783104e-05,0.9999996653003331,-0.0008169209943255375,-0.545289876355581,0.0006601574309131753,0.8382472874613325,0.0026529059,-0.01831941,0.101764314,-0.32838455,0.20437369,-0.17169605,1.0471976,-0.04795799,-0.0021145688,0.0098373145,0.8974564550089492,-0.17961172744171572,-0.4028790621615531,0.2879661686710176,0.9304274718619365,0.22667202144406856,0.33413679393880713,-0.3194438087833415,0.8867402415399264,left_images/camera_left_129.png,right_images/camera_right_129.png
2025-05-31 13:17:36,7.232381820678711,130,-0.0655135,-0.00060121267,0.114032716,3.4991874e-05,-0.00021656319,0.012577089,0.5235896,0.03516338,7.404103e-05,0.0028098421,0.8382476893220592,0.0004833016786566232,0.5452894440255704,-4.515983184726749e-05,0.9999996653182646,-0.0008168989828956701,-0.5452896563358027,0.0006601385052215511,0.8382474306016904,0.0043093045,-0.022161797,0.10127523,-0.3593116,0.20785683,-0.17757806,1.0471976,-0.047979422,-0.0018089034,0.010405352,0.8905487603437522,-0.20345424852799765,-0.40685289012874676,0.31572818365430444,0.9203373289349656,0.23085691459258223,0.3274730820946358,-0.3340442631220611,0.8838415077256098,left_images/camera_left_130.png,right_images/camera_right_130.png
2025-05-31 13:17:36,7.287962436676025,131,-0.0655135,-0.00060121267,0.114032716,3.4966848e-05,-0.0002165718,0.012577068,0.5235896,0.03516338,7.404078e-05,0.0028098444,0.8382475461967094,0.0004833129298501552,0.5452896640353707,-4.5158728728783104e-05,0.9999996653003331,-0.0008169209943255375,-0.545289876355581,0.0006601574309131753,0.8382472874613325,0.006478033,-0.025083082,0.100702316,-0.3954279,0.2072932,-0.18412422,1.0471976,-0.048000418,-0.0015374015,0.011060062,0.8813880846770246,-0.23258251929113719,-0.41116957074855903,0.3483038563628494,0.9079533183647861,0.23303475129933177,0.3191229666321966,-0.34860600022168525,0.8812686246413772,left_images/camera_left_131.png,right_images/camera_right_131.png
2025-05-31 13:17:36,7.346874237060547,132,-0.0655135,-0.00060121133,0.114032716,3.491755e-05,-0.00021657899,0.01257704,0.5235896,0.03516338,7.404078e-05,0.0028098444,0.8382475461967094,0.0004833129298501552,0.5452896640353707,-4.5158728728783104e-05,0.9999996653003331,-0.0008169209943255375,-0.545289876355581,0.0006601574309131753,0.8382472874613325,0.007410372,-0.027488306,0.09994824,-0.42077804,0.20504041,-0.1899852,1.0471976,-0.048265576,-0.001295697,0.011776482,0.8748971133218908,-0.2541430660097362,-0.4122697455552536,0.37096804220409646,0.8989099623837052,0.23311711904230745,0.31134828209624404,-0.35689239488464375,0.8807326868631714,left_images/camera_left_132.png,right_images/camera_right_132.png
2025-05-31 13:17:36,7.40604043006897,133,-0.0655135,-0.00060121133,0.114032716,3.4851146e-05,-0.00021658452,0.012577096,0.5235896,0.03516338,7.404103e-05,0.0028098421,0.8382476893220592,0.0004833016786566232,0.5452894440255704,-4.515983184726749e-05,0.9999996653182646,-0.0008168989828956701,-0.5452896563358027,0.0006601385052215511,0.8382474306016904,0.009551493,-0.030611616,0.09952331,-0.44824648,0.20426732,-0.19807515,1.0471976,-0.048262846,-0.0010072377,0.0122794425,0.8676316251346072,-0.2760813200798379,-0.4135147733385768,0.39465370359058294,0.8882673344968512,0.23500978002648182,0.3024298551871437,-0.3670970541543927,0.8796453464451739,left_images/camera_left_133.png,right_images/camera_right_133.png
2025-05-31 13:17:36,7.46196722984314,134,-0.0655135,-0.00060121133,0.114032716,3.482612e-05,-0.00021659314,0.0125770755,0.5235896,0.035163365,7.405762e-05,0.0028098412,0.8382476582454138,0.00048309106757306027,0.5452894919848544,-4.4835327171459995e-05,0.9999996652409272,-0.0008170115221258897,-0.5452897041352182,0.0006604097624052479,0.8382473992939509,0.011389973,-0.03275466,0.09935008,-0.4688459,0.2000167,-0.20531653,1.0471976,-0.0481966,-0.00075457175,0.012516332,0.8620444352107405,-0.2942527218588012,-0.4126678172584853,0.41255559125132607,0.8803429357064922,0.2340816090147705,0.2944100471272412,-0.37203716377582774,0.880290334446638,left_images/camera_left_134.png,right_images/camera_right_134.png
2025-05-31 13:17:36,7.516736268997192,135,-0.0655135,-0.0006011986,0.114032716,3.478975e-05,-0.00021667876,0.012577159,0.5235896,0.035163365,7.405762e-05,0.0028098412,0.8382476582454138,0.00048309106757306027,0.5452894919848544,-4.4835327171459995e-05,0.9999996652409272,-0.0008170115221258897,-0.5452897041352182,0.0006604097624052479,0.8382473992939509,0.014629064,-0.034410417,0.09944507,-0.4910076,0.19616945,-0.2119292,1.0471976,-0.04786082,-0.0005486242,0.012604101,0.8549849451043574,-0.3124076606716602,-0.4140074844716699,0.4316558379504843,0.8711383074801654,0.23407538700995076,0.2875308352301791,-0.3788396795403747,0.8796627285486079,left_images/camera_left_135.png,right_images/camera_right_135.png
2025-05-31 13:17:36,7.575240612030029,136,-0.0655135,-0.00060118496,0.114032716,3.475338e-05,-0.00021676438,0.012577243,0.5235896,0.035163365,7.405762e-05,0.0028098412,0.8382476582454138,0.00048309106757306027,0.5452894919848544,-4.4835327171459995e-05,0.9999996652409272,-0.0008170115221258897,-0.5452897041352182,0.0006604097624052479,0.8382473992939509,0.017377894,-0.035955332,0.099232204,-0.50614214,0.1939766,-0.21766776,1.0471976,-0.047735717,-0.00038876687,0.012930309,0.850247984155261,-0.32439283020300164,-0.4145451207682964,0.44429367885109544,0.8645929355226067,0.23469593685737541,0.282279103677326,-0.38372952395833193,0.8792440844667864,left_images/camera_left_136.png,right_images/camera_right_136.png
