jiaqis7/OS_Teleop_Extension/demo_3/teleop_log.csv
Epoch Time (Seconds),Time (Seconds),Frame Number,PSM1_joint_1,PSM1_joint_2,PSM1_joint_3,PSM1_joint_4,PSM1_joint_5,PSM1_joint_6,PSM1_jaw_angle,PSM1_ee_x,PSM1_ee_y,PSM1_ee_z,"PSM1_Orientation_Matrix_[1,1]","PSM1_Orientation_Matrix_[1,2]","PSM1_Orientation_Matrix_[1,3]","PSM1_Orientation_Matrix_[2,1]","PSM1_Orientation_Matrix_[2,2]","PSM1_Orientation_Matrix_[2,3]","PSM1_Orientation_Matrix_[3,1]","PSM1_Orientation_Matrix_[3,2]","PSM1_Orientation_Matrix_[3,3]",PSM2_joint_1,PSM2_joint_2,PSM2_joint_3,PSM2_joint_4,PSM2_joint_5,PSM2_joint_6,PSM2_jaw_angle,PSM2_ee_x,PSM2_ee_y,PSM2_ee_z,"PSM2_Orientation_Matrix_[1,1]","PSM2_Orientation_Matrix_[1,2]","PSM2_Orientation_Matrix_[1,3]","PSM2_Orientation_Matrix_[2,1]","PSM2_Orientation_Matrix_[2,2]","PSM2_Orientation_Matrix_[2,3]","PSM2_Orientation_Matrix_[3,1]","PSM2_Orientation_Matrix_[3,2]","PSM2_Orientation_Matrix_[3,3]",Camera Left,Camera Right
2025-05-07 16:13:57,0.0009353160858154297,1,-0.1566334,0.108101115,0.10118279,1.6206015,-0.20693958,-0.47197095,1.998041e-07,0.038493156,-0.007047707,0.018002143,-0.1795408938547069,0.89159088607262,0.4157291898653418,-0.9370057318935185,-0.02626997625113464,-0.3483247719391441,-0.29964199610959874,-0.4520791747249649,0.8401423057717365,-0.000904849,1.772448e-05,0.10708756,0.0007038639,0.0001168331,-0.0140077025,1.0424873,-0.04523681,-4.11789e-06,0.0047316756,0.8732876889258188,0.0006766694062226697,-0.4872044278217479,-0.0007054044579351677,0.9999997434543525,0.00012448204559441182,0.48720438706476443,0.00023496753740131135,0.873287942213279,left_images/camera_left_1.png,right_images/camera_right_1.png
2025-05-07 16:13:57,0.04486680030822754,2,-0.15636225,0.10779369,0.10115496,1.6232611,-0.20407982,-0.46884024,1.9920206e-07,0.03849099,-0.0070492104,0.018013258,-0.1813345246451421,0.8904853838976952,0.4173171111232976,-0.9380730868244009,-0.029250354362380937,-0.3452003773830714,-0.295189217193752,-0.4540706969561563,0.8406444719489269,-0.000904849,1.7720242e-05,0.10708756,0.0007038398,0.00011683928,-0.0140077025,1.0397588,-0.04523681,-4.11789e-06,0.0047316756,0.8732876889258188,0.0006766694062226697,-0.4872044278217479,-0.0007054044579351677,0.9999997434543525,0.00012448204559441182,0.48720438706476443,0.00023496753740131135,0.873287942213279,left_images/camera_left_2.png,right_images/camera_right_2.png
2025-05-07 16:13:57,0.10515427589416504,3,-0.15594298,0.10747608,0.10112358,1.6260304,-0.20067671,-0.46506396,2.2966098e-07,0.038493663,-0.0070544584,0.0180207,-0.1831055828279457,0.8891890829156561,0.41930313659791896,-0.939330249563068,-0.03240358804914062,-0.3414801454511318,-0.2900534912615652,-0.4563910410001015,0.8411754810393732,-0.000904849,1.7716004e-05,0.10708756,0.0007038151,0.000116845426,-0.0140077025,1.0420141,-0.04523681,-4.11789e-06,0.0047316756,0.8732876889258188,0.0006766694062226697,-0.4872044278217479,-0.0007054044579351677,0.9999997434543525,0.00012448204559441182,0.48720438706476443,0.00023496753740131135,0.873287942213279,left_images/camera_left_3.png,right_images/camera_right_3.png
2025-05-07 16:13:57,0.14743781089782715,4,-0.15559232,0.10722264,0.101099394,1.628392,-0.19799012,-0.46230116,1.8172021e-07,0.038497806,-0.0070572477,0.018025205,-0.18470571003856617,0.8881677466288689,0.42076341871335066,-0.9402323013956622,-0.035065213494233693,-0.3387235601708572,-0.286089182059311,-0.4581795332081095,0.8415607495943671,-0.000904849,1.7711765e-05,0.10708756,0.00070379087,0.0001168516,-0.0140077025,1.0400017,-0.04523681,-4.120477e-06,0.0047316775,0.8732876888595943,0.0006767946156912963,-0.4872044277665346,-0.0007054696559553065,0.9999997433909057,0.00012462217736443706,0.4872043870890663,0.00023487692678511942,0.8732879422240962,left_images/camera_left_4.png,right_images/camera_right_4.png
2025-05-07 16:13:58,0.18841838836669922,5,-0.15533555,0.10702615,0.10108208,1.6305165,-0.19615494,-0.4597619,1.5146865e-07,0.038503297,-0.0070639225,0.018025175,-0.18588548208763933,0.8874822861827064,0.4216891974677119,-0.9410659508614031,-0.037386056883875196,-0.3361505003417356,-0.28256231822090055,-0.45932284339295887,0.8421288867263954,-0.00090484595,1.7711753e-05,0.10708756,0.0007038007,0.00011685384,-0.0140077025,1.0421332,-0.04523681,-4.120477e-06,0.0047316775,0.8732876888595943,0.0006767946156912963,-0.4872044277665346,-0.0007054696559553065,0.9999997433909057,0.00012462217736443706,0.4872043870890663,0.00023487692678511942,0.8732879422240962,left_images/camera_left_5.png,right_images/camera_right_5.png
2025-05-07 16:13:58,0.23024320602416992,6,-0.15516587,0.1068766,0.101070225,1.6318684,-0.19511177,-0.4581155,1.16002084e-07,0.03850929,-0.0070660836,0.018024191,-0.18658536790586128,0.8871024014464804,0.4221791442401221,-0.9415929542316045,-0.038853146191974275,-0.33450432220284493,-0.28033659951000695,-0.4599345196643458,0.842538799460472,-0.00090484245,1.7711425e-05,0.10708756,0.0007038112,0.00011685606,-0.0140077025,1.0395639,-0.04523681,-4.120477e-06,0.0047316775,0.8732876888595943,0.0006767946156912963,-0.4872044277665346,-0.0007054696559553065,0.9999997433909057,0.00012462217736443706,0.4872043870890663,0.00023487692678511942,0.8732879422240962,left_images/camera_left_6.png,right_images/camera_right_6.png
2025-05-07 16:13:58,0.28824687004089355,7,-0.1549999,0.10676697,0.10106538,1.6335803,-0.19411896,-0.45722324,7.431317e-08,0.038514122,-0.0070676813,0.018019062,-0.18781279219450303,0.8867492286300585,0.42237679932981725,-0.9418874752661637,-0.040657661673324574,-0.33345905068537174,-0.2785217029691515,-0.4604592925235126,0.8428540211115503,-0.00090483896,1.7711098e-05,0.10708756,0.00070382096,0.0001168583,-0.0140077025,1.0424125,-0.04523681,-4.120477e-06,0.0047316775,0.8732876888595943,0.0006767946156912963,-0.4872044277665346,-0.0007054696559553065,0.9999997433909057,0.00012462217736443706,0.4872043870890663,0.00023487692678511942,0.8732879422240962,left_images/camera_left_7.png,right_images/camera_right_7.png
2025-05-07 16:13:58,0.34121108055114746,8,-0.15485571,0.10668301,0.101073,1.6359588,-0.19305263,-0.4564057,6.372918e-08,0.03851065,-0.0070746946,0.018005282,-0.18955786919526918,0.88636008782738,0.42241402549251217,-0.9421764495427912,-0.04311475764857142,-0.33233214650383347,-0.2763536722265324,-0.4609847203319698,0.8432803421563709,-0.00090483547,1.771077e-05,0.10708756,0.00070383144,0.00011686052,-0.0140077025,1.0397539,-0.04523681,-4.120477e-06,0.0047316775,0.8732876888595943,0.0006767946156912963,-0.4872044277665346,-0.0007054696559553065,0.9999997433909057,0.00012462217736443706,0.4872043870890663,0.00023487692678511942,0.8732879422240962,left_images/camera_left_8.png,right_images/camera_right_8.png
2025-05-07 16:13:58,0.3957386016845703,9,-0.15451129,0.10656217,0.10107618,1.6420776,-0.19008869,-0.45689318,4.6680782e-08,0.03851125,-0.0070778737,0.017993134,-0.1951820004817451,0.8852221892933588,0.42223886873500505,-0.9420509937839191,-0.04944531961060178,-0.3318057948248279,-0.27284411629843597,-0.46253306471135464,0.8435752795394418,-0.000904832,1.7710443e-05,0.10708756,0.0007038419,0.000116862735,-0.0140077025,1.0395778,-0.04523681,-4.120477e-06,0.0047316775,0.8732876888595943,0.0006767946156912963,-0.4872044277665346,-0.0007054696559553065,0.9999997433909057,0.00012462217736443706,0.4872043870890663,0.00023487692678511942,0.8732879422240962,left_images/camera_left_9.png,right_images/camera_right_9.png
2025-05-07 16:13:58,0.45038366317749023,10,-0.1540527,0.106490225,0.10107056,1.6485008,-0.18703313,-0.4575735,2.4994542e-08,0.038526937,-0.0070839683,0.017981604,-0.20108004789887934,0.8840619027130829,0.421902081659131,-0.941830660181034,-0.05607624240073811,-0.3313766174327503,-0.2692987595217292,-0.4639935422067179,0.8439124189810934,-0.0009048285,1.7710116e-05,0.10708756,0.0007038521,0.00011686495,-0.0140077025,1.0397723,-0.04523681,-4.120477e-06,0.0047316775,0.8732876888595943,0.0006767946156912963,-0.4872044277665346,-0.0007054696559553065,0.9999997433909057,0.00012462217736443706,0.4872043870890663,0.00023487692678511942,0.8732879422240962,left_images/camera_left_10.png,right_images/camera_right_10.png
2025-05-07 16:13:58,0.5089263916015625,11,-0.15339004,0.106547005,0.10105686,1.6540802,-0.1839338,-0.45881027,2.3994826e-08,0.03856285,-0.007093993,0.017968234,-0.2065132698750896,0.882940795874704,0.42162521312848744,-0.9414100457683212,-0.06187025602718782,-0.331540641770534,-0.2666446982259083,-0.46538975321688625,0.8439863639353065,-0.000904825,1.7709788e-05,0.10708756,0.00070386217,0.00011686717,-0.0140077025,1.040265,-0.04523681,-4.120477e-06,0.0047316775,0.8732876888595943,0.0006767946156912963,-0.4872044277665346,-0.0007054696559553065,0.9999997433909057,0.00012462217736443706,0.4872043870890663,0.00023487692678511942,0.8732879422240962,left_images/camera_left_11.png,right_images/camera_right_11.png
2025-05-07 16:13:58,0.5643832683563232,12,-0.15269434,0.106658295,0.101062894,1.6584575,-0.1809861,-0.45945892,1.9414731e-08,0.038586456,-0.007112249,0.017937724,-0.21075913835764037,0.8818821857613838,0.4217397254652085,-0.9411644586667433,-0.06646733526934145,-0.3313480874921858,-0.264178059916567,-0.4667610778320289,0.8440047682802518,-0.0009048215,1.770946e-05,0.10708756,0.0007038722,0.000116869414,-0.0140077025,1.0439689,-0.04523681,-4.120477e-06,0.0047316775,0.8732876888595943,0.0006767946156912963,-0.4872044277665346,-0.0007054696559553065,0.9999997433909057,0.00012462217736443706,0.4872043870890663,0.00023487692678511942,0.8732879422240962,left_images/camera_left_12.png,right_images/camera_right_12.png
2025-05-07 16:13:58,0.6232478618621826,13,-0.15217002,0.10678876,0.101081826,1.661544,-0.17945865,-0.4602155,9.5698525e-09,0.038606357,-0.0071298075,0.017899245,-0.2136268084982587,0.8814025421479608,0.42129935365006227,-0.9409098609081485,-0.0696347840523952,-0.3314206247290364,-0.26277789164360227,-0.46720504657493617,0.844196200014105,-0.000904835,1.7709133e-05,0.107087545,0.0007038821,0.00011687166,-0.014007676,1.040131,-0.04523681,-4.12058e-06,0.004731709,0.8732875337097183,0.0006768201292024842,-0.4872047058287818,-0.0007054651818567029,0.9999997433865154,0.00012468271757814736,0.4872046651932576,0.00023482209346889734,0.873287787085397,left_images/camera_left_13.png,right_images/camera_right_13.png
2025-05-07 16:13:58,0.6674480438232422,14,-0.15172924,0.10695173,0.101104245,1.6636053,-0.17887056,-0.461525,5.645412e-08,0.03862964,-0.0071439305,0.01785935,-0.21564311161807942,0.881327459994605,0.4204283014630801,-0.9405057617144172,-0.07168358583327267,-0.3321300584169822,-0.2625775325378329,-0.4670367991727653,0.844351625583087,-0.00090483116,1.7714461e-05,0.107087545,0.00070391287,0.00011685177,-0.01400771,1.0395339,-0.04523681,-4.120477e-06,0.0047317073,0.8732876888595943,0.0006767946156912963,-0.4872044277665346,-0.0007054696559553065,0.9999997433909057,0.00012462217736443706,0.4872043870890663,0.00023487692678511942,0.8732879422240962,left_images/camera_left_14.png,right_images/camera_right_14.png
2025-05-07 16:13:58,0.7152402400970459,15,-0.1514961,0.107082516,0.101128235,1.665076,-0.17993942,-0.46361494,1.2662998e-07,0.03865985,-0.007148072,0.017820636,-0.2169925673183808,0.8819372100883003,0.4184506938580018,-0.9398828868522764,-0.07296160612457564,-0.3336116949897788,-0.26369373282429154,-0.4656859043318656,0.8447498172688784,-0.0009048275,1.7714045e-05,0.107087545,0.0007039228,0.00011685402,-0.01400771,1.0423083,-0.04523681,-4.120477e-06,0.0047317073,0.8732876888595943,0.0006767946156912963,-0.4872044277665346,-0.0007054696559553065,0.9999997433909057,0.00012462217736443706,0.4872043870890663,0.00023487692678511942,0.8732879422240962,left_images/camera_left_15.png,right_images/camera_right_15.png
2025-05-07 16:13:58,0.7683727741241455,16,-0.15129727,0.10725305,0.10116359,1.6664528,-0.18127976,-0.4656651,1.2895285e-07,0.03868421,-0.007157795,0.017773207,-0.21813104574789172,0.8826581642731018,0.4163332942763155,-0.9392935529552652,-0.07410647901195538,-0.335016195347516,-0.2648517854529313,-0.464136612228004,0.8452400469286261,-0.000904824,1.7713717e-05,0.107087545,0.00070393336,0.000116856245,-0.01400771,1.0398153,-0.04523681,-4.120477e-06,0.0047317073,0.8732876888595943,0.0006767946156912963,-0.4872044277665346,-0.0007054696559553065,0.9999997433909057,0.00012462217736443706,0.4872043870890663,0.00023487692678511942,0.8732879422240962,left_images/camera_left_16.png,right_images/camera_right_16.png
2025-05-07 16:13:58,0.8169949054718018,17,-0.1510764,0.10749567,0.1012185,1.6679046,-0.18285847,-0.4678504,1.3217684e-07,0.038702738,-0.0071767513,0.017707847,-0.21922688114296868,0.8835003149343797,0.413964694261695,-0.938689374694638,-0.07527965197018566,-0.3364449908003349,-0.2660861372182256,-0.4623420460114997,0.8458356814832204,-0.0009048205,1.771339e-05,0.107087545,0.00070394325,0.00011685848,-0.01400771,1.0421208,-0.04523681,-4.120477e-06,0.0047317073,0.8732876888595943,0.0006767946156912963,-0.4872044277665346,-0.0007054696559553065,0.9999997433909057,0.00012462217736443706,0.4872043870890663,0.00023487692678511942,0.8732879422240962,left_images/camera_left_17.png,right_images/camera_right_17.png
2025-05-07 16:13:58,0.8726725578308105,18,-0.15084305,0.10787657,0.101301104,1.6692828,-0.18610337,-0.4696414,1.0666389e-07,0.038730446,-0.0072181597,0.017607208,-0.21934758427681683,0.8851277213981442,0.41040900828862653,-0.9383223300841718,-0.07614596864783246,-0.3372728810979233,-0.2672785852576583,-0.4590759286558298,0.8472375402397205,-0.000904817,1.7713062e-05,0.107087545,0.0007039538,0.000116860705,-0.01400771,1.0396317,-0.04523681,-4.120477e-06,0.0047317073,0.8732876888595943,0.0006767946156912963,-0.4872044277665346,-0.0007054696559553065,0.9999997433909057,0.00012462217736443706,0.4872043870890663,0.00023487692678511942,0.8732879422240962,left_images/camera_left_18.png,right_images/camera_right_18.png
2025-05-07 16:13:58,0.9324774742126465,19,-0.1502732,0.10825966,0.10136758,1.6709613,-0.1887562,-0.47176644,0.02666651,0.03878837,-0.007255783,0.017503444,-0.2199469750851908,0.8866199160587551,0.40685188041698966,-0.9378223901178646,-0.07737209089732783,-0.3383825115808901,-0.2685376933402274,-0.4559810127605553,0.848509766153206,-0.0009048135,1.7712735e-05,0.107087545,0.00070396415,0.00011686291,-0.01400771,1.0395353,-0.04523681,-4.120477e-06,0.0047317073,0.8732876888595943,0.0006767946156912963,-0.4872044277665346,-0.0007054696559553065,0.9999997433909057,0.00012462217736443706,0.4872043870890663,0.00023487692678511942,0.8732879422240962,left_images/camera_left_19.png,right_images/camera_right_19.png
2025-05-07 16:13:58,0.9771401882171631,20,-0.14929196,0.10780652,0.10140109,1.6723279,-0.19025731,-0.472982,0.053333156,0.0388769,-0.007209344,0.017403135,-0.22079108481832804,0.8877210071808935,0.403983551985085,-0.9373000517021696,-0.07860266993982401,-0.33954415523970005,-0.2696662936739708,-0.45362212654154244,0.8494157146933842,-0.00090481003,1.7712407e-05,0.107087545,0.00070397416,0.00011686516,-0.01400771,1.0423081,-0.04523681,-4.120477e-06,0.0047317073,0.8732876888595943,0.0006767946156912963,-0.4872044277665346,-0.0007054696559553065,0.9999997433909057,0.00012462217736443706,0.4872043870890663,0.00023487692678511942,0.8732879422240962,left_images/camera_left_20.png,right_images/camera_right_20.png
2025-05-07 16:13:58,1.0226595401763916,21,-0.14781272,0.10574576,0.10141497,1.6735941,-0.19227193,-0.47460485,0.079998925,0.039019957,-0.006992574,0.017276114,-0.22231423757542002,0.8891950411037544,0.3998856819739265,-0.9360922801596441,-0.0799944743713274,-0.3425377746987529,-0.2725942457147221,-0.4504809240651013,0.8501525241135699,-0.0009049047,1.7552287e-05,0.107087545,0.00070396817,0.00011703643,-0.014007654,1.039987,-0.04523672,-4.1483954e-06,0.0047317985,0.8732875337068065,0.0006767256544956199,-0.48720470596523596,-0.0007055722752683339,0.9999997433589962,0.00012429684680304872,0.48720466504339616,0.0002352112461171639,0.873287787064277,left_images/camera_left_21.png,right_images/camera_right_21.png
2025-05-07 16:13:58,1.0684692859649658,22,-0.14654085,0.10405935,0.10144059,1.6740043,-0.19489439,-0.4769701,0.106665835,0.039148986,-0.0068065543,0.01715431,-0.22310484371905237,0.8908701701439973,0.395695045024199,-0.9347766386485462,-0.08041203493602406,-0.34601523156412256,-0.27643600443144695,-0.4470841582801311,0.8507049376069966,-0.0009049208,1.7531644e-05,0.107087545,0.00070396275,0.0001169994,-0.014007654,1.0420632,-0.04523672,-4.1483954e-06,0.0047317985,0.8732875337068065,0.0006767256544956199,-0.48720470596523596,-0.0007055722752683339,0.9999997433589962,0.00012429684680304872,0.48720466504339616,0.0002352112461171639,0.873287787064277,left_images/camera_left_22.png,right_images/camera_right_22.png
2025-05-07 16:13:58,1.1162946224212646,23,-0.14509457,0.103136435,0.10150505,1.6744316,-0.19661,-0.4788355,0.13333344,0.039257072,-0.00670607,0.017002072,-0.2235685208983791,0.8922377866755979,0.39233767151720367,-0.9338625960112323,-0.08080619136261574,-0.3483834255653249,-0.2791375435774862,-0.4442770435952081,0.8512932164065613,-0.0009049208,1.7537392e-05,0.107087545,0.0007039574,0.000116962416,-0.014007654,1.0397996,-0.04523672,-4.1483954e-06,0.0047317985,0.8732875337068065,0.0006767256544956199,-0.48720470596523596,-0.0007055722752683339,0.9999997433589962,0.00012429684680304872,0.48720466504339616,0.0002352112461171639,0.873287787064277,left_images/camera_left_23.png,right_images/camera_right_23.png
2025-05-07 16:13:58,1.1587669849395752,24,-0.14291784,0.10287962,0.101629674,1.6761746,-0.19755942,-0.4788575,0.16000152,0.039380807,-0.006700333,0.016760247,-0.22394907208543446,0.8935839766614475,0.3890430435902775,-0.9337937234641402,-0.08243519353669604,-0.34818633069887217,-0.2790628874125862,-0.4412619579348317,0.8528843938943127,-0.0009049208,1.7543147e-05,0.107087545,0.0007039518,0.00011692542,-0.014007654,1.0424625,-0.04523672,-4.1483954e-06,0.0047317985,0.8732875337068065,0.0006767256544956199,-0.48720470596523596,-0.0007055722752683339,0.9999997433589962,0.00012429684680304872,0.48720466504339616,0.0002352112461171639,0.873287787064277,left_images/camera_left_24.png,right_images/camera_right_24.png
2025-05-07 16:13:59,1.200758457183838,25,-0.14018868,0.10276573,0.10182194,1.6778612,-0.20044962,-0.4767477,0.18666935,0.03953584,-0.00673745,0.016412936,-0.22243508629433978,0.8960305156178682,0.3842550552260922,-0.9345892547213396,-0.08374326417647504,-0.3457310958888139,-0.27760683951343984,-0.4360233718353257,0.8560479319925449,-0.0009049208,1.75489e-05,0.107087545,0.0007039463,0.000116888434,-0.014007654,1.0397912,-0.04523672,-4.1483954e-06,0.0047317985,0.8732875337068065,0.0006767256544956199,-0.48720470596523596,-0.0007055722752683339,0.9999997433589962,0.00012429684680304872,0.48720466504339616,0.0002352112461171639,0.873287787064277,left_images/camera_left_25.png,right_images/camera_right_25.png
2025-05-07 16:13:59,1.2459139823913574,26,-0.13721353,0.102623865,0.102086335,1.6797515,-0.2046008,-0.4734706,0.21333674,0.039687045,-0.006791816,0.015981585,-0.22007243824279377,0.8990970763346636,0.3784079402606821,-0.9358180797361221,-0.0850972493251611,-0.34205698325905937,-0.2753409587490913,-0.42939830633544834,0.8601188586186095,-0.0009049208,1.7554656e-05,0.107087545,0.0007039408,0.00011685144,-0.014007654,1.0419474,-0.04523672,-4.1483954e-06,0.0047317985,0.8732875337068065,0.0006767256544956199,-0.48720470596523596,-0.0007055722752683339,0.9999997433589962,0.00012429684680304872,0.48720466504339616,0.0002352112461171639,0.873287787064277,left_images/camera_left_26.png,right_images/camera_right_26.png
2025-05-07 16:13:59,1.302494764328003,27,-0.13398921,0.10280485,0.10243333,1.6822287,-0.2104142,-0.4700972,0.24000391,0.03984046,-0.0068941694,0.015459077,-0.21719467409327076,0.902935933613245,0.37085465257361394,-0.9372431251707145,-0.08674041079227685,-0.3377150062638905,-0.2727669295676264,-0.42093087428408604,0.8651100515013594,-0.0009049181,1.7556127e-05,0.107087545,0.0007039518,0.00011688566,-0.014007682,1.0398943,-0.04523672,-4.1483954e-06,0.0047317985,0.8732875337068065,0.0006767256544956199,-0.48720470596523596,-0.0007055722752683339,0.9999997433589962,0.00012429684680304872,0.48720466504339616,0.0002352112461171639,0.873287787064277,left_images/camera_left_27.png,right_images/camera_right_27.png
2025-05-07 16:13:59,1.3566083908081055,28,-0.13078973,0.103466086,0.10279266,1.6849129,-0.21511,-0.46652997,0.26667103,0.039971914,-0.007048991,0.014938883,-0.21463049441399668,0.9062334647786888,0.36424532691966865,-0.9388385623696557,-0.08860394928487647,-0.3327634204337988,-0.2692877729776854,-0.41338873652572583,0.869824032686142,-0.00090491783,1.7561231e-05,0.107087545,0.000703945,0.00011684868,-0.014007682,1.0396558,-0.04523672,-4.1483954e-06,0.0047317985,0.8732875337068065,0.0006767256544956199,-0.48720470596523596,-0.0007055722752683339,0.9999997433589962,0.00012429684680304872,0.48720466504339616,0.0002352112461171639,0.873287787064277,left_images/camera_left_28.png,right_images/camera_right_28.png
2025-05-07 16:13:59,1.4043116569519043,29,-0.12731478,0.10462676,0.10318768,1.6878623,-0.21977043,-0.4626494,0.2933383,0.040110193,-0.007264507,0.014376457,-0.21185143766492986,0.9095847856479733,0.35745557217230856,-0.9406815458004212,-0.09059856987966741,-0.3269711432623512,-0.2650230136230291,-0.4055211669610961,0.8748230594792745,-0.00090491516,1.7562701e-05,0.107087545,0.00070395524,0.0001168829,-0.01400771,1.0394341,-0.04523672,-4.147756e-06,0.0047317967,0.8732876888569006,0.0006766851381852386,-0.48720442792343027,-0.0007055917521640181,0.9999997433599418,0.0001241786209841825,0.48720438691708484,0.0002353237650358475,0.8732879421997496,left_images/camera_left_29.png,right_images/camera_right_29.png
2025-05-07 16:13:59,1.45039701461792,30,-0.12411774,0.10570574,0.10358616,1.690686,-0.22336349,-0.45887607,0.32000482,0.04020867,-0.0074701477,0.013836514,-0.20963105894104073,0.9123224534693715,0.3517421783393119,-0.9423897882204655,-0.09260916609325792,-0.3214421089610031,-0.26068430367984174,-0.39886248664312574,0.8791771212695529,-0.0009049131,1.7562112e-05,0.107087545,0.00070396566,0.00011688512,-0.014007766,1.0394881,-0.04523672,-4.147756e-06,0.0047317967,0.8732876888569006,0.0006766851381852386,-0.48720442792343027,-0.0007055917521640181,0.9999997433599418,0.0001241786209841825,0.48720438691708484,0.0002353237650358475,0.8732879421997496,left_images/camera_left_30.png,right_images/camera_right_30.png
2025-05-07 16:13:59,1.4999172687530518,31,-0.120937966,0.106831595,0.10401507,1.693797,-0.22561416,-0.45551154,0.34667146,0.040270947,-0.007680431,0.013283496,-0.20833040056340435,0.9144579325568601,0.3469367864394385,-0.9438952642659365,-0.09504613951316299,-0.3162719738768867,-0.25624241315096385,-0.39336105672457894,0.882953512227622,-0.00090491184,1.7561784e-05,0.107087545,0.0007039763,0.00011688737,-0.014007822,1.0418589,-0.04523672,-4.147756e-06,0.0047317967,0.8732876888569006,0.0006766851381852386,-0.48720442792343027,-0.0007055917521640181,0.9999997433599418,0.0001241786209841825,0.48720438691708484,0.0002353237650358475,0.8732879421997496,left_images/camera_left_31.png,right_images/camera_right_31.png
2025-05-07 16:13:59,1.5444271564483643,32,-0.11785834,0.10799893,0.10443406,1.6974611,-0.22565547,-0.45232517,0.37333813,0.040300537,-0.007892568,0.012759191,-0.208424431077828,0.9156201597044541,0.34380078486337684,-0.9452266498304086,-0.09828876664914538,-0.31126499771251515,-0.25120875179871016,-0.38984489414814716,0.8859543563448142,-0.00090490986,1.7561457e-05,0.107087545,0.00070398755,0.00011688959,-0.014007878,1.0401634,-0.04523672,-4.147756e-06,0.0047317967,0.8732876888569006,0.0006766851381852386,-0.48720442792343027,-0.0007055917521640181,0.9999997433599418,0.0001241786209841825,0.48720438691708484,0.0002353237650358475,0.8732879421997496,left_images/camera_left_32.png,right_images/camera_right_32.png
2025-05-07 16:13:59,1.592639684677124,33,-0.1146552,0.109321155,0.10483333,1.7017505,-0.2236419,-0.44972774,0.40000468,0.040325996,-0.008113591,0.01225858,-0.20991351634269617,0.9159779076590018,0.3419368192185247,-0.946287518011262,-0.10237051020169313,-0.30669237339251026,-0.24591919183490038,-0.3879494185092723,0.8882674145580188,-0.0009049082,1.756113e-05,0.107087545,0.00070399774,0.00011689182,-0.014007933,1.0408056,-0.04523672,-4.147756e-06,0.0047317967,0.8732876888569006,0.0006766851381852386,-0.48720442792343027,-0.0007055917521640181,0.9999997433599418,0.0001241786209841825,0.48720438691708484,0.0002353237650358475,0.8732879421997496,left_images/camera_left_33.png,right_images/camera_right_33.png
2025-05-07 16:13:59,1.6397674083709717,34,-0.11146694,0.11094358,0.10521475,1.7065377,-0.22024043,-0.44784552,0.4266712,0.04034564,-0.008358796,0.011784892,-0.21242748995401745,0.9157598555384445,0.3409669316752625,-0.9471077093294271,-0.10705662817191008,-0.30253242023496757,-0.24054427542679424,-0.3871986122762692,0.8900649898803625,-0.0009049061,1.7560802e-05,0.107087545,0.0007040091,0.000116894036,-0.014007989,1.0402651,-0.04523672,-4.147756e-06,0.0047317967,0.8732876888569006,0.0006766851381852386,-0.48720442792343027,-0.0007055917521640181,0.9999997433599418,0.0001241786209841825,0.48720438691708484,0.0002353237650358475,0.8732879421997496,left_images/camera_left_34.png,right_images/camera_right_34.png
2025-05-07 16:13:59,1.6905498504638672,35,-0.10764018,0.11325632,0.105589606,1.7121207,-0.21479347,-0.44572812,0.45333862,0.040401086,-0.0086793825,0.0112953335,-0.21574405751040554,0.9149643146281321,0.34102024075708415,-0.9480413108803212,-0.11264715302268874,-0.2975370427025941,-0.23382081710846284,-0.38749312493637317,0.8917269221088793,-0.0009049047,1.7560475e-05,0.107087545,0.0007040195,0.00011689628,-0.014008045,1.0436602,-0.04523672,-4.147756e-06,0.0047317967,0.8732876888569006,0.0006766851381852386,-0.48720442792343027,-0.0007055917521640181,0.9999997433599418,0.0001241786209841825,0.48720438691708484,0.0002353237650358475,0.8732879421997496,left_images/camera_left_35.png,right_images/camera_right_35.png
2025-05-07 16:13:59,1.741396188735962,36,-0.10377205,0.115716614,0.105933234,1.7179985,-0.2089252,-0.44377163,0.48000532,0.040477164,-0.009011889,0.010832638,-0.21944306828888993,0.9139900383471631,0.3412725444305606,-0.9488648685599319,-0.11857548457016054,-0.29256677130476555,-0.22693655719760303,-0.3880232779887091,0.8932736057592859,-0.00090489007,1.7564313e-05,0.10708753,0.00070403086,0.00011689368,-0.014008045,1.0398709,-0.04523675,-4.1440308e-06,0.0047318265,0.8732876888569006,0.0006766851381852386,-0.48720442792343027,-0.0007055917521640181,0.9999997433599418,0.0001241786209841825,0.48720438691708484,0.0002353237650358475,0.8732879421997496,left_images/camera_left_36.png,right_images/camera_right_36.png
2025-05-07 16:13:59,1.7986185550689697,37,-0.099134244,0.1188903,0.10628562,1.725196,-0.20037542,-0.44138873,0.50667274,0.040584344,-0.009425874,0.010338461,-0.22449028441551483,0.9121844691142116,0.34281716192434925,-0.9497367126096941,-0.1260383802876513,-0.28655628315532866,-0.21818407119763067,-0.38991514589880916,0.8946294708281959,-0.00090488663,1.756408e-05,0.10708753,0.0007040412,0.000116896554,-0.014008027,1.0396886,-0.04523675,-4.1440308e-06,0.0047318265,0.8732876888569006,0.0006766851381852386,-0.48720442792343027,-0.0007055917521640181,0.9999997433599418,0.0001241786209841825,0.48720438691708484,0.0002353237650358475,0.8732879421997496,left_images/camera_left_37.png,right_images/camera_right_37.png
2025-05-07 16:13:59,1.8525233268737793,38,-0.09428067,0.12212057,0.10661851,1.7328415,-0.1911841,-0.43934652,0.53333914,0.04071874,-0.00984099,0.009853585,-0.23020670721371833,0.9101347499226548,0.34447004069591297,-0.9503351735928035,-0.134070346984356,-0.28087043256959265,-0.20944672302557782,-0.3920202533578092,0.8957969586748582,-0.00090488326,1.7563649e-05,0.10708753,0.00070405164,0.00011689877,-0.014008082,1.0397453,-0.045236755,-4.14449e-06,0.0047318246,0.8732878720923379,0.000676721784192744,-0.4872040994327358,-0.0007055876043849098,0.9999997433526239,0.0001242610909397815,0.4872040584832692,0.0002352494696745771,0.8732881254517996,left_images/camera_left_38.png,right_images/camera_right_38.png
2025-05-07 16:13:59,1.9003427028656006,39,-0.08886927,0.12558335,0.10691396,1.7411978,-0.18074125,-0.43795535,0.56000626,0.04091456,-0.010270143,0.009379001,-0.2369715881215565,0.9077065050441311,0.34628509515097017,-0.9505547319741459,-0.14298666810370808,-0.27568190775994006,-0.20072410902706098,-0.39449171530612537,0.8967084914341582,-0.00090488704,1.756902e-05,0.10708753,0.00070405507,0.000116861745,-0.01400808,1.0397831,-0.045236755,-4.14449e-06,0.0047318246,0.8732878720923379,0.000676721784192744,-0.4872040994327358,-0.0007055876043849098,0.9999997433526239,0.0001242610909397815,0.4872040584832692,0.0002352494696745771,0.8732881254517996,left_images/camera_left_39.png,right_images/camera_right_39.png
2025-05-07 16:13:59,1.945150375366211,40,-0.083632916,0.12891738,0.10714947,1.749083,-0.17057925,-0.43721202,0.58667296,0.04113706,-0.010670344,0.008964161,-0.24366694509182985,0.9052817633918218,0.3479818224272765,-0.9504625993468994,-0.15149584431264818,-0.27142191584087855,-0.19299551060154294,-0.3968802565336191,0.8973509875525062,-0.00090488815,1.7576609e-05,0.10708753,0.000704059,0.000116855714,-0.014008079,1.0420842,-0.045236755,-4.14449e-06,0.0047318246,0.8732878720923379,0.000676721784192744,-0.4872040994327358,-0.0007055876043849098,0.9999997433526239,0.0001242610909397815,0.4872040584832692,0.0002352494696745771,0.8732881254517996,left_images/camera_left_40.png,right_images/camera_right_40.png
2025-05-07 16:13:59,1.9896559715270996,41,-0.07833689,0.13239585,0.107354656,1.7570508,-0.15996745,-0.43665686,0.6133401,0.041380703,-0.011078273,0.008577832,-0.25063112713779423,0.9026344899088077,0.3499071530230634,-0.950185740253739,-0.16018819892589187,-0.2673701552966097,-0.18528652710894303,-0.3994880706002941,0.8978185698235259,-0.00090488826,1.7584507e-05,0.10708753,0.0007040634,0.0001168497,-0.014008078,1.0404868,-0.045236755,-4.14449e-06,0.0047318246,0.8732878720923379,0.000676721784192744,-0.4872040994327358,-0.0007055876043849098,0.9999997433526239,0.0001242610909397815,0.4872040584832692,0.0002352494696745771,0.8732881254517996,left_images/camera_left_41.png,right_images/camera_right_41.png
2025-05-07 16:13:59,2.0452470779418945,42,-0.07365034,0.13561407,0.10754302,1.7631619,-0.15085302,-0.43584907,0.640007,0.041597422,-0.011454629,0.008232667,-0.2558419906157282,0.9004448367599863,0.3517726137578975,-0.9500697894452595,-0.16695657986037882,-0.2636150519692772,-0.17864005995638654,-0.40165233273766293,0.8981999402055046,-0.0009048884,1.7592407e-05,0.10708753,0.0007040672,0.00011684367,-0.014008077,1.0420966,-0.045236755,-4.13894e-06,0.00473182,0.873287858691843,0.0006765343798206124,-0.4872041237126884,-0.0007055309892899672,0.999999743427715,0.00012397793126744532,0.48720408258494596,0.0002354691852675728,0.8732881119463519,left_images/camera_left_42.png,right_images/camera_right_42.png
2025-05-07 16:13:59,2.100087881088257,43,-0.06936774,0.13884987,0.10774845,1.767228,-0.14267755,-0.43397853,0.6666744,0.041777264,-0.011840213,0.007894282,-0.258876711121816,0.898632261060525,0.35417920297499184,-0.9504502957331494,-0.17164817703367397,-0.25919324578735714,-0.17212519797961223,-0.40372882322453163,0.8985410138208574,-0.00090488745,1.7591861e-05,0.10708753,0.00070406357,0.000116864096,-0.0140081365,1.0426831,-0.045236755,-4.14449e-06,0.0047318246,0.8732878720923379,0.000676721784192744,-0.4872040994327358,-0.0007055876043849098,0.9999997433526239,0.0001242610909397815,0.4872040584832692,0.0002352494696745771,0.8732881254517996,left_images/camera_left_43.png,right_images/camera_right_43.png
2025-05-07 16:13:59,2.1466262340545654,44,-0.06550365,0.14194338,0.10796357,1.7707808,-0.13517374,-0.43193606,0.6933415,0.04192327,-0.012213847,0.007568444,-0.26137779860334104,0.896949585062786,0.3565993385481352,-0.9508824200063655,-0.1757977623333456,-0.25478965850565216,-0.16584411270862032,-0.40568040205842426,0.8988432241862903,-0.00090488757,1.7598393e-05,0.10708753,0.00070406805,0.00011685807,-0.0140081365,1.0398402,-0.045236755,-4.14449e-06,0.0047318246,0.8732878720923379,0.000676721784192744,-0.4872040994327358,-0.0007055876043849098,0.9999997433526239,0.0001242610909397815,0.4872040584832692,0.0002352494696745771,0.8732881254517996,left_images/camera_left_44.png,right_images/camera_right_44.png
2025-05-07 16:14:00,2.20135498046875,45,-0.0619909,0.14489147,0.10817885,1.7735147,-0.12836947,-0.43019292,0.72000825,0.042047545,-0.012568977,0.007259328,-0.2632530701305539,0.8954697947055783,0.35893128567566673,-0.9513015202545476,-0.1791001899255641,-0.25089547530797207,-0.1603846583318494,-0.4075008818868693,0.8990104519043144,-0.0009048877,1.760629e-05,0.10708753,0.0007040717,0.000116852054,-0.014008136,1.0421913,-0.045236815,-4.121542e-06,0.0047317026,0.873287886674053,0.0006768889661750996,-0.4872040730635306,-0.0007055232131815067,0.9999997433409707,0.00012471964001570574,0.4872040324395543,0.00023481763224683538,0.87328814009771,left_images/camera_left_45.png,right_images/camera_right_45.png
2025-05-07 16:14:00,2.253565788269043,46,-0.058385685,0.14804988,0.10840564,1.7757083,-0.12127799,-0.4278978,0.74667555,0.04217065,-0.012951972,0.0069414703,-0.2645133616984844,0.8939586616100832,0.36176040802619036,-0.9519247484757234,-0.18193120368163995,-0.24645549368269415,-0.1545055168024675,-0.4095594565618753,0.8991046083845549,-0.0009048853,1.7600725e-05,0.10708753,0.00070401625,0.00011687884,-0.0140081365,1.0398076,-0.045236755,-4.14449e-06,0.0047318246,0.8732878720923379,0.000676721784192744,-0.4872040994327358,-0.0007055876043849098,0.9999997433526239,0.0001242610909397815,0.4872040584832692,0.0002352494696745771,0.8732881254517996,left_images/camera_left_46.png,right_images/camera_right_46.png
2025-05-07 16:14:00,2.312540054321289,47,-0.054867912,0.15125525,0.10863803,1.7767162,-0.114783466,-0.42551112,0.77334255,0.042290933,-0.013341082,0.0066232756,-0.26461046628778073,0.8927750198372183,0.3646012412014228,-0.9527510667327225,-0.18354579993874254,-0.2420255031283003,-0.14915329688150747,-0.4114167027230443,0.8991604922091914,-0.00090488966,1.7604145e-05,0.10708753,0.00070401956,0.00011684182,-0.014008135,1.0397528,-0.04523682,-4.118955e-06,0.0047317035,0.8732879002260515,0.0006767637495988468,-0.48720404894623054,-0.0007054580046834059,0.9999997434044431,0.0001245794990167305,0.4872040082427252,0.00023490822713575016,0.8732881535726609,left_images/camera_left_47.png,right_images/camera_right_47.png
2025-05-07 16:14:00,2.360579252243042,48,-0.051676486,0.15419428,0.10885204,1.7772386,-0.109047554,-0.42339975,0.80000937,0.0424022,-0.013697925,0.00633322,-0.2643499543304121,0.891801763991151,0.3671630637574817,-0.9535355421179837,-0.18462968306150873,-0.23807950363349134,-0.14453052121704885,-0.41303933695821077,0.8991715267744247,-0.0009048804,1.7615659e-05,0.10708753,0.00070403825,0.00011676558,-0.014008176,1.0398521,-0.04523682,-4.118955e-06,0.0047317035,0.8732879002260515,0.0006767637495988468,-0.48720404894623054,-0.0007054580046834059,0.9999997434044431,0.0001245794990167305,0.4872040082427252,0.00023490822713575016,0.8732881535726609,left_images/camera_left_48.png,right_images/camera_right_48.png
2025-05-07 16:14:00,2.4137744903564453,49,-0.048487272,0.15725,0.109070264,1.7768638,-0.10371542,-0.42143115,0.82667625,0.042517927,-0.014067183,0.0060411496,-0.2632477872486297,0.8910925886458578,0.3696682309438076,-0.9544534908672944,-0.18478910706480117,-0.23424670687424604,-0.14042484210400846,-0.4144960607419779,0.8991517554614721,-0.0009048699,1.762758e-05,0.10708753,0.000704057,0.00011668934,-0.014008217,1.039893,-0.04523682,-4.118955e-06,0.0047317035,0.8732879002260515,0.0006767637495988468,-0.48720404894623054,-0.0007054580046834059,0.9999997434044431,0.0001245794990167305,0.4872040082427252,0.00023490822713575016,0.8732881535726609,left_images/camera_left_49.png,right_images/camera_right_49.png
2025-05-07 16:14:00,2.4635205268859863,50,-0.045615237,0.16002743,0.10927312,1.7761472,-0.099014774,-0.42004913,0.8533429,0.042622216,-0.014400516,0.0057745026,-0.26206114033180344,0.890530066761242,0.37186040246604973,-0.9552424039210224,-0.184567888178574,-0.2311853031758016,-0.13724397429097118,-0.4158015089529126,0.8990401529816676,-0.00090485945,1.7639502e-05,0.10708753,0.0007040756,0.000116613075,-0.014008258,1.042366,-0.04523683,-4.1247304e-06,0.004731735,0.8732878718640624,0.0006770666764745583,-0.4872040993627335,-0.0007059024909615522,0.9999997431125546,0.0001244045740759441,0.4872040584363086,0.00023527758160189692,0.8732881254704254,left_images/camera_left_50.png,right_images/camera_right_50.png
2025-05-07 16:14:00,2.514557123184204,51,-0.042879306,0.16267304,0.109456785,1.7750031,-0.09485287,-0.41906798,0.88000965,0.042732477,-0.014714555,0.0055282377,-0.2605876088816662,0.8901700307224482,0.37375314647629654,-0.9559971482733459,-0.1838746946406261,-0.22860347583544594,-0.13477221742839507,-0.4168781753395261,0.8989154778593044,-0.0009048464,1.7649214e-05,0.10708753,0.00070413464,0.00011658701,-0.014008278,1.0398197,-0.04523683,-4.1247304e-06,0.004731735,0.8732878718640624,0.0006770666764745583,-0.4872040993627335,-0.0007059024909615522,0.9999997431125546,0.0001244045740759441,0.4872040584363086,0.00023527758160189692,0.8732881254704254,left_images/camera_left_51.png,right_images/camera_right_51.png
2025-05-07 16:14:00,2.5601372718811035,52,-0.040558986,0.16497248,0.10961972,1.773103,-0.091639124,-0.4184326,0.9066762,0.042826213,-0.01498625,0.005314038,-0.25855111458844593,0.8900856266007094,0.3753650202987687,-0.9567587624146429,-0.18234143505459766,-0.22663687168029653,-0.13328162546980563,-0.4177309880545764,0.8987418038185795,-0.00090482447,1.7639877e-05,0.10708755,0.00070409314,0.0001166679,-0.014008326,1.0446255,-0.04523683,-4.1247304e-06,0.0047317054,0.8732878718640624,0.0006770666764745583,-0.4872040993627335,-0.0007059024909615522,0.9999997431125546,0.0001244045740759441,0.4872040584363086,0.00023527758160189692,0.8732881254704254,left_images/camera_left_52.png,right_images/camera_right_52.png
2025-05-07 16:14:00,2.6090474128723145,53,-0.038708262,0.16687413,0.10976181,1.7709864,-0.08906399,-0.41738722,0.93334305,0.042892866,-0.015216362,0.005135022,-0.2562276662071694,0.8900635588484547,0.37700695521442396,-0.9575859402549822,-0.18054194468318796,-0.22457464958448511,-0.13182014298281183,-0.41855879804399765,0.8985721910252704,-0.0009048181,1.7627213e-05,0.10708755,0.00070405216,0.000116748786,-0.014008351,1.0420961,-0.04523682,-4.118955e-06,0.0047316737,0.8732879002260515,0.0006767637495988468,-0.48720404894623054,-0.0007054580046834059,0.9999997434044431,0.0001245794990167305,0.4872040082427252,0.00023490822713575016,0.8732881535726609,left_images/camera_left_53.png,right_images/camera_right_53.png
2025-05-07 16:14:00,2.663285255432129,54,-0.037266083,0.16846289,0.10989316,1.7689404,-0.08708524,-0.41660616,0.9600098,0.042934503,-0.015410341,0.0049802717,-0.2540555972127299,0.8900952692840352,0.3783994782277907,-0.9583036074587199,-0.17874515161032783,-0.22294476156080598,-0.1308050054718352,-0.4192619495899693,0.8983927137780734,-0.00090481126,1.7637478e-05,0.10708755,0.0007040707,0.000116672556,-0.014008375,1.0396984,-0.04523682,-4.118955e-06,0.0047316737,0.8732879002260515,0.0006767637495988468,-0.48720404894623054,-0.0007054580046834059,0.9999997434044431,0.0001245794990167305,0.4872040082427252,0.00023490822713575016,0.8732881535726609,left_images/camera_left_54.png,right_images/camera_right_54.png
2025-05-07 16:14:00,2.7141671180725098,55,-0.036083497,0.16977102,0.11000469,1.7672522,-0.08542893,-0.4163162,0.98667645,0.042967517,-0.015567952,0.0048512677,-0.25240675174423044,0.8901034583105335,0.3794821012611196,-0.9588111494276762,-0.17727038420431518,-0.22193780799411505,-0.13027667253620148,-0.4198702709024332,0.8981853618297354,-0.00090493035,1.7465314e-05,0.10708755,0.0007039892,0.000116876305,-0.014008275,1.04201,-0.045236725,-4.1482153e-06,0.004731795,0.8732878720923379,0.000676721784192744,-0.4872040994327358,-0.0007055876043849098,0.9999997433526239,0.0001242610909397815,0.4872040584832692,0.0002352494696745771,0.8732881254517996,left_images/camera_left_55.png,right_images/camera_right_55.png
2025-05-07 16:14:00,2.7606613636016846,56,-0.035117447,0.17079721,0.11009083,1.7662302,-0.08374391,-0.4162329,1.0133423,0.04299325,-0.015689362,0.0047518145,-0.25153756837971275,0.8899268111401664,0.3804722361848707,-0.9591049685115305,-0.17647862191179087,-0.22129834022109476,-0.12979411030596708,-0.4205776584912826,0.8979242296028505,-0.0009049564,1.7441604e-05,0.10708755,0.0007039936,0.00011683926,-0.014008268,1.0400362,-0.045236725,-4.142665e-06,0.00473179,0.873287858691843,0.0006765343798206124,-0.4872041237126884,-0.0007055309892899672,0.999999743427715,0.00012397793126744532,0.48720408258494596,0.0002354691852675728,0.8732881119463519,left_images/camera_left_56.png,right_images/camera_right_56.png
2025-05-07 16:14:00,2.81125545501709,57,-0.034292195,0.17165671,0.11015127,1.7657636,-0.08198831,-0.41648552,1.0238283,0.04301907,-0.015786577,0.0046796603,-0.25135844704565946,0.8895996253495562,0.38135473994264646,-0.9591993245826778,-0.17625728733408053,-0.2210656562692762,-0.12944337302051737,-0.4213619290343641,0.8976071178090727,-0.0009049431,1.7452126e-05,0.107087575,0.00070399,0.000116796735,-0.01400824,1.0446742,-0.045236725,-4.13894e-06,0.0047317604,0.873287858691843,0.0006765343798206124,-0.4872041237126884,-0.0007055309892899672,0.999999743427715,0.00012397793126744532,0.48720408258494596,0.0002354691852675728,0.8732881119463519,left_images/camera_left_57.png,right_images/camera_right_57.png
2025-05-07 16:14:00,2.867299795150757,58,-0.033567473,0.17246294,0.11019062,1.7655693,-0.080413185,-0.4173579,1.0245295,0.043051206,-0.015869647,0.0046292925,-0.25160421103678715,0.8892849607810006,0.38192614406098224,-0.9591174325622328,-0.1762721224094042,-0.22140887384320207,-0.12957264967494822,-0.4220194277400251,0.8972795166870773,-0.00090496056,1.7453924e-05,0.107087545,0.00070398726,0.00011676523,-0.014008184,1.0401437,-0.045236725,-4.142665e-06,0.00473179,0.873287858691843,0.0006765343798206124,-0.4872041237126884,-0.0007055309892899672,0.999999743427715,0.00012397793126744532,0.48720408258494596,0.0002354691852675728,0.8732881119463519,left_images/camera_left_58.png,right_images/camera_right_58.png
2025-05-07 16:14:00,2.9278552532196045,59,-0.033008505,0.17349166,0.11021972,1.7657938,-0.07851472,-0.41833848,1.0245758,0.043071363,-0.01597475,0.004602083,-0.2522444318952321,0.888743059046072,0.38276431596386007,-0.958982291998603,-0.17672770487005857,-0.22163095894858095,-0.12932791736882535,-0.42296937634868026,0.8968674352769481,-0.00090496667,1.7458926e-05,0.107087545,0.0007039835,0.000116728195,-0.014008128,1.0400153,-0.045236725,-4.142665e-06,0.00473179,0.873287858691843,0.0006765343798206124,-0.4872041237126884,-0.0007055309892899672,0.999999743427715,0.00012397793126744532,0.48720408258494596,0.0002354691852675728,0.8732881119463519,left_images/camera_left_59.png,right_images/camera_right_59.png
2025-05-07 16:14:00,2.9855964183807373,60,-0.03262911,0.1744447,0.11024119,1.765759,-0.077190086,-0.41926274,1.0245782,0.04308573,-0.016072007,0.0045864237,-0.252518307645463,0.8883955975646597,0.383389836239307,-0.9589187935799829,-0.1768376883814754,-0.22181789667879953,-0.12926427048098657,-0.42365279911223,0.8965539884364974,-0.0009049533,1.7469456e-05,0.107087575,0.0007039801,0.00011668567,-0.0140081,1.0453933,-0.045236725,-4.13894e-06,0.0047317604,0.873287858691843,0.0006765343798206124,-0.4872041237126884,-0.0007055309892899672,0.999999743427715,0.00012397793126744532,0.48720408258494596,0.0002354691852675728,0.8732881119463519,left_images/camera_left_60.png,right_images/camera_right_60.png
2025-05-07 16:14:00,3.041353940963745,61,-0.032377105,0.17520411,0.1102572,1.7656466,-0.07625088,-0.4203975,1.0245781,0.043095563,-0.016145764,0.004577698,-0.2527890597699818,0.8881559190714532,0.3837665366846763,-0.9588000009060249,-0.17682325306064883,-0.22234229341188438,-0.12961577652128353,-0.4241610550196614,0.8962628798970715,-0.00090497074,1.7471253e-05,0.10708754,0.0007039775,0.000116654155,-0.014008044,1.0403628,-0.04523672,-4.141649e-06,0.004731793,0.8732876473778887,0.0006764598657427816,-0.48720450258514847,-0.0007054972720973154,0.9999997434629411,0.0001238856350959641,0.4872044614027985,0.00023553365271048165,0.8732879005878342,left_images/camera_left_61.png,right_images/camera_right_61.png
2025-05-07 16:14:00,3.0843887329101562,62,-0.032150272,0.17580058,0.110272616,1.7661102,-0.07503383,-0.42093384,1.0245783,0.043098073,-0.016207151,0.00456909,-0.25346634648823396,0.8877213123513666,0.38432497029867013,-0.9586710493654428,-0.1774348754202174,-0.22241107007784572,-0.12924639378515373,-0.4248149439247389,0.8960064916683103,-0.0009049694,1.7474522e-05,0.10708754,0.00070396875,0.000116618605,-0.014008016,1.0397893,-0.04523672,-4.141649e-06,0.004731793,0.8732876473778887,0.0006764598657427816,-0.48720450258514847,-0.0007054972720973154,0.9999997434629411,0.0001238856350959641,0.4872044614027985,0.00023553365271048165,0.8732879005878342,left_images/camera_left_62.png,right_images/camera_right_62.png
2025-05-07 16:14:00,3.134002208709717,63,-0.03194188,0.17625266,0.11028472,1.7665052,-0.073650576,-0.4211904,1.0245783,0.043095745,-0.016253559,0.0045635113,-0.25411921060764353,0.8871937143667905,0.3851113345361391,-0.9585661604259113,-0.1780282756826881,-0.22238895913191148,-0.1287413798530772,-0.4256680000252623,0.8956742772169015,-0.00090496277,1.7474815e-05,0.10708754,0.0007039767,0.00011662083,-0.014008072,1.0424623,-0.045236725,-4.142665e-06,0.00473179,0.873287858691843,0.0006765343798206124,-0.4872041237126884,-0.0007055309892899672,0.999999743427715,0.00012397793126744532,0.48720408258494596,0.0002354691852675728,0.8732881119463519,left_images/camera_left_63.png,right_images/camera_right_63.png
2025-05-07 16:14:01,3.18880033493042,64,-0.031761006,0.17658815,0.110293426,1.7668326,-0.072352245,-0.4219133,1.0245782,0.043093845,-0.016282644,0.00456064,-0.2549310545488268,0.8866862904665364,0.38574289329204287,-0.9583444133860254,-0.17855328388358527,-0.22292310366174012,-0.12878719951306578,-0.4265045686895758,0.895269629848182,-0.0009049622,1.7473545e-05,0.10708754,0.0007039736,0.00011664125,-0.014008128,1.0401349,-0.045236725,-4.142665e-06,0.00473179,0.873287858691843,0.0006765343798206124,-0.4872041237126884,-0.0007055309892899672,0.999999743427715,0.00012397793126744532,0.48720408258494596,0.0002354691852675728,0.8732881119463519,left_images/camera_left_64.png,right_images/camera_right_64.png
2025-05-07 16:14:01,3.246236801147461,65,-0.03145716,0.17688145,0.11029745,1.7674167,-0.069755375,-0.42289567,1.0245782,0.043086987,-0.016300106,0.004563908,-0.25652170767071536,0.8856125850008778,0.3871523766965186,-0.957920055377079,-0.17957617277663473,-0.22392312448085855,-0.12878579502442764,-0.4283021684032889,0.8944112429643127,-0.0009049651,1.7478267e-05,0.10708754,0.00070396956,0.00011660422,-0.014008072,1.042176,-0.045236725,-4.142665e-06,0.00473179,0.873287858691843,0.0006765343798206124,-0.4872041237126884,-0.0007055309892899672,0.999999743427715,0.00012397793126744532,0.48720408258494596,0.0002354691852675728,0.8732881119463519,left_images/camera_left_65.png,right_images/camera_right_65.png
2025-05-07 16:14:01,3.3024611473083496,66,-0.030885287,0.17732875,0.11031438,1.7688946,-0.065306924,-0.4239974,1.0245786,0.043074716,-0.016331697,0.004555828,-0.25941780899745126,0.883743197561814,0.3894873054904128,-0.9572316211888774,-0.18179405042928054,-0.22507453570901698,-0.1281016150213386,-0.4312179077818273,0.8931075479678737,-0.00090496533,1.7477407e-05,0.10708754,0.00070396636,0.00011662464,-0.014008128,1.040287,-0.045236725,-4.142665e-06,0.00473179,0.873287858691843,0.0006765343798206124,-0.4872041237126884,-0.0007055309892899672,0.999999743427715,0.00012397793126744532,0.48720408258494596,0.0002354691852675728,0.8732881119463519,left_images/camera_left_66.png,right_images/camera_right_66.png
2025-05-07 16:14:01,3.3645265102386475,67,-0.029971788,0.17806514,0.110364094,1.7707609,-0.058442686,-0.42579097,1.0245787,0.043046493,-0.016387431,0.0045239255,-0.2635809149643733,0.8808797293612308,0.3931615490698812,-0.956203874334563,-0.18481417107568143,-0.22697548959563943,-0.1272762820564588,-0.43576900368210403,0.8910140983485005,-0.0009049681,1.7482129e-05,0.10708754,0.0007039631,0.000116587624,-0.014008072,1.0397847,-0.045236725,-4.142665e-06,0.00473179,0.873287858691843,0.0006765343798206124,-0.4872041237126884,-0.0007055309892899672,0.999999743427715,0.00012397793126744532,0.48720408258494596,0.0002354691852675728,0.8732881119463519,left_images/camera_left_67.png,right_images/camera_right_67.png
2025-05-07 16:14:01,3.420086622238159,68,-0.02890888,0.17897727,0.11044651,1.7729325,-0.050157752,-0.42785677,1.0245788,0.042997397,-0.016461672,0.0044695884,-0.26850933287531736,0.8773704390958712,0.39764789796951083,-0.954977023758617,-0.18838177812323037,-0.22919683628764137,-0.12618091080661112,-0.4412860957155215,0.8884508762313006,-0.00090496836,1.7481265e-05,0.10708754,0.00070395914,0.00011660803,-0.014008128,1.0422213,-0.045236725,-4.142665e-06,0.00473179,0.873287858691843,0.0006765343798206124,-0.4872041237126884,-0.0007055309892899672,0.999999743427715,0.00012397793126744532,0.48720408258494596,0.0002354691852675728,0.8732881119463519,left_images/camera_left_68.png,right_images/camera_right_68.png
2025-05-07 16:14:01,3.474591016769409,69,-0.027987767,0.17984821,0.110541604,1.7746,-0.042844325,-0.42947972,1.0245788,0.042940818,-0.016539177,0.004406032,-0.27256443706009376,0.8742514923667923,0.40173742138933327,-0.9539735980892217,-0.1912871265405332,-0.2309623548731919,-0.1250719864670678,-0.4461990176079533,0.8861509097703839,-0.00090497115,1.7485987e-05,0.10708754,0.00070395623,0.00011657101,-0.014008072,1.0402211,-0.045236725,-4.142665e-06,0.00473179,0.873287858691843,0.0006765343798206124,-0.4872041237126884,-0.0007055309892899672,0.999999743427715,0.00012397793126744532,0.48720408258494596,0.0002354691852675728,0.8732881119463519,left_images/camera_left_69.png,right_images/camera_right_69.png
2025-05-07 16:14:01,3.5267586708068848,70,-0.027187718,0.18076912,0.11066065,1.7750356,-0.03714352,-0.43042037,1.0245788,0.042880494,-0.016636146,0.004318876,-0.274797297217797,0.871926266891558,0.4052542788748139,-0.9534574922199613,-0.19270368323421305,-0.23191399482909775,-0.12411791156564167,-0.45012206741340705,0.8842990831478138,-0.0009049714,1.7485123e-05,0.10708754,0.000703952,0.000116591415,-0.014008128,1.042182,-0.045236725,-4.142665e-06,0.00473179,0.873287858691843,0.0006765343798206124,-0.4872041237126884,-0.0007055309892899672,0.999999743427715,0.00012397793126744532,0.48720408258494596,0.0002354691852675728,0.8732881119463519,left_images/camera_left_70.png,right_images/camera_right_70.png
2025-05-07 16:14:01,3.582923412322998,71,-0.026457353,0.18180005,0.11080143,1.7746462,-0.03255435,-0.4309768,1.0245788,0.042816967,-0.016755454,0.004211466,-0.2757854677579052,0.8701677779104472,0.4083508467726596,-0.9532809588209022,-0.19311463773635767,-0.23229754678312212,-0.12327931425448041,-0.4533373743453655,0.8827725843605447,-0.0009049742,1.7489845e-05,0.10708754,0.00070394896,0.0001165544,-0.014008072,1.0397387,-0.045236725,-4.142665e-06,0.00473179,0.873287858691843,0.0006765343798206124,-0.4872041237126884,-0.0007055309892899672,0.999999743427715,0.00012397793126744532,0.48720408258494596,0.0002354691852675728,0.8732881119463519,left_images/camera_left_71.png,right_images/camera_right_71.png
2025-05-07 16:14:01,3.639331817626953,72,-0.025823168,0.1829192,0.110949025,1.7738786,-0.029601073,-0.43178275,1.0245788,0.042766135,-0.016889276,0.0040932614,-0.27595749135197717,0.869191001710795,0.4103102064435008,-0.9532630311318914,-0.19285419485839422,-0.23258730189492127,-0.12303274541341491,-0.45531775944993114,0.8817872087332252,-0.0009049744,1.7488981e-05,0.10708754,0.00070394506,0.0001165748,-0.014008128,1.0398514,-0.045236725,-4.142665e-06,0.00473179,0.873287858691843,0.0006765343798206124,-0.4872041237126884,-0.0007055309892899672,0.999999743427715,0.00012397793126744532,0.48720408258494596,0.0002354691852675728,0.8732881119463519,left_images/camera_left_72.png,right_images/camera_right_72.png
2025-05-07 16:14:01,3.695288896560669,73,-0.025296085,0.18429878,0.11113565,1.7728363,-0.027686393,-0.43288276,1.0245789,0.04270336,-0.017060114,0.0039449073,-0.2755450961425829,0.8687156877986526,0.4115919748540887,-0.9533713768830068,-0.19212150965169456,-0.23274952904217408,-0.12311749563719485,-0.4565329991377053,0.881146811244504,-0.0009049773,1.7493701e-05,0.10708756,0.0007039416,0.00011653779,-0.014008072,1.0449704,-0.045236725,-4.142665e-06,0.00473179,0.873287858691843,0.0006765343798206124,-0.4872041237126884,-0.0007055309892899672,0.999999743427715,0.00012397793126744532,0.48720408258494596,0.0002354691852675728,0.8732881119463519,left_images/camera_left_73.png,right_images/camera_right_73.png
2025-05-07 16:14:01,3.753211736679077,74,-0.024941491,0.18570918,0.111346856,1.7706815,-0.027417503,-0.43421477,1.024579,0.04263391,-0.017241163,0.003775525,-0.2737723402448914,0.869050902155087,0.4120670275334648,-0.953750133988601,-0.19000780831114483,-0.2329328544828344,-0.12413455455094499,-0.4567795554140148,0.8808762967194734,-0.00090496417,1.7497598e-05,0.10708753,0.0007039386,0.00011655271,-0.014008149,1.040129,-0.045236755,-4.13894e-06,0.00473182,0.873287858691843,0.0006765343798206124,-0.4872041237126884,-0.0007055309892899672,0.999999743427715,0.00012397793126744532,0.48720408258494596,0.0002354691852675728,0.8732881119463519,left_images/camera_left_74.png,right_images/camera_right_74.png
2025-05-07 16:14:01,3.818387746810913,75,-0.024696538,0.18705417,0.11155964,1.7682822,-0.02797819,-0.43646786,1.0245789,0.04256684,-0.01741035,0.0036052437,-0.27193172066550914,0.8697457422775503,0.4118197215845414,-0.9539988702066686,-0.18750440522599704,-0.23394070544743958,-0.12625092055227194,-0.4564914476865024,0.8807248510453112,-0.0009049644,1.7503093e-05,0.10708753,0.000703935,0.00011651569,-0.0140081,1.039877,-0.045236755,-4.13894e-06,0.00473182,0.873287858691843,0.0006765343798206124,-0.4872041237126884,-0.0007055309892899672,0.999999743427715,0.00012397793126744532,0.48720408258494596,0.0002354691852675728,0.8732881119463519,left_images/camera_left_75.png,right_images/camera_right_75.png
2025-05-07 16:14:01,3.8705782890319824,76,-0.024518566,0.18835132,0.11176942,1.7665488,-0.028953284,-0.43888602,1.024579,0.04250362,-0.017574742,0.0034366818,-0.2705539008090692,0.8705522634019841,0.4110223150179058,-0.9541144568605003,-0.1855643805483474,-0.2350137525369534,-0.1283206529237932,-0.4557462203435047,0.8808116669730373,-0.0009049629,1.750886e-05,0.107087575,0.00070393237,0.00011647866,-0.014008076,1.0471976,-0.045236725,-4.13894e-06,0.0047317604,0.873287858691843,0.0006765343798206124,-0.4872041237126884,-0.0007055309892899672,0.999999743427715,0.00012397793126744532,0.48720408258494596,0.0002354691852675728,0.8732881119463519,left_images/camera_left_76.png,right_images/camera_right_76.png
2025-05-07 16:14:01,3.917970657348633,77,-0.024419487,0.18944567,0.111954436,1.7652035,-0.030067591,-0.44125438,1.024579,0.04244702,-0.017713627,0.0032888027,-0.26951283078970106,0.8713380098060496,0.41004012816668906,-0.9541343132403862,-0.1839819248219921,-0.2361744347639929,-0.13034778991996238,-0.4548853965627251,0.8809589829594531,-0.0009049672,1.7508168e-05,0.10708752,0.00070389523,0.00011654857,-0.014008076,1.0402765,-0.045236755,-4.13894e-06,0.00473182,0.873287858691843,0.0006765343798206124,-0.4872041237126884,-0.0007055309892899672,0.999999743427715,0.00012397793126744532,0.48720408258494596,0.0002354691852675728,0.8732881119463519,left_images/camera_left_77.png,right_images/camera_right_77.png
2025-05-07 16:14:01,3.969954252243042,78,-0.024396313,0.1903507,0.112110704,1.7638286,-0.03148511,-0.4436446,1.024579,0.042400602,-0.017826602,0.0031643752,-0.26844367936257435,0.8722157892598464,0.40887358434619636,-0.9541253772172328,-0.18232151853876982,-0.23749448083648145,-0.1325999832592609,-0.4538705551625262,0.8811462782058967,-0.0009049672,1.7506312e-05,0.10708752,0.0007038916,0.000116569,-0.014008136,1.039887,-0.045236755,-4.13894e-06,0.00473182,0.873287858691843,0.0006765343798206124,-0.4872041237126884,-0.0007055309892899672,0.999999743427715,0.00012397793126744532,0.48720408258494596,0.0002354691852675728,0.8732881119463519,left_images/camera_left_78.png,right_images/camera_right_78.png
2025-05-07 16:14:01,4.0322301387786865,79,-0.024425969,0.19116603,0.11225258,1.7624873,-0.033046827,-0.4459105,1.024579,0.042357817,-0.017928284,0.0030521927,-0.26734222321586487,0.8731238598930732,0.4076553212843167,-0.9541240156491736,-0.18066839860912332,-0.23875990556521454,-0.1348165362538806,-0.4527843361131607,0.8813687347092988,-0.0009049695,1.7511034e-05,0.10708752,0.0007038885,0.000116531985,-0.014008087,1.0393121,-0.045236755,-4.13894e-06,0.00473182,0.873287858691843,0.0006765343798206124,-0.4872041237126884,-0.0007055309892899672,0.999999743427715,0.00012397793126744532,0.48720408258494596,0.0002354691852675728,0.8732881119463519,left_images/camera_left_79.png,right_images/camera_right_79.png
2025-05-07 16:14:01,4.0888261795043945,80,-0.024477754,0.19211273,0.11239777,1.76125,-0.034323905,-0.44777235,1.0245793,0.042307235,-0.018048726,0.00294259,-0.26619756518604665,0.8738853508276343,0.40677174176420283,-0.9542098266976775,-0.1791598765282949,-0.23955238524371836,-0.13646414519062935,-0.45191385490072,0.8815619120777407,-0.000904973,1.75168e-05,0.10708752,0.0007038846,0.00011649496,-0.014008039,1.0395486,-0.04523675,-4.1379235e-06,0.0047318228,0.8732876473778887,0.0006764598657427816,-0.48720450258514847,-0.0007054972720973154,0.9999997434629411,0.0001238856350959641,0.4872044614027985,0.00023553365271048165,0.8732879005878342,left_images/camera_left_80.png,right_images/camera_right_80.png
2025-05-07 16:14:01,4.142506122589111,81,-0.024479153,0.19319071,0.11255024,1.7600024,-0.035952903,-0.44971165,1.0245794,0.042264715,-0.018185992,0.0028235372,-0.26486701323069,0.8748472306846138,0.4055709411012034,-0.954336021924949,-0.1775598958579056,-0.24023996470069883,-0.13816013375325328,-0.45068260044780073,0.8819279852090482,-0.0009049682,1.7520846e-05,0.10708752,0.0007038764,0.00011645942,-0.014008011,1.0400102,-0.045236755,-4.1315548e-06,0.0047318228,0.8732877451438802,0.0006764048758628464,-0.4872043274212178,-0.0007056546083287486,0.9999997434007832,0.00012349065300495095,0.4872042859346488,0.00023595510493345192,0.8732879983671465,left_images/camera_left_81.png,right_images/camera_right_81.png
2025-05-07 16:14:02,4.195878744125366,82,-0.024559284,0.19411641,0.112676986,1.7593043,-0.03755586,-0.4517066,1.0245793,0.042227756,-0.018301079,0.002727801,-0.26407496684671206,0.8757084715877641,0.40422652643577184,-0.9543219616685907,-0.17650160032599016,-0.24107421794828415,-0.13976410612857762,-0.44942391777895646,0.8823174807099161,-0.0009049647,1.7515198e-05,0.10708752,0.00070387265,0.00011645151,-0.014008067,1.042305,-0.04523676,-4.1328485e-06,0.004731817,0.8732879429580794,0.0006765142294382407,-0.48720397269782545,-0.0007056931624738197,0.9999997433544051,0.0001236458012932966,0.48720393130721606,0.00023583812479611055,0.873288196244042,left_images/camera_left_82.png,right_images/camera_right_82.png
2025-05-07 16:14:02,4.244316816329956,83,-0.024668813,0.19479905,0.112770684,1.7586793,-0.039301846,-0.45370355,1.0245793,0.042205196,-0.018383374,0.0026563192,-0.2634049162743528,0.8765947725823398,0.40273993440409817,-0.9542427639653608,-0.17549963748716646,-0.24211696483646455,-0.14155775323962252,-0.4480864670163441,0.8827116859850452,-0.0009049644,1.752589e-05,0.10708752,0.00070393196,0.00011637515,-0.0140081225,1.0397465,-0.04523676,-4.1328485e-06,0.004731817,0.8732879429580794,0.0006765142294382407,-0.48720397269782545,-0.0007056931624738197,0.9999997433544051,0.0001236458012932966,0.48720393130721606,0.00023583812479611055,0.873288196244042,left_images/camera_left_83.png,right_images/camera_right_83.png
2025-05-07 16:14:02,4.291040897369385,84,-0.024762206,0.19530089,0.112838544,1.7581584,-0.040670764,-0.45557895,1.024579,0.042189945,-0.018440096,0.002605604,-0.2629938044360879,0.8772829304249045,0.4015083047874916,-0.9540995238339774,-0.17468505214938046,-0.24326781779624265,-0.14327720491414714,-0.44705681131223207,0.8829563126289596,-0.0009049768,1.7533133e-05,0.10708755,0.0007039911,0.00011630428,-0.01400815,1.0447235,-0.04523673,-4.136574e-06,0.0047317874,0.8732879429580794,0.0006765142294382407,-0.48720397269782545,-0.0007056931624738197,0.9999997433544051,0.0001236458012932966,0.48720393130721606,0.00023583812479611055,0.873288196244042,left_images/camera_left_84.png,right_images/camera_right_84.png
2025-05-07 16:14:02,4.342085361480713,85,-0.024755822,0.19552024,0.11288228,1.7581761,-0.041646972,-0.4567772,1.024579,0.04218838,-0.018465914,0.0025658896,-0.26300041115662953,0.877769127935071,0.400439935290611,-0.9539371270909207,-0.17448862166267842,-0.2440444190465728,-0.1443424445163804,-0.44617830399332914,0.8832271393909226,-0.0009049658,1.7549113e-05,0.107087515,0.00070405117,0.000116222334,-0.01400821,1.0397356,-0.04523676,-4.1328485e-06,0.004731817,0.8732879429580794,0.0006765142294382407,-0.48720397269782545,-0.0007056931624738197,0.9999997433544051,0.0001236458012932966,0.48720393130721606,0.00023583812479611055,0.873288196244042,left_images/camera_left_85.png,right_images/camera_right_85.png
2025-05-07 16:14:02,4.394145727157593,86,-0.024618467,0.19536851,0.1129093,1.7575654,-0.04297691,-0.45703185,1.0245793,0.042205304,-0.018454894,0.0025240267,-0.26217223009119067,0.8784841767308939,0.3994136615120414,-0.9540265277813941,-0.17364416399329713,-0.24429713178923315,-0.14525531335682293,-0.4450991524868506,0.8836218865539143,-0.0009049619,1.7553395e-05,0.10708755,0.00070404314,0.00011618897,-0.014008266,1.0448942,-0.04523673,-4.136574e-06,0.0047317874,0.8732879429580794,0.0006765142294382407,-0.48720397269782545,-0.0007056931624738197,0.9999997433544051,0.0001236458012932966,0.48720393130721606,0.00023583812479611055,0.873288196244042,left_images/camera_left_86.png,right_images/camera_right_86.png
2025-05-07 16:14:02,4.453479766845703,87,-0.024399161,0.19500083,0.11292925,1.7565814,-0.044474307,-0.45617232,1.0245795,0.04223041,-0.018427769,0.0024777688,-0.26064151356898946,0.8793149477693901,0.39858653267989513,-0.9543969547132894,-0.17242304096663874,-0.24371448003312476,-0.14557628322795507,-0.4439318839339338,0.8841561107566936,-0.00090494787,1.7560295e-05,0.10708755,0.00070403615,0.00011615012,-0.014008322,1.044652,-0.04523673,-4.136574e-06,0.0047317874,0.8732879429580794,0.0006765142294382407,-0.48720397269782545,-0.0007056931624738197,0.9999997433544051,0.0001236458012932966,0.48720393130721606,0.00023583812479611055,0.873288196244042,left_images/camera_left_87.png,right_images/camera_right_87.png
2025-05-07 16:14:02,4.497858285903931,88,-0.024152143,0.1945819,0.11294289,1.7558284,-0.045530573,-0.45538405,1.0245795,0.042255197,-0.018391885,0.0024375403,-0.2595103066131149,0.8799295165410302,0.39796789654623654,-0.9546679502038519,-0.17151845918219932,-0.24329102534483327,-0.14582011389085928,-0.4430637246261909,0.8845513158122732,-0.0009049454,1.7571698e-05,0.10708754,0.0007040955,0.00011607374,-0.014008378,1.0403137,-0.045236744,-4.1289018e-06,0.004731793,0.8732879000976064,0.0006765790228096865,-0.4872040494330266,-0.0007060303064294895,0.9999997431745888,0.00012317452083938753,0.4872040076439433,0.0002364140056655303,0.8732881535003771,left_images/camera_left_88.png,right_images/camera_right_88.png
2025-05-07 16:14:02,4.544916152954102,89,-0.0238334,0.19404845,0.112950325,1.7552311,-0.046221305,-0.4545509,1.0245795,0.042283986,-0.018341448,0.0023992825,-0.25866980036845677,0.880383179327265,0.3975114991229312,-0.9548690644873803,-0.17084700007598064,-0.24297401558609832,-0.14599658921474307,-0.44242147339686766,0.8848436222378544,-0.00090494094,1.7583623e-05,0.10708756,0.00070410623,0.000115997456,-0.014008434,1.0446923,-0.045236744,-4.1289018e-06,0.004731793,0.8732879000976064,0.0006765790228096865,-0.4872040494330266,-0.0007060303064294895,0.9999997431745888,0.00012317452083938753,0.4872040076439433,0.0002364140056655303,0.8732881535003771,left_images/camera_left_89.png,right_images/camera_right_89.png
2025-05-07 16:14:02,4.588770866394043,90,-0.023535881,0.19355108,0.11295424,1.7547721,-0.046696212,-0.45383167,1.0245795,0.042310238,-0.018292833,0.0023671286,-0.2580502190607133,0.8807205310676351,0.3971667541457378,-0.9550154266442274,-0.17034984865775044,-0.24274773723729312,-0.14613561959447913,-0.4419414839299707,0.8850605094949799,-0.000904927,1.75953e-05,0.10708753,0.0007041013,0.000115954535,-0.014008434,1.0399389,-0.045236774,-4.1251765e-06,0.0047318228,0.8732879000976064,0.0006765790228096865,-0.4872040494330266,-0.0007060303064294895,0.9999997431745888,0.00012317452083938753,0.4872040076439433,0.0002364140056655303,0.8732881535003771,left_images/camera_left_90.png,right_images/camera_right_90.png
2025-05-07 16:14:02,4.63844633102417,91,-0.023307515,0.1931309,0.112956464,1.7542828,-0.047315903,-0.4531055,1.0245795,0.042333413,-0.018253192,0.0023407973,-0.2573203363607989,0.8811032510933394,0.3967912617585133,-0.9551981254583284,-0.16978814927952113,-0.24242220501664205,-0.14622853899311536,-0.44139443276618573,0.8853181174622805,-0.0009049496,1.7597455e-05,0.10708759,0.0007040929,0.000115922616,-0.014008378,1.0471976,-0.045236714,-4.1289018e-06,0.004731763,0.8732879000976064,0.0006765790228096865,-0.4872040494330266,-0.0007060303064294895,0.9999997431745888,0.00012317452083938753,0.4872040076439433,0.0002364140056655303,0.8732881535003771,left_images/camera_left_91.png,right_images/camera_right_91.png
2025-05-07 16:14:02,4.685122489929199,92,-0.023047943,0.19268887,0.11295682,1.7541918,-0.047562324,-0.45242983,1.0245795,0.04235637,-0.018209612,0.0023160307,-0.2570685419619102,0.8812996640469225,0.39651817976526527,-0.9552786707991122,-0.16968700341704646,-0.24217551896842232,-0.14614522178251008,-0.4410410672739273,0.8855079622047541,-0.00090493687,1.7607807e-05,0.107087545,0.0007041039,0.00011584635,-0.014008434,1.0403793,-0.04523683,-4.1122257e-06,0.0047317306,0.8732879146378496,0.0006768260802341344,-0.4872040230272458,-0.000706005016283413,0.999999743124249,0.0001237269298503984,0.48720398161795936,0.00023591925165709703,0.8732881681539685,left_images/camera_left_92.png,right_images/camera_right_92.png
2025-05-07 16:14:02,4.739579439163208,93,-0.022633089,0.19206259,0.11296144,1.7541122,-0.047508,-0.45139578,1.0245795,0.04238504,-0.018148508,0.0022774395,-0.256868391613513,0.8814065865819616,0.3964102149539317,-0.9553743356196085,-0.16967223184441232,-0.24180821445998935,-0.1458715470175013,-0.4408330328717115,0.8856566653618376,-0.0009049213,1.7599918e-05,0.107087605,0.0007041004,0.000115907,-0.0140084615,1.0471977,-0.045236714,-4.124938e-06,0.0047317306,0.8732880271684962,0.0006765360286811239,-0.4872038217247045,-0.0007059765280817513,0.9999997432115685,0.00012318254258816727,0.4872037799538275,0.00023638062293094756,0.8732882805367902,left_images/camera_left_93.png,right_images/camera_right_93.png
2025-05-07 16:14:02,4.797097206115723,94,-0.022118095,0.19123355,0.112963386,1.7538497,-0.047601692,-0.45009118,1.0245793,0.042423997,-0.018066283,0.0022315495,-0.2564488230628959,0.881619573693704,0.3962081882417211,-0.9555195341162028,-0.16946779819678565,-0.2413774747085738,-0.14565857706297355,-0.44048563274466185,0.8858645417181594,-0.0009049212,1.7588745e-05,0.10708755,0.0007040903,0.000115954,-0.0140084615,1.0401735,-0.045236744,-4.1286635e-06,0.00473179,0.8732880271684962,0.0006765360286811239,-0.4872038217247045,-0.0007059765280817513,0.9999997432115685,0.00012318254258816727,0.4872037799538275,0.00023638062293094756,0.8732882805367902,left_images/camera_left_94.png,right_images/camera_right_94.png
2025-05-07 16:14:02,4.849113941192627,95,-0.021298414,0.19013673,0.11298622,1.7535617,-0.046953175,-0.44803035,1.0245793,0.042466365,-0.017962119,0.0021508634,-0.25608156580957847,0.8815977244239334,0.3964942420049207,-0.9557270876800678,-0.16940678012677307,-0.24059733315574194,-0.14494124853570994,-0.4405528289974101,0.8859487791826839,-0.0009049221,1.7581488e-05,0.10708755,0.00070407946,0.0001159955,-0.0140084615,1.0399144,-0.045236744,-4.1286635e-06,0.00473179,0.8732880271684962,0.0006765360286811239,-0.4872038217247045,-0.0007059765280817513,0.9999997432115685,0.00012318254258816727,0.4872037799538275,0.00023638062293094756,0.8732882805367902,left_images/camera_left_95.png,right_images/camera_right_95.png
2025-05-07 16:14:02,4.903544187545776,96,-0.020305833,0.18891601,0.113032915,1.7535795,-0.046050683,-0.44525024,1.0245792,0.042507976,-0.017854394,0.002039072,-0.2557974360753861,0.8815038724964188,0.3968861227998232,-0.9560131507383791,-0.16969888715530423,-0.23925121381829717,-0.1435497381137842,-0.4406281998148427,0.8861378347725568,-0.00090491446,1.757976e-05,0.107087605,0.0007040701,0.00011603146,-0.0140084755,1.0471976,-0.0452367,-4.1252238e-06,0.0047317287,0.873288013850896,0.000676307395941665,-0.48720384591325144,-0.0007057178929729337,0.999999743394824,0.00012317687105244967,0.48720380419965176,0.000236259586512448,0.8732882670429021,left_images/camera_left_96.png,right_images/camera_right_96.png
2025-05-07 16:14:02,4.949337005615234,97,-0.0192991,0.18770052,0.11308738,1.753565,-0.045103606,-0.44285694,1.024579,0.042547487,-0.0177449,0.0019209664,-0.25565171254769276,0.8813979474550429,0.397215130745884,-0.9562079349915871,-0.16996533656485863,-0.2382817018268908,-0.14250819952043758,-0.44073738505875826,0.8862516406083609,-0.0009049172,1.7586432e-05,0.10708756,0.0007040627,0.00011596073,-0.0140084755,1.0406538,-0.04523673,-4.128949e-06,0.0047317883,0.873288013850896,0.000676307395941665,-0.48720384591325144,-0.0007057178929729337,0.999999743394824,0.00012317687105244967,0.48720380419965176,0.000236259586512448,0.8732882670429021,left_images/camera_left_97.png,right_images/camera_right_97.png
2025-05-07 16:14:02,4.996286153793335,98,-0.018394433,0.1865953,0.11313366,1.7536058,-0.0441922,-0.4403712,1.0245793,0.04258287,-0.017647324,0.0018171379,-0.2554564578149906,0.8812700668755062,0.39762427917552856,-0.9564465443784826,-0.17026736312680202,-0.23710553093570966,-0.14125156957385268,-0.44087650683959845,0.8863836075931439,-0.0009049208,1.759755e-05,0.10708756,0.00070405507,0.00011588447,-0.0140084755,1.0401521,-0.04523673,-4.128949e-06,0.0047317883,0.873288013850896,0.000676307395941665,-0.48720384591325144,-0.0007057178929729337,0.999999743394824,0.00012317687105244967,0.48720380419965176,0.000236259586512448,0.8732882670429021,left_images/camera_left_98.png,right_images/camera_right_98.png
2025-05-07 16:14:02,5.044415712356567,99,-0.017497336,0.18544868,0.11317021,1.7536055,-0.043317612,-0.43806028,1.024579,0.042623118,-0.017541612,0.0017212545,-0.25530413388364764,0.8811551252793624,0.3979766882819037,-0.9566406552118758,-0.17052329970012353,-0.23613653053937844,-0.14020861606090226,-0.44100731224469836,0.8864841197274735,-0.0009047624,1.7652908e-05,0.10708756,0.0007040649,0.00011569165,-0.014008672,1.039913,-0.04523668,-4.2211987e-06,0.004731646,0.8732879284436623,0.000676249703016316,-0.4872039990814074,-0.0007056602092536603,0.9999997434373705,0.00012316193484618229,0.48720395737129013,0.0002362446449960702,0.873288181593122,left_images/camera_left_99.png,right_images/camera_right_99.png
2025-05-07 16:14:02,5.090759038925171,100,-0.016622975,0.18435588,0.113207415,1.7536291,-0.042404458,-0.43579188,1.024579,0.042660985,-0.017441442,0.0016274685,-0.25517559403279994,0.8810153151382426,0.3983684609778628,-0.9568315101711499,-0.17080304468277324,-0.23515905483457716,-0.13913618276208675,-0.4411783476316102,0.8865679828571735,-0.00090473366,1.7660404e-05,0.10708756,0.0007040579,0.00011569389,-0.014008728,1.0398629,-0.04523668,-4.2211987e-06,0.004731646,0.8732879284436623,0.000676249703016316,-0.4872039990814074,-0.0007056602092536603,0.9999997434373705,0.00012316193484618229,0.48720395737129013,0.0002362446449960702,0.873288181593122,left_images/camera_left_100.png,right_images/camera_right_100.png
2025-05-07 16:14:02,5.1355109214782715,101,-0.015754156,0.18326436,0.1132477,1.7537549,-0.041642774,-0.43376932,1.024579,0.04270024,-0.01734054,0.0015304191,-0.25516684003962314,0.8809375920615257,0.3985459103253154,-0.9569603215363756,-0.17115057826240337,-0.23438093473113725,-0.13826361325088402,-0.44119886497279875,0.8866942735788497,-0.0009047138,1.7664814e-05,0.10708758,0.0007040498,0.00011569065,-0.014008812,1.0448686,-0.04523668,-4.217258e-06,0.0047316123,0.8732880982208644,0.0006762263112532016,-0.487203694796911,-0.0007056367991623443,0.9999997434546557,0.00012315571502461543,0.4872036530882063,0.0002362384355776828,0.8732883513530385,left_images/camera_left_101.png,right_images/camera_right_101.png
2025-05-07 16:14:03,5.187724590301514,102,-0.014647929,0.18204157,0.11331219,1.7539687,-0.03999205,-0.43118668,1.0245788,0.04273478,-0.017231181,0.0014037192,-0.2553620717824413,0.8805298172717344,0.3993212405950696,-0.9571097827155179,-0.1717585082039571,-0.23332354936826583,-0.13686152171166904,-0.44177625078195115,0.8866243105847084,-0.00090472575,1.7670885e-05,0.107087545,0.0007040053,0.000115653726,-0.014008812,1.0399164,-0.04523668,-4.217258e-06,0.004731642,0.8732880982208644,0.0006762263112532016,-0.487203694796911,-0.0007056367991623443,0.9999997434546557,0.00012315571502461543,0.4872036530882063,0.0002362384355776828,0.8732883513530385,left_images/camera_left_102.png,right_images/camera_right_102.png
2025-05-07 16:14:03,5.235044002532959,103,-0.013559257,0.18091586,0.11338331,1.7548674,-0.03794862,-0.4292015,1.0245788,0.04276318,-0.01712853,0.0012764316,-0.256426694234761,0.8798923747993214,0.4000434467077833,-0.9570136590980333,-0.1730898551995474,-0.2327332342550013,-0.13553673591918175,-0.4425260566305789,0.8864538805935498,-0.00090472534,1.7676603e-05,0.107087575,0.0007039601,0.000115616815,-0.014008812,1.0442201,-0.04523668,-4.217258e-06,0.004731642,0.8732880982208644,0.0006762263112532016,-0.487203694796911,-0.0007056367991623443,0.9999997434546557,0.00012315571502461543,0.4872036530882063,0.0002362384355776828,0.8732883513530385,left_images/camera_left_103.png,right_images/camera_right_103.png
2025-05-07 16:14:03,5.281713962554932,104,-0.012677566,0.17992383,0.11344809,1.7554243,-0.03644542,-0.42772114,1.0245788,0.04278396,-0.017035922,0.0011655549,-0.25718727055191365,0.8794493876189186,0.400529003297846,-0.9569209910627646,-0.1739768545642531,-0.2324527283973774,-0.13474763348390573,-0.44305849353402293,0.8863082119544246,-0.00090472185,1.7677556e-05,0.10708755,0.00070391555,0.000115585426,-0.014008812,1.0400791,-0.04523668,-4.220983e-06,0.004731642,0.8732880982208644,0.0006762263112532016,-0.487203694796911,-0.0007056367991623443,0.9999997434546557,0.00012315571502461543,0.4872036530882063,0.0002362384355776828,0.8732883513530385,left_images/camera_left_104.png,right_images/camera_right_104.png
2025-05-07 16:14:03,5.332205772399902,105,-0.011992772,0.17914586,0.113485165,1.7561166,-0.03553909,-0.42647386,1.0245788,0.042811655,-0.016963076,0.0010881126,-0.25784977793727304,0.8792090614894927,0.40063065061533243,-0.9568489778073956,-0.17486683490405563,-0.2320810714375045,-0.13399076716938854,-0.4431850812531975,0.8863596663138252,-0.00090471836,1.7687255e-05,0.107087575,0.00070387055,0.00011554297,-0.014008812,1.0445739,-0.04523668,-4.217258e-06,0.004731642,0.8732880982208644,0.0006762263112532016,-0.487203694796911,-0.0007056367991623443,0.9999997434546557,0.00012315571502461543,0.4872036530882063,0.0002362384355776828,0.8732883513530385,left_images/camera_left_105.png,right_images/camera_right_105.png
2025-05-07 16:14:03,5.378857135772705,106,-0.011449355,0.17856322,0.11348287,1.7568064,-0.034522872,-0.42547783,1.0245788,0.042845756,-0.016902613,0.0010558525,-0.2585735522434043,0.8788708303420267,0.4009062005683423,-0.9567581708328712,-0.1757595837115824,-0.23178086909421497,-0.1332423379589453,-0.44350268579507807,0.8863136279375301,-0.00090471486,1.769374e-05,0.107087545,0.000703826,0.00011550605,-0.014008812,1.040034,-0.04523668,-4.217258e-06,0.004731642,0.8732880982208644,0.0006762263112532016,-0.487203694796911,-0.0007056367991623443,0.9999997434546557,0.00012315571502461543,0.4872036530882063,0.0002362384355776828,0.8732883513530385,left_images/camera_left_106.png,right_images/camera_right_106.png
2025-05-07 16:14:03,5.427663803100586,107,-0.010947009,0.17802447,0.11347519,1.7573478,-0.033606876,-0.42433447,1.0245788,0.042879537,-0.016847918,0.0010306379,-0.25906893741425335,0.878574637197809,0.40123545772998215,-0.9567411328367362,-0.17648694092704614,-0.23129799917096616,-0.13239973717998296,-0.4438005932341146,0.886290777927718,-0.0009046946,1.7694696e-05,0.10708759,0.0007037801,0.00011547468,-0.01400884,1.0467324,-0.04523668,-4.220983e-06,0.0047316123,0.8732880982208644,0.0006762263112532016,-0.487203694796911,-0.0007056367991623443,0.9999997434546557,0.00012315571502461543,0.4872036530882063,0.0002362384355776828,0.8732883513530385,left_images/camera_left_107.png,right_images/camera_right_107.png
2025-05-07 16:14:03,5.474365472793579,108,-0.010424539,0.17746347,0.11347689,1.75786,-0.032532718,-0.42357817,1.0245786,0.042908818,-0.016788078,0.0009978414,-0.2597607527759461,0.8782119358168281,0.40158205525911284,-0.9566214082543332,-0.17721488552069575,-0.23123660095102405,-0.13190842500299285,-0.44422818476403103,0.8861498108528172,-0.00090469315,1.769963e-05,0.10708754,0.0007037357,0.00011543776,-0.01400884,1.0399022,-0.04523671,-4.220983e-06,0.004731672,0.8732880982208644,0.0006762263112532016,-0.487203694796911,-0.0007056367991623443,0.9999997434546557,0.00012315571502461543,0.4872036530882063,0.0002362384355776828,0.8732883513530385,left_images/camera_left_108.png,right_images/camera_right_108.png
2025-05-07 16:14:03,5.518922567367554,109,-0.009882133,0.17684641,0.11341842,1.7582585,-0.031534497,-0.42248043,1.0245783,0.042969845,-0.016714282,0.0010134187,-0.26022212386340293,0.8778961267548262,0.4019736768507287,-0.9565893434551234,-0.17782123413673123,-0.2309035224464665,-0.13122985270172283,-0.44460994064344095,0.8860590987292666,-0.00090470165,1.7710101e-05,0.107087575,0.00070369017,0.0001153953,-0.01400884,1.0449054,-0.04523671,-4.226833e-06,0.004731673,0.8732881266003936,0.0006758629831481467,-0.4872036444321847,-0.000705202689875747,0.9999997437569005,0.00012318806464947483,0.48720360284786574,0.0002359986463735756,0.8732883794467311,left_images/camera_left_109.png,right_images/camera_right_109.png
2025-05-07 16:14:03,5.564696550369263,110,-0.009356769,0.17617579,0.11330848,1.758413,-0.030870786,-0.42103782,1.0245788,0.043057833,-0.016629426,0.0010702815,-0.26025992608152976,0.8777436645325977,0.4022820282450152,-0.9566853077983765,-0.1781336419816993,-0.2302642556652278,-0.13045302878339865,-0.4447858641719882,0.8860855163662338,-0.00090469356,1.7720959e-05,0.10708754,0.0007036255,0.00011536947,-0.014008917,1.0397813,-0.04523674,-4.2305583e-06,0.0047317026,0.8732881266003936,0.0006758629831481467,-0.4872036444321847,-0.000705202689875747,0.9999997437569005,0.00012318806464947483,0.48720360284786574,0.0002359986463735756,0.8732883794467311,left_images/camera_left_110.png,right_images/camera_right_110.png
2025-05-07 16:14:03,5.614161252975464,111,-0.008806913,0.17555317,0.11330657,1.7589282,-0.030241907,-0.42013636,1.0245793,0.04309779,-0.016564868,0.0010346137,-0.2607597160177693,0.8775961324043814,0.40228024919352434,-0.9566145086573713,-0.1787841683137748,-0.2300541305575015,-0.12997327543979365,-0.44481597267771705,0.8861409019575996,-0.000904681,1.7722257e-05,0.10708754,0.000703643,0.00011537166,-0.014009019,1.0399572,-0.04523674,-4.2305583e-06,0.0047317026,0.8732881266003936,0.0006758629831481467,-0.4872036444321847,-0.000705202689875747,0.9999997437569005,0.00012318806464947483,0.48720360284786574,0.0002359986463735756,0.8732883794467311,left_images/camera_left_111.png,right_images/camera_right_111.png
2025-05-07 16:14:03,5.671605110168457,112,-0.008263961,0.1750691,0.11330585,1.7595185,-0.029381486,-0.41934383,1.0245798,0.04313455,-0.01651435,0.0010024039,-0.2613790507707668,0.8773418974645127,0.40243283510610967,-0.9565231424491637,-0.1795397285065699,-0.22984552170308623,-0.12940042417762637,-0.4450131243470865,0.8861257525777562,-0.00090466795,1.772193e-05,0.10708754,0.00070366095,0.00011537385,-0.014009122,1.0396942,-0.04523674,-4.2305583e-06,0.0047317026,0.8732881266003936,0.0006758629831481467,-0.4872036444321847,-0.000705202689875747,0.9999997437569005,0.00012318806464947483,0.48720360284786574,0.0002359986463735756,0.8732883794467311,left_images/camera_left_112.png,right_images/camera_right_112.png
2025-05-07 16:14:03,5.724060535430908,113,-0.007835667,0.17468311,0.11332039,1.7600604,-0.029201997,-0.41867572,1.0245798,0.04316377,-0.016478855,0.0009598704,-0.26173417409118743,0.8773715635629721,0.40213724219956304,-0.9564838905842531,-0.18011976470671526,-0.22955486798325203,-0.12897204800116482,-0.44472014774806806,0.8863352644577118,-0.0009046549,1.7721602e-05,0.10708754,0.0007036789,0.00011537603,-0.014009224,1.0398141,-0.045236744,-4.229357e-06,0.0047317017,0.8732882671232525,0.0006758687094315675,-0.48720339254397094,-0.0007051976305284881,0.9999997437579206,0.00012320874694340158,0.4872033509748973,0.00023597792489481867,0.8732885199710633,left_images/camera_left_113.png,right_images/camera_right_113.png
2025-05-07 16:14:03,5.77045464515686,114,-0.007555328,0.17447007,0.11333755,1.7607126,-0.029348314,-0.41846246,1.0245796,0.043185085,-0.016460678,0.00092383847,-0.26217779388700774,0.8774964374430411,0.4015754059542398,-0.9563887155621854,-0.18073665423620583,-0.22946652601374168,-0.1287766637937738,-0.4442232142631371,0.8866128279987111,-0.00090466044,1.7721275e-05,0.10708755,0.0007036816,0.00011537824,-0.014009252,1.0444534,-0.045236714,-4.229357e-06,0.004731672,0.8732882671232525,0.0006758687094315675,-0.48720339254397094,-0.0007051976305284881,0.9999997437579206,0.00012320874694340158,0.4872033509748973,0.00023597792489481867,0.8732885199710633,left_images/camera_left_114.png,right_images/camera_right_114.png
2025-05-07 16:14:03,5.818928480148315,115,-0.0073869615,0.17439203,0.1133562,1.7614464,-0.029737707,-0.41860095,1.0245794,0.043200493,-0.01645592,0.0008932892,-0.2626905845879896,0.8776918482232048,0.40081252017789437,-0.956250052193423,-0.18138164467288814,-0.2295354801677379,-0.128761385705871,-0.4435738028088369,0.8869401259458334,-0.0009046428,1.7725697e-05,0.10708752,0.00070368475,0.00011537499,-0.014009308,1.0401292,-0.045236744,-4.2256315e-06,0.0047317017,0.8732882671232525,0.0006758687094315675,-0.48720339254397094,-0.0007051976305284881,0.9999997437579206,0.00012320874694340158,0.4872033509748973,0.00023597792489481867,0.8732885199710633,left_images/camera_left_115.png,right_images/camera_right_115.png
2025-05-07 16:14:03,5.865168333053589,116,-0.007269224,0.17428952,0.113367565,1.7621553,-0.0304107,-0.41917482,1.0245798,0.04321979,-0.016444132,0.0008698404,-0.26327407379818407,0.8779978167711965,0.39975817166222005,-0.9560302074599109,-0.18195267526936393,-0.2299988399676861,-0.1292014105568056,-0.4427336193551762,0.8872958569737592,-0.00090464635,1.7721368e-05,0.10708755,0.00070368714,0.00011538273,-0.014009336,1.0447834,-0.045236714,-4.229357e-06,0.004731672,0.8732882671232525,0.0006758687094315675,-0.48720339254397094,-0.0007051976305284881,0.9999997437579206,0.00012320874694340158,0.4872033509748973,0.00023597792489481867,0.8732885199710633,left_images/camera_left_116.png,right_images/camera_right_116.png
2025-05-07 16:14:03,5.910847425460815,117,-0.007225036,0.1741116,0.11333401,1.7626725,-0.030828929,-0.41968057,1.0245795,0.043248802,-0.016415304,0.0008896552,-0.2638151557798846,0.878158068855348,0.3990488312037527,-0.9558188223784317,-0.1823888505269226,-0.2305313123863565,-0.12966087446852734,-0.4422360380020084,0.8874769542497107,-0.0009046287,1.7725013e-05,0.10708753,0.0007036903,0.00011537948,-0.014009392,1.0405626,-0.045236744,-4.2256315e-06,0.0047317017,0.8732882671232525,0.0006758687094315675,-0.48720339254397094,-0.0007051976305284881,0.9999997437579206,0.00012320874694340158,0.4872033509748973,0.00023597792489481867,0.8732885199710633,left_images/camera_left_117.png,right_images/camera_right_117.png
2025-05-07 16:14:03,5.967424154281616,118,-0.007218137,0.17381193,0.1133062,1.762739,-0.03195048,-0.41983578,1.02458,0.04327876,-0.01637864,0.00090006646,-0.26367210966522736,0.8786571133275933,0.39804358528119643,-0.9557821764388008,-0.18227162908138606,-0.23077583156372022,-0.1302207732529541,-0.44129211462571866,0.8878647530916881,-0.00090463227,1.7720684e-05,0.10708755,0.00070369267,0.00011538723,-0.01400942,1.0444345,-0.045236714,-4.229357e-06,0.004731672,0.8732882671232525,0.0006758687094315675,-0.48720339254397094,-0.0007051976305284881,0.9999997437579206,0.00012320874694340158,0.4872033509748973,0.00023597792489481867,0.8732885199710633,left_images/camera_left_118.png,right_images/camera_right_118.png
2025-05-07 16:14:03,6.016985177993774,119,-0.007134688,0.17332,0.113253005,1.7626749,-0.03274491,-0.41924444,1.0245796,0.0433201,-0.01632096,0.00092683453,-0.2633290645951468,0.8790275315496786,0.39745239025212015,-0.9558668666473605,-0.18209966481221118,-0.23056071938003053,-0.13029327298522314,-0.4406249094785256,0.8881854266772445,-0.00090461463,1.7724327e-05,0.10708752,0.0007036958,0.000115383984,-0.014009476,1.039579,-0.045236744,-4.2256315e-06,0.0047317017,0.8732882671232525,0.0006758687094315675,-0.48720339254397094,-0.0007051976305284881,0.9999997437579206,0.00012320874694340158,0.4872033509748973,0.00023597792489481867,0.8732885199710633,left_images/camera_left_119.png,right_images/camera_right_119.png
2025-05-07 16:14:03,6.0641467571258545,120,-0.006831771,0.17263025,0.113213755,1.7627747,-0.032771796,-0.4180285,1.0245799,0.04336176,-0.01624653,0.0009312788,-0.26320961416473243,0.8791018198492621,0.3973671971224708,-0.9559637152793189,-0.18223628553593296,-0.23005067116491426,-0.12982324168119633,-0.44042017048698134,0.8883557842146378,-0.0009046053,1.7724758e-05,0.10708752,0.0007036986,0.00011538617,-0.014009532,1.0397034,-0.045236744,-4.2256315e-06,0.0047317017,0.8732882671232525,0.0006758687094315675,-0.48720339254397094,-0.0007051976305284881,0.9999997437579206,0.00012320874694340158,0.4872033509748973,0.00023597792489481867,0.8732885199710633,left_images/camera_left_120.png,right_images/camera_right_120.png
2025-05-07 16:14:03,6.114295959472656,121,-0.0064566596,0.17186232,0.113173954,1.7628105,-0.032645322,-0.416478,1.02458,0.043406893,-0.016165616,0.0009323163,-0.26298966069058133,0.8791340950386362,0.3974414187153259,-0.9561167785809068,-0.1823431468931776,-0.2293287650888179,-0.1291400173684443,-0.44031150305402095,0.8885092212196712,-0.00090461056,1.7731512e-05,0.10708752,0.0007036347,0.00011539672,-0.014009519,1.0391976,-0.045236744,-4.2256315e-06,0.0047317017,0.8732882671232525,0.0006758687094315675,-0.48720339254397094,-0.0007051976305284881,0.9999997437579206,0.00012320874694340158,0.4872033509748973,0.00023597792489481867,0.8732885199710633,left_images/camera_left_121.png,right_images/camera_right_121.png
2025-05-07 16:14:04,6.160274982452393,122,-0.0060072145,0.17110734,0.113129,1.7631211,-0.032238968,-0.41518614,1.0245795,0.043459155,-0.016082369,0.00093579106,-0.26317321871216987,0.8790464631231267,0.3975137389114969,-0.9561488646497316,-0.1827638798618974,-0.2288595919922416,-0.12852706167070735,-0.44031202560064975,0.8885978362171196,-0.0009046055,1.7732335e-05,0.10708752,0.0007036375,0.00011539892,-0.014009574,1.03985,-0.045236748,-4.2256856e-06,0.004731699,0.8732884503645424,0.0006758816210043395,-0.4872030640748585,-0.0007051997537305061,0.9999997437536492,0.0001232312604465579,0.4872030225205953,0.0002359590443304943,0.8732887032191164,left_images/camera_left_122.png,right_images/camera_right_122.png
2025-05-07 16:14:04,6.210280418395996,123,-0.005521659,0.17018765,0.11313505,1.7633367,-0.032056626,-0.41361174,1.0245798,0.043490734,-0.015992034,0.00088948384,-0.2631644832476151,0.8790722390856023,0.3974625180140149,-0.9562368148478873,-0.18306344597944169,-0.22825189741971283,-0.1278890483449727,-0.44013608488188904,0.8887770350871244,-0.0009045985,1.7726268e-05,0.10708752,0.000703635,0.00011544045,-0.01400963,1.0397556,-0.045236748,-4.2256856e-06,0.004731699,0.8732884503645424,0.0006758816210043395,-0.4872030640748585,-0.0007051997537305061,0.9999997437536492,0.0001232312604465579,0.4872030225205953,0.0002359590443304943,0.8732887032191164,left_images/camera_left_123.png,right_images/camera_right_123.png
2025-05-07 16:14:04,6.256453037261963,124,-0.0050741304,0.16933516,0.11318103,1.7634187,-0.03188315,-0.4122368,1.0245795,0.043499652,-0.015914377,0.0008128807,-0.263098841169972,0.8791021499918072,0.39743981890947955,-0.9563171176269185,-0.18322761358381273,-0.22778325696618557,-0.12742280136914344,-0.4400080129954033,0.8889074069840326,-0.0009045915,1.771979e-05,0.10708752,0.0007036323,0.000115481984,-0.014009686,1.0395435,-0.045236748,-4.2256856e-06,0.004731699,0.8732884503645424,0.0006758816210043395,-0.4872030640748585,-0.0007051997537305061,0.9999997437536492,0.0001232312604465579,0.4872030225205953,0.0002359590443304943,0.8732887032191164,left_images/camera_left_124.png,right_images/camera_right_124.png
2025-05-07 16:14:04,6.301645278930664,125,-0.004615522,0.16863555,0.1131595,1.7637314,-0.031594403,-0.4104163,1.0245801,0.04354236,-0.015846655,0.0007954445,-0.26300350857211235,0.8790779483294888,0.39755643025811493,-0.9564899953713457,-0.18362426374574464,-0.22673556959232533,-0.12631723252700658,-0.4398909984583109,0.8891230883528267,-0.00090458454,1.7713312e-05,0.10708752,0.0007036321,0.000115523515,-0.014009742,1.0396669,-0.045236748,-4.2256856e-06,0.004731699,0.8732884503645424,0.0006758816210043395,-0.4872030640748585,-0.0007051997537305061,0.9999997437536492,0.0001232312604465579,0.4872030225205953,0.0002359590443304943,0.8732887032191164,left_images/camera_left_125.png,right_images/camera_right_125.png
2025-05-07 16:14:04,6.347959041595459,126,-0.004159514,0.16803637,0.1131426,1.7640907,-0.031356342,-0.40910223,1.02458,0.04358546,-0.015786562,0.0007756306,-0.2630810511357137,0.8790814209654704,0.3974974413083149,-0.9565674750605243,-0.18405102228617876,-0.22606168815556876,-0.12556681962071478,-0.4397056703167947,0.8893210316312086,-0.00090457755,1.7706832e-05,0.10708752,0.0007036316,0.00011556504,-0.014009798,1.0399841,-0.045236748,-4.2256856e-06,0.004731699,0.8732884503645424,0.0006758816210043395,-0.4872030640748585,-0.0007051997537305061,0.9999997437536492,0.0001232312604465579,0.4872030225205953,0.0002359590443304943,0.8732887032191164,left_images/camera_left_126.png,right_images/camera_right_126.png
2025-05-07 16:14:04,6.404457330703735,127,-0.0036431628,0.16755258,0.113159984,1.7644657,-0.031139921,-0.40747875,1.0245798,0.04361795,-0.015748588,0.0007242048,-0.26297744177888266,0.8791307432472295,0.3974569176565026,-0.9567407012618077,-0.18448139925102686,-0.22497520725503822,-0.12445921285504949,-0.4394266145876428,0.8896146102259923,-0.00090457057,1.7700353e-05,0.10708752,0.000703629,0.00011560657,-0.014009854,1.0398676,-0.045236748,-4.2256856e-06,0.004731699,0.8732884503645424,0.0006758816210043395,-0.4872030640748585,-0.0007051997537305061,0.9999997437536492,0.0001232312604465579,0.4872030225205953,0.0002359590443304943,0.8732887032191164,left_images/camera_left_127.png,right_images/camera_right_127.png
2025-05-07 16:14:04,6.463573932647705,128,-0.0031468314,0.16723318,0.11319522,1.7647344,-0.030875154,-0.40564308,1.0245802,0.043639634,-0.01573375,0.0006615184,-0.26264558248010134,0.8791723393813843,0.39758432523221043,-0.9570130338636235,-0.18480700540481304,-0.22354512691724773,-0.1230583236470871,-0.4392065213768681,0.8899181313813083,-0.0009045636,1.7693874e-05,0.10708752,0.0007036266,0.0001156481,-0.01400991,1.0397913,-0.045236748,-4.2256856e-06,0.004731699,0.8732884503645424,0.0006758816210043395,-0.4872030640748585,-0.0007051997537305061,0.9999997437536492,0.0001232312604465579,0.4872030225205953,0.0002359590443304943,0.8732887032191164,left_images/camera_left_128.png,right_images/camera_right_128.png
2025-05-07 16:14:04,6.520520925521851,129,-0.0026582172,0.16703232,0.11325473,1.7644142,-0.03097609,-0.40398404,1.0245799,0.043653447,-0.015735535,0.000578301,-0.26173319705321174,0.8794424615321674,0.39758859442210714,-0.957394403180396,-0.1844925500010799,-0.22216762984951702,-0.12203151363134704,-0.4387977391103345,0.8902611155343702,-0.0009045583,1.7688753e-05,0.10708752,0.00070360774,0.00011567146,-0.01400991,1.039306,-0.045236748,-4.2256856e-06,0.004731699,0.8732884503645424,0.0006758816210043395,-0.4872030640748585,-0.0007051997537305061,0.9999997437536492,0.0001232312604465579,0.4872030225205953,0.0002359590443304943,0.8732887032191164,left_images/camera_left_129.png,right_images/camera_right_129.png
2025-05-07 16:14:04,6.577721834182739,130,-0.002358652,0.16710588,0.11332948,1.7636722,-0.031824812,-0.40352976,1.0245804,0.043656696,-0.015762176,0.0004927898,-0.26059673127813354,0.8800399661158667,0.3970125963819495,-0.9576943527419051,-0.1836241487815774,-0.2215935439278518,-0.12211007482356206,-0.43796327474233,0.8906611586925516,-0.00090455305,1.7683846e-05,0.10708752,0.0007035896,0.000115694806,-0.01400991,1.039617,-0.045236748,-4.2256856e-06,0.004731699,0.8732884503645424,0.0006758816210043395,-0.4872030640748585,-0.0007051997537305061,0.9999997437536492,0.0001232312604465579,0.4872030225205953,0.0002359590443304943,0.8732887032191164,left_images/camera_left_130.png,right_images/camera_right_130.png
2025-05-07 16:14:04,6.640413284301758,131,-0.0022399847,0.16734472,0.11338958,1.7622036,-0.033233557,-0.40367183,1.0245799,0.043658208,-0.015801052,0.00042968616,-0.2588670520552903,0.8808934309392287,0.39625069424332626,-0.9580565510425985,-0.1819452046945707,-0.22141270851740147,-0.12294508678497343,-0.4369470286164733,0.8910453410565986,-0.0009045478,1.7678938e-05,0.10708752,0.00070357125,0.00011571815,-0.01400991,1.0401182,-0.045236748,-4.2256856e-06,0.004731699,0.8732884503645424,0.0006758816210043395,-0.4872030640748585,-0.0007051997537305061,0.9999997437536492,0.0001232312604465579,0.4872030225205953,0.0002359590443304943,0.8732887032191164,left_images/camera_left_131.png,right_images/camera_right_131.png
2025-05-07 16:14:04,6.69662880897522,132,-0.0022505454,0.16778538,0.11348754,1.7607139,-0.035306007,-0.40492657,1.0245796,0.043642797,-0.015861368,0.00034042727,-0.2572473621935885,0.8820145408767243,0.39480899727141705,-0.9582668084434757,-0.18011602429872836,-0.22199761626282097,-0.12469369863788413,-0.43544065895692496,0.8915396312263204,-0.00090453937,1.767037e-05,0.10708752,0.00070353603,0.000115696166,-0.014009905,1.0399795,-0.045236748,-4.2256856e-06,0.004731699,0.8732884503645424,0.0006758816210043395,-0.4872030640748585,-0.0007051997537305061,0.9999997437536492,0.0001232312604465579,0.4872030225205953,0.0002359590443304943,0.8732887032191164,left_images/camera_left_132.png,right_images/camera_right_132.png
2025-05-07 16:14:04,6.744182348251343,133,-0.002343358,0.16841498,0.11373416,1.7593933,-0.037953794,-0.4067441,1.0245793,0.043558102,-0.015965039,0.00012816768,-0.2556980586156699,0.8833627821071972,0.39279600049899954,-0.9584060184590197,-0.17833527766287177,-0.222832745624237,-0.12679277030535674,-0.43343595135699003,0.892220191135324,-0.00090453215,1.7663473e-05,0.10708752,0.0007035346,0.00011573766,-0.014009961,1.04196,-0.045236755,-4.2357387e-06,0.004731699,0.8732886469215413,0.0006762339609060552,-0.4872027112666494,-0.0007053505051781416,0.999999743591429,0.00012368403920569814,0.48720266998304607,0.00023563681127235637,0.873288899984813,left_images/camera_left_133.png,right_images/camera_right_133.png
2025-05-07 16:14:04,6.7989420890808105,134,-0.0024691918,0.16914035,0.11387097,1.7586156,-0.040346313,-0.40825137,1.0245793,0.04352202,-0.016064415,1.3338402e-05,-0.2544986646269889,0.8845369949609887,0.39092804228970696,-0.9585312222720053,-0.1771129074482869,-0.22326870346053843,-0.1282510258548239,-0.4315383210800613,0.8929313253585558,-0.00090452866,1.7662636e-05,0.10708752,0.00070349564,0.00011573995,-0.014009961,1.0397584,-0.045236755,-4.2357387e-06,0.004731699,0.8732886469215413,0.0006762339609060552,-0.4872027112666494,-0.0007053505051781416,0.999999743591429,0.00012368403920569814,0.48720266998304607,0.00023563681127235637,0.873288899984813,left_images/camera_left_134.png,right_images/camera_right_134.png
2025-05-07 16:14:04,6.862428426742554,135,-0.0027621172,0.1702122,0.113900684,1.7582278,-0.04251463,-0.40939623,1.0245793,0.043521866,-0.016188428,5.1027164e-06,-0.25339559146314666,0.885531369149408,0.38939038056867464,-0.9587431759553466,-0.1762780724149295,-0.22301920039479223,-0.12884951216864476,-0.42983745234454857,0.8936652436879542,-0.00090452516,1.76622e-05,0.10708752,0.00070345623,0.00011574227,-0.014009961,1.0395439,-0.045236755,-4.2357387e-06,0.004731699,0.8732886469215413,0.0006762339609060552,-0.4872027112666494,-0.0007053505051781416,0.999999743591429,0.00012368403920569814,0.48720266998304607,0.00023563681127235637,0.873288899984813,left_images/camera_left_135.png,right_images/camera_right_135.png
2025-05-07 16:14:04,6.924065828323364,136,-0.0031650905,0.1715188,0.11393322,1.7580031,-0.045073982,-0.41070232,1.02458,0.043518618,-0.016340014,1.0579824e-06,-0.25224246946153417,0.8866612372052808,0.38756365546519955,-0.9589775560093105,-0.1755078165455699,-0.2226186277062554,-0.12936685692385344,-0.42781871951681527,0.8945587513185681,-0.0009045217,1.7661763e-05,0.10708752,0.000703417,0.00011574459,-0.014009961,1.0403532,-0.045236755,-4.2357387e-06,0.004731699,0.8732886469215413,0.0006762339609060552,-0.4872027112666494,-0.0007053505051781416,0.999999743591429,0.00012368403920569814,0.48720266998304607,0.00023563681127235637,0.873288899984813,left_images/camera_left_136.png,right_images/camera_right_136.png
2025-05-07 16:14:04,6.9823808670043945,137,-0.0035572406,0.17286165,0.11396275,1.7580416,-0.047390323,-0.41252103,1.0245793,0.043516316,-0.016490364,1.7015263e-06,-0.2515565489165934,0.8876637265766905,0.3857102684880921,-0.9590501183039732,-0.17502441968457694,-0.22268660286423142,-0.13016210384865645,-0.42593375193104804,0.8953425409795024,-0.0009045182,1.7661327e-05,0.10708752,0.00070337777,0.000115746894,-0.014009961,1.0396178,-0.045236755,-4.2357387e-06,0.004731699,0.8732886469215413,0.0006762339609060552,-0.4872027112666494,-0.0007053505051781416,0.999999743591429,0.00012368403920569814,0.48720266998304607,0.00023563681127235637,0.873288899984813,left_images/camera_left_137.png,right_images/camera_right_137.png
