jiaqis7/OS_Teleop_Extension/demo_3/teleop_log.csv
Epoch Time (Seconds),Time (Seconds),Frame Number,PSM1_joint_1,PSM1_joint_2,PSM1_joint_3,PSM1_joint_4,PSM1_joint_5,PSM1_joint_6,PSM1_jaw_angle,PSM1_ee_x,PSM1_ee_y,PSM1_ee_z,"PSM1_Orientation_Matrix_[1,1]","PSM1_Orientation_Matrix_[1,2]","PSM1_Orientation_Matrix_[1,3]","PSM1_Orientation_Matrix_[2,1]","PSM1_Orientation_Matrix_[2,2]","PSM1_Orientation_Matrix_[2,3]","PSM1_Orientation_Matrix_[3,1]","PSM1_Orientation_Matrix_[3,2]","PSM1_Orientation_Matrix_[3,3]",PSM2_joint_1,PSM2_joint_2,PSM2_joint_3,PSM2_joint_4,PSM2_joint_5,PSM2_joint_6,PSM2_jaw_angle,PSM2_ee_x,PSM2_ee_y,PSM2_ee_z,"PSM2_Orientation_Matrix_[1,1]","PSM2_Orientation_Matrix_[1,2]","PSM2_Orientation_Matrix_[1,3]","PSM2_Orientation_Matrix_[2,1]","PSM2_Orientation_Matrix_[2,2]","PSM2_Orientation_Matrix_[2,3]","PSM2_Orientation_Matrix_[3,1]","PSM2_Orientation_Matrix_[3,2]","PSM2_Orientation_Matrix_[3,3]",PSM3_joint_1,PSM3_joint_2,PSM3_joint_3,PSM3_joint_4,PSM3_joint_5,PSM3_joint_6,PSM3_jaw_angle,PSM3_ee_x,PSM3_ee_y,PSM3_ee_z,"PSM3_Orientation_Matrix_[1,1]","PSM3_Orientation_Matrix_[1,2]","PSM3_Orientation_Matrix_[1,3]","PSM3_Orientation_Matrix_[2,1]","PSM3_Orientation_Matrix_[2,2]","PSM3_Orientation_Matrix_[2,3]","PSM3_Orientation_Matrix_[3,1]","PSM3_Orientation_Matrix_[3,2]","PSM3_Orientation_Matrix_[3,3]",Camera Left,Camera Right
2025-05-30 15:53:59,0.0015864372253417969,1,-0.03493184,-8.904256e-05,0.11432712,-0.001193603,0.0007922657,-0.05889922,1.0471802,0.057454243,-5.052616e-06,0.0019883951,0.8152531826565558,-0.0013847812343714986,0.5791030396650402,0.0011499046288358265,0.9999990405352444,0.0007724298901479259,-0.5791035536825005,3.618733956157658e-05,0.8152539928162115,0.016858857,0.00083914725,0.112121545,0.0004842089,8.3835075e-05,-0.0112116905,1.0471792,-0.060939647,-9.812923e-05,0.0024163863,0.8630869069655207,0.0008894878954822067,-0.5050546503458555,-0.0004940169002256009,0.999999457578424,0.0009169461053041321,0.5050551920057775,-0.0005418986450726398,0.8630868782306134,0.0026660115,0.019334318,0.090639085,-0.00016676862,-0.012029196,-0.0062280735,0.5235896,0.00019101906,-0.011351367,0.002348829,0.9999936372102752,-0.0001470008891910907,0.0035642572442252606,0.0010395858539288636,0.9677909138678492,-0.2517531852749549,-0.0034124478335567586,0.25175528877378534,0.9677849088378117,left_images/camera_left_1.png,right_images/camera_right_1.png
2025-05-30 15:53:59,0.05287051200866699,2,-0.03493184,-8.9041685e-05,0.11432712,-0.001193596,0.0007922587,-0.05889922,1.0471802,0.057454243,-5.052616e-06,0.0019883951,0.8152531826565558,-0.0013847812343714986,0.5791030396650402,0.0011499046288358265,0.9999990405352444,0.0007724298901479259,-0.5791035536825005,3.618733956157658e-05,0.8152539928162115,0.016858857,0.00083915074,0.112121545,0.00048422322,8.381646e-05,-0.0112116905,1.0471792,-0.060939647,-9.812923e-05,0.0024163863,0.8630869069655207,0.0008894878954822067,-0.5050546503458555,-0.0004940169002256009,0.999999457578424,0.0009169461053041321,0.5050551920057775,-0.0005418986450726398,0.8630868782306134,0.0026660115,0.019334318,0.090639085,-0.00016677123,-0.012029196,-0.0062280735,0.5235896,0.00019101906,-0.011351367,0.002348829,0.9999936372102752,-0.0001470008891910907,0.0035642572442252606,0.0010395858539288636,0.9677909138678492,-0.2517531852749549,-0.0034124478335567586,0.25175528877378534,0.9677849088378117,left_images/camera_left_2.png,right_images/camera_right_2.png
2025-05-30 15:53:59,0.10269284248352051,3,-0.03493184,-8.904081e-05,0.11432712,-0.0011935891,0.0007922517,-0.05889922,1.0471802,0.057454243,-5.052616e-06,0.0019883951,0.8152531826565558,-0.0013847812343714986,0.5791030396650402,0.0011499046288358265,0.9999990405352444,0.0007724298901479259,-0.5791035536825005,3.618733956157658e-05,0.8152539928162115,0.016858857,0.00083915424,0.112121545,0.00048423753,8.379785e-05,-0.0112116905,1.0471792,-0.060939647,-9.812923e-05,0.0024163863,0.8630869069655207,0.0008894878954822067,-0.5050546503458555,-0.0004940169002256009,0.999999457578424,0.0009169461053041321,0.5050551920057775,-0.0005418986450726398,0.8630868782306134,0.0026660115,0.019334318,0.090639085,-0.00016677385,-0.012029196,-0.0062280735,0.5235896,0.00019101906,-0.011351367,0.002348829,0.9999936372102752,-0.0001470008891910907,0.0035642572442252606,0.0010395858539288636,0.9677909138678492,-0.2517531852749549,-0.0034124478335567586,0.25175528877378534,0.9677849088378117,left_images/camera_left_3.png,right_images/camera_right_3.png
2025-05-30 15:53:59,0.1565253734588623,4,-0.03493184,-8.903994e-05,0.11432712,-0.0011935821,0.00079224474,-0.05889922,1.0471802,0.057454243,-5.052616e-06,0.0019883951,0.8152531826565558,-0.0013847812343714986,0.5791030396650402,0.0011499046288358265,0.9999990405352444,0.0007724298901479259,-0.5791035536825005,3.618733956157658e-05,0.8152539928162115,0.016858857,0.0008391609,0.112121545,0.00048418518,8.3806764e-05,-0.0112116905,1.0471792,-0.060939647,-9.812923e-05,0.0024163863,0.8630869069655207,0.0008894878954822067,-0.5050546503458555,-0.0004940169002256009,0.999999457578424,0.0009169461053041321,0.5050551920057775,-0.0005418986450726398,0.8630868782306134,0.0026660115,0.019334318,0.090639085,-0.00016677647,-0.012029196,-0.0062280735,0.5235896,0.00019101906,-0.011351367,0.002348829,0.9999936372102752,-0.0001470008891910907,0.0035642572442252606,0.0010395858539288636,0.9677909138678492,-0.2517531852749549,-0.0034124478335567586,0.25175528877378534,0.9677849088378117,left_images/camera_left_4.png,right_images/camera_right_4.png
2025-05-30 15:53:59,0.20486998558044434,5,-0.03493184,-8.9039066e-05,0.11432712,-0.0011935751,0.00079223776,-0.05889922,1.0471802,0.057454243,-5.052616e-06,0.0019883951,0.8152531826565558,-0.0013847812343714986,0.5791030396650402,0.0011499046288358265,0.9999990405352444,0.0007724298901479259,-0.5791035536825005,3.618733956157658e-05,0.8152539928162115,0.016858857,0.00083916483,0.112121545,0.00048419947,8.378817e-05,-0.0112116905,1.0471792,-0.060939647,-9.812923e-05,0.0024163863,0.8630869069655207,0.0008894878954822067,-0.5050546503458555,-0.0004940169002256009,0.999999457578424,0.0009169461053041321,0.5050551920057775,-0.0005418986450726398,0.8630868782306134,0.0026660115,0.019334318,0.090639085,-0.0001667791,-0.012029196,-0.0062280735,0.5235896,0.00019101906,-0.011351367,0.002348829,0.9999936372102752,-0.0001470008891910907,0.0035642572442252606,0.0010395858539288636,0.9677909138678492,-0.2517531852749549,-0.0034124478335567586,0.25175528877378534,0.9677849088378117,left_images/camera_left_5.png,right_images/camera_right_5.png
2025-05-30 15:53:59,0.2590205669403076,6,-0.03493184,-8.903819e-05,0.11432712,-0.0011935681,0.00079223077,-0.05889922,1.0471802,0.057454243,-5.052616e-06,0.0019883951,0.8152531826565558,-0.0013847812343714986,0.5791030396650402,0.0011499046288358265,0.9999990405352444,0.0007724298901479259,-0.5791035536825005,3.618733956157658e-05,0.8152539928162115,0.016858857,0.0008391683,0.112121545,0.0004842138,8.3769555e-05,-0.0112116905,1.0471792,-0.060939647,-9.812923e-05,0.0024163863,0.8630869069655207,0.0008894878954822067,-0.5050546503458555,-0.0004940169002256009,0.999999457578424,0.0009169461053041321,0.5050551920057775,-0.0005418986450726398,0.8630868782306134,0.0026660115,0.019334318,0.090639085,-0.00016678171,-0.012029196,-0.0062280735,0.5235896,0.00019101906,-0.011351367,0.002348829,0.9999936372102752,-0.0001470008891910907,0.0035642572442252606,0.0010395858539288636,0.9677909138678492,-0.2517531852749549,-0.0034124478335567586,0.25175528877378534,0.9677849088378117,left_images/camera_left_6.png,right_images/camera_right_6.png
2025-05-30 15:53:59,0.3124349117279053,7,-0.03493184,-8.903732e-05,0.11432712,-0.0011935611,0.0007922238,-0.05889922,1.0471802,0.057454243,-5.052616e-06,0.0019883951,0.8152531826565558,-0.0013847812343714986,0.5791030396650402,0.0011499046288358265,0.9999990405352444,0.0007724298901479259,-0.5791035536825005,3.618733956157658e-05,0.8152539928162115,0.016858857,0.0008391718,0.112121545,0.0004842281,8.375094e-05,-0.0112116905,1.0471792,-0.060939647,-9.812923e-05,0.0024163863,0.8630869069655207,0.0008894878954822067,-0.5050546503458555,-0.0004940169002256009,0.999999457578424,0.0009169461053041321,0.5050551920057775,-0.0005418986450726398,0.8630868782306134,0.0026660115,0.019334318,0.090639085,-0.00016678433,-0.012029196,-0.0062280735,0.5235896,0.00019101906,-0.011351367,0.002348829,0.9999936372102752,-0.0001470008891910907,0.0035642572442252606,0.0010395858539288636,0.9677909138678492,-0.2517531852749549,-0.0034124478335567586,0.25175528877378534,0.9677849088378117,left_images/camera_left_7.png,right_images/camera_right_7.png
2025-05-30 15:53:59,0.3623080253601074,8,-0.03493184,-8.9036446e-05,0.11432712,-0.0011935541,0.0007922168,-0.05889922,1.0471802,0.057454243,-5.052616e-06,0.0019883951,0.8152531826565558,-0.0013847812343714986,0.5791030396650402,0.0011499046288358265,0.9999990405352444,0.0007724298901479259,-0.5791035536825005,3.618733956157658e-05,0.8152539928162115,0.016858857,0.0008391753,0.112121545,0.00048424242,8.373233e-05,-0.0112116905,1.0471792,-0.060939647,-9.8122e-05,0.0024163872,0.8630868909393993,0.0008898228262693208,-0.5050546771428809,-0.0004944454168609337,0.9999994574300581,0.0009168769379982575,0.5050552189734222,-0.0005416224954134764,0.8630868626232131,0.0026660115,0.019334318,0.090639085,-0.00016678695,-0.012029196,-0.0062280735,0.5235896,0.00019101906,-0.011351367,0.002348829,0.9999936372102752,-0.0001470008891910907,0.0035642572442252606,0.0010395858539288636,0.9677909138678492,-0.2517531852749549,-0.0034124478335567586,0.25175528877378534,0.9677849088378117,left_images/camera_left_8.png,right_images/camera_right_8.png
2025-05-30 15:53:59,0.4261291027069092,9,-0.03493184,-8.9033325e-05,0.11432712,-0.0011936156,0.00079219334,-0.05889922,1.0471802,0.057454243,-5.052616e-06,0.0019883951,0.8152531826565558,-0.0013847812343714986,0.5791030396650402,0.0011499046288358265,0.9999990405352444,0.0007724298901479259,-0.5791035536825005,3.618733956157658e-05,0.8152539928162115,0.016858857,0.0008391635,0.112121545,0.00048428457,8.376344e-05,-0.0112116905,1.0471792,-0.060939647,-9.8122e-05,0.0024163872,0.8630868909393993,0.0008898228262693208,-0.5050546771428809,-0.0004944454168609337,0.9999994574300581,0.0009168769379982575,0.5050552189734222,-0.0005416224954134764,0.8630868626232131,0.0026660115,0.019334318,0.090639085,-0.00016678957,-0.012029196,-0.0062280735,0.5235896,0.00019101906,-0.011351367,0.002348829,0.9999936372102752,-0.0001470008891910907,0.0035642572442252606,0.0010395858539288636,0.9677909138678492,-0.2517531852749549,-0.0034124478335567586,0.25175528877378534,0.9677849088378117,left_images/camera_left_9.png,right_images/camera_right_9.png
2025-05-30 15:53:59,0.48964810371398926,10,-0.03493184,-8.903205e-05,0.11432712,-0.0011936086,0.00079218636,-0.05889922,1.0471802,0.057454243,-5.052616e-06,0.0019883951,0.8152531826565558,-0.0013847812343714986,0.5791030396650402,0.0011499046288358265,0.9999990405352444,0.0007724298901479259,-0.5791035536825005,3.618733956157658e-05,0.8152539928162115,0.016858857,0.00083915377,0.112121545,0.00048426012,8.382205e-05,-0.0112116905,1.0471792,-0.060939647,-9.8122e-05,0.0024163872,0.8630868909393993,0.0008898228262693208,-0.5050546771428809,-0.0004944454168609337,0.9999994574300581,0.0009168769379982575,0.5050552189734222,-0.0005416224954134764,0.8630868626232131,0.0026660115,0.019334318,0.090639085,-0.00016679219,-0.012029196,-0.0062280735,0.5235896,0.00019101906,-0.011351367,0.002348829,0.9999936372102752,-0.0001470008891910907,0.0035642572442252606,0.0010395858539288636,0.9677909138678492,-0.2517531852749549,-0.0034124478335567586,0.25175528877378534,0.9677849088378117,left_images/camera_left_10.png,right_images/camera_right_10.png
2025-05-30 15:53:59,0.5508255958557129,11,-0.03493184,-8.903118e-05,0.11432712,-0.0011936016,0.0007921794,-0.05889922,1.0471802,0.057454243,-5.052616e-06,0.0019883951,0.8152531826565558,-0.0013847812343714986,0.5791030396650402,0.0011499046288358265,0.9999990405352444,0.0007724298901479259,-0.5791035536825005,3.618733956157658e-05,0.8152539928162115,0.016858857,0.00083914434,0.112121545,0.00048423567,8.3880666e-05,-0.0112116905,1.0471792,-0.060939647,-9.812923e-05,0.0024163863,0.8630869069655207,0.0008894878954822067,-0.5050546503458555,-0.0004940169002256009,0.999999457578424,0.0009169461053041321,0.5050551920057775,-0.0005418986450726398,0.8630868782306134,0.0026660115,0.019334318,0.090639085,-0.00016679481,-0.012029196,-0.0062280735,0.5235896,0.00019101906,-0.011351367,0.002348829,0.9999936372102752,-0.0001470008891910907,0.0035642572442252606,0.0010395858539288636,0.9677909138678492,-0.2517531852749549,-0.0034124478335567586,0.25175528877378534,0.9677849088378117,left_images/camera_left_11.png,right_images/camera_right_11.png
2025-05-30 15:53:59,0.625356912612915,12,-0.03493184,-8.9030305e-05,0.11432712,-0.0011935947,0.0007921724,-0.05889922,1.0471802,0.057454243,-5.052616e-06,0.0019883951,0.8152531826565558,-0.0013847812343714986,0.5791030396650402,0.0011499046288358265,0.9999990405352444,0.0007724298901479259,-0.5791035536825005,3.618733956157658e-05,0.8152539928162115,0.016858857,0.00083915005,0.112121545,0.0004841833,8.3889594e-05,-0.0112116905,1.0471792,-0.060939647,-9.813764e-05,0.0024163872,0.8630868778075241,0.0008897715451596387,-0.5050546996742604,-0.00049409098285974,0.9999994571428936,0.0009173810652398555,0.5050552417612955,-0.0005422365863976214,0.8630868489027763,0.0026660115,0.019334318,0.090639085,-0.00016679743,-0.012029196,-0.0062280735,0.5235896,0.00019101906,-0.011351367,0.002348829,0.9999936372102752,-0.0001470008891910907,0.0035642572442252606,0.0010395858539288636,0.9677909138678492,-0.2517531852749549,-0.0034124478335567586,0.25175528877378534,0.9677849088378117,left_images/camera_left_12.png,right_images/camera_right_12.png
2025-05-30 15:54:00,0.6936120986938477,13,-0.03493184,-8.902943e-05,0.11432712,-0.0011935877,0.0007921654,-0.05889922,1.0471802,0.057454243,-5.052616e-06,0.0019883951,0.8152531826565558,-0.0013847812343714986,0.5791030396650402,0.0011499046288358265,0.9999990405352444,0.0007724298901479259,-0.5791035536825005,3.618733956157658e-05,0.8152539928162115,0.016858857,0.000839154,0.112121545,0.00048418358,8.3936946e-05,-0.011211718,1.0471792,-0.060939647,-9.813764e-05,0.0024163872,0.8630868778075241,0.0008897715451596387,-0.5050546996742604,-0.00049409098285974,0.9999994571428936,0.0009173810652398555,0.5050552417612955,-0.0005422365863976214,0.8630868489027763,0.0026660115,0.019334318,0.090639085,-0.00016680005,-0.012029196,-0.0062280735,0.5235896,0.00019101906,-0.011351367,0.002348829,0.9999936372102752,-0.0001470008891910907,0.0035642572442252606,0.0010395858539288636,0.9677909138678492,-0.2517531852749549,-0.0034124478335567586,0.25175528877378534,0.9677849088378117,left_images/camera_left_13.png,right_images/camera_right_13.png
2025-05-30 15:54:00,0.744978666305542,14,-0.03493184,-8.902856e-05,0.11432712,-0.0011935807,0.0007921584,-0.05889922,1.0471802,0.057454243,-5.052616e-06,0.0019883951,0.8152531826565558,-0.0013847812343714986,0.5791030396650402,0.0011499046288358265,0.9999990405352444,0.0007724298901479259,-0.5791035536825005,3.618733956157658e-05,0.8152539928162115,0.016858857,0.0008391575,0.112121545,0.00048416844,8.391801e-05,-0.011211774,1.0471792,-0.060939647,-9.813764e-05,0.0024163872,0.8630868778075241,0.0008897715451596387,-0.5050546996742604,-0.00049409098285974,0.9999994571428936,0.0009173810652398555,0.5050552417612955,-0.0005422365863976214,0.8630868489027763,0.0026660115,0.019334318,0.090639085,-0.00016680267,-0.012029196,-0.0062280735,0.5235896,0.00019101906,-0.011351367,0.002348829,0.9999936372102752,-0.0001470008891910907,0.0035642572442252606,0.0010395858539288636,0.9677909138678492,-0.2517531852749549,-0.0034124478335567586,0.25175528877378534,0.9677849088378117,left_images/camera_left_14.png,right_images/camera_right_14.png
2025-05-30 15:54:00,0.7952439785003662,15,-0.03493184,-8.9027686e-05,0.11432712,-0.0011935737,0.00079215143,-0.05889922,1.0471802,0.057454243,-5.052616e-06,0.0019883951,0.8152531826565558,-0.0013847812343714986,0.5791030396650402,0.0011499046288358265,0.9999990405352444,0.0007724298901479259,-0.5791035536825005,3.618733956157658e-05,0.8152539928162115,0.016858857,0.000839161,0.112121545,0.0004841533,8.389906e-05,-0.01121183,1.0471792,-0.060939647,-9.813764e-05,0.0024163872,0.8630868778075241,0.0008897715451596387,-0.5050546996742604,-0.00049409098285974,0.9999994571428936,0.0009173810652398555,0.5050552417612955,-0.0005422365863976214,0.8630868489027763,0.0026660115,0.019334318,0.090639085,-0.00016680529,-0.012029196,-0.0062280735,0.5235896,0.00019101906,-0.011351367,0.002348829,0.9999936372102752,-0.0001470008891910907,0.0035642572442252606,0.0010395858539288636,0.9677909138678492,-0.2517531852749549,-0.0034124478335567586,0.25175528877378534,0.9677849088378117,left_images/camera_left_15.png,right_images/camera_right_15.png
2025-05-30 15:54:00,0.8555083274841309,16,-0.03493184,-8.902681e-05,0.11432712,-0.0011935667,0.00079214445,-0.05889922,1.0471802,0.057454243,-5.052616e-06,0.0019883951,0.8152531826565558,-0.0013847812343714986,0.5791030396650402,0.0011499046288358265,0.9999990405352444,0.0007724298901479259,-0.5791035536825005,3.618733956157658e-05,0.8152539928162115,0.016858857,0.0008391645,0.112121545,0.00048413817,8.388011e-05,-0.011211886,1.0471792,-0.060939647,-9.812923e-05,0.0024163863,0.8630869069655207,0.0008894878954822067,-0.5050546503458555,-0.0004940169002256009,0.999999457578424,0.0009169461053041321,0.5050551920057775,-0.0005418986450726398,0.8630868782306134,0.0026660115,0.019334318,0.090639085,-0.0001668079,-0.012029196,-0.0062280735,0.5235896,0.00019101906,-0.011351367,0.002348829,0.9999936372102752,-0.0001470008891910907,0.0035642572442252606,0.0010395858539288636,0.9677909138678492,-0.2517531852749549,-0.0034124478335567586,0.25175528877378534,0.9677849088378117,left_images/camera_left_16.png,right_images/camera_right_16.png
2025-05-30 15:54:00,0.913236141204834,17,-0.03493184,-8.902594e-05,0.11432712,-0.0011935597,0.00079213746,-0.05889922,1.0471802,0.057454243,-5.052616e-06,0.0019883951,0.8152531826565558,-0.0013847812343714986,0.5791030396650402,0.0011499046288358265,0.9999990405352444,0.0007724298901479259,-0.5791035536825005,3.618733956157658e-05,0.8152539928162115,0.016858857,0.000839168,0.112121545,0.0004841525,8.38615e-05,-0.011211886,1.0471792,-0.060939647,-9.812923e-05,0.0024163863,0.8630869069655207,0.0008894878954822067,-0.5050546503458555,-0.0004940169002256009,0.999999457578424,0.0009169461053041321,0.5050551920057775,-0.0005418986450726398,0.8630868782306134,0.0026660115,0.019334318,0.090639085,-0.00016681053,-0.012029196,-0.0062280735,0.5235896,0.00019101906,-0.011351367,0.002348829,0.9999936372102752,-0.0001470008891910907,0.0035642572442252606,0.0010395858539288636,0.9677909138678492,-0.2517531852749549,-0.0034124478335567586,0.25175528877378534,0.9677849088378117,left_images/camera_left_17.png,right_images/camera_right_17.png
2025-05-30 15:54:00,0.9637243747711182,18,-0.03493184,-8.902507e-05,0.11432712,-0.0011935527,0.0007921305,-0.05889922,1.0471802,0.05745423,-5.052294e-06,0.0019883644,0.8152531172825965,-0.0013845432002860623,0.5791031322667278,0.001149531910868864,0.9999990408759527,0.0007725435654864742,-0.5791036464549283,3.587898022525609e-05,0.8152539269303178,0.016858857,0.00083917147,0.112121545,0.0004841668,8.384289e-05,-0.011211886,1.0471792,-0.060939647,-9.812923e-05,0.0024163863,0.8630869069655207,0.0008894878954822067,-0.5050546503458555,-0.0004940169002256009,0.999999457578424,0.0009169461053041321,0.5050551920057775,-0.0005418986450726398,0.8630868782306134,0.0026660115,0.019334318,0.090639085,-0.00016681314,-0.012029196,-0.0062280735,0.5235896,0.00019101906,-0.011351367,0.002348829,0.9999936372102752,-0.0001470008891910907,0.0035642572442252606,0.0010395858539288636,0.9677909138678492,-0.2517531852749549,-0.0034124478335567586,0.25175528877378534,0.9677849088378117,left_images/camera_left_18.png,right_images/camera_right_18.png
2025-05-30 15:54:00,1.0182287693023682,19,-0.03493184,-8.902699e-05,0.11432712,-0.001193544,0.00079214363,-0.05889922,1.0471802,0.05745423,-5.052294e-06,0.0019883644,0.8152531172825965,-0.0013845432002860623,0.5791031322667278,0.001149531910868864,0.9999990408759527,0.0007725435654864742,-0.5791036464549283,3.587898022525609e-05,0.8152539269303178,0.016858857,0.00083917496,0.112121545,0.00048418113,8.382428e-05,-0.011211886,1.0471792,-0.060939647,-9.812923e-05,0.0024163863,0.8630869069655207,0.0008894878954822067,-0.5050546503458555,-0.0004940169002256009,0.999999457578424,0.0009169461053041321,0.5050551920057775,-0.0005418986450726398,0.8630868782306134,0.0026660115,0.019334318,0.090639085,-0.00016681576,-0.012029196,-0.0062280735,0.5235896,0.00019101906,-0.011351367,0.002348829,0.9999936372102752,-0.0001470008891910907,0.0035642572442252606,0.0010395858539288636,0.9677909138678492,-0.2517531852749549,-0.0034124478335567586,0.25175528877378534,0.9677849088378117,left_images/camera_left_19.png,right_images/camera_right_19.png
2025-05-30 15:54:00,1.0869524478912354,20,-0.03493184,-8.902929e-05,0.11432712,-0.0011935353,0.0007921568,-0.05889922,1.0471802,0.05745423,-5.052294e-06,0.0019883644,0.8152531172825965,-0.0013845432002860623,0.5791031322667278,0.001149531910868864,0.9999990408759527,0.0007725435654864742,-0.5791036464549283,3.587898022525609e-05,0.8152539269303178,0.016858857,0.00083917845,0.112121545,0.00048419545,8.3805666e-05,-0.011211886,1.0471792,-0.060939647,-9.812923e-05,0.0024163863,0.8630869069655207,0.0008894878954822067,-0.5050546503458555,-0.0004940169002256009,0.999999457578424,0.0009169461053041321,0.5050551920057775,-0.0005418986450726398,0.8630868782306134,0.0026660115,0.019334318,0.090639085,-0.00016681838,-0.012029196,-0.0062280735,0.5235896,0.00019101906,-0.011351367,0.002348829,0.9999936372102752,-0.0001470008891910907,0.0035642572442252606,0.0010395858539288636,0.9677909138678492,-0.2517531852749549,-0.0034124478335567586,0.25175528877378534,0.9677849088378117,left_images/camera_left_20.png,right_images/camera_right_20.png
2025-05-30 15:54:00,1.1559078693389893,21,-0.03493184,-8.9031586e-05,0.11432712,-0.0011935266,0.00079216994,-0.05889922,1.0471802,0.05745423,-5.052294e-06,0.0019883644,0.8152531172825965,-0.0013845432002860623,0.5791031322667278,0.001149531910868864,0.9999990408759527,0.0007725435654864742,-0.5791036464549283,3.587898022525609e-05,0.8152539269303178,0.016858857,0.00083918194,0.112121545,0.00048420977,8.3787054e-05,-0.011211886,1.0471792,-0.060939647,-9.812923e-05,0.0024163863,0.8630869069655207,0.0008894878954822067,-0.5050546503458555,-0.0004940169002256009,0.999999457578424,0.0009169461053041321,0.5050551920057775,-0.0005418986450726398,0.8630868782306134,0.0026660115,0.019334318,0.090639085,-0.000166821,-0.012029196,-0.0062280735,0.5235896,0.00019101906,-0.011351367,0.002348829,0.9999936372102752,-0.0001470008891910907,0.0035642572442252606,0.0010395858539288636,0.9677909138678492,-0.2517531852749549,-0.0034124478335567586,0.25175528877378534,0.9677849088378117,left_images/camera_left_21.png,right_images/camera_right_21.png
2025-05-30 15:54:00,1.2285230159759521,22,-0.03493184,-8.9033885e-05,0.11432712,-0.0011935178,0.0007921831,-0.05889922,1.0471802,0.05745423,-5.052294e-06,0.0019883644,0.8152531172825965,-0.0013845432002860623,0.5791031322667278,0.001149531910868864,0.9999990408759527,0.0007725435654864742,-0.5791036464549283,3.587898022525609e-05,0.8152539269303178,0.016858857,0.00083918544,0.112121545,0.0004842241,8.376844e-05,-0.011211886,1.0471792,-0.060939647,-9.812923e-05,0.0024163863,0.8630869069655207,0.0008894878954822067,-0.5050546503458555,-0.0004940169002256009,0.999999457578424,0.0009169461053041321,0.5050551920057775,-0.0005418986450726398,0.8630868782306134,0.0026660115,0.019334318,0.090639085,-0.00016682362,-0.012029196,-0.0062280735,0.5235896,0.00019101906,-0.011351367,0.002348829,0.9999936372102752,-0.0001470008891910907,0.0035642572442252606,0.0010395858539288636,0.9677909138678492,-0.2517531852749549,-0.0034124478335567586,0.25175528877378534,0.9677849088378117,left_images/camera_left_22.png,right_images/camera_right_22.png
2025-05-30 15:54:00,1.2832024097442627,23,-0.03493184,-8.903401e-05,0.11432712,-0.0011935781,0.0007921796,-0.05889922,1.0471802,0.057454243,-5.052616e-06,0.0019883951,0.8152531826565558,-0.0013847812343714986,0.5791030396650402,0.0011499046288358265,0.9999990405352444,0.0007724298901479259,-0.5791035536825005,3.618733956157658e-05,0.8152539928162115,0.016858857,0.0008391889,0.112121545,0.0004842384,8.374983e-05,-0.011211886,1.0471792,-0.060939647,-9.8122e-05,0.0024163872,0.8630868909393993,0.0008898228262693208,-0.5050546771428809,-0.0004944454168609337,0.9999994574300581,0.0009168769379982575,0.5050552189734222,-0.0005416224954134764,0.8630868626232131,0.0026660115,0.019334318,0.090639085,-0.00016682624,-0.012029196,-0.0062280735,0.5235896,0.00019101906,-0.011351367,0.002348829,0.9999936372102752,-0.0001470008891910907,0.0035642572442252606,0.0010395858539288636,0.9677909138678492,-0.2517531852749549,-0.0034124478335567586,0.25175528877378534,0.9677849088378117,left_images/camera_left_23.png,right_images/camera_right_23.png
2025-05-30 15:54:00,1.3389501571655273,24,-0.03493184,-8.903316e-05,0.11432712,-0.0011935711,0.0007921726,-0.05889922,1.0471802,0.057454243,-5.052616e-06,0.0019883951,0.8152531826565558,-0.0013847812343714986,0.5791030396650402,0.0011499046288358265,0.9999990405352444,0.0007724298901479259,-0.5791035536825005,3.618733956157658e-05,0.8152539928162115,0.016858857,0.0008391771,0.112121545,0.00048428055,8.378094e-05,-0.011211886,1.0471792,-0.060939647,-9.8122e-05,0.0024163872,0.8630868909393993,0.0008898228262693208,-0.5050546771428809,-0.0004944454168609337,0.9999994574300581,0.0009168769379982575,0.5050552189734222,-0.0005416224954134764,0.8630868626232131,0.0026660115,0.019334318,0.090639085,-0.00016682886,-0.012029196,-0.0062280735,0.5235896,0.00019101906,-0.011351367,0.002348829,0.9999936372102752,-0.0001470008891910907,0.0035642572442252606,0.0010395858539288636,0.9677909138678492,-0.2517531852749549,-0.0034124478335567586,0.25175528877378534,0.9677849088378117,left_images/camera_left_24.png,right_images/camera_right_24.png
2025-05-30 15:54:00,1.4068076610565186,25,-0.03493184,-8.9032284e-05,0.11432712,-0.0011935642,0.00079216564,-0.05889922,1.0471802,0.057454243,-5.052616e-06,0.0019883951,0.8152531826565558,-0.0013847812343714986,0.5791030396650402,0.0011499046288358265,0.9999990405352444,0.0007724298901479259,-0.5791035536825005,3.618733956157658e-05,0.8152539928162115,0.016858857,0.0008391674,0.112121545,0.0004842561,8.383955e-05,-0.011211886,1.0471792,-0.060939647,-9.8122e-05,0.0024163872,0.8630868909393993,0.0008898228262693208,-0.5050546771428809,-0.0004944454168609337,0.9999994574300581,0.0009168769379982575,0.5050552189734222,-0.0005416224954134764,0.8630868626232131,0.0026660115,0.019334318,0.090639085,-0.00016683148,-0.012029196,-0.0062280735,0.5235896,0.00019101906,-0.011351367,0.002348829,0.9999936372102752,-0.0001470008891910907,0.0035642572442252606,0.0010395858539288636,0.9677909138678492,-0.2517531852749549,-0.0034124478335567586,0.25175528877378534,0.9677849088378117,left_images/camera_left_25.png,right_images/camera_right_25.png
2025-05-30 15:54:00,1.459615707397461,26,-0.03493184,-8.903141e-05,0.11432712,-0.0011935572,0.00079215865,-0.05889922,1.0471802,0.057454243,-5.052616e-06,0.0019883951,0.8152531826565558,-0.0013847812343714986,0.5791030396650402,0.0011499046288358265,0.9999990405352444,0.0007724298901479259,-0.5791035536825005,3.618733956157658e-05,0.8152539928162115,0.016858857,0.00083915796,0.112121545,0.00048423166,8.3898165e-05,-0.011211886,1.0471792,-0.060939647,-9.813764e-05,0.0024163872,0.8630868778075241,0.0008897715451596387,-0.5050546996742604,-0.00049409098285974,0.9999994571428936,0.0009173810652398555,0.5050552417612955,-0.0005422365863976214,0.8630868489027763,0.0026660115,0.019334318,0.090639085,-0.0001668341,-0.012029196,-0.0062280735,0.5235896,0.00019101906,-0.011351367,0.002348829,0.9999936372102752,-0.0001470008891910907,0.0035642572442252606,0.0010395858539288636,0.9677909138678492,-0.2517531852749549,-0.0034124478335567586,0.25175528877378534,0.9677849088378117,left_images/camera_left_26.png,right_images/camera_right_26.png
2025-05-30 15:54:00,1.5291156768798828,27,-0.03493184,-8.902829e-05,0.11432712,-0.0011936186,0.0007921352,-0.05889922,1.0471802,0.057454243,-5.052616e-06,0.0019883951,0.8152531826565558,-0.0013847812343714986,0.5791030396650402,0.0011499046288358265,0.9999990405352444,0.0007724298901479259,-0.5791035536825005,3.618733956157658e-05,0.8152539928162115,0.016858857,0.0008391605,0.112121545,0.00048423195,8.394551e-05,-0.011211914,1.0471792,-0.060939647,-9.813764e-05,0.0024163872,0.8630868778075241,0.0008897715451596387,-0.5050546996742604,-0.00049409098285974,0.9999994571428936,0.0009173810652398555,0.5050552417612955,-0.0005422365863976214,0.8630868489027763,0.0026660115,0.019334318,0.090639085,-0.00016683672,-0.012029196,-0.0062280735,0.5235896,0.00019101906,-0.011351367,0.002348829,0.9999936372102752,-0.0001470008891910907,0.0035642572442252606,0.0010395858539288636,0.9677909138678492,-0.2517531852749549,-0.0034124478335567586,0.25175528877378534,0.9677849088378117,left_images/camera_left_27.png,right_images/camera_right_27.png
2025-05-30 15:54:00,1.5960276126861572,28,-0.03493184,-8.902702e-05,0.11432712,-0.0011936116,0.0007921282,-0.05889922,1.0471802,0.057454243,-5.052616e-06,0.0019883951,0.8152531826565558,-0.0013847812343714986,0.5791030396650402,0.0011499046288358265,0.9999990405352444,0.0007724298901479259,-0.5791035536825005,3.618733956157658e-05,0.8152539928162115,0.016858857,0.000839164,0.112121545,0.0004842168,8.392657e-05,-0.01121197,1.0471792,-0.060939647,-9.813764e-05,0.0024163872,0.8630868778075241,0.0008897715451596387,-0.5050546996742604,-0.00049409098285974,0.9999994571428936,0.0009173810652398555,0.5050552417612955,-0.0005422365863976214,0.8630868489027763,0.0026660115,0.019334318,0.090639085,-0.00016683934,-0.012029196,-0.0062280735,0.5235896,0.00019101906,-0.011351367,0.002348829,0.9999936372102752,-0.0001470008891910907,0.0035642572442252606,0.0010395858539288636,0.9677909138678492,-0.2517531852749549,-0.0034124478335567586,0.25175528877378534,0.9677849088378117,left_images/camera_left_28.png,right_images/camera_right_28.png
2025-05-30 15:54:01,1.6485023498535156,29,-0.03493184,-8.902614e-05,0.11432712,-0.0011936047,0.0007921212,-0.05889922,1.0471802,0.057454243,-5.052616e-06,0.0019883951,0.8152531826565558,-0.0013847812343714986,0.5791030396650402,0.0011499046288358265,0.9999990405352444,0.0007724298901479259,-0.5791035536825005,3.618733956157658e-05,0.8152539928162115,0.016858857,0.0008391675,0.112121545,0.00048421833,8.389039e-05,-0.011211942,1.0471792,-0.060939647,-9.813764e-05,0.0024163872,0.8630868778075241,0.0008897715451596387,-0.5050546996742604,-0.00049409098285974,0.9999994571428936,0.0009173810652398555,0.5050552417612955,-0.0005422365863976214,0.8630868489027763,0.0026660115,0.019334318,0.090639085,-0.00016684196,-0.012029196,-0.0062280735,0.5235896,0.00019101906,-0.011351367,0.002348829,0.9999936372102752,-0.0001470008891910907,0.0035642572442252606,0.0010395858539288636,0.9677909138678492,-0.2517531852749549,-0.0034124478335567586,0.25175528877378534,0.9677849088378117,left_images/camera_left_29.png,right_images/camera_right_29.png
2025-05-30 15:54:01,1.705106258392334,30,-0.03493184,-8.902527e-05,0.11432712,-0.0011935977,0.00079211424,-0.05889922,1.0471802,0.057454243,-5.052616e-06,0.0019883951,0.8152531826565558,-0.0013847812343714986,0.5791030396650402,0.0011499046288358265,0.9999990405352444,0.0007724298901479259,-0.5791035536825005,3.618733956157658e-05,0.8152539928162115,0.016858857,0.000839171,0.112121545,0.00048421862,8.393773e-05,-0.01121197,1.0471792,-0.060939647,-9.813764e-05,0.0024163872,0.8630868778075241,0.0008897715451596387,-0.5050546996742604,-0.00049409098285974,0.9999994571428936,0.0009173810652398555,0.5050552417612955,-0.0005422365863976214,0.8630868489027763,0.0026660115,0.019334318,0.090639085,-0.00016684458,-0.012029196,-0.0062280735,0.5235896,0.00019101906,-0.011351367,0.002348829,0.9999936372102752,-0.0001470008891910907,0.0035642572442252606,0.0010395858539288636,0.9677909138678492,-0.2517531852749549,-0.0034124478335567586,0.25175528877378534,0.9677849088378117,left_images/camera_left_30.png,right_images/camera_right_30.png
2025-05-30 15:54:01,1.7665348052978516,31,-0.03493184,-8.90244e-05,0.11432712,-0.0011935907,0.00079210725,-0.05889922,1.0471802,0.057454243,-5.052616e-06,0.0019883951,0.8152531826565558,-0.0013847812343714986,0.5791030396650402,0.0011499046288358265,0.9999990405352444,0.0007724298901479259,-0.5791035536825005,3.618733956157658e-05,0.8152539928162115,0.016858857,0.0008391745,0.112121545,0.00048422013,8.3901556e-05,-0.011211942,1.0471792,-0.060939647,-9.813764e-05,0.0024163872,0.8630868778075241,0.0008897715451596387,-0.5050546996742604,-0.00049409098285974,0.9999994571428936,0.0009173810652398555,0.5050552417612955,-0.0005422365863976214,0.8630868489027763,0.0026660115,0.019334318,0.090639085,-0.0001668472,-0.012029196,-0.0062280735,0.5235896,0.00019101906,-0.011351367,0.002348829,0.9999936372102752,-0.0001470008891910907,0.0035642572442252606,0.0010395858539288636,0.9677909138678492,-0.2517531852749549,-0.0034124478335567586,0.25175528877378534,0.9677849088378117,left_images/camera_left_31.png,right_images/camera_right_31.png
2025-05-30 15:54:01,1.8248682022094727,32,-0.03493184,-8.9023524e-05,0.11432712,-0.0011935837,0.00079210027,-0.05889922,1.0471802,0.057454243,-5.052616e-06,0.0019883951,0.8152531826565558,-0.0013847812343714986,0.5791030396650402,0.0011499046288358265,0.9999990405352444,0.0007724298901479259,-0.5791035536825005,3.618733956157658e-05,0.8152539928162115,0.016858857,0.000839178,0.112121545,0.000484205,8.388261e-05,-0.011211998,1.0471792,-0.06093965,-9.81303e-05,0.0024163844,0.8630870970011858,0.0008895826763511186,-0.5050543254272035,-0.0004940695912968665,0.9999994574625042,0.0009170441299723982,0.5050548672028661,-0.0005419569718133222,0.8630870682598228,0.0026660115,0.019334318,0.090639085,-0.00016684982,-0.012029196,-0.0062280735,0.5235896,0.00019101906,-0.011351367,0.002348829,0.9999936372102752,-0.0001470008891910907,0.0035642572442252606,0.0010395858539288636,0.9677909138678492,-0.2517531852749549,-0.0034124478335567586,0.25175528877378534,0.9677849088378117,left_images/camera_left_32.png,right_images/camera_right_32.png
2025-05-30 15:54:01,1.8931715488433838,33,-0.03493184,-8.902265e-05,0.11432712,-0.0011935767,0.0007920933,-0.05889922,1.0471802,0.057454243,-5.052616e-06,0.0019883951,0.8152531826565558,-0.0013847812343714986,0.5791030396650402,0.0011499046288358265,0.9999990405352444,0.0007724298901479259,-0.5791035536825005,3.618733956157658e-05,0.8152539928162115,0.016858857,0.00083917665,0.112121545,0.00048421265,8.381783e-05,-0.011211998,1.0471792,-0.06093965,-9.81303e-05,0.0024163844,0.8630870970011858,0.0008895826763511186,-0.5050543254272035,-0.0004940695912968665,0.9999994574625042,0.0009170441299723982,0.5050548672028661,-0.0005419569718133222,0.8630870682598228,0.0026660115,0.019334318,0.090639085,-0.00016685243,-0.012029196,-0.0062280735,0.5235896,0.00019101906,-0.011351367,0.002348829,0.9999936372102752,-0.0001470008891910907,0.0035642572442252606,0.0010395858539288636,0.9677909138678492,-0.2517531852749549,-0.0034124478335567586,0.25175528877378534,0.9677849088378117,left_images/camera_left_33.png,right_images/camera_right_33.png
2025-05-30 15:54:01,1.951580286026001,34,-0.03493184,-8.902178e-05,0.11432712,-0.0011935697,0.0007920863,-0.05889922,1.0471802,0.057454243,-5.052616e-06,0.0019883951,0.8152531826565558,-0.0013847812343714986,0.5791030396650402,0.0011499046288358265,0.9999990405352444,0.0007724298901479259,-0.5791035536825005,3.618733956157658e-05,0.8152539928162115,0.016858857,0.00083917344,0.112121545,0.00048420258,8.3837745e-05,-0.011211998,1.0471792,-0.06093965,-9.81303e-05,0.0024163844,0.8630870970011858,0.0008895826763511186,-0.5050543254272035,-0.0004940695912968665,0.9999994574625042,0.0009170441299723982,0.5050548672028661,-0.0005419569718133222,0.8630870682598228,0.0026660115,0.019334318,0.090639085,-0.00016685505,-0.012029196,-0.0062280735,0.5235896,0.00019101906,-0.011351367,0.002348829,0.9999936372102752,-0.0001470008891910907,0.0035642572442252606,0.0010395858539288636,0.9677909138678492,-0.2517531852749549,-0.0034124478335567586,0.25175528877378534,0.9677849088378117,left_images/camera_left_34.png,right_images/camera_right_34.png
2025-05-30 15:54:01,2.0191144943237305,35,-0.03493184,-8.9020905e-05,0.11432712,-0.0011935628,0.0007920793,-0.05889922,1.0471802,0.057454243,-5.047019e-06,0.0019883993,0.8152530959965895,-0.0013846235589863663,0.579103162040733,0.0011499048522584513,0.9999990407454994,0.0007721573101051903,-0.5791036756806214,3.6409898329196075e-05,0.8152539061467371,0.016858857,0.00083916995,0.112121545,0.0004841925,8.385767e-05,-0.011211998,1.0471792,-0.06093965,-9.81303e-05,0.0024163844,0.8630870970011858,0.0008895826763511186,-0.5050543254272035,-0.0004940695912968665,0.9999994574625042,0.0009170441299723982,0.5050548672028661,-0.0005419569718133222,0.8630870682598228,0.0026660115,0.019334318,0.090639085,-0.00016685767,-0.012029196,-0.0062280735,0.5235896,0.00019101906,-0.011351367,0.002348829,0.9999936372102752,-0.0001470008891910907,0.0035642572442252606,0.0010395858539288636,0.9677909138678492,-0.2517531852749549,-0.0034124478335567586,0.25175528877378534,0.9677849088378117,left_images/camera_left_35.png,right_images/camera_right_35.png
2025-05-30 15:54:01,2.082797050476074,36,-0.03493184,-8.901462e-05,0.11432712,-0.0011935628,0.00079203426,-0.05889922,1.0471802,0.057454243,-5.047019e-06,0.0019883993,0.8152530959965895,-0.0013846235589863663,0.579103162040733,0.0011499048522584513,0.9999990407454994,0.0007721573101051903,-0.5791036756806214,3.6409898329196075e-05,0.8152539061467371,0.016858857,0.00083916646,0.112121545,0.00048418244,8.387759e-05,-0.011211998,1.0471792,-0.06093965,-9.81303e-05,0.0024163844,0.8630870970011858,0.0008895826763511186,-0.5050543254272035,-0.0004940695912968665,0.9999994574625042,0.0009170441299723982,0.5050548672028661,-0.0005419569718133222,0.8630870682598228,0.0026660115,0.019334318,0.090639085,-0.00016686029,-0.012029196,-0.0062280735,0.5235896,0.00019101906,-0.011351367,0.002348829,0.9999936372102752,-0.0001470008891910907,0.0035642572442252606,0.0010395858539288636,0.9677909138678492,-0.2517531852749549,-0.0034124478335567586,0.25175528877378534,0.9677849088378117,left_images/camera_left_36.png,right_images/camera_right_36.png
2025-05-30 15:54:01,2.1411960124969482,37,-0.03493184,-8.9007954e-05,0.11432712,-0.0011935628,0.0007919892,-0.05889922,1.0471802,0.057454243,-5.047019e-06,0.0019883993,0.8152530959965895,-0.0013846235589863663,0.579103162040733,0.0011499048522584513,0.9999990407454994,0.0007721573101051903,-0.5791036756806214,3.6409898329196075e-05,0.8152539061467371,0.016858857,0.00083916297,0.112121545,0.00048417237,8.389751e-05,-0.011211998,1.0471792,-0.06093965,-9.813906e-05,0.0024163844,0.8630870678672954,0.0008898587613169522,-0.5050543747277321,-0.00049409371031296,0.9999994569870179,0.0009175494948959236,0.5050549169661067,-0.0005423809132538233,0.8630870388734295,0.0026660115,0.019334318,0.090639085,-0.00016686291,-0.012029196,-0.0062280735,0.5235896,0.00019101906,-0.011351367,0.002348829,0.9999936372102752,-0.0001470008891910907,0.0035642572442252606,0.0010395858539288636,0.9677909138678492,-0.2517531852749549,-0.0034124478335567586,0.25175528877378534,0.9677849088378117,left_images/camera_left_37.png,right_images/camera_right_37.png
2025-05-30 15:54:01,2.2072818279266357,38,-0.03493184,-8.900129e-05,0.11432712,-0.0011935628,0.00079194416,-0.05889922,1.0471802,0.057454243,-5.047019e-06,0.0019883993,0.8152530959965895,-0.0013846235589863663,0.579103162040733,0.0011499048522584513,0.9999990407454994,0.0007721573101051903,-0.5791036756806214,3.6409898329196075e-05,0.8152539061467371,0.016858857,0.0008391642,0.112121545,0.00048416786,8.396374e-05,-0.011211998,1.0471792,-0.06093965,-9.813906e-05,0.0024163844,0.8630870678672954,0.0008898587613169522,-0.5050543747277321,-0.00049409371031296,0.9999994569870179,0.0009175494948959236,0.5050549169661067,-0.0005423809132538233,0.8630870388734295,0.0026660115,0.019334318,0.090639085,-0.00016686553,-0.012029196,-0.0062280735,0.5235896,0.00019101906,-0.011351367,0.002348829,0.9999936372102752,-0.0001470008891910907,0.0035642572442252606,0.0010395858539288636,0.9677909138678492,-0.2517531852749549,-0.0034124478335567586,0.25175528877378534,0.9677849088378117,left_images/camera_left_38.png,right_images/camera_right_38.png
2025-05-30 15:54:01,2.263190984725952,39,-0.03493184,-8.8994624e-05,0.11432712,-0.0011935628,0.0007918991,-0.05889922,1.0471802,0.057454243,-5.047019e-06,0.0019883993,0.8152530959965895,-0.0013846235589863663,0.579103162040733,0.0011499048522584513,0.9999990407454994,0.0007721573101051903,-0.5791036756806214,3.6409898329196075e-05,0.8152539061467371,0.016858857,0.00083916733,0.112121545,0.00048418102,8.3945306e-05,-0.011211998,1.0471792,-0.06093965,-9.813906e-05,0.0024163844,0.8630870678672954,0.0008898587613169522,-0.5050543747277321,-0.00049409371031296,0.9999994569870179,0.0009175494948959236,0.5050549169661067,-0.0005423809132538233,0.8630870388734295,0.0026660115,0.019334318,0.090639085,-0.00016686815,-0.012029196,-0.0062280735,0.5235896,0.00019101906,-0.011351367,0.002348829,0.9999936372102752,-0.0001470008891910907,0.0035642572442252606,0.0010395858539288636,0.9677909138678492,-0.2517531852749549,-0.0034124478335567586,0.25175528877378534,0.9677849088378117,left_images/camera_left_39.png,right_images/camera_right_39.png
2025-05-30 15:54:01,2.321845769882202,40,-0.03493184,-8.898796e-05,0.11432712,-0.0011935628,0.00079185405,-0.05889922,1.0471802,0.057454243,-5.047019e-06,0.0019883993,0.8152530959965895,-0.0013846235589863663,0.579103162040733,0.0011499048522584513,0.9999990407454994,0.0007721573101051903,-0.5791036756806214,3.6409898329196075e-05,0.8152539061467371,0.016858857,0.0008391708,0.112121545,0.00048419417,8.3926854e-05,-0.011211998,1.0471792,-0.06093965,-9.813906e-05,0.0024163844,0.8630870678672954,0.0008898587613169522,-0.5050543747277321,-0.00049409371031296,0.9999994569870179,0.0009175494948959236,0.5050549169661067,-0.0005423809132538233,0.8630870388734295,0.0026660115,0.019334318,0.090639085,-0.00016687077,-0.012029196,-0.0062280735,0.5235896,0.00019101906,-0.011351367,0.002348829,0.9999936372102752,-0.0001470008891910907,0.0035642572442252606,0.0010395858539288636,0.9677909138678492,-0.2517531852749549,-0.0034124478335567586,0.25175528877378534,0.9677849088378117,left_images/camera_left_40.png,right_images/camera_right_40.png
2025-05-30 15:54:01,2.3765320777893066,41,-0.03493184,-8.8981295e-05,0.11432712,-0.0011935628,0.000791809,-0.05889922,1.0471802,0.057454243,-5.047019e-06,0.0019883993,0.8152530959965895,-0.0013846235589863663,0.579103162040733,0.0011499048522584513,0.9999990407454994,0.0007721573101051903,-0.5791036756806214,3.6409898329196075e-05,0.8152539061467371,0.016858857,0.0008391743,0.112121545,0.00048420732,8.39084e-05,-0.011211998,1.0471792,-0.06093965,-9.813906e-05,0.0024163844,0.8630870678672954,0.0008898587613169522,-0.5050543747277321,-0.00049409371031296,0.9999994569870179,0.0009175494948959236,0.5050549169661067,-0.0005423809132538233,0.8630870388734295,0.0026660115,0.019334318,0.090639085,-0.00016687339,-0.012029196,-0.0062280735,0.5235896,0.00019101906,-0.011351367,0.002348829,0.9999936372102752,-0.0001470008891910907,0.0035642572442252606,0.0010395858539288636,0.9677909138678492,-0.2517531852749549,-0.0034124478335567586,0.25175528877378534,0.9677849088378117,left_images/camera_left_41.png,right_images/camera_right_41.png
2025-05-30 15:54:01,2.4344515800476074,42,-0.03493184,-8.897463e-05,0.11432712,-0.0011935628,0.00079176395,-0.05889922,1.0471802,0.057454243,-5.047019e-06,0.0019883993,0.8152530959965895,-0.0013846235589863663,0.579103162040733,0.0011499048522584513,0.9999990407454994,0.0007721573101051903,-0.5791036756806214,3.6409898329196075e-05,0.8152539061467371,0.016858857,0.0008391778,0.112121545,0.00048422048,8.388995e-05,-0.011211998,1.0471792,-0.06093965,-9.813906e-05,0.0024163844,0.8630870678672954,0.0008898587613169522,-0.5050543747277321,-0.00049409371031296,0.9999994569870179,0.0009175494948959236,0.5050549169661067,-0.0005423809132538233,0.8630870388734295,0.0026660115,0.019334318,0.090639085,-0.00016687601,-0.012029196,-0.0062280735,0.5235896,0.00019101906,-0.011351367,0.002348829,0.9999936372102752,-0.0001470008891910907,0.0035642572442252606,0.0010395858539288636,0.9677909138678492,-0.2517531852749549,-0.0034124478335567586,0.25175528877378534,0.9677849088378117,left_images/camera_left_42.png,right_images/camera_right_42.png
2025-05-30 15:54:01,2.487905502319336,43,-0.03493184,-8.8967965e-05,0.11432712,-0.0011935628,0.0007917189,-0.05889922,1.0471802,0.057454243,-5.047019e-06,0.0019883993,0.8152530959965895,-0.0013846235589863663,0.579103162040733,0.0011499048522584513,0.9999990407454994,0.0007721573101051903,-0.5791036756806214,3.6409898329196075e-05,0.8152539061467371,0.016858857,0.00083917956,0.112121545,0.00048421597,8.395618e-05,-0.011211998,1.0471792,-0.06093965,-9.813906e-05,0.0024163844,0.8630870678672954,0.0008898587613169522,-0.5050543747277321,-0.00049409371031296,0.9999994569870179,0.0009175494948959236,0.5050549169661067,-0.0005423809132538233,0.8630870388734295,0.0026660115,0.019334318,0.090639085,-0.00016687863,-0.012029196,-0.0062280735,0.5235896,0.00019101906,-0.011351367,0.002348829,0.9999936372102752,-0.0001470008891910907,0.0035642572442252606,0.0010395858539288636,0.9677909138678492,-0.2517531852749549,-0.0034124478335567586,0.25175528877378534,0.9677849088378117,left_images/camera_left_43.png,right_images/camera_right_43.png
2025-05-30 15:54:01,2.5398151874542236,44,-0.03493184,-8.896233e-05,0.11432712,-0.0011935809,0.0007917584,-0.05889922,1.0471802,0.057454243,-5.047019e-06,0.0019883993,0.8152530959965895,-0.0013846235589863663,0.579103162040733,0.0011499048522584513,0.9999990407454994,0.0007721573101051903,-0.5791036756806214,3.6409898329196075e-05,0.8152539061467371,0.016858857,0.0008391827,0.112121545,0.00048422912,8.3937746e-05,-0.011211998,1.0471792,-0.06093965,-9.813906e-05,0.0024163844,0.8630870678672954,0.0008898587613169522,-0.5050543747277321,-0.00049409371031296,0.9999994569870179,0.0009175494948959236,0.5050549169661067,-0.0005423809132538233,0.8630870388734295,0.0026660115,0.019334318,0.090639085,-0.00016688125,-0.012029196,-0.0062280735,0.5235896,0.00019101906,-0.011351367,0.002348829,0.9999936372102752,-0.0001470008891910907,0.0035642572442252606,0.0010395858539288636,0.9677909138678492,-0.2517531852749549,-0.0034124478335567586,0.25175528877378534,0.9677849088378117,left_images/camera_left_44.png,right_images/camera_right_44.png
2025-05-30 15:54:01,2.5933454036712646,45,-0.03493184,-8.89558e-05,0.11432712,-0.0011935809,0.00079171336,-0.05889922,1.0471802,0.057454243,-5.047019e-06,0.0019883993,0.8152530959965895,-0.0013846235589863663,0.579103162040733,0.0011499048522584513,0.9999990407454994,0.0007721573101051903,-0.5791036756806214,3.6409898329196075e-05,0.8152539061467371,0.016858857,0.0008391862,0.112121545,0.00048424228,8.3919294e-05,-0.011211998,1.0471792,-0.06093965,-9.8133416e-05,0.0024163835,0.8630870965999285,0.0008902770721103373,-0.5050543248893535,-0.0004945856492221299,0.9999994567551765,0.0009175371314092399,0.5050548673834769,-0.0005421218376027824,0.8630870680505948,0.0026660115,0.019334318,0.090639085,-0.00016688387,-0.012029196,-0.0062280735,0.5235896,0.00019101906,-0.011351367,0.002348829,0.9999936372102752,-0.0001470008891910907,0.0035642572442252606,0.0010395858539288636,0.9677909138678492,-0.2517531852749549,-0.0034124478335567586,0.25175528877378534,0.9677849088378117,left_images/camera_left_45.png,right_images/camera_right_45.png
2025-05-30 15:54:02,2.653109312057495,46,-0.03493184,-8.895017e-05,0.11432712,-0.0011935991,0.0007917529,-0.05889922,1.0471802,0.057454243,-5.047019e-06,0.0019883993,0.8152530959965895,-0.0013846235589863663,0.579103162040733,0.0011499048522584513,0.9999990407454994,0.0007721573101051903,-0.5791036756806214,3.6409898329196075e-05,0.8152539061467371,0.016858857,0.0008391831,0.112121545,0.00048424402,8.3939645e-05,-0.011212054,1.0471792,-0.06093965,-9.8133416e-05,0.0024163835,0.8630870965999285,0.0008902770721103373,-0.5050543248893535,-0.0004945856492221299,0.9999994567551765,0.0009175371314092399,0.5050548673834769,-0.0005421218376027824,0.8630870680505948,0.0026660115,0.019334318,0.090639085,-0.00016688649,-0.012029196,-0.0062280735,0.5235896,0.00019101906,-0.011351367,0.002348829,0.9999936372102752,-0.0001470008891910907,0.0035642572442252606,0.0010395858539288636,0.9677909138678492,-0.2517531852749549,-0.0034124478335567586,0.25175528877378534,0.9677849088378117,left_images/camera_left_46.png,right_images/camera_right_46.png
2025-05-30 15:54:02,2.7026073932647705,47,-0.03493184,-8.8943634e-05,0.11432712,-0.0011935991,0.00079170783,-0.05889922,1.0471802,0.057454243,-5.0373524e-06,0.0019883974,0.8152530961941752,-0.001384307777985048,0.5791031625175148,0.0011498816982628435,0.999999041167876,0.0007716446132980078,-0.5791036754484394,3.681446783226569e-05,0.8152539062934958,0.016858857,0.0008391796,0.112121545,0.00048424577,8.396e-05,-0.01121211,1.0471792,-0.06093965,-9.8133416e-05,0.0024163835,0.8630870965999285,0.0008902770721103373,-0.5050543248893535,-0.0004945856492221299,0.9999994567551765,0.0009175371314092399,0.5050548673834769,-0.0005421218376027824,0.8630870680505948,0.0026660115,0.019334318,0.090639085,-0.0001668891,-0.012029196,-0.0062280735,0.5235896,0.00019101906,-0.011351367,0.002348829,0.9999936372102752,-0.0001470008891910907,0.0035642572442252606,0.0010395858539288636,0.9677909138678492,-0.2517531852749549,-0.0034124478335567586,0.25175528877378534,0.9677849088378117,left_images/camera_left_47.png,right_images/camera_right_47.png
2025-05-30 15:54:02,2.754190683364868,48,-0.03493184,-8.894272e-05,0.11432712,-0.001193627,0.0007917039,-0.05889922,1.0471802,0.057454243,-5.0373524e-06,0.0019883974,0.8152530961941752,-0.001384307777985048,0.5791031625175148,0.0011498816982628435,0.999999041167876,0.0007716446132980078,-0.5791036754484394,3.681446783226569e-05,0.8152539062934958,0.016858857,0.0008391761,0.112121545,0.00048424752,8.398036e-05,-0.0112121655,1.0471792,-0.06093965,-9.8133416e-05,0.0024163835,0.8630870965999285,0.0008902770721103373,-0.5050543248893535,-0.0004945856492221299,0.9999994567551765,0.0009175371314092399,0.5050548673834769,-0.0005421218376027824,0.8630870680505948,0.0026660115,0.019334318,0.090639085,-0.00016689172,-0.012029196,-0.0062280735,0.5235896,0.00019101906,-0.011351367,0.002348829,0.9999936372102752,-0.0001470008891910907,0.0035642572442252606,0.0010395858539288636,0.9677909138678492,-0.2517531852749549,-0.0034124478335567586,0.25175528877378534,0.9677849088378117,left_images/camera_left_48.png,right_images/camera_right_48.png
2025-05-30 15:54:02,2.8074588775634766,49,-0.03493184,-8.894228e-05,0.11432712,-0.001193655,0.0007916999,-0.05889922,1.0471802,0.057454243,-5.0373524e-06,0.0019883974,0.8152530961941752,-0.001384307777985048,0.5791031625175148,0.0011498816982628435,0.999999041167876,0.0007716446132980078,-0.5791036754484394,3.681446783226569e-05,0.8152539062934958,0.016858857,0.00083917263,0.112121545,0.00048424926,8.400072e-05,-0.011212221,1.0471792,-0.06093965,-9.8133416e-05,0.0024163835,0.8630870965999285,0.0008902770721103373,-0.5050543248893535,-0.0004945856492221299,0.9999994567551765,0.0009175371314092399,0.5050548673834769,-0.0005421218376027824,0.8630870680505948,0.0026660115,0.019334318,0.090639085,-0.00016689434,-0.012029196,-0.0062280735,0.5235896,0.00019101906,-0.011351367,0.002348829,0.9999936372102752,-0.0001470008891910907,0.0035642572442252606,0.0010395858539288636,0.9677909138678492,-0.2517531852749549,-0.0034124478335567586,0.25175528877378534,0.9677849088378117,left_images/camera_left_49.png,right_images/camera_right_49.png
2025-05-30 15:54:02,2.8554530143737793,50,-0.03493184,-8.8941844e-05,0.11432712,-0.0011936829,0.00079169596,-0.05889922,1.0471802,0.057454243,-5.0373524e-06,0.0019883974,0.8152530961941752,-0.001384307777985048,0.5791031625175148,0.0011498816982628435,0.999999041167876,0.0007716446132980078,-0.5791036754484394,3.681446783226569e-05,0.8152539062934958,0.016858857,0.00083916914,0.112121545,0.000484251,8.402108e-05,-0.011212277,1.0471792,-0.06093965,-9.8133416e-05,0.0024163835,0.8630870965999285,0.0008902770721103373,-0.5050543248893535,-0.0004945856492221299,0.9999994567551765,0.0009175371314092399,0.5050548673834769,-0.0005421218376027824,0.8630870680505948,0.0026660115,0.019334318,0.090639085,-0.00016689696,-0.012029196,-0.0062280735,0.5235896,0.00019101906,-0.011351367,0.002348829,0.9999936372102752,-0.0001470008891910907,0.0035642572442252606,0.0010395858539288636,0.9677909138678492,-0.2517531852749549,-0.0034124478335567586,0.25175528877378534,0.9677849088378117,left_images/camera_left_50.png,right_images/camera_right_50.png
2025-05-30 15:54:02,2.9067161083221436,51,-0.03493184,-8.894141e-05,0.11432712,-0.0011937108,0.000791692,-0.05889922,1.0471802,0.057454243,-5.0373524e-06,0.0019883974,0.8152530961941752,-0.001384307777985048,0.5791031625175148,0.0011498816982628435,0.999999041167876,0.0007716446132980078,-0.5791036754484394,3.681446783226569e-05,0.8152539062934958,0.016858857,0.00083916564,0.112121545,0.00048425276,8.4041436e-05,-0.011212333,1.0471792,-0.06093965,-9.8133416e-05,0.0024163835,0.8630870965999285,0.0008902770721103373,-0.5050543248893535,-0.0004945856492221299,0.9999994567551765,0.0009175371314092399,0.5050548673834769,-0.0005421218376027824,0.8630870680505948,0.0026660115,0.019334318,0.090639085,-0.00016689958,-0.012029196,-0.0062280735,0.5235896,0.00019101906,-0.011351367,0.002348829,0.9999936372102752,-0.0001470008891910907,0.0035642572442252606,0.0010395858539288636,0.9677909138678492,-0.2517531852749549,-0.0034124478335567586,0.25175528877378534,0.9677849088378117,left_images/camera_left_51.png,right_images/camera_right_51.png
2025-05-30 15:54:02,2.9591064453125,52,-0.03493184,-8.894097e-05,0.11432712,-0.0011937388,0.00079168804,-0.05889922,1.0471802,0.057454243,-5.0373524e-06,0.0019883974,0.8152530961941752,-0.001384307777985048,0.5791031625175148,0.0011498816982628435,0.999999041167876,0.0007716446132980078,-0.5791036754484394,3.681446783226569e-05,0.8152539062934958,0.016858857,0.00083916215,0.112121545,0.0004842545,8.4061794e-05,-0.011212389,1.0471792,-0.060939655,-9.813132e-05,0.0024163807,0.8630872419152198,0.0008901854575047347,-0.5050540767215232,-0.0004945454612592376,0.9999994568781858,0.0009174247218702285,0.5050546190937826,-0.0005420453715307091,0.8630872133908888,0.0026660115,0.019334318,0.090639085,-0.0001669022,-0.012029196,-0.0062280735,0.5235896,0.00019101906,-0.011351367,0.002348829,0.9999936372102752,-0.0001470008891910907,0.0035642572442252606,0.0010395858539288636,0.9677909138678492,-0.2517531852749549,-0.0034124478335567586,0.25175528877378534,0.9677849088378117,left_images/camera_left_52.png,right_images/camera_right_52.png
2025-05-30 15:54:02,3.016592502593994,53,-0.03493184,-8.8940535e-05,0.11432712,-0.0011937667,0.0007916841,-0.05889922,1.0471802,0.057454243,-5.0373524e-06,0.0019883974,0.8152530961941752,-0.001384307777985048,0.5791031625175148,0.0011498816982628435,0.999999041167876,0.0007716446132980078,-0.5791036754484394,3.681446783226569e-05,0.8152539062934958,0.016858857,0.0008391534,0.112121545,0.00048429702,8.4089974e-05,-0.011212389,1.0471792,-0.060939655,-9.813132e-05,0.0024163807,0.8630872419152198,0.0008901854575047347,-0.5050540767215232,-0.0004945454612592376,0.9999994568781858,0.0009174247218702285,0.5050546190937826,-0.0005420453715307091,0.8630872133908888,0.0026660115,0.019334318,0.090639085,-0.00016690482,-0.012029196,-0.0062280735,0.5235896,0.00019101906,-0.011351367,0.002348829,0.9999936372102752,-0.0001470008891910907,0.0035642572442252606,0.0010395858539288636,0.9677909138678492,-0.2517531852749549,-0.0034124478335567586,0.25175528877378534,0.9677849088378117,left_images/camera_left_53.png,right_images/camera_right_53.png
2025-05-30 15:54:02,3.0664021968841553,54,-0.03493184,-8.89401e-05,0.11432712,-0.0011937947,0.0007916801,-0.05889922,1.0471802,0.057454243,-5.0373524e-06,0.0019883974,0.8152530961941752,-0.001384307777985048,0.5791031625175148,0.0011498816982628435,0.999999041167876,0.0007716446132980078,-0.5791036754484394,3.681446783226569e-05,0.8152539062934958,0.016858857,0.0008391442,0.112121545,0.0004842399,8.414807e-05,-0.011212389,1.0471792,-0.060939655,-9.813132e-05,0.0024163807,0.8630872419152198,0.0008901854575047347,-0.5050540767215232,-0.0004945454612592376,0.9999994568781858,0.0009174247218702285,0.5050546190937826,-0.0005420453715307091,0.8630872133908888,0.0026660115,0.019334318,0.090639085,-0.00016690744,-0.012029196,-0.0062280735,0.5235896,0.00019101906,-0.011351367,0.002348829,0.9999936372102752,-0.0001470008891910907,0.0035642572442252606,0.0010395858539288636,0.9677909138678492,-0.2517531852749549,-0.0034124478335567586,0.25175528877378534,0.9677849088378117,left_images/camera_left_54.png,right_images/camera_right_54.png
2025-05-30 15:54:02,3.1175014972686768,55,-0.03493184,-8.893966e-05,0.11432712,-0.0011938226,0.00079167617,-0.05889922,1.0471802,0.057454243,-5.0373524e-06,0.0019883974,0.8152530961941752,-0.001384307777985048,0.5791031625175148,0.0011498816982628435,0.999999041167876,0.0007716446132980078,-0.5791036754484394,3.681446783226569e-05,0.8152539062934958,0.016858857,0.00083913445,0.112121545,0.0004842824,8.417626e-05,-0.011212389,1.0471792,-0.060939655,-9.813132e-05,0.0024163807,0.8630872419152198,0.0008901854575047347,-0.5050540767215232,-0.0004945454612592376,0.9999994568781858,0.0009174247218702285,0.5050546190937826,-0.0005420453715307091,0.8630872133908888,0.0026660115,0.019334318,0.090639085,-0.00016691006,-0.012029196,-0.0062280735,0.5235896,0.00019101906,-0.011351367,0.002348829,0.9999936372102752,-0.0001470008891910907,0.0035642572442252606,0.0010395858539288636,0.9677909138678492,-0.2517531852749549,-0.0034124478335567586,0.25175528877378534,0.9677849088378117,left_images/camera_left_55.png,right_images/camera_right_55.png
2025-05-30 15:54:02,3.1707026958465576,56,-0.03493184,-8.8939225e-05,0.11432712,-0.0011938505,0.0007916722,-0.05889922,1.0471802,0.057454243,-5.0373524e-06,0.0019883974,0.8152530961941752,-0.001384307777985048,0.5791031625175148,0.0011498816982628435,0.999999041167876,0.0007716446132980078,-0.5791036754484394,3.681446783226569e-05,0.8152539062934958,0.016858857,0.00083912525,0.112121545,0.00048422528,8.423436e-05,-0.011212389,1.0471792,-0.060939655,-9.813639e-05,0.0024163825,0.8630872712422116,0.000889812446945648,-0.505054027261918,-0.0004941412994572819,0.9999994571218519,0.0009173769005290425,0.5050545693725075,-0.0005422082724509116,0.8630872423840711,0.0026660115,0.019334318,0.090639085,-0.00016691268,-0.012029196,-0.0062280735,0.5235896,0.00019101906,-0.011351367,0.002348829,0.9999936372102752,-0.0001470008891910907,0.0035642572442252606,0.0010395858539288636,0.9677909138678492,-0.2517531852749549,-0.0034124478335567586,0.25175528877378534,0.9677849088378117,left_images/camera_left_56.png,right_images/camera_right_56.png
2025-05-30 15:54:02,3.2373201847076416,57,-0.03493184,-8.893879e-05,0.11432712,-0.0011938785,0.00079166825,-0.05889922,1.0471802,0.057454243,-5.0373524e-06,0.0019883974,0.8152530961941752,-0.001384307777985048,0.5791031625175148,0.0011498816982628435,0.999999041167876,0.0007716446132980078,-0.5791036754484394,3.681446783226569e-05,0.8152539062934958,0.016858857,0.00083912915,0.112121545,0.0004841725,8.424642e-05,-0.011212389,1.0471792,-0.060939655,-9.813639e-05,0.0024163825,0.8630872712422116,0.000889812446945648,-0.505054027261918,-0.0004941412994572819,0.9999994571218519,0.0009173769005290425,0.5050545693725075,-0.0005422082724509116,0.8630872423840711,0.0026660115,0.019334318,0.090639085,-0.0001669153,-0.012029196,-0.0062280735,0.5235896,0.00019101906,-0.011351367,0.002348829,0.9999936372102752,-0.0001470008891910907,0.0035642572442252606,0.0010395858539288636,0.9677909138678492,-0.2517531852749549,-0.0034124478335567586,0.25175528877378534,0.9677849088378117,left_images/camera_left_57.png,right_images/camera_right_57.png
2025-05-30 15:54:02,3.2896416187286377,58,-0.03493184,-8.893835e-05,0.11432712,-0.0011939064,0.0007916643,-0.05889922,1.0471802,0.057454243,-5.0373524e-06,0.0019883974,0.8152530961941752,-0.001384307777985048,0.5791031625175148,0.0011498816982628435,0.999999041167876,0.0007716446132980078,-0.5791036754484394,3.681446783226569e-05,0.8152539062934958,0.016858857,0.00083913264,0.112121545,0.00048421932,8.422856e-05,-0.011212389,1.0471792,-0.060939655,-9.813639e-05,0.0024163825,0.8630872712422116,0.000889812446945648,-0.505054027261918,-0.0004941412994572819,0.9999994571218519,0.0009173769005290425,0.5050545693725075,-0.0005422082724509116,0.8630872423840711,0.0026660115,0.019334318,0.090639085,-0.00016691792,-0.012029196,-0.0062280735,0.5235896,0.00019101906,-0.011351367,0.002348829,0.9999936372102752,-0.0001470008891910907,0.0035642572442252606,0.0010395858539288636,0.9677909138678492,-0.2517531852749549,-0.0034124478335567586,0.25175528877378534,0.9677849088378117,left_images/camera_left_58.png,right_images/camera_right_58.png
2025-05-30 15:54:02,3.341167688369751,59,-0.03493184,-8.8937915e-05,0.11432712,-0.0011939344,0.00079166034,-0.05889922,1.0471802,0.057454243,-5.0324984e-06,0.00198837,0.8152530418641699,-0.001384647003948141,0.5791032381915093,0.0011502701130179883,0.99999904069109,0.0007716835920934543,-0.579103751161987,3.700775143277243e-05,0.8152538525027289,0.016858857,0.0008391374,0.112121545,0.00048416655,8.4240615e-05,-0.011212389,1.0471792,-0.060939655,-9.813639e-05,0.0024163825,0.8630872712422116,0.000889812446945648,-0.505054027261918,-0.0004941412994572819,0.9999994571218519,0.0009173769005290425,0.5050545693725075,-0.0005422082724509116,0.8630872423840711,0.0026660115,0.019334318,0.090639085,-0.00016692054,-0.012029196,-0.0062280735,0.5235896,0.00019101906,-0.011351367,0.002348829,0.9999936372102752,-0.0001470008891910907,0.0035642572442252606,0.0010395858539288636,0.9677909138678492,-0.2517531852749549,-0.0034124478335567586,0.25175528877378534,0.9677849088378117,left_images/camera_left_59.png,right_images/camera_right_59.png
2025-05-30 15:54:02,3.4057257175445557,60,-0.03493184,-8.893704e-05,0.11432712,-0.0011939274,0.00079165335,-0.05889922,1.0471802,0.057454243,-5.0373524e-06,0.0019883974,0.8152530961941752,-0.001384307777985048,0.5791031625175148,0.0011498816982628435,0.999999041167876,0.0007716446132980078,-0.5791036754484394,3.681446783226569e-05,0.8152539062934958,0.016858857,0.0008391409,0.112121545,0.00048421338,8.422275e-05,-0.011212389,1.0471792,-0.060939655,-9.813639e-05,0.0024163825,0.8630872712422116,0.000889812446945648,-0.505054027261918,-0.0004941412994572819,0.9999994571218519,0.0009173769005290425,0.5050545693725075,-0.0005422082724509116,0.8630872423840711,0.0026660115,0.019334318,0.090639085,-0.00016692316,-0.012029196,-0.0062280735,0.5235896,0.00019101906,-0.011351367,0.002348829,0.9999936372102752,-0.0001470008891910907,0.0035642572442252606,0.0010395858539288636,0.9677909138678492,-0.2517531852749549,-0.0034124478335567586,0.25175528877378534,0.9677849088378117,left_images/camera_left_60.png,right_images/camera_right_60.png
2025-05-30 15:54:02,3.474271059036255,61,-0.03493184,-8.892753e-05,0.11432712,-0.0011938864,0.00079161965,-0.05889911,1.0471802,0.057454243,-5.0373524e-06,0.0019883974,0.8152530961941752,-0.001384307777985048,0.5791031625175148,0.0011498816982628435,0.999999041167876,0.0007716446132980078,-0.5791036754484394,3.681446783226569e-05,0.8152539062934958,0.016858857,0.0008391444,0.112121545,0.00048426024,8.420488e-05,-0.011212389,1.0471792,-0.060939655,-9.813132e-05,0.0024163807,0.8630872419152198,0.0008901854575047347,-0.5050540767215232,-0.0004945454612592376,0.9999994568781858,0.0009174247218702285,0.5050546190937826,-0.0005420453715307091,0.8630872133908888,0.0026660115,0.019334318,0.090639085,-0.00016692578,-0.012029196,-0.0062280735,0.5235896,0.00019101906,-0.011351367,0.002348829,0.9999936372102752,-0.0001470008891910907,0.0035642572442252606,0.0010395858539288636,0.9677909138678492,-0.2517531852749549,-0.0034124478335567586,0.25175528877378534,0.9677849088378117,left_images/camera_left_61.png,right_images/camera_right_61.png
2025-05-30 15:54:02,3.526712417602539,62,-0.03493184,-8.8925546e-05,0.11432712,-0.0011939143,0.00079161575,-0.05889911,1.0471802,0.057454243,-5.0373524e-06,0.0019883974,0.8152530961941752,-0.001384307777985048,0.5791031625175148,0.0011498816982628435,0.999999041167876,0.0007716446132980078,-0.5791036754484394,3.681446783226569e-05,0.8152539062934958,0.016858857,0.0008391361,0.112121545,0.00048430276,8.423306e-05,-0.011212389,1.0471792,-0.060939655,-9.813132e-05,0.0024163807,0.8630872419152198,0.0008901854575047347,-0.5050540767215232,-0.0004945454612592376,0.9999994568781858,0.0009174247218702285,0.5050546190937826,-0.0005420453715307091,0.8630872133908888,0.0026660115,0.019334318,0.090639085,-0.0001669284,-0.012029196,-0.0062280735,0.5235896,0.00019101906,-0.011351367,0.002348829,0.9999936372102752,-0.0001470008891910907,0.0035642572442252606,0.0010395858539288636,0.9677909138678492,-0.2517531852749549,-0.0034124478335567586,0.25175528877378534,0.9677849088378117,left_images/camera_left_62.png,right_images/camera_right_62.png
2025-05-30 15:54:02,3.578298330307007,63,-0.03493184,-8.892511e-05,0.11432712,-0.0011939423,0.0007916118,-0.05889911,1.0471802,0.057454243,-5.0324984e-06,0.00198837,0.8152530418641699,-0.001384647003948141,0.5791032381915093,0.0011502701130179883,0.99999904069109,0.0007716835920934543,-0.579103751161987,3.700775143277243e-05,0.8152538525027289,0.016858857,0.0008391269,0.112121545,0.00048424563,8.429116e-05,-0.011212389,1.0471792,-0.06093965,-9.81376e-05,0.0024163816,0.8630871837848343,0.0008903297562106217,-0.5050541758062091,-0.0004945113443121333,0.999999456579507,0.0009177686099422136,0.5050547184661226,-0.0005423593054927621,0.8630871550437359,0.0026660115,0.019334318,0.090639085,-0.00016693101,-0.012029196,-0.0062280735,0.5235896,0.00019101906,-0.011351367,0.002348829,0.9999936372102752,-0.0001470008891910907,0.0035642572442252606,0.0010395858539288636,0.9677909138678492,-0.2517531852749549,-0.0034124478335567586,0.25175528877378534,0.9677849088378117,left_images/camera_left_63.png,right_images/camera_right_63.png
2025-05-30 15:54:02,3.630516290664673,64,-0.03493184,-8.892424e-05,0.11432712,-0.0011939353,0.0007916048,-0.05889911,1.0471802,0.057454243,-5.0324984e-06,0.00198837,0.8152530418641699,-0.001384647003948141,0.5791032381915093,0.0011502701130179883,0.99999904069109,0.0007716835920934543,-0.579103751161987,3.700775143277243e-05,0.8152538525027289,0.016858857,0.00083912315,0.112121545,0.00048424388,8.431153e-05,-0.011212445,1.0471792,-0.06093965,-9.81376e-05,0.0024163816,0.8630871837848343,0.0008903297562106217,-0.5050541758062091,-0.0004945113443121333,0.999999456579507,0.0009177686099422136,0.5050547184661226,-0.0005423593054927621,0.8630871550437359,0.0026660115,0.019334318,0.090639085,-0.00016693363,-0.012029196,-0.0062280735,0.5235896,0.00019101906,-0.011351367,0.002348829,0.9999936372102752,-0.0001470008891910907,0.0035642572442252606,0.0010395858539288636,0.9677909138678492,-0.2517531852749549,-0.0034124478335567586,0.25175528877378534,0.9677849088378117,left_images/camera_left_64.png,right_images/camera_right_64.png
2025-05-30 15:54:03,3.68306303024292,65,-0.03493184,-8.892336e-05,0.11432712,-0.0011939283,0.0007915978,-0.05889911,1.0471802,0.057454243,-5.0373524e-06,0.0019883974,0.8152530961941752,-0.001384307777985048,0.5791031625175148,0.0011498816982628435,0.999999041167876,0.0007716446132980078,-0.5791036754484394,3.681446783226569e-05,0.8152539062934958,0.016858857,0.00083911966,0.112121545,0.00048424213,8.4331885e-05,-0.011212501,1.0471792,-0.06093965,-9.81376e-05,0.0024163816,0.8630871837848343,0.0008903297562106217,-0.5050541758062091,-0.0004945113443121333,0.999999456579507,0.0009177686099422136,0.5050547184661226,-0.0005423593054927621,0.8630871550437359,0.0026660115,0.019334318,0.090639085,-0.00016693625,-0.012029196,-0.0062280735,0.5235896,0.00019101906,-0.011351367,0.002348829,0.9999936372102752,-0.0001470008891910907,0.0035642572442252606,0.0010395858539288636,0.9677909138678492,-0.2517531852749549,-0.0034124478335567586,0.25175528877378534,0.9677849088378117,left_images/camera_left_65.png,right_images/camera_right_65.png
2025-05-30 15:54:03,3.7427127361297607,66,-0.03493184,-8.8913854e-05,0.11432712,-0.0011938873,0.0007915641,-0.058898997,1.0471802,0.057454243,-5.038455e-06,0.0019883942,0.815253368388591,-0.0013842759042519313,0.5791027794021346,0.0011498499735721355,0.9999990412123861,0.0007716342052277109,-0.5791032923201997,3.680393061534999e-05,0.8152541784433711,0.016858857,0.00083911617,0.112121545,0.0004842404,8.435224e-05,-0.011212557,1.0471792,-0.06093965,-9.81376e-05,0.0024163816,0.8630871837848343,0.0008903297562106217,-0.5050541758062091,-0.0004945113443121333,0.999999456579507,0.0009177686099422136,0.5050547184661226,-0.0005423593054927621,0.8630871550437359,0.0026660115,0.019334318,0.090639085,-0.00016693887,-0.012029196,-0.0062280735,0.5235896,0.00019101906,-0.011351367,0.002348829,0.9999936372102752,-0.0001470008891910907,0.0035642572442252606,0.0010395858539288636,0.9677909138678492,-0.2517531852749549,-0.0034124478335567586,0.25175528877378534,0.9677849088378117,left_images/camera_left_66.png,right_images/camera_right_66.png
2025-05-30 15:54:03,3.8001041412353516,67,-0.03493184,-8.8905654e-05,0.11432712,-0.0011938408,0.0007915166,-0.058898997,1.0471802,0.057454243,-5.038455e-06,0.0019883942,0.815253368388591,-0.0013842759042519313,0.5791027794021346,0.0011498499735721355,0.9999990412123861,0.0007716342052277109,-0.5791032923201997,3.680393061534999e-05,0.8152541784433711,0.016858857,0.0008391127,0.112121545,0.00048423864,8.43726e-05,-0.0112126125,1.0471792,-0.06093965,-9.81376e-05,0.0024163816,0.8630871837848343,0.0008903297562106217,-0.5050541758062091,-0.0004945113443121333,0.999999456579507,0.0009177686099422136,0.5050547184661226,-0.0005423593054927621,0.8630871550437359,0.0026660115,0.019334318,0.090639085,-0.00016694149,-0.012029196,-0.0062280735,0.5235896,0.00019101906,-0.011351367,0.002348829,0.9999936372102752,-0.0001470008891910907,0.0035642572442252606,0.0010395858539288636,0.9677909138678492,-0.2517531852749549,-0.0034124478335567586,0.25175528877378534,0.9677849088378117,left_images/camera_left_67.png,right_images/camera_right_67.png
2025-05-30 15:54:03,3.8513851165771484,68,-0.03493184,-8.889842e-05,0.11432712,-0.0011937942,0.0007914691,-0.058898997,1.0471802,0.057454243,-5.038455e-06,0.0019883942,0.815253368388591,-0.0013842759042519313,0.5791027794021346,0.0011498499735721355,0.9999990412123861,0.0007716342052277109,-0.5791032923201997,3.680393061534999e-05,0.8152541784433711,0.016858857,0.0008391092,0.112121545,0.0004842369,8.439296e-05,-0.011212668,1.0471792,-0.060939655,-9.814541e-05,0.0024163853,0.8630871973070193,0.0008900722091714529,-0.5050541531520923,-0.0004941602203269607,0.9999994566703624,0.0009178587347377525,0.505054695701754,-0.0005426144512898892,0.8630871682044441,0.0026660115,0.019334318,0.090639085,-0.00016694411,-0.012029196,-0.0062280735,0.5235896,0.00019101906,-0.011351367,0.002348829,0.9999936372102752,-0.0001470008891910907,0.0035642572442252606,0.0010395858539288636,0.9677909138678492,-0.2517531852749549,-0.0034124478335567586,0.25175528877378534,0.9677849088378117,left_images/camera_left_68.png,right_images/camera_right_68.png
2025-05-30 15:54:03,3.9062087535858154,69,-0.03493184,-8.889119e-05,0.11432712,-0.0011937476,0.0007914216,-0.058898997,1.0471802,0.057454243,-5.038455e-06,0.0019883942,0.815253368388591,-0.0013842759042519313,0.5791027794021346,0.0011498499735721355,0.9999990412123861,0.0007716342052277109,-0.5791032923201997,3.680393061534999e-05,0.8152541784433711,0.016858857,0.0008391189,0.112121545,0.00048419728,8.438211e-05,-0.011212724,1.0471792,-0.060939655,-9.814541e-05,0.0024163853,0.8630871973070193,0.0008900722091714529,-0.5050541531520923,-0.0004941602203269607,0.9999994566703624,0.0009178587347377525,0.505054695701754,-0.0005426144512898892,0.8630871682044441,0.0026660115,0.019334318,0.090639085,-0.00016694673,-0.012029196,-0.0062280735,0.5235896,0.00019101906,-0.011351367,0.002348829,0.9999936372102752,-0.0001470008891910907,0.0035642572442252606,0.0010395858539288636,0.9677909138678492,-0.2517531852749549,-0.0034124478335567586,0.25175528877378534,0.9677849088378117,left_images/camera_left_69.png,right_images/camera_right_69.png
2025-05-30 15:54:03,3.9605486392974854,70,-0.03493184,-8.888396e-05,0.11432712,-0.001193701,0.0007913741,-0.058898997,1.0471802,0.057454243,-5.038455e-06,0.0019883942,0.815253368388591,-0.0013842759042519313,0.5791027794021346,0.0011498499735721355,0.9999990412123861,0.0007716342052277109,-0.5791032923201997,3.680393061534999e-05,0.8152541784433711,0.016858857,0.00083912845,0.112121545,0.00048422458,8.43248e-05,-0.011212703,1.0471792,-0.060939655,-9.814541e-05,0.0024163853,0.8630871973070193,0.0008900722091714529,-0.5050541531520923,-0.0004941602203269607,0.9999994566703624,0.0009178587347377525,0.505054695701754,-0.0005426144512898892,0.8630871682044441,0.0026660115,0.019334318,0.090639085,-0.00016694935,-0.012029196,-0.0062280735,0.5235896,0.00019101906,-0.011351367,0.002348829,0.9999936372102752,-0.0001470008891910907,0.0035642572442252606,0.0010395858539288636,0.9677909138678492,-0.2517531852749549,-0.0034124478335567586,0.25175528877378534,0.9677849088378117,left_images/camera_left_70.png,right_images/camera_right_70.png
2025-05-30 15:54:03,4.01080060005188,71,-0.03493184,-8.8876724e-05,0.11432712,-0.0011936545,0.00079132663,-0.058898997,1.0471802,0.057454247,-5.031022e-06,0.0019883951,0.8152533474754917,-0.001384115778490761,0.5791028092260623,0.0011498840152875823,0.9999990414235298,0.0007713097776802856,-0.5791033216937688,3.7088185342752926e-05,0.8152541575654245,0.016858857,0.0008391394,0.112121545,0.00048418497,8.431395e-05,-0.011212759,1.0471792,-0.060939655,-9.814521e-05,0.0024163844,0.8630874031905063,0.0008900020118547032,-0.5050538014412798,-0.0004940902867193793,0.9999994567223962,0.0009178396925384922,0.5050543439360335,-0.0005426336992153853,0.863087374035799,0.0026660115,0.019334318,0.090639085,-0.00016695197,-0.012029196,-0.0062280735,0.5235896,0.00019101906,-0.011351367,0.002348829,0.9999936372102752,-0.0001470008891910907,0.0035642572442252606,0.0010395858539288636,0.9677909138678492,-0.2517531852749549,-0.0034124478335567586,0.25175528877378534,0.9677849088378117,left_images/camera_left_71.png,right_images/camera_right_71.png
2025-05-30 15:54:03,4.060832738876343,72,-0.03493184,-8.8879555e-05,0.11432712,-0.0011936434,0.0007912911,-0.058898997,1.0471802,0.057454247,-5.031022e-06,0.0019883951,0.8152533474754917,-0.001384115778490761,0.5791028092260623,0.0011498840152875823,0.9999990414235298,0.0007713097776802856,-0.5791033216937688,3.7088185342752926e-05,0.8152541575654245,0.016858857,0.0008391434,0.112121545,0.00048417796,8.4295265e-05,-0.011212759,1.0471792,-0.060939655,-9.814521e-05,0.0024163844,0.8630874031905063,0.0008900020118547032,-0.5050538014412798,-0.0004940902867193793,0.9999994567223962,0.0009178396925384922,0.5050543439360335,-0.0005426336992153853,0.863087374035799,0.0026660115,0.019334318,0.090639085,-0.00016695459,-0.012029196,-0.0062280735,0.5235896,0.00019101906,-0.011351367,0.002348829,0.9999936372102752,-0.0001470008891910907,0.0035642572442252606,0.0010395858539288636,0.9677909138678492,-0.2517531852749549,-0.0034124478335567586,0.25175528877378534,0.9677849088378117,left_images/camera_left_72.png,right_images/camera_right_72.png
2025-05-30 15:54:03,4.111694812774658,73,-0.03493184,-8.8884226e-05,0.11432712,-0.0011936504,0.00079132395,-0.058898997,1.0471802,0.057454247,-5.031022e-06,0.0019883951,0.8152533474754917,-0.001384115778490761,0.5791028092260623,0.0011498840152875823,0.9999990414235298,0.0007713097776802856,-0.5791033216937688,3.7088185342752926e-05,0.8152541575654245,0.016858857,0.0008391469,0.112121545,0.00048417097,8.4276566e-05,-0.011212759,1.0471792,-0.060939655,-9.814521e-05,0.0024163844,0.8630874031905063,0.0008900020118547032,-0.5050538014412798,-0.0004940902867193793,0.9999994567223962,0.0009178396925384922,0.5050543439360335,-0.0005426336992153853,0.863087374035799,0.0026660115,0.019334318,0.090639085,-0.00016695721,-0.012029196,-0.0062280735,0.5235896,0.00019101906,-0.011351367,0.002348829,0.9999936372102752,-0.0001470008891910907,0.0035642572442252606,0.0010395858539288636,0.9677909138678492,-0.2517531852749549,-0.0034124478335567586,0.25175528877378534,0.9677849088378117,left_images/camera_left_73.png,right_images/camera_right_73.png
2025-05-30 15:54:03,4.1729090213775635,74,-0.03493184,-8.888784e-05,0.11432712,-0.0011936394,0.00079128845,-0.058898997,1.0471802,0.057454247,-5.031022e-06,0.0019883951,0.8152533474754917,-0.001384115778490761,0.5791028092260623,0.0011498840152875823,0.9999990414235298,0.0007713097776802856,-0.5791033216937688,3.7088185342752926e-05,0.8152541575654245,0.016858857,0.0008391504,0.112121545,0.000484164,8.425787e-05,-0.011212759,1.0471792,-0.060939655,-9.813662e-05,0.0024163807,0.8630874770932819,0.0008897889914751393,-0.5050536755240025,-0.0004941181075054249,0.9999994571391566,0.0009173705293202116,0.5050542176163364,-0.0005422148493721309,0.8630874482177386,0.0026660115,0.019334318,0.090639085,-0.00016695983,-0.012029196,-0.0062280735,0.5235896,0.00019101906,-0.011351367,0.002348829,0.9999936372102752,-0.0001470008891910907,0.0035642572442252606,0.0010395858539288636,0.9677909138678492,-0.2517531852749549,-0.0034124478335567586,0.25175528877378534,0.9677849088378117,left_images/camera_left_74.png,right_images/camera_right_74.png
2025-05-30 15:54:03,4.2315802574157715,75,-0.03493184,-8.889251e-05,0.11432712,-0.0011936463,0.0007913213,-0.058898997,1.0471802,0.057454247,-5.031022e-06,0.0019883951,0.8152533474754917,-0.001384115778490761,0.5791028092260623,0.0011498840152875823,0.9999990414235298,0.0007713097776802856,-0.5791033216937688,3.7088185342752926e-05,0.8152541575654245,0.016858857,0.0008391494,0.112121545,0.0004841748,8.419304e-05,-0.011212787,1.0471792,-0.060939655,-9.813662e-05,0.0024163807,0.8630874770932819,0.0008897889914751393,-0.5050536755240025,-0.0004941181075054249,0.9999994571391566,0.0009173705293202116,0.5050542176163364,-0.0005422148493721309,0.8630874482177386,0.0026660115,0.019334318,0.090639085,-0.00016696245,-0.012029196,-0.0062280735,0.5235896,0.00019101906,-0.011351367,0.002348829,0.9999936372102752,-0.0001470008891910907,0.0035642572442252606,0.0010395858539288636,0.9677909138678492,-0.2517531852749549,-0.0034124478335567586,0.25175528877378534,0.9677849088378117,left_images/camera_left_75.png,right_images/camera_right_75.png
2025-05-30 15:54:03,4.283549070358276,76,-0.03493184,-8.889613e-05,0.11432712,-0.0011936353,0.00079128577,-0.058898997,1.0471802,0.057454247,-5.031022e-06,0.0019883951,0.8152533474754917,-0.001384115778490761,0.5791028092260623,0.0011498840152875823,0.9999990414235298,0.0007713097776802856,-0.5791033216937688,3.7088185342752926e-05,0.8152541575654245,0.016858857,0.00083914114,0.112121545,0.00048416742,8.425202e-05,-0.011212787,1.0471792,-0.060939655,-9.813662e-05,0.0024163807,0.8630874770932819,0.0008897889914751393,-0.5050536755240025,-0.0004941181075054249,0.9999994571391566,0.0009173705293202116,0.5050542176163364,-0.0005422148493721309,0.8630874482177386,0.0026660115,0.019334318,0.090639085,-0.00016696507,-0.012029196,-0.0062280735,0.5235896,0.00019101906,-0.011351367,0.002348829,0.9999936372102752,-0.0001470008891910907,0.0035642572442252606,0.0010395858539288636,0.9677909138678492,-0.2517531852749549,-0.0034124478335567586,0.25175528877378534,0.9677849088378117,left_images/camera_left_76.png,right_images/camera_right_76.png
2025-05-30 15:54:03,4.332836627960205,77,-0.03493184,-8.89008e-05,0.11432712,-0.0011936423,0.0007913186,-0.058898997,1.0471802,0.057454247,-5.031022e-06,0.0019883951,0.8152533474754917,-0.001384115778490761,0.5791028092260623,0.0011498840152875823,0.9999990414235298,0.0007713097776802856,-0.5791033216937688,3.7088185342752926e-05,0.8152541575654245,0.016858857,0.0008391391,0.112121545,0.00048417822,8.418719e-05,-0.011212815,1.0471792,-0.060939655,-9.813662e-05,0.0024163807,0.8630874770932819,0.0008897889914751393,-0.5050536755240025,-0.0004941181075054249,0.9999994571391566,0.0009173705293202116,0.5050542176163364,-0.0005422148493721309,0.8630874482177386,0.0026660115,0.019334318,0.090639085,-0.00016696769,-0.012029196,-0.0062280735,0.5235896,0.00019101906,-0.011351367,0.002348829,0.9999936372102752,-0.0001470008891910907,0.0035642572442252606,0.0010395858539288636,0.9677909138678492,-0.2517531852749549,-0.0034124478335567586,0.25175528877378534,0.9677849088378117,left_images/camera_left_77.png,right_images/camera_right_77.png
2025-05-30 15:54:03,4.396279811859131,78,-0.03493184,-8.890442e-05,0.11432712,-0.0011936312,0.0007912831,-0.058898997,1.0471802,0.057454247,-5.031022e-06,0.0019883951,0.8152533474754917,-0.001384115778490761,0.5791028092260623,0.0011498840152875823,0.9999990414235298,0.0007713097776802856,-0.5791033216937688,3.7088185342752926e-05,0.8152541575654245,0.016858857,0.00083913084,0.112121545,0.00048417086,8.424617e-05,-0.011212815,1.0471792,-0.060939655,-9.813662e-05,0.0024163807,0.8630874770932819,0.0008897889914751393,-0.5050536755240025,-0.0004941181075054249,0.9999994571391566,0.0009173705293202116,0.5050542176163364,-0.0005422148493721309,0.8630874482177386,0.0026660115,0.019334318,0.090639085,-0.0001669703,-0.012029196,-0.0062280735,0.5235896,0.00019101906,-0.011351367,0.002348829,0.9999936372102752,-0.0001470008891910907,0.0035642572442252606,0.0010395858539288636,0.9677909138678492,-0.2517531852749549,-0.0034124478335567586,0.25175528877378534,0.9677849088378117,left_images/camera_left_78.png,right_images/camera_right_78.png
2025-05-30 15:54:03,4.459418773651123,79,-0.03493184,-8.890909e-05,0.11432712,-0.0011936382,0.0007913159,-0.058898997,1.0471802,0.057454247,-5.031022e-06,0.0019883951,0.8152533474754917,-0.001384115778490761,0.5791028092260623,0.0011498840152875823,0.9999990414235298,0.0007713097776802856,-0.5791033216937688,3.7088185342752926e-05,0.8152541575654245,0.016858857,0.0008391288,0.112121545,0.00048418166,8.418134e-05,-0.011212843,1.0471792,-0.060939655,-9.813662e-05,0.0024163807,0.8630874770932819,0.0008897889914751393,-0.5050536755240025,-0.0004941181075054249,0.9999994571391566,0.0009173705293202116,0.5050542176163364,-0.0005422148493721309,0.8630874482177386,0.0026660115,0.019334318,0.090639085,-0.00016697292,-0.012029196,-0.0062280735,0.5235896,0.00019101906,-0.011351367,0.002348829,0.9999936372102752,-0.0001470008891910907,0.0035642572442252606,0.0010395858539288636,0.9677909138678492,-0.2517531852749549,-0.0034124478335567586,0.25175528877378534,0.9677849088378117,left_images/camera_left_79.png,right_images/camera_right_79.png
2025-05-30 15:54:03,4.509459018707275,80,-0.03493184,-8.891389e-05,0.11432712,-0.0011936452,0.00079134875,-0.058898997,1.0471802,0.057454243,-5.038455e-06,0.0019883942,0.815253368388591,-0.0013842759042519313,0.5791027794021346,0.0011498499735721355,0.9999990412123861,0.0007716342052277109,-0.5791032923201997,3.680393061534999e-05,0.8152541784433711,0.016858857,0.00083912053,0.112121545,0.0004841743,8.424032e-05,-0.011212843,1.0471792,-0.060939655,-9.813662e-05,0.0024163807,0.8630874770932819,0.0008897889914751393,-0.5050536755240025,-0.0004941181075054249,0.9999994571391566,0.0009173705293202116,0.5050542176163364,-0.0005422148493721309,0.8630874482177386,0.0026660115,0.019334318,0.090639085,-0.00016697554,-0.012029196,-0.0062280735,0.5235896,0.00019101906,-0.011351367,0.002348829,0.9999936372102752,-0.0001470008891910907,0.0035642572442252606,0.0010395858539288636,0.9677909138678492,-0.2517531852749549,-0.0034124478335567586,0.25175528877378534,0.9677849088378117,left_images/camera_left_80.png,right_images/camera_right_80.png
2025-05-30 15:54:03,4.5595316886901855,81,-0.03493184,-8.890873e-05,0.11432712,-0.001193617,0.0007913696,-0.058898997,1.0471802,0.057454243,-5.038455e-06,0.0019883942,0.815253368388591,-0.0013842759042519313,0.5791027794021346,0.0011498499735721355,0.9999990412123861,0.0007716342052277109,-0.5791032923201997,3.680393061534999e-05,0.8152541784433711,0.016858857,0.0008391185,0.112121545,0.0004841851,8.417549e-05,-0.0112128705,1.0471792,-0.060939655,-9.813662e-05,0.0024163807,0.8630874770932819,0.0008897889914751393,-0.5050536755240025,-0.0004941181075054249,0.9999994571391566,0.0009173705293202116,0.5050542176163364,-0.0005422148493721309,0.8630874482177386,0.0026660115,0.019334318,0.090639085,-0.00016697816,-0.012029196,-0.0062280735,0.5235896,0.00019101906,-0.011351367,0.002348829,0.9999936372102752,-0.0001470008891910907,0.0035642572442252606,0.0010395858539288636,0.9677909138678492,-0.2517531852749549,-0.0034124478335567586,0.25175528877378534,0.9677849088378117,left_images/camera_left_81.png,right_images/camera_right_81.png
2025-05-30 15:54:03,4.61130952835083,82,-0.03493184,-8.8901674e-05,0.11432712,-0.0011935704,0.00079132215,-0.058898997,1.0471802,0.057454247,-5.031022e-06,0.0019883951,0.8152533474754917,-0.001384115778490761,0.5791028092260623,0.0011498840152875823,0.9999990414235298,0.0007713097776802856,-0.5791033216937688,3.7088185342752926e-05,0.8152541575654245,0.016858857,0.00083911023,0.112121545,0.00048417773,8.423447e-05,-0.0112128705,1.0471792,-0.060939655,-9.813662e-05,0.0024163807,0.8630874770932819,0.0008897889914751393,-0.5050536755240025,-0.0004941181075054249,0.9999994571391566,0.0009173705293202116,0.5050542176163364,-0.0005422148493721309,0.8630874482177386,0.0026660115,0.019334318,0.090639085,-0.00016698078,-0.012029196,-0.0062280735,0.5235896,0.00019101906,-0.011351367,0.002348829,0.9999936372102752,-0.0001470008891910907,0.0035642572442252606,0.0010395858539288636,0.9677909138678492,-0.2517531852749549,-0.0034124478335567586,0.25175528877378534,0.9677849088378117,left_images/camera_left_82.png,right_images/camera_right_82.png
2025-05-30 15:54:04,4.664474010467529,83,-0.03493184,-8.8904504e-05,0.11432712,-0.0011935594,0.00079128664,-0.058898997,1.0471802,0.057454247,-5.031022e-06,0.0019883951,0.8152533474754917,-0.001384115778490761,0.5791028092260623,0.0011498840152875823,0.9999990414235298,0.0007713097776802856,-0.5791033216937688,3.7088185342752926e-05,0.8152541575654245,0.016858857,0.0008391008,0.112121545,0.00048417033,8.429346e-05,-0.0112128705,1.0471792,-0.060939655,-9.814521e-05,0.0024163844,0.8630874031905063,0.0008900020118547032,-0.5050538014412798,-0.0004940902867193793,0.9999994567223962,0.0009178396925384922,0.5050543439360335,-0.0005426336992153853,0.863087374035799,0.0026660115,0.019334318,0.090639085,-0.0001669834,-0.012029196,-0.0062280735,0.5235896,0.00019101906,-0.011351367,0.002348829,0.9999936372102752,-0.0001470008891910907,0.0035642572442252606,0.0010395858539288636,0.9677909138678492,-0.2517531852749549,-0.0034124478335567586,0.25175528877378534,0.9677849088378117,left_images/camera_left_83.png,right_images/camera_right_83.png
2025-05-30 15:54:04,4.714917182922363,84,-0.03493184,-8.8909175e-05,0.11432712,-0.0011935664,0.0007913195,-0.058898997,1.0471802,0.057454247,-5.031022e-06,0.0019883951,0.8152533474754917,-0.001384115778490761,0.5791028092260623,0.0011498840152875823,0.9999990414235298,0.0007713097776802856,-0.5791033216937688,3.7088185342752926e-05,0.8152541575654245,0.016858857,0.00083910336,0.112121545,0.00048416335,8.427477e-05,-0.0112128705,1.0471792,-0.060939655,-9.814521e-05,0.0024163844,0.8630874031905063,0.0008900020118547032,-0.5050538014412798,-0.0004940902867193793,0.9999994567223962,0.0009178396925384922,0.5050543439360335,-0.0005426336992153853,0.863087374035799,0.0026660115,0.019334318,0.090639085,-0.00016698602,-0.012029196,-0.0062280735,0.5235896,0.00019101906,-0.011351367,0.002348829,0.9999936372102752,-0.0001470008891910907,0.0035642572442252606,0.0010395858539288636,0.9677909138678492,-0.2517531852749549,-0.0034124478335567586,0.25175528877378534,0.9677849088378117,left_images/camera_left_84.png,right_images/camera_right_84.png
2025-05-30 15:54:04,4.765833377838135,85,-0.03493184,-8.891279e-05,0.11432712,-0.0011935553,0.00079128396,-0.058898997,1.0471802,0.057454247,-5.031022e-06,0.0019883951,0.8152533474754917,-0.001384115778490761,0.5791028092260623,0.0011498840152875823,0.9999990414235298,0.0007713097776802856,-0.5791033216937688,3.7088185342752926e-05,0.8152541575654245,0.016858857,0.00083910685,0.112121545,0.00048415636,8.425607e-05,-0.0112128705,1.0471792,-0.060939655,-9.813662e-05,0.0024163807,0.8630874770932819,0.0008897889914751393,-0.5050536755240025,-0.0004941181075054249,0.9999994571391566,0.0009173705293202116,0.5050542176163364,-0.0005422148493721309,0.8630874482177386,0.0026660115,0.019334318,0.090639085,-0.00016698864,-0.012029196,-0.0062280735,0.5235896,0.00019101906,-0.011351367,0.002348829,0.9999936372102752,-0.0001470008891910907,0.0035642572442252606,0.0010395858539288636,0.9677909138678492,-0.2517531852749549,-0.0034124478335567586,0.25175528877378534,0.9677849088378117,left_images/camera_left_85.png,right_images/camera_right_85.png
2025-05-30 15:54:04,4.814079999923706,86,-0.03493184,-8.891746e-05,0.11432712,-0.0011935623,0.0007913168,-0.058898997,1.0471802,0.057454247,-5.031022e-06,0.0019883951,0.8152533474754917,-0.001384115778490761,0.5791028092260623,0.0011498840152875823,0.9999990414235298,0.0007713097776802856,-0.5791033216937688,3.7088185342752926e-05,0.8152541575654245,0.016858857,0.00083910587,0.112121545,0.00048416716,8.419124e-05,-0.011212898,1.0471792,-0.060939655,-9.813662e-05,0.0024163807,0.8630874770932819,0.0008897889914751393,-0.5050536755240025,-0.0004941181075054249,0.9999994571391566,0.0009173705293202116,0.5050542176163364,-0.0005422148493721309,0.8630874482177386,0.0026660115,0.019334318,0.090639085,-0.00016699126,-0.012029196,-0.0062280735,0.5235896,0.00019101906,-0.011351367,0.002348829,0.9999936372102752,-0.0001470008891910907,0.0035642572442252606,0.0010395858539288636,0.9677909138678492,-0.2517531852749549,-0.0034124478335567586,0.25175528877378534,0.9677849088378117,left_images/camera_left_86.png,right_images/camera_right_86.png
2025-05-30 15:54:04,4.870656251907349,87,-0.03493184,-8.8922265e-05,0.11432712,-0.0011935693,0.0007913496,-0.058898997,1.0471802,0.057454243,-5.038455e-06,0.0019883942,0.815253368388591,-0.0013842759042519313,0.5791027794021346,0.0011498499735721355,0.9999990412123861,0.0007716342052277109,-0.5791032923201997,3.680393061534999e-05,0.8152541784433711,0.016858857,0.0008390976,0.112121545,0.0004841598,8.425022e-05,-0.011212898,1.0471792,-0.060939655,-9.813662e-05,0.0024163807,0.8630874770932819,0.0008897889914751393,-0.5050536755240025,-0.0004941181075054249,0.9999994571391566,0.0009173705293202116,0.5050542176163364,-0.0005422148493721309,0.8630874482177386,0.0026660115,0.019334318,0.090639085,-0.00016699388,-0.012029196,-0.0062280735,0.5235896,0.00019101906,-0.011351367,0.002348829,0.9999936372102752,-0.0001470008891910907,0.0035642572442252606,0.0010395858539288636,0.9677909138678492,-0.2517531852749549,-0.0034124478335567586,0.25175528877378534,0.9677849088378117,left_images/camera_left_87.png,right_images/camera_right_87.png
2025-05-30 15:54:04,4.9329938888549805,88,-0.03493184,-8.891735e-05,0.11432712,-0.0011935931,0.00079137256,-0.058898997,1.0471802,0.057454243,-5.038455e-06,0.0019883942,0.815253368388591,-0.0013842759042519313,0.5791027794021346,0.0011498499735721355,0.9999990412123861,0.0007716342052277109,-0.5791032923201997,3.680393061534999e-05,0.8152541784433711,0.016858857,0.00083909556,0.112121545,0.0004841706,8.418539e-05,-0.011212926,1.0471792,-0.060939655,-9.813662e-05,0.0024163807,0.8630874770932819,0.0008897889914751393,-0.5050536755240025,-0.0004941181075054249,0.9999994571391566,0.0009173705293202116,0.5050542176163364,-0.0005422148493721309,0.8630874482177386,0.0026660115,0.019334318,0.090639085,-0.0001669965,-0.012029196,-0.0062280735,0.5235896,0.00019101906,-0.011351367,0.002348829,0.9999936372102752,-0.0001470008891910907,0.0035642572442252606,0.0010395858539288636,0.9677909138678492,-0.2517531852749549,-0.0034124478335567586,0.25175528877378534,0.9677849088378117,left_images/camera_left_88.png,right_images/camera_right_88.png
2025-05-30 15:54:04,5.001424551010132,89,-0.03493184,-8.891035e-05,0.11432712,-0.0011935466,0.0007913251,-0.058898997,1.0471802,0.057454232,-5.030792e-06,0.0019883653,0.8152533806628168,-0.0013838964533488388,0.5791027630295463,0.0011496284776658203,0.9999990417319856,0.0007712907842904492,-0.5791032754804722,3.695560850686331e-05,0.8152541903983515,0.016858857,0.0008390873,0.112121545,0.00048416323,8.424437e-05,-0.011212926,1.0471792,-0.060939655,-9.813662e-05,0.0024163807,0.8630874770932819,0.0008897889914751393,-0.5050536755240025,-0.0004941181075054249,0.9999994571391566,0.0009173705293202116,0.5050542176163364,-0.0005422148493721309,0.8630874482177386,0.0026660115,0.019334318,0.090639085,-0.00016699912,-0.012029196,-0.0062280735,0.5235896,0.00019101906,-0.011351367,0.002348829,0.9999936372102752,-0.0001470008891910907,0.0035642572442252606,0.0010395858539288636,0.9677909138678492,-0.2517531852749549,-0.0034124478335567586,0.25175528877378534,0.9677849088378117,left_images/camera_left_89.png,right_images/camera_right_89.png
2025-05-30 15:54:04,5.067683696746826,90,-0.03493184,-8.890937e-05,0.11432712,-0.0011935547,0.0007913199,-0.058898997,1.0471802,0.057454247,-5.031022e-06,0.0019883951,0.8152533474754917,-0.001384115778490761,0.5791028092260623,0.0011498840152875823,0.9999990414235298,0.0007713097776802856,-0.5791033216937688,3.7088185342752926e-05,0.8152541575654245,0.016858857,0.00083908526,0.112121545,0.00048417403,8.417954e-05,-0.011212954,1.0471792,-0.060939655,-9.813662e-05,0.0024163807,0.8630874770932819,0.0008897889914751393,-0.5050536755240025,-0.0004941181075054249,0.9999994571391566,0.0009173705293202116,0.5050542176163364,-0.0005422148493721309,0.8630874482177386,0.0026660115,0.019334318,0.090639085,-0.00016700174,-0.012029196,-0.0062280735,0.5235896,0.00019101906,-0.011351367,0.002348829,0.9999936372102752,-0.0001470008891910907,0.0035642572442252606,0.0010395858539288636,0.9677909138678492,-0.2517531852749549,-0.0034124478335567586,0.25175528877378534,0.9677849088378117,left_images/camera_left_90.png,right_images/camera_right_90.png
2025-05-30 15:54:04,5.1364076137542725,91,-0.03493184,-8.8912646e-05,0.11432712,-0.0011935437,0.0007912844,-0.058898997,1.0471802,0.057454232,-5.030792e-06,0.0019883653,0.8152533806628168,-0.0013838964533488388,0.5791027630295463,0.0011496284776658203,0.9999990417319856,0.0007712907842904492,-0.5791032754804722,3.695560850686331e-05,0.8152541903983515,0.016858857,0.000839077,0.112121545,0.00048416667,8.423852e-05,-0.011212954,1.0471792,-0.060939655,-9.813662e-05,0.0024163807,0.8630874770932819,0.0008897889914751393,-0.5050536755240025,-0.0004941181075054249,0.9999994571391566,0.0009173705293202116,0.5050542176163364,-0.0005422148493721309,0.8630874482177386,0.0026660115,0.019334318,0.090639085,-0.00016700436,-0.012029196,-0.0062280735,0.5235896,0.00019101906,-0.011351367,0.002348829,0.9999936372102752,-0.0001470008891910907,0.0035642572442252606,0.0010395858539288636,0.9677909138678492,-0.2517531852749549,-0.0034124478335567586,0.25175528877378534,0.9677849088378117,left_images/camera_left_91.png,right_images/camera_right_91.png
2025-05-30 15:54:04,5.187128305435181,92,-0.03493184,-8.8912275e-05,0.11432712,-0.0011935518,0.00079127913,-0.058898997,1.0471802,0.057454232,-5.030792e-06,0.0019883653,0.8152533806628168,-0.0013838964533488388,0.5791027630295463,0.0011496284776658203,0.9999990417319856,0.0007712907842904492,-0.5791032754804722,3.695560850686331e-05,0.8152541903983515,0.016858857,0.00083907496,0.112121545,0.00048417746,8.417369e-05,-0.011212982,1.0471792,-0.060939655,-9.813662e-05,0.0024163807,0.8630874770932819,0.0008897889914751393,-0.5050536755240025,-0.0004941181075054249,0.9999994571391566,0.0009173705293202116,0.5050542176163364,-0.0005422148493721309,0.8630874482177386,0.0026660115,0.019334318,0.090639085,-0.00016700698,-0.012029196,-0.0062280735,0.5235896,0.00019101906,-0.011351367,0.002348829,0.9999936372102752,-0.0001470008891910907,0.0035642572442252606,0.0010395858539288636,0.9677909138678492,-0.2517531852749549,-0.0034124478335567586,0.25175528877378534,0.9677849088378117,left_images/camera_left_92.png,right_images/camera_right_92.png
2025-05-30 15:54:04,5.251072645187378,93,-0.03493184,-8.891165e-05,0.11432712,-0.00119356,0.0007912739,-0.058898997,1.0471802,0.057454247,-5.031022e-06,0.0019883951,0.8152533474754917,-0.001384115778490761,0.5791028092260623,0.0011498840152875823,0.9999990414235298,0.0007713097776802856,-0.5791033216937688,3.7088185342752926e-05,0.8152541575654245,0.016858857,0.0008390667,0.112121545,0.0004841701,8.423267e-05,-0.011212982,1.0471792,-0.060939655,-9.813662e-05,0.0024163807,0.8630874770932819,0.0008897889914751393,-0.5050536755240025,-0.0004941181075054249,0.9999994571391566,0.0009173705293202116,0.5050542176163364,-0.0005422148493721309,0.8630874482177386,0.0026660115,0.019334318,0.090639085,-0.0001670096,-0.012029196,-0.0062280735,0.5235896,0.00019101906,-0.011351367,0.002348829,0.9999936372102752,-0.0001470008891910907,0.0035642572442252606,0.0010395858539288636,0.9677909138678492,-0.2517531852749549,-0.0034124478335567586,0.25175528877378534,0.9677849088378117,left_images/camera_left_93.png,right_images/camera_right_93.png
2025-05-30 15:54:04,5.309485673904419,94,-0.03493184,-8.8916095e-05,0.11432712,-0.001193567,0.0007913067,-0.058898997,1.0471802,0.057454247,-5.031022e-06,0.0019883951,0.8152533474754917,-0.001384115778490761,0.5791028092260623,0.0011498840152875823,0.9999990414235298,0.0007713097776802856,-0.5791033216937688,3.7088185342752926e-05,0.8152541575654245,0.016858857,0.00083905726,0.112121545,0.0004841627,8.429166e-05,-0.011212982,1.0471792,-0.060939655,-9.814521e-05,0.0024163844,0.8630874031905063,0.0008900020118547032,-0.5050538014412798,-0.0004940902867193793,0.9999994567223962,0.0009178396925384922,0.5050543439360335,-0.0005426336992153853,0.863087374035799,0.0026660115,0.019334318,0.090639085,-0.00016701221,-0.012029196,-0.0062280735,0.5235896,0.00019101906,-0.011351367,0.002348829,0.9999936372102752,-0.0001470008891910907,0.0035642572442252606,0.0010395858539288636,0.9677909138678492,-0.2517531852749549,-0.0034124478335567586,0.25175528877378534,0.9677849088378117,left_images/camera_left_94.png,right_images/camera_right_94.png
