jiaqis7/OS_Teleop_Extension/demo_3/teleop_log.csv
Epoch Time (Seconds),Time (Seconds),Frame Number,PSM1_joint_1,PSM1_joint_2,PSM1_joint_3,PSM1_joint_4,PSM1_joint_5,PSM1_joint_6,PSM1_jaw_angle,PSM1_ee_x,PSM1_ee_y,PSM1_ee_z,"PSM1_Orientation_Matrix_[1,1]","PSM1_Orientation_Matrix_[1,2]","PSM1_Orientation_Matrix_[1,3]","PSM1_Orientation_Matrix_[2,1]","PSM1_Orientation_Matrix_[2,2]","PSM1_Orientation_Matrix_[2,3]","PSM1_Orientation_Matrix_[3,1]","PSM1_Orientation_Matrix_[3,2]","PSM1_Orientation_Matrix_[3,3]",PSM2_joint_1,PSM2_joint_2,PSM2_joint_3,PSM2_joint_4,PSM2_joint_5,PSM2_joint_6,PSM2_jaw_angle,PSM2_ee_x,PSM2_ee_y,PSM2_ee_z,"PSM2_Orientation_Matrix_[1,1]","PSM2_Orientation_Matrix_[1,2]","PSM2_Orientation_Matrix_[1,3]","PSM2_Orientation_Matrix_[2,1]","PSM2_Orientation_Matrix_[2,2]","PSM2_Orientation_Matrix_[2,3]","PSM2_Orientation_Matrix_[3,1]","PSM2_Orientation_Matrix_[3,2]","PSM2_Orientation_Matrix_[3,3]",PSM3_joint_1,PSM3_joint_2,PSM3_joint_3,PSM3_joint_4,PSM3_joint_5,PSM3_joint_6,PSM3_jaw_angle,PSM3_ee_x,PSM3_ee_y,PSM3_ee_z,"PSM3_Orientation_Matrix_[1,1]","PSM3_Orientation_Matrix_[1,2]","PSM3_Orientation_Matrix_[1,3]","PSM3_Orientation_Matrix_[2,1]","PSM3_Orientation_Matrix_[2,2]","PSM3_Orientation_Matrix_[2,3]","PSM3_Orientation_Matrix_[3,1]","PSM3_Orientation_Matrix_[3,2]","PSM3_Orientation_Matrix_[3,3]",Camera Left,Camera Right
2025-06-27 14:39:51,0.002079486846923828,1,-0.03508212,-0.011973868,0.113617346,0.023881143,0.07870687,0.09248338,1.0471802,0.059016388,-7.108593e-05,0.0019326499,0.8928405235051511,-0.015176768629680116,0.4501171683917519,-0.017618809904947328,0.9974899654549715,0.06858094745753379,-0.4500281959217454,-0.06916237785531118,0.8903320663464942,0.05699387,-0.011985513,0.112333186,-0.0449412,0.07653359,-0.09949632,1.047179,-0.0575965,-6.471033e-05,0.0043495,0.8854334518927153,-0.0020505145391934466,-0.46476165683011694,0.03830077230974707,0.9969108465784106,0.06856978062378419,0.4631853334355782,-0.07851470794979457,0.8827767484056945,-0.0059411135,-0.015216959,0.095234714,-0.20376603,0.8124467,-0.10939463,0.0019418978,0.0011513834,-0.021511108,0.0006351564,0.9890440052656159,-0.14341595728080106,-0.0349831222931838,0.14087544209378908,0.8461461896095789,0.5139948789862309,-0.044114231978216414,-0.5132918166174306,0.857079602796934,left_images/camera_left_1.png,right_images/camera_right_1.png
2025-06-27 14:39:51,0.06846928596496582,2,-0.035055168,-0.011987729,0.113622144,0.0238556,0.078726046,0.09247188,1.0471802,0.05901639,-6.9769856e-05,0.0019269399,0.89284805530895,-0.015199781177917497,0.450101451656368,-0.01759327962187958,0.9974902061349781,0.06858400088173211,-0.45001425160007175,-0.06915385250976622,0.8903397767368842,0.05699387,-0.011985513,0.112333186,-0.0449412,0.07653359,-0.09949632,1.047179,-0.0575965,-6.471033e-05,0.0043495,0.8854334518927153,-0.0020505145391934466,-0.46476165683011694,0.03830077230974707,0.9969108465784106,0.06856978062378419,0.4631853334355782,-0.07851470794979457,0.8827767484056945,-0.0059287804,-0.015200784,0.095232606,-0.20360614,0.8122299,-0.109318994,0.0019330861,0.0011505585,-0.021510001,0.00063489936,0.9890586502726633,-0.14333050562051527,-0.03491922793225081,0.1407784903545308,0.8462672445689412,0.5138221165181495,-0.044095384954849,-0.5131160852363322,0.8571857908863307,left_images/camera_left_2.png,right_images/camera_right_2.png
2025-06-27 14:39:51,0.12778735160827637,3,-0.03513396,-0.011879096,0.11361715,0.023417294,0.07798824,0.09288732,1.0471799,0.05901512,-6.8561174e-05,0.0019330429,0.8930102697253238,-0.015241104422034633,0.4497781307501522,-0.017187029946141477,0.9975422802044587,0.06792646911270789,-0.44970797654337286,-0.06838938470615055,0.8905535513896844,0.05699387,-0.011985513,0.112333186,-0.0449412,0.07653359,-0.09949632,1.047179,-0.0575965,-6.471033e-05,0.0043495,0.8854334518927153,-0.0020505145391934466,-0.46476165683011694,0.03830077230974707,0.9969108465784106,0.06856978062378419,0.4631853334355782,-0.07851470794979457,0.8827767484056945,-0.0059590726,-0.015182911,0.09523068,-0.20395008,0.8120247,-0.10954276,0.0019412644,0.0011497224,-0.021508645,0.00063462276,0.9890183726618376,-0.14361323517761568,-0.03489838419109838,0.14101693350111713,0.846312315378658,0.5136824790708326,-0.0442366703456777,-0.512962672638306,0.8572703269543943,left_images/camera_left_3.png,right_images/camera_right_3.png
2025-06-27 14:39:51,0.1813197135925293,4,-0.035062753,-0.012056403,0.11361915,0.024412828,0.079375535,0.092123576,1.0471802,0.059013937,-7.411558e-05,0.0019327784,0.8926747985367173,-0.01503760857777365,0.45045041279334264,-0.018118924309604094,0.997437909170763,0.06920492707112348,-0.45033699452664777,-0.06993917126559586,0.8901152193302773,0.05699387,-0.011985513,0.112333186,-0.0449412,0.07653359,-0.09949632,1.047179,-0.0575965,-6.471033e-05,0.0043495,0.8854334518927153,-0.0020505145391934466,-0.46476165683011694,0.03830077230974707,0.9969108465784106,0.06856978062378419,0.4631853334355782,-0.07851470794979457,0.8827767484056945,-0.0059513235,-0.015199001,0.095232904,-0.20382477,0.8122653,-0.109510355,0.001935379,0.0011497944,-0.021510415,0.00063504,0.9890370939301547,-0.14348904914737615,-0.03487864109990151,0.14089082286394655,0.8462187183922248,0.5138712452310794,-0.04421993739156469,-0.5131518034825582,0.8571579922742852,left_images/camera_left_4.png,right_images/camera_right_4.png
2025-06-27 14:39:51,0.23374462127685547,5,-0.035026405,-0.012048848,0.113625504,0.024317762,0.07919784,0.09220874,1.04718,0.059014965,-7.1537856e-05,0.0019244486,0.8927315705180014,-0.015025268804165378,0.4503382998344967,-0.01803384543482896,0.9974516479036369,0.06902891070523677,-0.4502278572226458,-0.06974561915763187,0.8901856127735515,0.05699387,-0.011985513,0.112333186,-0.0449412,0.07653359,-0.09949632,1.047179,-0.0575965,-6.471033e-05,0.0043495,0.8854334518927153,-0.0020505145391934466,-0.46476165683011694,0.03830077230974707,0.9969108465784106,0.06856978062378419,0.4631853334355782,-0.07851470794979457,0.8827767484056945,-0.005943819,-0.015206763,0.095234655,-0.20372988,0.8124428,-0.1094853,0.0019358334,0.0011498395,-0.021512128,0.00063512754,0.9890513390910981,-0.14339426950222856,-0.03486448215630551,0.14079510457270356,0.8461478085947831,0.5140142260080038,-0.0442061892778213,-0.5132952069561609,0.8570728343293613,left_images/camera_left_5.png,right_images/camera_right_5.png
2025-06-27 14:39:51,0.2880105972290039,6,-0.035071753,-0.01201587,0.113619246,0.024246009,0.0789236,0.09235933,1.04718,0.05901499,-7.0348964e-05,0.0019315323,0.8927812603254524,-0.014960677866771561,0.4502419342192192,-0.017974460627227663,0.9974695405319433,0.06878542342789086,-0.4501316918156921,-0.06950319293932249,0.8902532034170852,0.05699387,-0.011985513,0.112333186,-0.0449412,0.07653359,-0.09949632,1.047179,-0.0575965,-6.471033e-05,0.0043495,0.8854334518927153,-0.0020505145391934466,-0.46476165683011694,0.03830077230974707,0.9969108465784106,0.06856978062378419,0.4631853334355782,-0.07851470794979457,0.8827767484056945,-0.005929531,-0.0151877655,0.09523249,-0.20357767,0.81223005,-0.10938768,0.001932157,0.0011494944,-0.02151136,0.0006346842,0.9890644976253156,-0.14331182789797103,-0.034830152479200446,0.14071577246785028,0.8462645460265182,0.5138437403698785,-0.04416436251049277,-0.5131257527381307,0.8571764526402766,left_images/camera_left_6.png,right_images/camera_right_6.png
2025-06-27 14:39:51,0.34274840354919434,7,-0.035076365,-0.011986954,0.11361488,0.024203666,0.078757286,0.092433006,1.04718,0.059017293,-7.075071e-05,0.0019348487,0.8928135700922716,-0.014923870114528894,0.45017908343224594,-0.01793977257024339,0.9974797488607703,0.06864630487347934,-0.4500689876221426,-0.0693644629003887,0.8902957248394042,0.05699387,-0.011985513,0.112333186,-0.0449412,0.07653359,-0.09949632,1.047179,-0.0575965,-6.471033e-05,0.0043495,0.8854334518927153,-0.0020505145391934466,-0.46476165683011694,0.03830077230974707,0.9969108465784106,0.06856978062378419,0.4631853334355782,-0.07851470794979457,0.8827767484056945,-0.005952601,-0.0151752075,0.09523068,-0.20387709,0.812055,-0.10940542,0.0019418529,0.0011507465,-0.021509875,0.00063483603,0.9890235837910514,-0.14355511298885143,-0.034989716201529596,0.14101314372007712,0.8463032842772233,0.5136983982063469,-0.04413211985942165,-0.5129938406612148,0.857257064969645,left_images/camera_left_7.png,right_images/camera_right_7.png
2025-06-27 14:39:51,0.41175317764282227,8,-0.034994762,-0.012146435,0.11361816,0.025004953,0.07995202,0.091769144,1.0471802,0.05901753,-7.4510346e-05,0.0019321442,0.8925311980203621,-0.014790843385955783,0.4507430437757962,-0.01868866653103964,0.9973904927224592,0.06973477446827957,-0.45059826265047764,-0.07066424823616498,0.8899257102239427,0.05699387,-0.011985513,0.112333186,-0.0449412,0.07653359,-0.09949632,1.047179,-0.0575965,-6.471033e-05,0.0043495,0.8854334518927153,-0.0020505145391934466,-0.46476165683011694,0.03830077230974707,0.9969108465784106,0.06856978062378419,0.4631853334355782,-0.07851470794979457,0.8827767484056945,-0.0059474544,-0.015202144,0.09523316,-0.20379673,0.8122876,-0.109405465,0.0019433165,0.001150667,-0.021510407,0.0006350614,0.989037537639393,-0.14346424432296986,-0.03496798165530325,0.14091522332033327,0.84621301517007,0.5138739464045239,-0.04413217620724148,-0.513168143552986,0.8571527328694665,left_images/camera_left_8.png,right_images/camera_right_8.png
2025-06-27 14:39:51,0.46444082260131836,9,-0.035017665,-0.012120703,0.11361962,0.024682367,0.0796137,0.09197497,1.0471802,0.05901647,-7.108331e-05,0.001930749,0.892621328804566,-0.01489921318473636,0.45056095792872125,-0.018381607747271198,0.9974196026334149,0.06939922751174213,-0.4504323255049493,-0.07022926547442215,0.890044139585856,0.05699387,-0.011985513,0.112333186,-0.0449412,0.07653359,-0.09949632,1.047179,-0.0575965,-6.471033e-05,0.0043495,0.8854334518927153,-0.0020505145391934466,-0.46476165683011694,0.03830077230974707,0.9969108465784106,0.06856978062378419,0.4631853334355782,-0.07851470794979457,0.8827767484056945,-0.005932868,-0.015191283,0.09523157,-0.20362803,0.81211317,-0.10932748,0.0019342215,0.00115011,-0.021509368,0.000634592,0.9890540920576087,-0.1433648270191364,-0.03490743986419683,0.14080644947161874,0.846317214961774,0.5137321436765885,-0.04410835262505155,-0.5130240715922787,0.8572401969084188,left_images/camera_left_9.png,right_images/camera_right_9.png
2025-06-27 14:39:51,0.5191237926483154,10,-0.035069108,-0.0120794475,0.1136117,0.024453057,0.079265855,0.09216877,1.0471802,0.05901762,-6.953004e-05,0.0019391822,0.8926911756827788,-0.014933470170367587,0.45042142081251996,-0.01816812725961181,0.9974458673213252,0.06907720981255738,-0.4503025471946355,-0.06984792933423484,0.8901398107925198,0.05699387,-0.011985513,0.112333186,-0.0449412,0.07653359,-0.09949632,1.047179,-0.0575965,-6.471033e-05,0.0043495,0.8854334518927153,-0.0020505145391934466,-0.46476165683011694,0.03830077230974707,0.9969108465784106,0.06856978062378419,0.4631853334355782,-0.07851470794979457,0.8827767484056945,-0.0059556793,-0.015182263,0.09523026,-0.20391302,0.8119662,-0.10935965,0.0019432387,0.0011511375,-0.021507911,0.00063453056,0.9890159378784379,-0.14359393831951595,-0.03504647628970745,0.14108000324576297,0.8463460896721161,0.5136095104073659,-0.04408976419317163,-0.5129123486275307,0.8573080049310056,left_images/camera_left_10.png,right_images/camera_right_10.png
2025-06-27 14:39:51,0.5770187377929688,11,-0.035043553,-0.012124236,0.11361207,0.024706185,0.079711094,0.09192221,1.0471802,0.05901749,-7.262657e-05,0.0019391142,0.8925851777409703,-0.014930511027274917,0.4506315349790607,-0.01840050296454527,0.997412700445395,0.06949335565992083,-0.4505031875223213,-0.0703205861088267,0.8900010635957347,0.05699387,-0.011985513,0.112333186,-0.0449412,0.07653359,-0.09949632,1.047179,-0.0575965,-6.471033e-05,0.0043495,0.8854334518927153,-0.0020505145391934466,-0.46476165683011694,0.03830077230974707,0.9969108465784106,0.06856978062378419,0.4631853334355782,-0.07851470794979457,0.8827767484056945,-0.005981716,-0.015205988,0.095232844,-0.20421991,0.8122012,-0.10946605,0.0019514599,0.0011524033,-0.021508243,0.0006346218,0.9889832883867614,-0.14378603651890304,-0.03517998001552359,0.14130347717910652,0.8461994781034945,0.5137896170559184,-0.044106491912208064,-0.5131003985182221,0.8571946094158782,left_images/camera_left_11.png,right_images/camera_right_11.png
2025-06-27 14:39:51,0.6321210861206055,12,-0.035001945,-0.012200611,0.11362159,0.024866601,0.08015385,0.09170711,1.0471802,0.05901482,-7.173524e-05,0.0019301139,0.8925023429498653,-0.014986571817297524,0.4507937116843646,-0.018541688624726608,0.9973839415043604,0.06986758198313647,-0.450661484500223,-0.07071545725222736,0.8898896282650246,0.05699387,-0.011985513,0.112333186,-0.0449412,0.07653359,-0.09949632,1.047179,-0.0575965,-6.471033e-05,0.0043495,0.8854334518927153,-0.0020505145391934466,-0.46476165683011694,0.03830077230974707,0.9969108465784106,0.06856978062378419,0.4631853334355782,-0.07851470794979457,0.8827767484056945,-0.0059975386,-0.015219731,0.09523464,-0.20443018,0.8123732,-0.10955337,0.0019466053,0.0011533963,-0.021508813,0.0006346842,0.9889617877846251,-0.14391412757399838,-0.03526054716610638,0.14144727471593896,0.8460921076098455,0.5139268565815209,-0.044127664534529654,-0.5132415311770322,0.8571090245107583,left_images/camera_left_12.png,right_images/camera_right_12.png
2025-06-27 14:39:51,0.6902480125427246,13,-0.035074685,-0.012052112,0.11361902,0.024171406,0.079068586,0.09230024,1.04718,0.05901435,-6.871775e-05,0.0019323248,0.8927542911371744,-0.01508192863271584,0.45029136243645534,-0.017894014722487743,0.9974640661049221,0.06888571017669257,-0.4501883826724907,-0.069555533627121,0.8902204490173059,0.05699387,-0.011985513,0.112333186,-0.0449412,0.07653359,-0.09949632,1.047179,-0.0575965,-6.471033e-05,0.0043495,0.8854334518927153,-0.0020505145391934466,-0.46476165683011694,0.03830077230974707,0.9969108465784106,0.06856978062378419,0.4631853334355782,-0.07851470794979457,0.8827767484056945,-0.0060066916,-0.015227067,0.09523594,-0.20458142,0.8125001,-0.10962308,0.001943761,0.0011542541,-0.021509547,0.0006350018,0.9889467774043549,-0.14400431075472883,-0.03531331116727495,0.14154608948520622,0.8460122234734845,0.5140311491387431,-0.04414720843934861,-0.5133479095287193,0.8570443091051397,left_images/camera_left_13.png,right_images/camera_right_13.png
2025-06-27 14:39:51,0.7588756084442139,14,-0.035130512,-0.011923407,0.1136134,0.023659678,0.07825762,0.09273593,1.04718,0.059016004,-6.859936e-05,0.0019371565,0.8929380714057972,-0.015155704928229806,0.4499243327963315,-0.01741776677579768,0.99752169710479,0.06816953282606293,-0.4498424413443439,-0.06870784826574168,0.8904611218644262,0.05699387,-0.011985513,0.112333186,-0.0449412,0.07653359,-0.09949632,1.047179,-0.0575965,-6.471033e-05,0.0043495,0.8854334518927153,-0.0020505145391934466,-0.46476165683011694,0.03830077230974707,0.9969108465784106,0.06856978062378419,0.4631853334355782,-0.07851470794979457,0.8827767484056945,-0.005979968,-0.015233184,0.095236555,-0.2042873,0.8126124,-0.10958317,0.0019343111,0.001153437,-0.021511197,0.0006353827,0.9889856641895453,-0.1437713517404491,-0.03517320636916916,0.14127010776427698,0.8460005402277767,0.5141262905031989,-0.044160080161087543,-0.5134324535448009,0.8569930005356707,left_images/camera_left_14.png,right_images/camera_right_14.png
2025-06-27 14:39:51,0.8365533351898193,15,-0.03506567,-0.012032057,0.11361952,0.024100663,0.079053506,0.09230687,1.0471802,0.059015222,-7.075124e-05,0.0019312389,0.892763011279087,-0.015143298096739864,0.4502720135814014,-0.017823103389734564,0.997465425222509,0.06888441384840029,-0.45017390270589347,-0.06952270138905799,0.8902303361007825,0.05699387,-0.011985513,0.112333186,-0.0449412,0.07653359,-0.09949632,1.047179,-0.0575965,-6.471033e-05,0.0043495,0.8854334518927153,-0.0020505145391934466,-0.46476165683011694,0.03830077230974707,0.9969108465784106,0.06856978062378419,0.4631853334355782,-0.07851470794979457,0.8827767484056945,-0.0059836144,-0.015209098,0.09523381,-0.20438369,0.81233346,-0.10956447,0.0019349912,0.0011538672,-0.021509536,0.0006349934,0.9889684085344856,-0.14387866095298424,-0.035219566197537445,0.14139701479019673,0.8461132167288565,0.5139059336932859,-0.04414035714838977,-0.5132166749036153,0.8571232545390944,left_images/camera_left_15.png,right_images/camera_right_15.png
2025-06-27 14:39:51,0.9016096591949463,16,-0.035088167,-0.012021825,0.11361933,0.024013119,0.07891227,0.092393704,1.04718,0.059013955,-6.9194066e-05,0.0019321013,0.892794073464962,-0.015149236331591643,0.45021022092397006,-0.017741963351770685,0.997476302682463,0.06874771504092347,-0.4501155019795083,-0.06936516579302016,0.890272154260843,0.05699387,-0.011985513,0.112333186,-0.0449412,0.07653359,-0.09949632,1.047179,-0.0575965,-6.471033e-05,0.0043495,0.8854334518927153,-0.0020505145391934466,-0.46476165683011694,0.03830077230974707,0.9969108465784106,0.06856978062378419,0.4631853334355782,-0.07851470794979457,0.8827767484056945,-0.0059658927,-0.01522808,0.0952356,-0.2041681,0.8124897,-0.10953205,0.0019413161,0.001153336,-0.02151008,0.0006350018,0.98899788558189,-0.14369796972339408,-0.03512941519475121,0.14119010789308076,0.8460754105960737,0.5140250509633021,-0.0441422218254916,-0.5133296144603968,0.857055523971609,left_images/camera_left_16.png,right_images/camera_right_16.png
2025-06-27 14:39:52,0.972343921661377,17,-0.03506049,-0.0121076675,0.113617525,0.024368113,0.07945967,0.092092514,1.0471802,0.05901479,-6.962498e-05,0.0019342182,0.8926620407699227,-0.015092536619625733,0.45047385751768365,-0.018073794256588133,0.9974367821525915,0.0692329659212622,-0.45036409595975524,-0.06994341246657464,0.8901011740936439,0.05699387,-0.011985513,0.112333186,-0.0449412,0.07653359,-0.09949632,1.047179,-0.0575965,-6.471033e-05,0.0043495,0.8854334518927153,-0.0020505145391934466,-0.46476165683011694,0.03830077230974707,0.9969108465784106,0.06856978062378419,0.4631853334355782,-0.07851470794979457,0.8827767484056945,-0.0059440522,-0.015213865,0.09523292,-0.20390481,0.8122603,-0.109426335,0.0019336765,0.0011521822,-0.02150875,0.0006352477,0.9890247987005885,-0.1435383441049864,-0.03502415347812225,0.14100915805308184,0.8462181601048792,0.5138397054080914,-0.04411762573418394,-0.5131389375990791,0.8571709665050882,left_images/camera_left_17.png,right_images/camera_right_17.png
2025-06-27 14:39:52,1.0424776077270508,18,-0.034999598,-0.012186081,0.113623105,0.024631197,0.079945005,0.091823086,1.0471802,0.059015423,-6.93443e-05,0.0019277949,0.8925608940600307,-0.015082368277389794,0.45067457501161934,-0.018316929496225997,0.9974028957892739,0.06965596575312805,-0.4505547031033954,-0.0704271654854563,0.889966557727365,0.056993436,-0.011988973,0.112333186,-0.04490943,0.07655836,-0.099486485,1.047179,-0.0575966,-6.475777e-05,0.0043494273,0.8854301793930537,-0.002012551310149213,-0.4647680572685785,0.038267988859658625,0.9969108838413467,0.0685875404669234,0.46319429880841767,-0.07851521709763547,0.8827719990096476,-0.0059399134,-0.015227226,0.09523498,-0.20380765,0.81243485,-0.10941897,0.0019449928,0.001151883,-0.021509988,0.0006349012,0.989039641451251,-0.1434446892835615,-0.03498869466446723,0.140903769208,0.8461519898529212,0.5139775655521557,-0.04412159857665511,-0.5132742261055823,0.85708975805032,left_images/camera_left_18.png,right_images/camera_right_18.png
2025-06-27 14:39:52,1.099799633026123,19,-0.03505672,-0.012118527,0.11361762,0.024478577,0.07947108,0.09208032,1.04718,0.059014846,-6.858836e-05,0.0019340739,0.892655692139895,-0.014999200688844066,0.4504895551163652,-0.01818452867189894,0.9974340746963432,0.06924297474567681,-0.450372221842362,-0.07000207577883194,0.8900924509169982,0.056993406,-0.011991748,0.112333186,-0.04488586,0.0765766,-0.099479415,1.047179,-0.057596527,-6.485538e-05,0.004349432,0.8854277670408411,-0.0019846244758358993,-0.4647727731039762,0.03824361396613592,0.996910954277169,0.06860011102756117,0.4632009232977406,-0.07851503364244619,0.8827685393965093,-0.0059603327,-0.015206736,0.09523256,-0.20403682,0.8122014,-0.10943152,0.0019409043,0.0011522748,-0.02150843,0.0006349003,0.9890064583144771,-0.1436472337875732,-0.03509555010870038,0.14114135762958155,0.8462251853072871,0.5137918381194136,-0.044106037894290205,-0.5130968797184655,0.8571967390537842,left_images/camera_left_19.png,right_images/camera_right_19.png
2025-06-27 14:39:52,1.1545453071594238,20,-0.03507577,-0.012069899,0.113613635,0.024367062,0.079169214,0.09223474,1.04718,0.059016384,-6.884895e-05,0.0019374322,0.8927199815213068,-0.014960275531753275,0.45036343629185904,-0.018086141888984296,0.9974537815915323,0.06898438272771029,-0.45024873799286647,-0.0697290738843254,0.8901763478047848,0.056992784,-0.011997153,0.112333186,-0.044836648,0.07661456,-0.09946412,1.047179,-0.057596587,-6.485061e-05,0.004349443,0.885422743912155,-0.0019251525662736663,-0.464782592564165,0.038191839832051,0.9969110761811063,0.06862717798125793,0.46321479675557964,-0.07851496656704925,0.8827612656271581,-0.005943277,-0.015199776,0.09523097,-0.20381358,0.81204766,-0.109348595,0.0019350791,0.0011511433,-0.02150739,0.0006348351,0.9890300726436748,-0.14350668685652418,-0.03500494584927424,0.1409812053342902,0.8463286804775608,0.5136653232831677,-0.04408871906664808,-0.5129654914597804,0.8572762620197109,left_images/camera_left_20.png,right_images/camera_right_20.png
2025-06-27 14:39:52,1.2100396156311035,21,-0.034959275,-0.012315164,0.11361983,0.0255308,0.08093336,0.09126692,1.0471802,0.059015736,-7.3267205e-05,0.0019323602,0.8923065642774853,-0.014775920190032377,0.45118806226433733,-0.01917292209070081,0.9973219047271166,0.07057915705064773,-0.45102260963926594,-0.07162883870351293,0.8896335847191091,0.056992408,-0.012001375,0.112333186,-0.044800315,0.07664269,-0.09945292,1.047179,-0.057596575,-6.488821e-05,0.0043496117,0.8854189235760339,-0.0018820631893898543,-0.4647900468078126,0.038154450078201604,0.9969111461093145,0.06864695697729749,0.4632251803525878,-0.07851512339138271,0.8827558029750631,-0.005962537,-0.015192567,0.09522989,-0.20404644,0.81191564,-0.109376945,0.001943155,0.0011519302,-0.021505859,0.00063467864,0.9889986409062201,-0.14369644196492148,-0.03511439665253725,0.14120527194389482,0.8463579860925532,0.5135554795273909,-0.04407674512597863,-0.5128640092109991,0.8573375931306874,left_images/camera_left_21.png,right_images/camera_right_21.png
2025-06-27 14:39:52,1.2647387981414795,22,-0.03497889,-0.012234119,0.113624424,0.025144244,0.08030865,0.0916101,1.04718,0.059014425,-7.0769805e-05,0.001927047,0.8924626877073907,-0.014814937120579482,0.4508778866702313,-0.01881369468978185,0.9973687807007231,0.0700111432250096,-0.4507287387578258,-0.07096501195424694,0.8898356989557754,0.05699196,-0.012004803,0.112333186,-0.04477331,0.07666393,-0.099444464,1.047179,-0.057596352,-6.49697e-05,0.0043495307,0.8854162588570047,-0.001849758812105362,-0.46479525271242067,0.03812633311249846,0.9969112068512199,0.06866169512791985,0.46323258874463996,-0.07851511986096467,0.8827519157034767,-0.0059772786,-0.015192749,0.095229074,-0.20422186,0.8118165,-0.109401695,0.0019431354,0.0011524004,-0.021504302,0.0006345762,0.9889750643619277,-0.14383934496931414,-0.03519325090297314,0.1413724143396978,0.8463829862996503,0.5134682862322181,-0.044069973157307284,-0.5127826862729327,0.8573865838258897,left_images/camera_left_22.png,right_images/camera_right_22.png
2025-06-27 14:39:52,1.3239052295684814,23,-0.035043653,-0.012163113,0.11361842,0.024849249,0.07976579,0.09191697,1.04718,0.05901396,-6.912963e-05,0.0019339407,0.8925794063405863,-0.014818346669004282,0.4506466686648017,-0.01854153445597861,0.9974081121136692,0.06952171883565375,-0.45050883995400587,-0.07040933526062537,0.88999118570436,0.056991357,-0.012007447,0.112333186,-0.044753205,0.07667971,-0.09943786,1.047179,-0.057596616,-6.480061e-05,0.0043496983,0.8854142300327229,-0.0018260065330243103,-0.46479921144049025,0.03810556686127321,0.9969112683279272,0.06867232961669728,0.46323817527244154,-0.07851489528073405,0.8827490040715502,-0.005995791,-0.015219449,0.09523206,-0.20444043,0.81208664,-0.109500505,0.0019512764,0.0011534232,-0.021504967,0.00063459575,0.9889542723872522,-0.14396083008343802,-0.035280682089320343,0.14151035575143234,0.8462327059345686,0.5136779405636968,-0.044093835647437914,-0.5129965758251659,0.8572573982471958,left_images/camera_left_23.png,right_images/camera_right_23.png
2025-06-27 14:39:52,1.3762447834014893,24,-0.03501946,-0.012172109,0.11361702,0.025073811,0.0800212,0.09175247,1.0471802,0.05901555,-7.275335e-05,0.0019348683,0.8925109110241487,-0.014757572657449012,0.45078430291227367,-0.01875426832327819,0.9973858414835076,0.06978367020939948,-0.4506357188711331,-0.07073681684593856,0.8899009785476143,0.056991104,-0.012009229,0.112333186,-0.044738375,0.07669129,-0.0994332,1.047179,-0.057596598,-6.479537e-05,0.004349634,0.8854125515908731,-0.001808281571614008,-0.4648024780518039,0.038090316438779366,0.9969112762235827,0.06868067509759744,0.46324263758740253,-0.07851520525366949,0.882746634808109,-0.0059661553,-0.015211742,0.09523036,-0.20408995,0.8119591,-0.10940725,0.0019319068,0.001152026,-0.021504782,0.0006347839,0.9889947643004606,-0.14372177299685657,-0.03511991106076616,0.14122861482082605,0.8463404303661968,0.5135779924055854,-0.04408893899910547,-0.5128858819408084,0.8573238813679065,left_images/camera_left_24.png,right_images/camera_right_24.png
2025-06-27 14:39:52,1.4308924674987793,25,-0.034938656,-0.012311378,0.11362337,0.025606515,0.080964625,0.09123798,1.0471802,0.05901545,-7.4321346e-05,0.0019281944,0.8923011178725031,-0.014729021307125143,0.45120036677158826,-0.01924715879459592,0.9973175830364299,0.0706200073966963,-0.4510302228474463,-0.07169863665166923,0.8896241024053221,0.056990832,-0.012010626,0.112333186,-0.04472728,0.07669996,-0.09942965,1.047179,-0.057596557,-6.4710155e-05,0.0043495623,0.885411444178016,-0.0017949910704563136,-0.4648046390965317,0.03807863963145108,0.996911319131567,0.06868652699894617,0.46324571419757155,-0.07851496541689273,0.8827450416078053,-0.005954552,-0.015226701,0.095232956,-0.20392467,0.8122099,-0.10940746,0.0019429808,0.0011515465,-0.021506801,0.0006347522,0.9890201198378866,-0.14356604114875898,-0.03504275081561031,0.14104528659612459,0.8462464157703472,0.5137832528653083,-0.04410702534596046,-0.5130845891514508,0.8572040449568687,left_images/camera_left_25.png,right_images/camera_right_25.png
2025-06-27 14:39:52,1.4856202602386475,26,-0.03501832,-0.012143999,0.1136233,0.02471344,0.07971046,0.09193936,1.04718,0.05901414,-7.013191e-05,0.001927929,0.8926040141376419,-0.014911789778492933,0.4505948429254051,-0.01840859778583068,0.9974138703878973,0.06947441748870067,-0.4504655341676297,-0.07030796315807195,0.8900211193244997,0.05699066,-0.012011504,0.112333186,-0.044719104,0.0767062,-0.099427,1.047179,-0.057596568,-6.4709806e-05,0.004349541,0.8854104832751032,-0.0017851218613289359,-0.4648065075345747,0.03807017723170385,0.9969113190097947,0.0686912194949123,0.46324824631302713,-0.07851519197003703,0.8827436926525237,-0.0059700403,-0.015207415,0.09523113,-0.20411235,0.812033,-0.10942417,0.001941197,0.001151976,-0.021506062,0.0006346265,0.9889933752850492,-0.14372951997408517,-0.03512732170697416,0.14123558176114936,0.8462984822008794,0.5136451980395396,-0.04409777870682269,-0.5129529258250771,0.8572833147802523,left_images/camera_left_26.png,right_images/camera_right_26.png
2025-06-27 14:39:52,1.5551707744598389,27,-0.035125755,-0.01190221,0.11361458,0.023647655,0.078074105,0.092824,1.0471799,0.05901656,-6.7455345e-05,0.0019352864,0.8929806036032313,-0.015079360459496562,0.4498424774035254,-0.017414760173397114,0.9975327282347047,0.06800869230274706,-0.44975812134580934,-0.0685643419625627,0.8905147743270343,0.056990545,-0.012012212,0.112333186,-0.04471303,0.076710925,-0.099425144,1.047179,-0.057596643,-6.4767664e-05,0.004349701,0.8854099311434477,-0.0017777156780301381,-0.46480758767421587,0.03806371451935189,0.9969113336473453,0.0686945884510646,0.4632498326708225,-0.07851517415404455,0.8827428617428834,-0.005981191,-0.015198944,0.095229916,-0.20426495,0.8119028,-0.10943958,0.0019422165,0.0011525239,-0.021504996,0.0006346507,0.9889721540237563,-0.14385847392798445,-0.035196847084974864,0.14138697222086816,0.8463374402907584,0.513539347322386,-0.04408857733956875,-0.5128524901384396,0.8573438754122961,left_images/camera_left_27.png,right_images/camera_right_27.png
2025-06-27 14:39:52,1.609140396118164,28,-0.035064545,-0.011996936,0.11361822,0.02410136,0.07888993,0.092375346,1.0471802,0.059016604,-7.190253e-05,0.001931781,0.8927949486367974,-0.01507494811699181,0.4502109790174918,-0.017830412601949154,0.9974739914319761,0.0687583653325637,-0.45011027101707274,-0.06941456875924572,0.8902709484021735,0.0569909,-0.012009578,0.112333186,-0.044740323,0.076690204,-0.09943367,1.047179,-0.05759661,-6.4787164e-05,0.0043496313,0.8854129101177718,-0.0018105493675748784,-0.4648017862570735,0.03809227243918582,0.9969112708152442,0.06867966876706448,0.46324179148388317,-0.07851522166129586,0.8827470773615057,-0.005997799,-0.015219229,0.09523252,-0.20446475,0.8121511,-0.109530464,0.0019496443,0.001153416,-0.021505866,0.0006347699,0.9889531331262826,-0.14396969386574807,-0.035276447212153214,0.14151281853587913,0.8461974488360545,0.513735340202895,-0.044111480022102925,-0.5130522437642737,0.857223175432573,left_images/camera_left_28.png,right_images/camera_right_28.png
2025-06-27 14:39:52,1.6645898818969727,29,-0.03505649,-0.0119978655,0.113624,0.024013743,0.07885746,0.09240502,1.0471802,0.05901461,-7.096032e-05,0.001926085,0.8928136105690441,-0.015130524772045437,0.45017210486967046,-0.01774430154471612,0.9974783395756852,0.06871755117889511,-0.4500766562990767,-0.06933995455331943,0.8902937572268976,0.05699126,-0.012007447,0.112333186,-0.04476044,0.076674916,-0.099439956,1.047179,-0.05759661,-6.470358e-05,0.0043496024,0.8854149236736868,-0.0018350824469501766,-0.4647978543499658,0.038113596709890854,0.9969112308585276,0.06866841729624275,0.46323618887318696,-0.07851515943146285,0.8827500229723569,-0.005976075,-0.015234495,0.09523439,-0.20420454,0.81235194,-0.109508924,0.001940975,0.0011526988,-0.021507604,0.0006349813,0.9889894945434243,-0.1437502244320317,-0.035151851423252396,0.14125280239443447,0.8461415576066165,0.5138989300502264,-0.04412964421407387,-0.5132059405996672,0.8571302334154068,left_images/camera_left_29.png,right_images/camera_right_29.png
2025-06-27 14:39:52,1.7174906730651855,30,-0.03508435,-0.011997086,0.11361946,0.023950325,0.07875059,0.09246937,1.0471802,0.05901476,-6.927614e-05,0.0019313339,0.8928315140652519,-0.01512948456619864,0.45013663057866266,-0.01768666235791194,0.9974869503228132,0.06860733131620163,-0.4500434084247735,-0.06921620209499361,0.8903201940318762,0.056991484,-0.012005803,0.112333186,-0.04477541,0.07666352,-0.09944462,1.047179,-0.057596516,-6.482378e-05,0.0043495568,0.8854163130501623,-0.0018524424379937413,-0.4647951387887687,0.038128740363148214,0.996911193913815,0.06866054622307892,0.4632322870256093,-0.07851522085777919,0.8827520650503614,-0.0059913993,-0.01523333,0.0952355,-0.20440148,0.8124823,-0.109584264,0.0019444878,0.0011534267,-0.021509152,0.0006351415,0.9889686051962379,-0.14387507289819912,-0.035228700440771754,0.141393136653846,0.8460491356867091,0.5140124910067452,-0.04414837305489944,-0.5133233127399439,0.8570589814909445,left_images/camera_left_30.png,right_images/camera_right_30.png
2025-06-27 14:39:52,1.7869782447814941,31,-0.035052866,-0.012071807,0.1136189,0.024329036,0.07933973,0.09214273,1.0471802,0.059015267,-7.1604154e-05,0.0019321879,0.8926892484950919,-0.015080829119722984,0.4504203305961327,-0.018038722425346446,0.9974433753546319,0.06914707119191571,-0.4503115700429305,-0.06985185433630428,0.8901349382712996,0.056991555,-0.012004848,0.112333186,-0.044786513,0.07665532,-0.09944805,1.047179,-0.057596568,-6.4848515e-05,0.004349538,0.8854175034265128,-0.0018656065907464818,-0.46479281850950555,0.03814007862829914,0.9969111868896566,0.06865435060128125,0.4632290783491347,-0.07851499835257625,0.8827537686158619,-0.0059932526,-0.015211631,0.09523297,-0.20446801,0.8122356,-0.10956765,0.0019347451,0.0011537867,-0.021508018,0.0006349366,0.9889557544212646,-0.14395638698167013,-0.0352572608727806,0.14148733361016314,0.8461513074166761,0.5138183525186077,-0.04413445621001876,-0.5131320722818187,0.8571742099309875,left_images/camera_left_31.png,right_images/camera_right_31.png
2025-06-27 14:39:52,1.8385324478149414,32,-0.035027433,-0.0120604485,0.11362522,0.024185814,0.07922122,0.09220781,1.0471802,0.059015103,-7.0522656e-05,0.001924796,0.8927334368181726,-0.015142825036606107,0.45033066255444393,-0.017901701871651944,0.997454045989218,0.06902865499078814,-0.45022943024297307,-0.06968587367357534,0.8901894962048463,0.056991667,-0.0120042125,0.112333186,-0.044794794,0.07664934,-0.0994506,1.047179,-0.05759657,-6.475166e-05,0.004349556,0.8854184445815657,-0.0018757312173048706,-0.4647909848815498,0.038149066215573804,0.99691113542943,0.06865010417824757,0.4632265393321505,-0.07851541052051442,0.8827550643123802,-0.0059628407,-0.015204431,0.09523143,-0.20412478,0.81207246,-0.109458044,0.0019309741,0.001152638,-0.021506922,0.00063478295,0.9889942790102061,-0.14372664097708016,-0.035113654872826194,0.14122406013106603,0.8462761005846694,0.5136852406087833,-0.0441144072291524,-0.5129906570812495,0.8572598817290871,left_images/camera_left_32.png,right_images/camera_right_32.png
2025-06-27 14:39:52,1.8914542198181152,33,-0.03506878,-0.012036541,0.11362118,0.02407761,0.07901288,0.09233073,1.0471802,0.05901429,-6.957509e-05,0.0019299379,0.8927730214320256,-0.015139288727637793,0.45025230053821297,-0.01780234284546577,0.9974690071142309,0.0688378997047619,-0.45015487200778415,-0.06947216552959598,0.8902439044578087,0.056991752,-0.012003605,0.112333186,-0.04480086,0.07664475,-0.099452525,1.047179,-0.057596575,-6.4722844e-05,0.004349578,0.8854188134747965,-0.0018828525325924432,-0.4647902533522234,0.0381553135171329,0.9969111190968519,0.06864686934938494,0.46322531968286534,-0.07851544744445352,0.8827557010392537,-0.005951833,-0.01522473,0.09523377,-0.20396437,0.8122958,-0.10944583,0.0019422238,0.0011521056,-0.021508044,0.00063477457,0.9890180698357423,-0.14357884073778632,-0.035048167295540465,0.14105502232994976,0.8461977168892437,0.5138607832934216,-0.044121856419241705,-0.5131613200776387,0.8571573492435884,left_images/camera_left_33.png,right_images/camera_right_33.png
2025-06-27 14:39:53,1.9419457912445068,34,-0.035137314,-0.011908543,0.11361431,0.023590794,0.07819701,0.09277289,1.04718,0.059015192,-6.9134985e-05,0.0019365819,0.8929532540074666,-0.015190148737955366,0.4498930378865574,-0.017350866475924882,0.997526342044015,0.06811860510037691,-0.4498148881373439,-0.06863276411164905,0.8904808308438668,0.056991942,-0.012003091,0.112333186,-0.044805363,0.07664126,-0.09945409,1.047179,-0.057596512,-6.4716325e-05,0.0043495735,0.8854194051862831,-0.001888261378661122,-0.4647891042059123,0.03815993331274767,0.996911120082483,0.06864428705621511,0.46322380811993585,-0.07851530503573981,0.88275650689531,-0.005976992,-0.015229351,0.09523521,-0.20423539,0.8124416,-0.10953147,0.0019470685,0.0011529974,-0.021509096,0.00063498877,0.9889878560220735,-0.14375846579443455,-0.03516424538210133,0.1412620176078989,0.8460906500424743,0.5139802080742495,-0.044136866927863144,-0.513287556271466,0.8570809889121672,left_images/camera_left_34.png,right_images/camera_right_34.png
2025-06-27 14:39:53,1.9981815814971924,35,-0.03504957,-0.012083255,0.113616385,0.024486598,0.0795701,0.09200687,1.0471802,0.05901568,-7.458066e-05,0.0019350601,0.8926258204984621,-0.015063582448133843,0.4505465936651568,-0.018184937841786132,0.9974248211533139,0.06937603464432375,-0.45043140722549313,-0.07012000164794856,0.8900532190570145,0.056992006,-0.01200276,0.112333186,-0.044808697,0.07663872,-0.09945511,1.047179,-0.057596523,-6.4730295e-05,0.004349564,0.8854198479400148,-0.00189235205302608,-0.4647882441258472,0.038163479520028104,0.9969111120653819,0.06864243200446624,0.46322266967928616,-0.0785153083434739,0.882757103993462,-0.0060225124,-0.015203607,0.095232494,-0.20481078,0.81215966,-0.10980947,0.0019428972,0.0011531373,-0.021507286,0.00063497573,0.9889182629666327,-0.1442187946295742,-0.03523646472974772,0.1417030869113149,0.8461374053211573,0.5137817887743628,-0.04428209944054589,-0.5130813099226792,0.8571969814909322,left_images/camera_left_35.png,right_images/camera_right_35.png
2025-06-27 14:39:53,2.0510306358337402,36,-0.035017382,-0.01206983,0.113624334,0.024307204,0.07939149,0.09210294,1.04718,0.05901565,-7.260195e-05,0.0019256873,0.8926878320533259,-0.015124953008888213,0.45042165833850806,-0.01801506654101164,0.9974403032487565,0.06919753487337152,-0.45031532494626,-0.06988617353602547,0.8901303448748598,0.05699209,-0.012002488,0.112333186,-0.044811144,0.07663682,-0.099455975,1.047179,-0.05759671,-6.4628024e-05,0.0043496843,0.8854201578536434,-0.0018950243753397232,-0.4647876428532133,0.038165781973732646,0.9969111087057041,0.06864120064143242,0.4632218876011396,-0.07851528654842155,0.8827575163233993,-0.0060139555,-0.015193838,0.09523075,-0.20477615,0.81199956,-0.10974151,0.0019335652,0.0011536966,-0.021506209,0.00063471217,0.9889182591153263,-0.1442126746864964,-0.03526161153548371,0.1417176558788929,0.8462164366915964,0.5136475915305836,-0.044235537755342114,-0.5129526749445257,0.8572763676124238,left_images/camera_left_36.png,right_images/camera_right_36.png
2025-06-27 14:39:53,2.1010475158691406,37,-0.035065863,-0.012040844,0.113619916,0.024168177,0.07912857,0.09225903,1.04718,0.059014503,-7.109443e-05,0.0019311374,0.8927396062242321,-0.015121370986036557,0.4503191530660288,-0.017887523329779702,0.9974593800656328,0.06895521465567274,-0.4502177606311522,-0.06961414553512792,0.8902010103081688,0.056992315,-0.012001978,0.112333186,-0.04481299,0.07663507,-0.09945686,1.047179,-0.057596635,-6.464607e-05,0.0043496536,0.885420371735732,-0.001897106986313398,-0.4647872269118857,0.038167699230613764,0.9969110859440768,0.06864046515899216,0.4632213208076671,-0.07851552526019229,0.8827577925129387,-0.00597502,-0.015195766,0.095229745,-0.20435365,0.81189936,-0.10959131,0.0019319891,0.0011529898,-0.021505296,0.00063486956,0.9889669319586721,-0.14391435904993277,-0.03511502173569454,0.14139198754362814,0.8463257371535443,0.5135572533710068,-0.04418951629870796,-0.5128561239672945,0.8573365049725395,left_images/camera_left_37.png,right_images/camera_right_37.png
2025-06-27 14:39:53,2.153452157974243,38,-0.03512425,-0.011925433,0.113614775,0.023652295,0.07831676,0.09270479,1.0471799,0.05901568,-6.933563e-05,0.0019358136,0.8929270284006344,-0.0151917610645011,0.44994503258439433,-0.01740719444362603,0.997518103030944,0.06822480272707919,-0.4498647702734838,-0.06875205103345051,0.8904464295764678,0.056992337,-0.012001585,0.112333186,-0.04481436,0.07663373,-0.09945731,1.047179,-0.05759653,-6.4631924e-05,0.004349529,0.8854205072511702,-0.0018990740434927794,-0.4647869607216386,0.03816923370704041,0.9969111129556751,0.06863921957375879,0.4632209353400363,-0.0785151347400912,0.8827580295185354,-0.005990996,-0.015220232,0.09523273,-0.20453897,0.8121495,-0.10964169,0.0019528127,0.0011540706,-0.021505708,0.00063468516,0.9889483940539916,-0.14401479849006504,-0.03522515740059325,0.14152458394553347,0.846188853870381,0.5137462561659931,-0.04417992798855907,-0.5130537607321444,0.8572187425398076,left_images/camera_left_38.png,right_images/camera_right_38.png
2025-06-27 14:39:53,2.21075701713562,39,-0.03503175,-0.012117093,0.11361823,0.024522295,0.07969436,0.091945395,1.0471802,0.059015922,-7.291342e-05,0.0019329563,0.8926051377531505,-0.01508043785884389,0.45058700430734233,-0.01821627297803433,0.9974178393789729,0.06946813001205371,-0.45047112610629014,-0.07021562562968023,0.8900255785436527,0.056992337,-0.012001294,0.112333186,-0.044815388,0.076632835,-0.09945753,1.047179,-0.05759658,-6.470084e-05,0.004349618,0.8854206709976673,-0.0019003044163807895,-0.46478664375513823,0.03817043558796931,0.996911086839469,0.06863893052469051,0.46322052331159225,-0.07851543656933767,0.8827582188817394,-0.00600352,-0.015234501,0.095234595,-0.20466313,0.8123324,-0.109685555,0.001948196,0.001154557,-0.021506567,0.00063489005,0.988936446254943,-0.14408111524006176,-0.03528933974764202,0.1416068231424298,0.8460882125957875,0.5138893306403377,-0.044183853477860774,-0.5132010997042443,0.8571303391866382,left_images/camera_left_39.png,right_images/camera_right_39.png
2025-06-27 14:39:53,2.262019634246826,40,-0.035000492,-0.012102418,0.11362502,0.024334507,0.0794814,0.092055395,1.04718,0.059016485,-7.0471375e-05,0.001924416,0.89267294213964,-0.015131245014875408,0.45045095603856666,-0.018040197143545385,0.9974357897861718,0.06925602169239739,-0.450343834929247,-0.06994920069547333,0.8901109704207019,0.05699276,-0.011998004,0.112333186,-0.044847917,0.07660795,-0.09946755,1.047179,-0.05759651,-6.455253e-05,0.004349632,0.8854238300804914,-0.0019387572568307192,-0.4647804668291172,0.03820370496695916,0.9969110465552984,0.06862100394789704,0.4632117421357004,-0.07851500796866066,0.8827628648007859,-0.006001249,-0.01521779,0.09523217,-0.20465975,0.81212306,-0.109644316,0.0019375096,0.0011546124,-0.02150553,0.0006349068,0.988932299508999,-0.14410714446957207,-0.035299262041423876,0.14164281380626442,0.8461839753448912,0.5137217078988976,-0.044161298496388654,-0.513035876700979,0.8572304059777456,left_images/camera_left_40.png,right_images/camera_right_40.png
2025-06-27 14:39:53,2.3145196437835693,41,-0.035119835,-0.011876743,0.113618515,0.023389729,0.07788806,0.09293214,1.0471799,0.05901606,-6.7050045e-05,0.001930723,0.8930373847969864,-0.015211418667585958,0.4497252962610383,-0.017165607839964406,0.9975493941280645,0.06782734096377276,-0.44965494688977214,-0.06829215926334993,0.8905877888904077,0.056992996,-0.011995139,0.112333186,-0.044872094,0.07658928,-0.09947494,1.047179,-0.057596546,-6.464269e-05,0.00434957,0.8854263654117752,-0.0019679921326262034,-0.4647755140287185,0.03822909311293641,0.9969109956481343,0.06860760304520092,0.46320480122021185,-0.07851492700634286,0.8827665140702453,-0.005977251,-0.015235176,0.09523444,-0.20435242,0.81233126,-0.10959434,0.0019397336,0.0011537243,-0.021507055,0.0006347839,0.9889737986712837,-0.14385338449097812,-0.03517142749707896,0.14135168677534088,0.8461320761756581,0.5138873517731648,-0.04416476182951055,-0.5131926669752416,0.8571363720992019,left_images/camera_left_41.png,right_images/camera_right_41.png
2025-06-27 14:39:53,2.3676748275756836,42,-0.035159435,-0.011783014,0.11361371,0.023142945,0.07735497,0.09321459,1.04718,0.05901736,-6.787409e-05,0.0019351887,0.8931532601867795,-0.015189702466678579,0.44949585844221157,-0.016941421627970035,0.9975839542186068,0.06737390087260844,-0.449433245377943,-0.06779031807376698,0.8907380258664763,0.05699322,-0.011993048,0.112333186,-0.044889927,0.07657552,-0.09948047,1.047179,-0.05759667,-6.4601656e-05,0.004349637,0.885428206280133,-0.0019888874680777553,-0.4647719180955169,0.038247390132181536,0.9969109324130057,0.06859832347447403,0.46319977188209327,-0.07851520338170942,0.882769128462423,-0.005992211,-0.015238421,0.09523562,-0.20451534,0.8124669,-0.10964799,0.0019444992,0.0011543536,-0.021508353,0.00063514337,0.9889564336984082,-0.1439544457167987,-0.03524613177208367,0.14147063380476668,0.8460440006399241,0.5139996194084872,-0.04417275197905864,-0.5133095231335195,0.8570659842993625,left_images/camera_left_42.png,right_images/camera_right_42.png
2025-06-27 14:39:53,2.427868604660034,43,-0.0350818,-0.011898968,0.11361827,0.02380198,0.07829264,0.092682876,1.0471802,0.059017636,-7.2180526e-05,0.0019304082,0.8929334419537042,-0.015063514677983074,0.44993661638752747,-0.017557714283990868,0.9975143847278023,0.06824059591061396,-0.4498461902804475,-0.06883416874387421,0.8904494720664993,0.056993652,-0.011991217,0.112333186,-0.04490321,0.0765649,-0.099484764,1.047179,-0.057596557,-6.4687745e-05,0.004349565,0.8854293752353695,-0.0020050460422914515,-0.4647696217059282,0.038261495584819345,0.9969108970126059,0.06859097151327107,0.4631963724230968,-0.07851524188264214,0.8827709087674979,-0.005971426,-0.01524448,0.095236525,-0.20424409,0.81258625,-0.10959774,0.0019368466,0.0011535122,-0.021509735,0.00063523,0.9889918424970374,-0.1437395407939862,-0.03512947319060328,0.1412219324194789,0.8460256682809787,0.5140981758511032,-0.044175799687424674,-0.5133999542482037,0.8570116601890077,left_images/camera_left_43.png,right_images/camera_right_43.png
2025-06-27 14:39:53,2.497426986694336,44,-0.035074368,-0.011923193,0.11362038,0.023858976,0.07833968,0.092663504,1.0471802,0.059016973,-7.016567e-05,0.0019284505,0.8929264574958977,-0.015027169669202532,0.4499516926021723,-0.017613292077668694,0.9975115529817306,0.06826766152551893,-0.4498578813870148,-0.06888313175015408,0.8904397793867238,0.05699382,-0.011990087,0.112333186,-0.044913054,0.07655734,-0.09948785,1.047179,-0.057596605,-6.475276e-05,0.00434943,0.885430558013507,-0.002016479469624414,-0.46476731893113826,0.03827140836546526,0.9969108744214074,0.06858576938453703,0.46319329252226177,-0.07851523591567236,0.8827725253379225,-0.005956207,-0.015242458,0.09523726,-0.20403706,0.812675,-0.10955567,0.0019367981,0.0011526387,-0.02151132,0.0006353231,0.9890185107335612,-0.14357699818698297,-0.035043273505535384,0.14103465933400536,0.8460091223684849,0.5141768078548923,-0.04417703354583378,-0.5134726968991836,0.8569680152993864,left_images/camera_left_44.png,right_images/camera_right_44.png
2025-06-27 14:39:53,2.566054344177246,45,-0.035110228,-0.011920525,0.1136169,0.02389917,0.07831283,0.0926921,1.0471802,0.05901548,-7.016794e-05,0.0019334741,0.8929226039253604,-0.014982842798712832,0.4499608180951127,-0.017653994612839705,0.9975121343934998,0.06824864989092476,-0.4498639348440413,-0.06888436803363486,0.8904366254637344,0.05699408,-0.011989446,0.112333186,-0.04492034,0.076551914,-0.0994903,1.047179,-0.057596397,-6.4804684e-05,0.0043494496,0.8854312055752487,-0.0020250795004207386,-0.46476604786341547,0.03827903594522468,0.9969108343535457,0.06858209500752756,0.4631914243600218,-0.07851552331567506,0.8827734800036755,-0.0059688995,-0.015211661,0.09523401,-0.20419617,0.81237936,-0.10953952,0.0019339513,0.0011529406,-0.021510247,0.000635284,0.9889926530468258,-0.14373519290170947,-0.03512444363842789,0.14122346522527537,0.8461177215416609,0.5139462366463187,-0.04415274724370114,-0.5132494477490032,0.8571029922338255,left_images/camera_left_45.png,right_images/camera_right_45.png
2025-06-27 14:39:53,2.6289896965026855,46,-0.034998488,-0.012208925,0.11362176,0.025175752,0.08030012,0.091615625,1.0471803,0.05901391,-7.383124e-05,0.0019305255,0.8924557057963382,-0.014798830533535479,0.45089223524740296,-0.018843011717329147,0.9973668359965867,0.07003096003610208,-0.45074133835380603,-0.07099569753863418,0.8898268690200484,0.05699415,-0.0119890245,0.112333186,-0.044925783,0.07654786,-0.099491976,1.047179,-0.057596523,-6.469275e-05,0.0043494115,0.8854318815232612,-0.0020316177699105896,-0.46476473157008674,0.03828451085283839,0.9969108541780503,0.06857875072316043,0.4631896797327599,-0.07851510269513413,0.8827744328183934,-0.0059566433,-0.015224685,0.095235676,-0.204023,0.812525,-0.1095112,0.0019388127,0.0011524975,-0.021511104,0.0006351592,0.9890163338723346,-0.14358903756341607,-0.0350553794065689,0.14105715746203734,0.8460760640600119,0.5140604751908556,-0.04415393144960708,-0.5133590187347742,0.8570373085351728,left_images/camera_left_46.png,right_images/camera_right_46.png
2025-06-27 14:39:53,2.700774908065796,47,-0.035021354,-0.012170828,0.11362097,0.024815533,0.079847395,0.091867544,1.0471802,0.059014466,-6.9589005e-05,0.0019306121,0.8925676931135423,-0.014884256352468903,0.4506676958944398,-0.018504773685330187,0.9974039689214413,0.06959091988622597,-0.4505335576411861,-0.07045411054431387,0.8899751298472254,0.05699428,-0.011988441,0.112333186,-0.044929795,0.076544665,-0.099493265,1.047179,-0.057596587,-6.469956e-05,0.0043494636,0.8854321667724775,-0.0020368220138321756,-0.4647641653577427,0.03828907659022221,0.9969108410100227,0.06857639309964428,0.46318875705101403,-0.07851513505543253,0.8827749140685657,-0.0059410944,-0.015234804,0.095236935,-0.20382999,0.8126594,-0.10929786,0.0019389365,0.0011537013,-0.021512017,0.00063528214,0.9890360417127189,-0.14342859615082287,-0.035156023657990476,0.14096727082282906,0.8460412448707865,0.5141424321472143,-0.04399928124413156,-0.5134612446754807,0.8569840217100351,left_images/camera_left_47.png,right_images/camera_right_47.png
2025-06-27 14:39:53,2.7566463947296143,48,-0.035080213,-0.012020043,0.11361506,0.024142733,0.07883338,0.09240851,1.04718,0.0590169,-6.805267e-05,0.0019352268,0.8928017384437674,-0.014998570417497647,0.45020006521236544,-0.01787702678340476,0.9974783037590342,0.06868366212852392,-0.4500949541432032,-0.06936913157472252,0.8902822338109397,0.0569944,-0.011988073,0.112333186,-0.04493278,0.07654241,-0.09949438,1.047179,-0.05759639,-6.470573e-05,0.0043493444,0.8854325008606594,-0.002040284839720602,-0.46476351368993135,0.03829204605723632,0.9969108402369435,0.06857474627602679,0.463187872928889,-0.07851505496300544,0.8827753850871507,-0.0059289383,-0.015220949,0.09523403,-0.20367348,0.81238484,-0.10924628,0.0019386895,0.0011525732,-0.02150995,0.00063536316,0.9890501951049425,-0.14335391732286865,-0.03506231525531505,0.1408666766827971,0.8461918337558222,0.5139221340682877,-0.044003306275997765,-0.5132338987958093,0.857119988195138,left_images/camera_left_48.png,right_images/camera_right_48.png
2025-06-27 14:39:53,2.8086459636688232,49,-0.035002843,-0.012185252,0.11361726,0.024886038,0.080068,0.09173177,1.0471802,0.059017137,-7.219985e-05,0.0019335169,0.8925130087164453,-0.01493302912648247,0.4507743714021748,-0.01856556674698963,0.997388231331513,0.0697999694323665,-0.4506393779989508,-0.0706662624064967,0.8899047310550803,0.0569944,-0.011987856,0.112333186,-0.04493499,0.07654068,-0.09949505,1.047179,-0.057596497,-6.4753345e-05,0.0043495204,0.8854327499333045,-0.002042603142391585,-0.4647630289921403,0.03829432791607948,0.9969107892662924,0.06857421303896687,0.4631872081513069,-0.07851564186110006,0.8827756816927714,-0.0059630573,-0.015230239,0.0952359,-0.2040439,0.81250757,-0.10937663,0.0019539183,0.0011533535,-0.02151002,0.00063468236,0.9890082055801162,-0.14361035969986324,-0.035197072066788376,0.14115003399513187,0.8460845573153892,0.5140210012981913,-0.0440390417512906,-0.5133390560431749,0.8570551769532289,left_images/camera_left_49.png,right_images/camera_right_49.png
2025-06-27 14:39:53,2.8649775981903076,50,-0.034985337,-0.0121424245,0.11362315,0.024609251,0.07973674,0.09190522,1.0471802,0.059017442,-7.085595e-05,0.0019262554,0.8926055402626837,-0.015012354424048784,0.45058848044197686,-0.01830450964511007,0.9974145684444296,0.06949189579702661,-0.45046675173536954,-0.0702766523780087,0.8900229759458606,0.0569944,-0.011987717,0.112333186,-0.044936575,0.07653934,-0.0994955,1.047179,-0.05759651,-6.473006e-05,0.004349457,0.8854328541787793,-0.00204478018292693,-0.4647628208181288,0.03829594134885653,0.9969108343757513,0.06857265621549335,0.4631868754801085,-0.07851501243868467,0.8827759122250265,-0.005945299,-0.015215525,0.09523303,-0.20381416,0.8122721,-0.109310314,0.0019339294,0.0011519331,-0.021508805,0.0006350251,0.9890320286042873,-0.14347632401726715,-0.03507407648649849,0.1409818887662966,0.8462253577555139,0.5138353344520407,-0.04404263201463038,-0.5131444127514643,0.857171545390524,left_images/camera_left_50.png,right_images/camera_right_50.png
2025-06-27 14:39:54,2.9299490451812744,51,-0.035045765,-0.0121012945,0.11361789,0.024388086,0.07938684,0.09211569,1.0471802,0.05901609,-6.907596e-05,0.0019328604,0.8926788259292766,-0.015039636024443215,0.450442363777854,-0.01809784435167078,0.9974407745817534,0.06916913496332285,-0.4503298588449926,-0.06989785797865299,0.8901220745957518,0.0569944,-0.0119876,0.112333186,-0.04493779,0.07653844,-0.09949595,1.047179,-0.0575964,-6.470783e-05,0.0043493416,0.8854330110778459,-0.002046356744738815,-0.4647625149661844,0.03829736005622261,0.9969108225759176,0.06857203543523957,0.4631864582501776,-0.07851512118745643,0.8827761214705435,-0.0059728096,-0.01522416,0.0952349,-0.20413768,0.8124244,-0.10942771,0.001950737,0.0011531262,-0.021509457,0.0006349711,0.9889963938684229,-0.14369199106479738,-0.035195803998342476,0.1412223749482179,0.8461097672086825,0.513959631340881,-0.04407236922654045,-0.5132746570189333,0.8570920328254464,left_images/camera_left_51.png,right_images/camera_right_51.png
2025-06-27 14:39:54,2.9841318130493164,52,-0.03502498,-0.012149685,0.113617435,0.02465337,0.079813026,0.091879934,1.0471802,0.05901636,-7.147418e-05,0.0019335514,0.8925754056389258,-0.01501463245855107,0.45064809559193886,-0.018343675828926466,0.9974088293232298,0.06956390403899834,-0.4505248659126263,-0.07035757244389787,0.889987166870518,0.0569944,-0.01198752,0.112333186,-0.044938687,0.07653777,-0.0994963,1.047179,-0.05759649,-6.4768596e-05,0.0043494543,0.8854331422086616,-0.0020471842616964844,-0.46476226150053807,0.038298173712631785,0.9969108034659825,0.06857185882770102,0.46318614030298116,-0.07851534225492328,0.8827762686331226,-0.005954574,-0.015239876,0.095236294,-0.20391923,0.81258273,-0.10923782,0.0019409237,0.0011539658,-0.021510305,0.00063522346,0.9890206174278418,-0.14350942939054584,-0.03525992028707329,0.14109381888964767,0.8460693496489767,0.5140614650561671,-0.04394032969591969,-0.5133923443727589,0.8570283240159898,left_images/camera_left_52.png,right_images/camera_right_52.png
2025-06-27 14:39:54,3.037332773208618,53,-0.034913298,-0.012382326,0.11362416,0.025682688,0.08145809,0.09097935,1.0471803,0.059015516,-7.5002725e-05,0.0019279141,0.892192811330276,-0.014886968021318864,0.4514093104862937,-0.019303320998763182,0.99728655226955,0.07104163892206455,-0.4512420295240655,-0.07209653837353441,0.889484524848834,0.0569944,-0.011987539,0.112333186,-0.044939358,0.076537326,-0.09949652,1.047179,-0.057596475,-6.475375e-05,0.0043494515,0.88543331299646,-0.002048046106505764,-0.4647619323301537,0.03829904054752423,0.996910779413876,0.06857172435893202,0.46318574214806296,-0.07851562516826752,0.8827764523791877,-0.005975499,-0.0152158225,0.095233396,-0.20418148,0.81228065,-0.109488904,0.0019427417,0.0011525712,-0.021508614,0.0006349096,0.9889906109973069,-0.14374418417936968,-0.03514514011611257,0.14124656596351048,0.846170548182665,0.5138529079335487,-0.04412458456109716,-0.5131598317316505,0.8571580998476622,left_images/camera_left_53.png,right_images/camera_right_53.png
2025-06-27 14:39:54,3.0926437377929688,54,-0.034944113,-0.012302903,0.11362621,0.025189033,0.08074397,0.09137732,1.0471802,0.059015058,-7.096882e-05,0.0019249786,0.8923710916501665,-0.014969345917694889,0.4510540471716075,-0.018841246805218932,0.997342649125937,0.07037504993449908,-0.4509089067715509,-0.07129908076023703,0.8897177074088333,0.0569944,-0.011987539,0.112333186,-0.044939805,0.07653688,-0.09949652,1.047179,-0.05759651,-6.472028e-05,0.004349421,0.885433323889185,-0.002048855698591475,-0.4647619080097636,0.03829952257978113,0.9969108168791796,0.06857091044639703,0.4631856814677138,-0.07851512834870307,0.8827765284055056,-0.0059526796,-0.015203761,0.09523151,-0.20391004,0.8121061,-0.10939546,0.0019312955,0.0011514315,-0.021507747,0.00063480344,0.9890200039861328,-0.14356984730846248,-0.03503042476326063,0.1410457867883345,0.8462882848049925,0.5137141471977225,-0.04410802358448387,-0.513014461731488,0.8572459648839544,left_images/camera_left_54.png,right_images/camera_right_54.png
2025-06-27 14:39:54,3.1523613929748535,55,-0.035021737,-0.012220317,0.113618486,0.024818517,0.08012547,0.09172919,1.0471802,0.0590147,-6.904168e-05,0.001933774,0.892504212022027,-0.015003546883682353,0.45078944653113795,-0.01849636585308428,0.9973883746108392,0.06981629209129597,-0.4506596453790481,-0.07064930128499108,0.8898958142697229,0.05699459,-0.011987487,0.112333186,-0.044940047,0.07653643,-0.09949652,1.047179,-0.05759651,-6.4713764e-05,0.0043494217,0.885433317318573,-0.0020491797092659636,-0.4647619190991739,0.03829968442640268,0.996910837413107,0.06857052151716742,0.4631856806455333,-0.07851485917211776,0.8827765527777215,-0.0059772725,-0.01521635,0.0952338,-0.20420465,0.81230295,-0.109492145,0.0019484874,0.0011526373,-0.021508727,0.0006349189,0.9889880289039525,-0.1437581455483145,-0.03516069216019837,0.14126555530187868,0.8461565008005976,0.5138708194071152,-0.04412166780535926,-0.5131790834995108,0.8571467241310997,left_images/camera_left_55.png,right_images/camera_right_55.png
2025-06-27 14:39:54,3.208197593688965,56,-0.03499398,-0.012250191,0.11361817,0.024972063,0.080382325,0.0915787,1.0471802,0.05901623,-7.013691e-05,0.0019335719,0.8924449701337172,-0.014992105629348452,0.45090709913664845,-0.018639228918482312,0.9973691555893518,0.07005245623322408,-0.45077106653860705,-0.07092252285262997,0.8898176449834342,0.05699467,-0.011987481,0.112333186,-0.04494032,0.07653643,-0.09949652,1.047179,-0.057596464,-6.474409e-05,0.00434942,0.8854333417073562,-0.0020493048797395365,-0.4647618720833862,0.03829980554764503,0.9969108347393506,0.06857049273779256,0.46318562400829816,-0.07851488985409685,0.882776579765935,-0.0059947846,-0.0152266305,0.095235296,-0.20441975,0.81244785,-0.10957219,0.0019441219,0.0011533992,-0.021509154,0.00063489284,0.9889651467485047,-0.1438944570294938,-0.03524661335356121,0.1414202231295009,0.8460602426480103,0.5139867569309466,-0.044139087062494385,-0.5132995724200216,0.8570736782486744,left_images/camera_left_56.png,right_images/camera_right_56.png
2025-06-27 14:39:54,3.2620022296905518,57,-0.034949634,-0.012295768,0.11362549,0.025073253,0.08064609,0.09144034,1.0471802,0.05901561,-6.993167e-05,0.0019254964,0.8923995105374469,-0.015019068396903097,0.45099616536841436,-0.018730179657443988,0.9973517424981351,0.0702757575977189,-0.45085728780016954,-0.07116129088502132,0.8897548969896442,0.05699467,-0.011987537,0.112333186,-0.044940542,0.07653643,-0.09949652,1.047179,-0.057596475,-6.473967e-05,0.004349392,0.8854333228226756,-0.0020495774724621496,-0.4647619068591787,0.03830018523871393,0.996910811067942,0.06857062480784563,0.46318562871258834,-0.0785151832962422,0.8827765511985928,-0.0060045575,-0.015230324,0.095236205,-0.20457247,0.81255484,-0.10963736,0.0019412517,0.001154274,-0.02151012,0.000635379,0.988949426720694,-0.14398890725665306,-0.03530192595094314,0.14152473096249932,0.845988109267741,0.5140767155820083,-0.044156334933994415,-0.5133919687379496,0.8570174470339382,left_images/camera_left_57.png,right_images/camera_right_57.png
2025-06-27 14:39:54,3.3142433166503906,58,-0.03504551,-0.012127446,0.113621354,0.02434809,0.07941669,0.09212151,1.0471802,0.05901453,-6.638514e-05,0.0019299481,0.89268202467044,-0.015075292621182429,0.45043483255923905,-0.018057399711909755,0.9974414997654231,0.06916924794551345,-0.4503251415876403,-0.06987982611662193,0.8901258769162834,0.05699467,-0.011987593,0.112333186,-0.044940766,0.07653643,-0.09949652,1.047179,-0.057596475,-6.473967e-05,0.004349392,0.8854333228226756,-0.0020495774724621496,-0.4647619068591787,0.03830018523871393,0.996910811067942,0.06857062480784563,0.46318562871258834,-0.0785151832962422,0.8827765511985928,-0.0060101277,-0.015233245,0.095237054,-0.20468819,0.81263447,-0.10968869,0.0019413339,0.0011550336,-0.021510828,0.00063523743,0.9889376837409747,-0.14405944760362668,-0.035343078999624286,0.14160270994898597,0.8459343416473546,0.5141437174144596,-0.04416933565426458,-0.5134607727741178,0.8569755566001088,left_images/camera_left_58.png,right_images/camera_right_58.png
2025-06-27 14:39:54,3.3708386421203613,59,-0.035151895,-0.011889278,0.11361429,0.023430407,0.07783864,0.09297944,1.04718,0.059015542,-6.474601e-05,0.0019359961,0.8930434224536326,-0.01514649431899532,0.44971549820097056,-0.017208513309995725,0.9975525288172032,0.06777034248151886,-0.44964131558605935,-0.06826079372705318,0.890597075763103,0.05699467,-0.011987574,0.112333186,-0.044940878,0.07653643,-0.09949652,1.047179,-0.057596475,-6.474159e-05,0.0043494226,0.8854333023459238,-0.0020499218823795233,-0.46476194435115725,0.038300588349363285,0.9969107940621588,0.0685706468866158,0.4631856345234432,-0.07851539022785581,0.8827765297449197,-0.0060134027,-0.015236196,0.09523755,-0.20477252,0.812694,-0.10972891,0.001938765,0.0011555627,-0.02151122,0.00063549355,0.9889293115012574,-0.1441100340657661,-0.03537110310992298,0.14165777432590204,0.8458948210233822,0.5141935693285673,-0.0441802198577698,-0.5135116842364778,0.8569444896409191,left_images/camera_left_59.png,right_images/camera_right_59.png
2025-06-27 14:39:54,3.4261550903320312,60,-0.03509969,-0.01196199,0.11361511,0.024016496,0.07860943,0.09253335,1.0471802,0.05901614,-7.084047e-05,0.0019354476,0.892852709730115,-0.015018444224720892,0.450098305996212,-0.017757953851926075,0.9974924059955628,0.0685095252952164,-0.44999854866719696,-0.06916174024886865,0.89034710078888,0.05699467,-0.01198757,0.112333186,-0.044940878,0.07653643,-0.09949652,1.047179,-0.057596475,-6.474159e-05,0.0043494226,0.8854333023459238,-0.0020499218823795233,-0.46476194435115725,0.038300588349363285,0.9969107940621588,0.0685706468866158,0.4631856345234432,-0.07851539022785581,0.8827765297449197,-0.0059741633,-0.0152209215,0.0952345,-0.2043522,0.81241155,-0.109586,0.0019275933,0.0011543332,-0.02150948,0.00063526444,0.9889750090188603,-0.14383976745090649,-0.03519307937384705,0.14134708681973063,0.8460851899416082,0.513965808599218,-0.04415237913997716,-0.5132737794405065,0.8570884404512393,left_images/camera_left_60.png,right_images/camera_right_60.png
2025-06-27 14:39:54,3.4954850673675537,61,-0.035034265,-0.012065273,0.1136212,0.024435794,0.079254635,0.092177644,1.0471802,0.059015974,-7.084373e-05,0.0019289358,0.8927113743199994,-0.014947435076777614,0.4503809236017035,-0.018149884370676182,0.9974460747181398,0.0690790107536735,-0.45026323840285815,-0.06984198031270715,0.8901601619534377,0.05699467,-0.01198757,0.112333186,-0.044940878,0.07653643,-0.09949652,1.047179,-0.057596475,-6.474159e-05,0.0043494226,0.8854333023459238,-0.0020499218823795233,-0.46476194435115725,0.038300588349363285,0.9969107940621588,0.0685706468866158,0.4631856345234432,-0.07851539022785581,0.8827765297449197,-0.005957339,-0.015233956,0.095236145,-0.20413741,0.8125467,-0.10954624,0.0019410546,0.0011537289,-0.021510348,0.00063502043,0.989003713520597,-0.1436633908349364,-0.035106762543373915,0.14114653930964022,0.8460546108903149,0.5140712497622774,-0.04415098054834936,-0.5133735730684293,0.8570287424535848,left_images/camera_left_61.png,right_images/camera_right_61.png
2025-06-27 14:39:54,3.5625827312469482,62,-0.03510998,-0.011949686,0.11361769,0.023907363,0.07835827,0.092680536,1.0471802,0.059014987,-6.7655346e-05,0.0019329591,0.8929169424009701,-0.014984648239717438,0.44997199278447836,-0.01766116839609529,0.9975108934440545,0.06826492943912633,-0.4498748905020011,-0.0689019432060959,0.8904297305898071,0.05699467,-0.01198757,0.112333186,-0.044940878,0.07653643,-0.09949652,1.047179,-0.057596475,-6.474159e-05,0.0043494226,0.8854333023459238,-0.0020499218823795233,-0.46476194435115725,0.038300588349363285,0.9969107940621588,0.0685706468866158,0.4631856345234432,-0.07851539022785581,0.8827765297449197,-0.005970286,-0.015215461,0.09523345,-0.20428668,0.81228364,-0.10953104,0.0019409964,0.0011539467,-0.021508401,0.00063503813,0.9889795271761322,-0.14381088194188096,-0.03518415924207832,0.14132337757036056,0.8461548838334523,0.513857582912719,-0.044127064014942874,-0.513166973605955,0.8571536964987819,left_images/camera_left_62.png,right_images/camera_right_62.png
2025-06-27 14:39:54,3.623159885406494,63,-0.035036255,-0.012118103,0.113619596,0.024776202,0.079659425,0.09196235,1.0471803,0.05901456,-7.2341936e-05,0.0019320501,0.8926053565665192,-0.014846757874362185,0.4505943310888158,-0.018471385104910466,0.9974140629796814,0.06945498472154671,-0.4504603038682358,-0.07031899281832937,0.8900228951481823,0.05699467,-0.01198757,0.112333186,-0.044940878,0.07653643,-0.09949652,1.047179,-0.057596475,-6.474159e-05,0.0043494226,0.8854333023459238,-0.0020499218823795233,-0.46476194435115725,0.038300588349363285,0.9969107940621588,0.0685706468866158,0.4631856345234432,-0.07851539022785581,0.8827765297449197,-0.0060275313,-0.0152244875,0.09523484,-0.2049559,0.81238735,-0.10988422,0.001956063,0.00115451,-0.021508284,0.0006350158,0.988906025296789,-0.1442877477533314,-0.03529757753695465,0.14178415855627155,0.8460153806551797,0.513960337066355,-0.044295885973715,-0.513263111418639,0.8570874243288494,left_images/camera_left_63.png,right_images/camera_right_63.png
2025-06-27 14:39:54,3.675931453704834,64,-0.035020053,-0.0120941475,0.113623574,0.024524242,0.07942283,0.09208674,1.0471802,0.05901541,-7.052586e-05,0.0019266242,0.8926745528515586,-0.01494540555777826,0.45045396828531065,-0.018231661888934537,0.997434565365345,0.06922350987354742,-0.4503329315029467,-0.07000659016949101,0.8901119750552755,0.05699467,-0.01198757,0.112333186,-0.044940878,0.07653643,-0.09949652,1.047179,-0.057596475,-6.474159e-05,0.0043494226,0.8854333023459238,-0.0020499218823795233,-0.46476194435115725,0.038300588349363285,0.9969107940621588,0.0685706468866158,0.4631856345234432,-0.07851539022785581,0.8827765297449197,-0.006026614,-0.015231587,0.09523608,-0.20496242,0.81251127,-0.109878555,0.001936337,0.0011550102,-0.021509033,0.0006351443,0.9889070991043236,-0.1442734831718601,-0.03532578936882033,0.1417813919893207,0.8459568393326937,0.5140574509447453,-0.04428076587686629,-0.5133636021765642,0.8570280192232108,left_images/camera_left_64.png,right_images/camera_right_64.png
2025-06-27 14:39:54,3.7307021617889404,65,-0.03507383,-0.012056127,0.11361765,0.024329659,0.07914092,0.09225322,1.0471802,0.05901473,-6.9835805e-05,0.0019339109,0.892730114477611,-0.014984403101380717,0.4503425478105387,-0.018048613348434585,0.9974556566842488,0.06896709726233982,-0.45023015254532955,-0.06969706315397847,0.890188254880236,0.05699467,-0.01198757,0.112333186,-0.044940878,0.07653643,-0.09949652,1.047179,-0.057596475,-6.474159e-05,0.0043494226,0.8854333023459238,-0.0020499218823795233,-0.46476194435115725,0.038300588349363285,0.9969107940621588,0.0685706468866158,0.4631856345234432,-0.07851539022785581,0.8827765297449197,-0.0059909998,-0.015236502,0.095237,-0.20456451,0.8126211,-0.10977904,0.001930013,0.001154379,-0.021510597,0.00063525327,0.9889574957790201,-0.14396452206855606,-0.03517510381024419,0.1414352301121722,0.8459601011858483,0.5141474330235891,-0.04426225508947905,-0.5134449567258417,0.8569802385044782,left_images/camera_left_65.png,right_images/camera_right_65.png
2025-06-27 14:39:54,3.787693500518799,66,-0.035085384,-0.01201542,0.11361413,0.024200965,0.07895678,0.09234147,1.0471802,0.05901616,-7.1004324e-05,0.0019368511,0.892767990539402,-0.01501762970527945,0.45026634991555087,-0.017927602973429282,0.9974683863540978,0.06881438276828025,-0.4501598783986254,-0.069507474577828,0.8902386168089697,0.05699467,-0.01198757,0.112333186,-0.044940878,0.07653643,-0.09949652,1.047179,-0.057596475,-6.474159e-05,0.0043494226,0.8854333023459238,-0.0020499218823795233,-0.46476194435115725,0.038300588349363285,0.9969107940621588,0.0685706468866158,0.4631856345234432,-0.07851539022785581,0.8827765297449197,-0.005998904,-0.015237119,0.095237575,-0.20468436,0.8126842,-0.109791085,0.0019428906,0.0011552144,-0.02151111,0.0006353194,0.9889434507870546,-0.14404164757262297,-0.03525414741497634,0.14153914704099532,0.8459125006987537,0.5141971518945712,-0.04424388093623915,-0.5135017477342656,0.8569471594407408,left_images/camera_left_66.png,right_images/camera_right_66.png
2025-06-27 14:39:54,3.843881368637085,67,-0.03496557,-0.012279457,0.11362028,0.025343368,0.08082136,0.09132545,1.0471803,0.05901562,-7.512176e-05,0.0019317558,0.8923348454632682,-0.014893649107004381,0.4511282553646166,-0.018989643727501837,0.9973318733025345,0.07048778565084812,-0.45097440836831065,-0.07146547216058108,0.8896711579486645,0.05699467,-0.01198757,0.112333186,-0.044940878,0.07653643,-0.09949652,1.047179,-0.057596475,-6.474159e-05,0.0043494226,0.8854333023459238,-0.0020499218823795233,-0.46476194435115725,0.038300588349363285,0.9969107940621588,0.0685706468866158,0.4631856345234432,-0.07851539022785581,0.8827765297449197,-0.006005992,-0.015239429,0.09523799,-0.20477693,0.81273085,-0.10980343,0.0019415155,0.0011557017,-0.021511465,0.0006353222,0.9889325465693412,-0.14410255719245946,-0.03531106549612224,0.14161859658417997,0.845877715691945,0.514232499164827,-0.04423337470061231,-0.513541958467242,0.8569236053792803,left_images/camera_left_67.png,right_images/camera_right_67.png
2025-06-27 14:39:54,3.8940465450286865,68,-0.03498163,-0.012222565,0.113624945,0.024936004,0.0802836,0.09163037,1.0471802,0.05901436,-7.166801e-05,0.0019265758,0.8924750618447311,-0.014984191601499868,0.4508477991376837,-0.018605883992478093,0.9973748934659054,0.0699795896296399,-0.4507128632134899,-0.07084346043160158,0.8898534255977073,0.05699467,-0.01198757,0.112333186,-0.044940878,0.07653643,-0.09949652,1.047179,-0.057596475,-6.474159e-05,0.0043494226,0.8854333023459238,-0.0020499218823795233,-0.46476194435115725,0.038300588349363285,0.9969107940621588,0.0685706468866158,0.4631856345234432,-0.07851539022785581,0.8827765297449197,-0.005969251,-0.015221834,0.09523484,-0.20435272,0.8124395,-0.10964077,0.0019269484,0.0011544027,-0.021509897,0.0006352179,0.9889777945797679,-0.14383196897122635,-0.03514664322518787,0.141315045204206,0.8460719350140566,0.5139964384900962,-0.04419253134944499,-0.5132978136359342,0.8570719775430172,left_images/camera_left_68.png,right_images/camera_right_68.png
2025-06-27 14:39:55,3.9464712142944336,69,-0.035044808,-0.012161763,0.11361883,0.024630368,0.07979349,0.09191134,1.0471802,0.059013847,-6.9632835e-05,0.0019335458,0.8925809593896931,-0.01501839379566771,0.4506369700576882,-0.018321732690774563,0.997411540920616,0.06953080000669164,-0.4505147556364645,-0.07031831828308323,0.8899953871047063,0.05699467,-0.01198757,0.112333186,-0.044940878,0.07653643,-0.09949652,1.047179,-0.057596475,-6.474159e-05,0.0043494226,0.8854333023459238,-0.0020499218823795233,-0.46476194435115725,0.038300588349363285,0.9969107940621588,0.0685706468866158,0.4631856345234432,-0.07851539022785581,0.8827765297449197,-0.005976876,-0.0152109675,0.09523285,-0.20445691,0.81220496,-0.10960287,0.0019418155,0.0011546419,-0.021507572,0.0006348416,0.9889591599912665,-0.14394178781450215,-0.03522132294694707,0.14145743347549303,0.8461680699239044,0.5137989801038736,-0.044153984915234666,-0.513108525715583,0.8571872995174893,left_images/camera_left_69.png,right_images/camera_right_69.png
2025-06-27 14:39:55,3.9984030723571777,70,-0.035017163,-0.012195004,0.11361773,0.024837745,0.08011226,0.09172272,1.0471802,0.059015475,-7.177243e-05,0.0019340375,0.8925030697181584,-0.014992723570931345,0.45079206823500056,-0.01851543899310062,0.9973870882761025,0.0698296116200769,-0.4506611244189546,-0.07066975576612423,0.8898934411250594,0.05699467,-0.01198757,0.112333186,-0.044940878,0.07653643,-0.09949652,1.047179,-0.057596475,-6.474159e-05,0.0043494226,0.8854333023459238,-0.0020499218823795233,-0.46476194435115725,0.038300588349363285,0.9969107940621588,0.0685706468866158,0.4631856345234432,-0.07851539022785581,0.8827765297449197,-0.0059940247,-0.015231043,0.09523487,-0.20461889,0.8123746,-0.10965389,0.0019471382,0.0011551622,-0.021507528,0.00063484535,0.988942218891681,-0.14403860636007662,-0.03530109872858964,0.141574646265865,0.8460719982734073,0.5139248906915667,-0.04415775388642328,-0.513239762309479,0.8571085340586779,left_images/camera_left_70.png,right_images/camera_right_70.png
2025-06-27 14:39:55,4.053323745727539,71,-0.034906674,-0.012416557,0.11362429,0.025819093,0.081680864,0.090862855,1.0471803,0.05901501,-7.510831e-05,0.001928363,0.892139516609003,-0.014871399687761098,0.4515151430195683,-0.01943022154711966,0.9972700436545949,0.07123851851205264,-0.4513419428717923,-0.07232773673003377,0.8894150600840007,0.05699467,-0.01198757,0.112333186,-0.044940878,0.07653643,-0.09949652,1.047179,-0.057596475,-6.474159e-05,0.0043494226,0.8854333023459238,-0.0020499218823795233,-0.46476194435115725,0.038300588349363285,0.9969107940621588,0.0685706468866158,0.4631856345234432,-0.07851539022785581,0.8827765297449197,-0.0059731468,-0.015245712,0.09523588,-0.20432498,0.8125175,-0.10960171,0.0019365732,0.0011540599,-0.02150868,0.00063538365,0.9889807770991438,-0.14380488646279851,-0.0351735292200748,0.14130356542173975,0.8460492558175398,0.5140369238971958,-0.04416248325760168,-0.5133427815407645,0.8570465936648446,left_images/camera_left_71.png,right_images/camera_right_71.png
2025-06-27 14:39:55,4.105860471725464,72,-0.034963086,-0.012236585,0.113625444,0.024879875,0.080268815,0.091630176,1.0471799,0.05901597,-6.962434e-05,0.0019249655,0.892484277520251,-0.01501488800908046,0.45082853449757426,-0.01855269781517747,0.9973782620021231,0.06994569242922014,-0.45069680693669717,-0.07078951634033903,0.8898658508974072,0.05699467,-0.01198757,0.112333186,-0.044940878,0.07653643,-0.09949652,1.047179,-0.057596475,-6.474159e-05,0.0043494226,0.8854333023459238,-0.0020499218823795233,-0.46476194435115725,0.038300588349363285,0.9969107940621588,0.0685706468866158,0.4631856345234432,-0.07851539022785581,0.8827765297449197,-0.005980052,-0.015222685,0.09523333,-0.20441191,0.8122599,-0.10957574,0.0019355873,0.0011541987,-0.021507211,0.0006350232,0.988964486700954,-0.14390526954887742,-0.03522098011673692,0.14142427109874187,0.8461530797344453,0.5138327949830597,-0.044140906068047665,-0.5131434877809309,0.8571670440232251,left_images/camera_left_72.png,right_images/camera_right_72.png
2025-06-27 14:39:55,4.1590917110443115,73,-0.035099674,-0.011979461,0.11361678,0.023757676,0.07849774,0.09260876,1.0471799,0.059016064,-6.65838e-05,0.0019334638,0.892891820272202,-0.015168157940765904,0.4500156933659953,-0.017507380635907198,0.9975071743501545,0.06835882344832966,-0.44993076013344874,-0.06891563033633535,0.8904004419254757,0.05699467,-0.01198757,0.112333186,-0.044940878,0.07653643,-0.09949652,1.047179,-0.057596475,-6.474159e-05,0.0043494226,0.8854333023459238,-0.0020499218823795233,-0.46476194435115725,0.038300588349363285,0.9969107940621588,0.0685706468866158,0.4631856345234432,-0.07851539022785581,0.8827765297449197,-0.00598691,-0.015211745,0.09523166,-0.20448919,0.81207,-0.10955596,0.00193875,0.0011542225,-0.021505602,0.00063458364,0.9889505899165497,-0.1439900068103979,-0.03526483577801193,0.141527283211047,0.8462307660290227,0.5136764728239303,-0.044122089825944164,-0.512991587226024,0.8572589297433514,left_images/camera_left_73.png,right_images/camera_right_73.png
2025-06-27 14:39:55,4.218562364578247,74,-0.035063002,-0.012051807,0.11361598,0.02418562,0.079159826,0.092238374,1.0471802,0.059016746,-7.043994e-05,0.0019345684,0.892731236805474,-0.015117620766334426,0.4503358706278397,-0.017903977497794182,0.9974576079871836,0.06897657470652349,-0.4502337020054447,-0.06964034614253026,0.8901908984974073,0.05699467,-0.01198757,0.112333186,-0.044940878,0.07653643,-0.09949652,1.047179,-0.057596475,-6.474159e-05,0.0043494226,0.8854333023459238,-0.0020499218823795233,-0.46476194435115725,0.038300588349363285,0.9969107940621588,0.0685706468866158,0.4631856345234432,-0.07851539022785581,0.8827765297449197,-0.0060008806,-0.0152338715,0.095233865,-0.20464288,0.8122731,-0.1096192,0.001950022,0.001154956,-0.021505855,0.00063489657,0.9889358259218259,-0.1440744939968407,-0.03533372875696376,0.14162689034301718,0.8461201568340531,0.5138312019826012,-0.044133390308057636,-0.5131502902451406,0.8571633586903052,left_images/camera_left_74.png,right_images/camera_right_74.png
2025-06-27 14:39:55,4.281134605407715,75,-0.034996968,-0.012137079,0.11362305,0.024500027,0.07972079,0.09192771,1.0471802,0.05901669,-7.0915674e-05,0.0019267369,0.892612918754704,-0.015099883108655298,0.4505709387014587,-0.018194951389918345,0.9974179776726603,0.06947173208794917,-0.45045656951156476,-0.07020948187735203,0.8900334306296518,0.05699467,-0.01198757,0.112333186,-0.044940878,0.07653643,-0.09949652,1.047179,-0.057596475,-6.474159e-05,0.0043494226,0.8854333023459238,-0.0020499218823795233,-0.46476194435115725,0.038300588349363285,0.9969107940621588,0.0685706468866158,0.4631856345234432,-0.07851539022785581,0.8827765297449197,-0.0060003665,-0.015220968,0.09523175,-0.20464648,0.81207776,-0.10959337,0.0019378788,0.0011547885,-0.021504479,0.0006349087,0.9889314656849795,-0.14410427469724468,-0.0353343203152382,0.14166074847008192,0.8462097142327982,0.5136743636594516,-0.04412242650914611,-0.5129942276010788,0.8572573323844586,left_images/camera_left_75.png,right_images/camera_right_75.png
2025-06-27 14:39:55,4.3355090618133545,76,-0.03504505,-0.012101256,0.113620654,0.024338001,0.079376,0.09213215,1.04718,0.059014924,-6.8889465e-05,0.0019302554,0.8926876069649531,-0.015076031386464508,0.4504237445437571,-0.01804792301560005,0.9974427237296546,0.06915406968205834,-0.4503144555152637,-0.0698621940422883,0.8901326670769865,0.05699467,-0.01198757,0.112333186,-0.044940878,0.07653643,-0.09949652,1.047179,-0.057596475,-6.474159e-05,0.0043494226,0.8854333023459238,-0.0020499218823795233,-0.46476194435115725,0.038300588349363285,0.9969107940621588,0.0685706468866158,0.4631856345234432,-0.07851539022785581,0.8827765297449197,-0.006009168,-0.015236846,0.09523404,-0.20474504,0.8122782,-0.10965033,0.0019479806,0.0011553838,-0.021505613,0.00063478295,0.9889237262397895,-0.14414805592056743,-0.03537232893563403,0.1417094926055875,0.8461050589604775,0.5138332890217933,-0.044139363220108495,-0.5131545256312252,0.8571605155621177,left_images/camera_left_76.png,right_images/camera_right_76.png
2025-06-27 14:39:55,4.388967990875244,77,-0.03508598,-0.012051521,0.11361656,0.02422607,0.07910627,0.09228275,1.04718,0.059014544,-6.952521e-05,0.0019352194,0.89274022654974,-0.015056997958326976,0.4503200802900112,-0.017946075182770214,0.9974601669133996,0.06892861384525074,-0.4502142004484682,-0.06961682435716433,0.8902026013672226,0.05699467,-0.01198757,0.112333186,-0.044940878,0.07653643,-0.09949652,1.047179,-0.057596475,-6.474159e-05,0.0043494226,0.8854333023459238,-0.0020499218823795233,-0.46476194435115725,0.038300588349363285,0.9969107940621588,0.0685706468866158,0.4631856345234432,-0.07851539022785581,0.8827765297449197,-0.005973558,-0.015227624,0.095231995,-0.20432344,0.81209964,-0.10952303,0.0019329087,0.0011537,-0.02150486,0.0006348621,0.9889715390179123,-0.14386431056168975,-0.03519027080247538,0.14138085713314313,0.8462471240243088,0.5136898464218304,-0.04412197013778552,-0.512999868642474,0.8572539801738832,left_images/camera_left_77.png,right_images/camera_right_77.png
2025-06-27 14:39:55,4.445331335067749,78,-0.034969848,-0.012291876,0.11362177,0.025431054,0.08087406,0.09130506,1.0471802,0.05901397,-7.465604e-05,0.0019309446,0.8923214276247855,-0.014841547871097593,0.4511565119317848,-0.019074492359212818,0.997326895917049,0.07053528494095741,-0.4509973764257427,-0.07154572759608809,0.8896530645818309,0.05699467,-0.01198757,0.112333186,-0.044940878,0.07653643,-0.09949652,1.047179,-0.057596475,-6.474159e-05,0.0043494226,0.8854333023459238,-0.0020499218823795233,-0.46476194435115725,0.038300588349363285,0.9969107940621588,0.0685706468866158,0.4631856345234432,-0.07851539022785581,0.8827765297449197,-0.0059811417,-0.015214867,0.095230505,-0.20441161,0.8119498,-0.109513365,0.0019428196,0.0011539636,-0.021503951,0.00063467026,0.9889573269512888,-0.14395044510785504,-0.03523740658181879,0.1414848670756333,0.8463025075111482,0.513569954503701,-0.04410711799644553,-0.5128843291947937,0.8573238752119612,left_images/camera_left_78.png,right_images/camera_right_78.png
2025-06-27 14:39:55,4.510124206542969,79,-0.03500657,-0.01222662,0.11362138,0.025064472,0.080231525,0.09166304,1.04718,0.059013855,-7.04343e-05,0.001931062,0.8924758180020497,-0.014847337793443494,0.45085082992273595,-0.018736920955880053,0.9973755108554718,0.06993581442208228,-0.45070593747438636,-0.07086357954714266,0.8898553315113084,0.05699467,-0.01198757,0.112333186,-0.044940878,0.07653643,-0.09949652,1.047179,-0.057596475,-6.474159e-05,0.0043494226,0.8854333023459238,-0.0020499218823795233,-0.46476194435115725,0.038300588349363285,0.9969107940621588,0.0685706468866158,0.4631856345234432,-0.07851539022785581,0.8827765297449197,-0.0059572947,-0.01521418,0.09522957,-0.20408076,0.8118575,-0.10941182,0.0019356705,0.0011523687,-0.021503141,0.0006345967,0.9889951420120939,-0.14372397696667755,-0.03510024959113272,0.14122486207929064,0.8463932756330415,0.5134919291418858,-0.04409248696958707,-0.5127980512911998,0.8573762366573875,left_images/camera_left_79.png,right_images/camera_right_79.png
2025-06-27 14:39:55,4.56558895111084,80,-0.035060003,-0.012149443,0.113614246,0.024799561,0.079693064,0.091953136,1.04718,0.059015017,-6.9346395e-05,0.0019381251,0.8925897416196555,-0.014829662187121659,0.4506258251307532,-0.018495398996941664,0.9974133249297857,0.06945919282897983,-0.4504902589083367,-0.07033306741444828,0.8900066214679384,0.05699467,-0.01198757,0.112333186,-0.044940878,0.07653643,-0.09949652,1.047179,-0.057596475,-6.474159e-05,0.0043494226,0.8854333023459238,-0.0020499218823795233,-0.46476194435115725,0.038300588349363285,0.9969107940621588,0.0685706468866158,0.4631856345234432,-0.07851539022785581,0.8827765297449197,-0.005940522,-0.015209081,0.095228784,-0.20382573,0.8117889,-0.10932991,0.0019358527,0.0011510815,-0.021502946,0.00063447934,0.9890240941586036,-0.14354981505213524,-0.03499702519145038,0.1410258028455976,0.846459827206312,0.5134369326973028,-0.0440802008333434,-0.5127369808433538,0.8574133917604354,left_images/camera_left_80.png,right_images/camera_right_80.png
2025-06-27 14:39:55,4.620970964431763,81,-0.035030145,-0.012169809,0.11361397,0.02503235,0.07997907,0.09177711,1.0471802,0.05901641,-7.2210794e-05,0.0019379351,0.8925182554665821,-0.014772269900552389,0.45076927989923427,-0.01871481318626874,0.9973895795525347,0.06974082281864362,-0.45062281281165967,-0.07068102038032285,0.88991194729125,0.0569951,-0.01198429,0.112333186,-0.044972714,0.07651201,-0.09950648,1.047179,-0.057596397,-6.463932e-05,0.00434932,0.8854365163641815,-0.002088058018553926,-0.4647556513939053,0.03833359047555444,0.9969107452921083,0.0685529121364314,0.4631767603519358,-0.07851500452043515,0.8827812201984369,-0.0059303977,-0.015203191,0.095228255,-0.20363884,0.81173855,-0.10926475,0.0019376022,0.0011500858,-0.0215032,0.0006344449,0.9890448962976547,-0.14342382987184105,-0.03492560854809091,0.14088344888332083,0.8465073981930233,0.5133975833944086,-0.044068661635021524,-0.5126936998143933,0.8574398656654161,left_images/camera_left_81.png,right_images/camera_right_81.png
2025-06-27 14:39:55,4.675788640975952,82,-0.035016403,-0.012115598,0.113620535,0.024776865,0.07962738,0.09196522,1.0471802,0.05901602,-7.214991e-05,0.0019299714,0.8926157203992917,-0.014829330762347529,0.45057437415502755,-0.018474516263495513,0.9974160107020926,0.06942617549565303,-0.45043963851428936,-0.07029503925786135,0.8900352462182901,0.05699555,-0.011981599,0.112333186,-0.044996344,0.07649391,-0.099514,1.047179,-0.057596423,-6.4602355e-05,0.0043494366,0.8854388018546061,-0.0021161247722346517,-0.4647511701827423,0.038358174565757075,0.996910660338288,0.06854039500806826,0.46317035593209427,-0.07851533175009488,0.882784551329434,-0.005965264,-0.015217824,0.09523133,-0.20399308,0.812028,-0.10938683,0.0019522635,0.001151162,-0.021505035,0.000634565,0.9890071805541146,-0.14364615093800095,-0.03507962561227643,0.14114052128079604,0.8463226139926874,0.513631566686832,-0.044092517108751964,-0.5129364642577884,0.8572934349274656,left_images/camera_left_82.png,right_images/camera_right_82.png
2025-06-27 14:39:55,4.72988748550415,83,-0.03513189,-0.011891291,0.11361518,0.023745403,0.077985294,0.09287295,1.0471799,0.0590158,-6.7397836e-05,0.0019349493,0.8929980233780165,-0.014955863001004,0.449812018964423,-0.017516003393814945,0.9975355557718707,0.06794118482932533,-0.4497196013829763,-0.0685502526093076,0.8905353126064888,0.056995783,-0.011979332,0.112333186,-0.0450138,0.07648013,-0.09951953,1.047179,-0.0575965,-6.4539316e-05,0.004349566,0.8854406808480106,-0.002137011320669957,-0.46474749475605176,0.038376242577585394,0.9969106306078662,0.06853071272540874,0.4631652671617738,-0.0785151435306687,0.8827872379748819,-0.005988776,-0.015224952,0.095233284,-0.20424773,0.8122422,-0.109488696,0.0019466344,0.0011520672,-0.02150682,0.0006348137,0.9889807372209064,-0.143803897360795,-0.035178693975736426,0.14131704716358848,0.8461847830124957,0.5138100866848176,-0.04412021744004318,-0.5131196274768113,0.857182392674454,left_images/camera_left_83.png,right_images/camera_right_83.png
2025-06-27 14:39:55,4.782444000244141,84,-0.03518127,-0.011783456,0.113610804,0.023406921,0.07740778,0.09318494,1.0471802,0.059016056,-6.912433e-05,0.0019393926,0.8931246882945129,-0.014995760968818262,0.44955913772472195,-0.01720158771780984,0.9975743917664105,0.06744952388166196,-0.44948014031636147,-0.0679739659343374,0.8907003667992631,0.056995932,-0.0119775785,0.112333186,-0.045026746,0.07646991,-0.09952355,1.047179,-0.057596482,-6.46417e-05,0.004349514,0.885442065356049,-0.0021523591931959726,-0.46474478614387726,0.03838953323180464,0.996910606035334,0.06852362594396072,0.46316151895020263,-0.07851503629348422,0.8827892140480503,-0.005961068,-0.015206953,0.09523136,-0.20394577,0.812076,-0.10939799,0.0019315134,0.0011509524,-0.021507045,0.00063479505,0.9890144872515602,-0.14360448344020912,-0.03504420554677308,0.1410839871741428,0.8462996821698083,0.5136848805662163,-0.04410955190862953,-0.5129859650079643,0.857262939322159,left_images/camera_left_84.png,right_images/camera_right_84.png
2025-06-27 14:39:55,4.836789846420288,85,-0.035108477,-0.011896753,0.113614544,0.023966385,0.07833358,0.092663184,1.0471802,0.05901666,-7.316726e-05,0.0019356711,0.8929092099961645,-0.014949353042252065,0.44998851046181565,-0.017718702924197135,0.9975076137544296,0.06829793604954472,-0.44988797524573776,-0.06895706885854243,0.8904188522171623,0.05699605,-0.011976343,0.112333186,-0.04503641,0.0764624,-0.09952658,1.047179,-0.05759648,-6.468716e-05,0.004349502,0.885443042151659,-0.0021639210150814596,-0.46474287143651405,0.038399727469157666,0.9969105581456814,0.06851861052269531,0.46315880649676755,-0.07851532655161592,0.8827906113348643,-0.0059410552,-0.015194036,0.09522995,-0.20372935,0.8119548,-0.10932296,0.0019354431,0.0011503103,-0.021507055,0.0006347764,0.9890382767817607,-0.14346169136901227,-0.03495754811349959,0.14092220527613714,0.8463830122866536,0.5135919864763087,-0.044093300179002703,-0.5128884280446507,0.8573221338897133,left_images/camera_left_85.png,right_images/camera_right_85.png
2025-06-27 14:39:55,4.887470722198486,86,-0.035070427,-0.011928249,0.113620885,0.023950681,0.0784356,0.092609614,1.0471802,0.05901651,-7.131824e-05,0.0019281888,0.8929020527791599,-0.014997549109180936,0.4500011085136123,-0.01770005584999125,0.9975033210008208,0.06836543436006501,-0.4499029141555646,-0.06900868143248987,0.8904073055188167,0.05699605,-0.011975555,0.112333186,-0.045043558,0.07645689,-0.09952882,1.047179,-0.057596453,-6.46268e-05,0.0043494636,0.8854438763920989,-0.00217256683284954,-0.4647412416744292,0.038407218823265726,0.9969105419958465,0.06851464660792923,0.4631565904766931,-0.07851529284734567,0.882791776970708,-0.0059385556,-0.015211972,0.09523267,-0.20367013,0.81221014,-0.10933983,0.0019464105,0.0011503525,-0.021508714,0.0006346125,0.989050406553961,-0.14338334102054826,-0.03493580989800492,0.14083353137021018,0.8462739045817587,0.5137960634977077,-0.04410453193539643,-0.513090338967447,0.8572007316381793,left_images/camera_left_86.png,right_images/camera_right_86.png
2025-06-27 14:39:56,4.942487478256226,87,-0.03510268,-0.011927997,0.11361733,0.023907987,0.07841591,0.09263199,1.0471802,0.059015483,-7.1080576e-05,0.0019330252,0.8928983169505373,-0.015025729670553442,0.4500075810858801,-0.017657807959270157,0.997505605796776,0.06834301882474915,-0.44991198850994296,-0.06896951393096758,0.8904057551156971,0.05699605,-0.011974807,0.112333186,-0.04504883,0.07645267,-0.099530466,1.047179,-0.05759646,-6.4699794e-05,0.004349541,0.8854444500644263,-0.0021787864751883733,-0.46474011957178973,0.03841258313282858,0.9969105352034461,0.06851173809970361,0.4631550488844631,-0.07851520674286212,0.8827925934232549,-0.005937352,-0.015219767,0.095234536,-0.20361815,0.8123986,-0.10935367,0.0019446862,0.001150121,-0.021510333,0.00063478947,0.9890603513915768,-0.1433205448231181,-0.034911928287848094,0.1407595570660151,0.8461916589297449,0.5139517715236578,-0.04411766539324687,-0.5132435073036302,0.8571083559334365,left_images/camera_left_87.png,right_images/camera_right_87.png
2025-06-27 14:39:56,4.996165990829468,88,-0.035068646,-0.012030136,0.11361585,0.024294449,0.079088725,0.092265934,1.0471802,0.05901635,-7.179193e-05,0.001934981,0.8927392565721352,-0.014999546635104086,0.4503239205014239,-0.018015346548873334,0.9974582697576365,0.0689379966406477,-0.45021335726936784,-0.0696563973576246,0.8901999321744534,0.05699605,-0.011974271,0.112333186,-0.04505279,0.07644963,-0.09953161,1.047179,-0.05759653,-6.474921e-05,0.0043495363,0.885444787625888,-0.002183376538548734,-0.4647394548917026,0.0384165702479452,0.9969105275159086,0.06850961434964842,0.46315407284890703,-0.07851517684399478,0.8827931081565066,-0.0059583695,-0.015194254,0.09523207,-0.20388842,0.8121761,-0.10938253,0.0019401091,0.0011509488,-0.021509646,0.0006348556,0.9890228483304688,-0.14354938639252127,-0.0350339713223743,0.14102672357151377,0.846251679314768,0.5137796789438239,-0.04410520058870784,-0.5130805676726274,0.8572065459139729,left_images/camera_left_88.png,right_images/camera_right_88.png
2025-06-27 14:39:56,5.050546169281006,89,-0.03497533,-0.0122159105,0.11362249,0.025024619,0.080282554,0.091616675,1.0471803,0.059016045,-7.2516035e-05,0.0019284515,0.8924697804535857,-0.014911490978963693,0.45086066407917313,-0.018694965517949108,0.997372300774735,0.06999279899814141,-0.450719634852323,-0.07089528252356299,0.8898458684932424,0.05699614,-0.011973977,0.112333186,-0.045055673,0.07644753,-0.09953251,1.047179,-0.057596568,-6.4679014e-05,0.004349469,0.8854452393770764,-0.002186968588556288,-0.46473857730219115,0.03841963945608706,0.9969105254418992,0.06850792339008026,0.46315295461492667,-0.07851510320664105,0.8827937013821034,-0.005973428,-0.01518516,0.09523071,-0.20410866,0.8120127,-0.109407276,0.001943345,0.0011517601,-0.021507822,0.0006347718,0.9889926466209192,-0.1437323982473249,-0.03513605874058736,0.14124253058417338,0.8462974680482785,0.5136449582437775,-0.044091864146670524,-0.5129537925282798,0.8572831004090341,left_images/camera_left_89.png,right_images/camera_right_89.png
2025-06-27 14:39:56,5.106606721878052,90,-0.035017125,-0.012167491,0.11362149,0.024698611,0.07982696,0.09188021,1.0471802,0.059015013,-6.9583126e-05,0.0019298559,0.8925779174054265,-0.014973833906668848,0.45064447811809166,-0.01838891332795942,0.9974080008890449,0.06956383851639954,-0.45051804539530765,-0.07037800835953238,0.8899890037031565,0.056996364,-0.011973615,0.112333186,-0.045057803,0.076445855,-0.0995334,1.047179,-0.05759645,-6.4718944e-05,0.004349415,0.8854453002715077,-0.0021892878676555705,-0.46473845036292405,0.03842175932415705,0.9969105064398905,0.06850701102951084,0.4631526623452963,-0.07851527984025469,0.882793839010032,-0.0059603127,-0.015209585,0.09523317,-0.20395839,0.8122537,-0.10941103,0.0019444649,0.0011515338,-0.021509008,0.00063493755,0.9890162173376467,-0.14358720790788795,-0.03506615987458036,0.14107281769806337,0.8462115093888197,0.51383318449145,-0.04410648421560765,-0.5131362344476488,0.8571731580882744,left_images/camera_left_90.png,right_images/camera_right_90.png
2025-06-27 14:39:56,5.183874607086182,91,-0.03509388,-0.012021689,0.113614485,0.024047712,0.07881207,0.092433706,1.0471802,0.059016235,-6.738049e-05,0.0019362532,0.8928090268194502,-0.015067445470697742,0.45018331123742705,-0.01778270022202871,0.9974821574807197,0.06865217462267559,-0.45008423345249504,-0.06929875608260536,0.8902931344242095,0.056996282,-0.0119733885,0.112333186,-0.04505941,0.076444514,-0.09953385,1.047179,-0.057596482,-6.470049e-05,0.0043494413,0.8854454892526306,-0.002191251413139958,-0.46473808105148195,0.03842340176774866,0.9969105127284882,0.06850599833603349,0.46315216479982424,-0.07851514521840272,0.8827941120173883,-0.005972732,-0.015195027,0.09523158,-0.20414454,0.81206834,-0.10942924,0.0019434246,0.0011522716,-0.021507446,0.00063447,0.9889899846682111,-0.14374765259710692,-0.03514857890147055,0.14125992236482537,0.8462701119327394,0.5136852460240922,-0.044095856488506405,-0.5129946491165089,0.8572584472715186,left_images/camera_left_91.png,right_images/camera_right_91.png
2025-06-27 14:39:56,5.23688268661499,92,-0.03498698,-0.012284372,0.113619365,0.025220593,0.08071812,0.09140351,1.0471804,0.059014585,-7.2549155e-05,0.0019332999,0.8923628529423637,-0.014941931456054403,0.4510712553166385,-0.018871317382497966,0.9973423743848725,0.07037088628540936,-0.4509239537536396,-0.0713086736709326,0.889709312635581,0.056996282,-0.011973288,0.112333186,-0.04506056,0.07644362,-0.0995342,1.047179,-0.057596378,-6.476528e-05,0.004349377,0.8854455816238505,-0.002192667737994744,-0.46473789838035817,0.038424577134949615,0.9969105199442024,0.06850523408164191,0.4631518906954841,-0.07851501405954789,0.8827942674895592,-0.0059828907,-0.015192363,0.09523009,-0.20429742,0.811931,-0.10944382,0.0019444117,0.0011529035,-0.021505859,0.0006346209,0.9889685107659638,-0.14387804139448562,-0.035219226536631024,0.1414137018240174,0.8463156015592522,0.5135679774809068,-0.04408457383007969,-0.512883039066304,0.8573258065568379,left_images/camera_left_92.png,right_images/camera_right_92.png
2025-06-27 14:39:56,5.29075288772583,93,-0.034974672,-0.012230633,0.113624886,0.024853697,0.08022151,0.09166492,1.0471802,0.059015445,-6.9452915e-05,0.0019259593,0.8924953901474654,-0.015015989952627581,0.45080649796921307,-0.01852806323657167,0.9973816884834288,0.06990335006740508,-0.4506758141261023,-0.07074098899285455,0.8898803419775535,0.056996282,-0.0119733205,0.112333186,-0.04506147,0.07644315,-0.09953442,1.047179,-0.057596352,-6.4760854e-05,0.0043493817,0.8854457172506027,-0.0021939360742352573,-0.46473763399047824,0.03842588846837025,0.9969104812132169,0.06850506216805144,0.46315152261218134,-0.07851547039745985,0.8827944200153757,-0.005998675,-0.01521833,0.09523275,-0.20449908,0.81217265,-0.10953423,0.0019511408,0.0011538202,-0.021506181,0.00063484814,0.9889492706924334,-0.1439903549725102,-0.035300391949586556,0.14154181349157433,0.8461814353234514,0.5137537284998133,-0.04410504540775719,-0.5130728566089167,0.8572111693047084,left_images/camera_left_93.png,right_images/camera_right_93.png
2025-06-27 14:39:56,5.344038724899292,94,-0.035100497,-0.011975874,0.11361794,0.023742784,0.078461476,0.092630684,1.04718,0.059015587,-6.62572e-05,0.0019321665,0.8929018143212266,-0.01516387527982193,0.44999600761380043,-0.017493752104737345,0.9975096793157879,0.06832575143100582,-0.4499114564213269,-0.06888030602292357,0.8904129293889598,0.056995757,-0.011976419,0.112333186,-0.045030337,0.07646683,-0.09952465,1.047179,-0.05759652,-6.488414e-05,0.0043495037,0.8854425761582093,-0.0021563773923943368,-0.464743794324201,0.03839291049219687,0.9969106132053442,0.06852162944999667,0.4631602624904816,-0.07851483500005628,0.8827898911602138,-0.0059992266,-0.0152104655,0.09523093,-0.20454578,0.81200516,-0.109528765,0.0019413268,0.0011540842,-0.021504851,0.0006347792,0.9889406617970381,-0.1440458433151509,-0.03531518749862962,0.14160390126516637,0.8462540155558237,0.5136170521917363,-0.04409878219317839,-0.5129375558284563,0.8572924595666335,left_images/camera_left_94.png,right_images/camera_right_94.png
2025-06-27 14:39:56,5.397957801818848,95,-0.035112377,-0.011943496,0.11361529,0.02375951,0.078465715,0.09262145,1.0471802,0.059015647,-7.0133305e-05,0.0019353274,0.8928920597724858,-0.015169799331802946,0.45001516283729853,-0.017507680224275197,0.9975068735476865,0.0683631359599908,-0.44993027318509254,-0.06891962284685324,0.8904003789634387,0.05699548,-0.011979167,0.112333186,-0.045007315,0.07648466,-0.099517554,1.047179,-0.057596475,-6.462773e-05,0.0043494524,0.885440098419922,-0.002129208663686745,-0.46474864021381035,0.03836953277522152,0.9969106320092564,0.06853444930483206,0.4631669364977713,-0.07851533772054907,0.8827863448637491,-0.00602367,-0.014873194,0.095178925,-0.20528135,0.806621,-0.10884452,0.0018889317,0.0011538203,-0.021464318,0.00063009374,0.9887373288632432,-0.1453321306294409,-0.035736064683822344,0.14314439046420524,0.8486342161580718,0.5092441954940738,-0.04368269670029955,-0.508624162788677,0.8598798073198994,left_images/camera_left_95.png,right_images/camera_right_95.png
2025-06-27 14:39:56,5.451556205749512,96,-0.0350441,-0.012036077,0.11362117,0.024189172,0.079180956,0.09222083,1.0471802,0.059015714,-7.260527e-05,0.0019290335,0.8927319912553817,-0.015132672193477602,0.45033386950293425,-0.017905665998442503,0.9974550228662367,0.06901350943161366,-0.4502321389176402,-0.06967409555351226,0.8901890481770975,0.056995258,-0.011980659,0.112333186,-0.044990253,0.07649723,-0.0995123,1.047179,-0.05759652,-6.4773136e-05,0.004349472,0.8854385115937125,-0.0021085161326211688,-0.46475175776583083,0.03835146908683955,0.996910682155505,0.06854382994206357,0.46317146609608,-0.07851525943384391,0.8827839752909223,-0.011754607,-0.014986775,0.09510974,-0.2717522,0.79525536,-0.15031214,0.0020120302,0.0010776189,-0.021232657,0.0006361995,0.9798698258334781,-0.19618155273665666,-0.03698544020156198,0.187842430992533,0.8432798257274122,0.5035815292879203,-0.06760433077757955,-0.5003917803951016,0.8631556757463488,left_images/camera_left_96.png,right_images/camera_right_96.png
2025-06-27 14:39:56,5.5050883293151855,97,-0.035042856,-0.012030148,0.11362464,0.02408016,0.07906055,0.09229469,1.0471802,0.059014723,-7.1098504e-05,0.0019254358,0.8927683223069784,-0.015163849908222646,0.4502607914766107,-0.01780259805974346,0.9974653221553643,0.06889120843633317,-0.4501641813688715,-0.0695197004701256,0.8902354862950801,0.056995034,-0.0119819585,0.112333186,-0.04497763,0.076506756,-0.09950835,1.047179,-0.057596423,-6.4839085e-05,0.004349307,0.8854372365637255,-0.0020936890245248363,-0.4647542539586502,0.03833860343841078,0.996910708091656,0.06855064973131102,0.46317496865956087,-0.07851532690157507,0.8827821315866975,-0.02254579,-0.007655797,0.09467295,-0.39195144,0.77009195,-0.24247946,0.000666686,0.00067848957,-0.021541312,0.00086746365,0.9568927837944443,-0.2897226853480391,-0.020419743309842607,0.26000325351186565,0.8231583276542207,0.5047857721615685,-0.12943920768207456,-0.4883350624399477,0.8630031044593113,left_images/camera_left_97.png,right_images/camera_right_97.png
