jiaqis7/OS_Teleop_Extension/demo_3/teleop_log.csv
Epoch Time (Seconds),Time (Seconds),Frame Number,PSM1_joint_1,PSM1_joint_2,PSM1_joint_3,PSM1_joint_4,PSM1_joint_5,PSM1_joint_6,PSM1_jaw_angle,PSM1_ee_x,PSM1_ee_y,PSM1_ee_z,"PSM1_Orientation_Matrix_[1,1]","PSM1_Orientation_Matrix_[1,2]","PSM1_Orientation_Matrix_[1,3]","PSM1_Orientation_Matrix_[2,1]","PSM1_Orientation_Matrix_[2,2]","PSM1_Orientation_Matrix_[2,3]","PSM1_Orientation_Matrix_[3,1]","PSM1_Orientation_Matrix_[3,2]","PSM1_Orientation_Matrix_[3,3]",PSM2_joint_1,PSM2_joint_2,PSM2_joint_3,PSM2_joint_4,PSM2_joint_5,PSM2_joint_6,PSM2_jaw_angle,PSM2_ee_x,PSM2_ee_y,PSM2_ee_z,"PSM2_Orientation_Matrix_[1,1]","PSM2_Orientation_Matrix_[1,2]","PSM2_Orientation_Matrix_[1,3]","PSM2_Orientation_Matrix_[2,1]","PSM2_Orientation_Matrix_[2,2]","PSM2_Orientation_Matrix_[2,3]","PSM2_Orientation_Matrix_[3,1]","PSM2_Orientation_Matrix_[3,2]","PSM2_Orientation_Matrix_[3,3]",Camera Left,Camera Right
2025-05-15 15:25:42,0.0028884410858154297,1,-0.065513834,-0.00060157647,0.11403259,3.9365143e-05,-0.00021664702,0.012569033,6.1616415e-12,0.03516345,7.397919e-05,0.0028099194,0.8382431244282391,0.0004874154986695806,0.5452964576951841,-4.9879468417907586e-05,0.9999996648661036,-0.0008171778994349671,-0.5452966732530308,0.0006577946581960684,0.8382428678165805,0.00068938645,-0.0033641362,0.107020564,-0.035457168,0.023487136,-0.032531064,0.8533505,-0.04525826,-7.335171e-05,0.0048057083,0.8808270306400904,-0.020598355841492017,-0.47298990457555057,0.03477629425061672,0.999169195297498,0.02124920061425178,0.4721592437429937,-0.035165706379617453,0.8808115698847665,left_images/camera_left_1.png,right_images/camera_right_1.png
2025-05-15 15:25:42,0.06158137321472168,2,-0.065513834,-0.0006015682,0.11403259,3.934949e-05,-0.00021669533,0.012569144,2.2395094e-12,0.03516345,7.397919e-05,0.0028099194,0.8382431244282391,0.0004874154986695806,0.5452964576951841,-4.9879468417907586e-05,0.9999996648661036,-0.0008171778994349671,-0.5452966732530308,0.0006577946581960684,0.8382428678165805,0.0011411231,-0.0045497483,0.1070013,-0.04703277,0.030762834,-0.03855388,0.88001704,-0.045265693,-8.2638275e-05,0.0048290696,0.8830061923675353,-0.027527663791445903,-0.46855340353771013,0.04597089139430563,0.9985511666305482,0.027968638958378214,0.4671046364413439,-0.04623629901880419,0.8829923347730962,left_images/camera_left_2.png,right_images/camera_right_2.png
2025-05-15 15:25:42,0.1247563362121582,3,-0.064254746,0.012763391,0.114057966,-0.02485551,-0.09239478,-0.0016848237,4.3976266e-07,0.03516279,0.00020587171,0.0028588772,0.8306532799815668,0.02354045563201554,0.5562921673046474,0.02498461739215179,0.9965235819481392,-0.07947653436718341,-0.5562291770031779,0.07991619091202612,0.8271774326469986,0.0014397094,-0.005542251,0.10699538,-0.055723052,0.03621838,-0.043085948,0.90668356,-0.04526991,-7.903311e-05,0.004838744,0.8845678000148408,-0.03277155607248982,-0.4652588873836718,0.05432261653649797,0.9979784665055922,0.03298535620203821,0.4632373695089086,-0.05445186409788373,0.8845598532528663,left_images/camera_left_3.png,right_images/camera_right_3.png
2025-05-15 15:25:42,0.1869490146636963,4,-0.06301133,0.02367715,0.11416782,-0.041077122,-0.16038701,-0.009776372,5.727904e-07,0.035168752,0.00016756542,0.0028830958,0.826014940473345,0.04171603759314287,0.5621023841991272,0.042382744206214025,0.9898372736768093,-0.13574194132106507,-0.5620525074300143,0.13594831314727054,0.8158523365438409,0.0016679477,-0.006401022,0.106991015,-0.062550776,0.040929314,-0.0462417,0.9333501,-0.045268986,-7.5452495e-05,0.004848874,0.8855506932341667,-0.036708617566727005,-0.4630901069001868,0.060849710479411394,0.99744998297934,0.03729402350358693,0.46054020719917443,-0.06120464729784876,0.8855262326447971,left_images/camera_left_4.png,right_images/camera_right_4.png
2025-05-15 15:25:42,0.2449653148651123,5,-0.061682776,0.031627584,0.11427091,-0.053368084,-0.2114118,-0.014855726,6.134691e-07,0.03521204,0.0001569133,0.0029071602,0.8230208519436113,0.055370270353011244,0.5653059440931492,0.055962010218266564,0.9824909960413154,-0.17770677001756152,-0.5652476719795871,0.17789203427578854,0.8055119449535673,0.0019186718,-0.006893733,0.10698021,-0.06560133,0.043720674,-0.048849754,0.9600166,-0.0452678,-7.541309e-05,0.0048651043,0.8864569553076925,-0.038164123244444785,-0.4612348274833529,0.06368149438198499,0.9971730768651591,0.03988134963298734,0.45840891533639777,-0.06472522284437647,0.8863813580326771,left_images/camera_left_5.png,right_images/camera_right_5.png
2025-05-15 15:25:43,0.29950785636901855,6,-0.060247645,0.037632935,0.11424351,-0.06673497,-0.2505776,-0.014258677,4.60903e-07,0.035366245,0.0001579423,0.0030048136,0.8230325263920538,0.06268350827088932,0.5645247897936517,0.0696370448731677,0.9752579503646329,-0.20981566250379755,-0.563709271240101,0.2119969529059991,0.7983039204942726,0.0021943804,-0.007163629,0.10697271,-0.06385746,0.044762556,-0.05120831,0.98668325,-0.045265548,-6.5570406e-05,0.0048772395,0.8875098877318821,-0.03625258269192361,-0.45936036989090323,0.06180924559905594,0.997257163793563,0.04071567782678569,0.4566243711592908,-0.06452828457803805,0.8873163382654453,left_images/camera_left_6.png,right_images/camera_right_6.png
2025-05-15 15:25:43,0.35453128814697266,7,-0.05993979,0.042269632,0.11399524,-0.08535802,-0.28091884,-0.007329583,2.1767978e-07,0.035545953,0.00016693654,0.003331732,0.8252931267477666,0.06201882637656779,0.5612886246110532,0.0869010160970314,0.9681632621818389,-0.2347511686077901,-0.557978017796578,0.24251507775042103,0.7936289868190984,0.002209842,-0.0071775997,0.10697141,-0.06385633,0.044762317,-0.0512083,1.0133493,-0.045264743,-6.407182e-05,0.004879078,0.8875025367853969,-0.036257496004082304,-0.4593741842800914,0.06180882336058603,0.9972577509187915,0.04070193591432243,0.4566387155665464,-0.06451644918861928,0.8873098169353404,left_images/camera_left_7.png,right_images/camera_right_7.png
2025-05-15 15:25:43,0.4022359848022461,8,-0.06083221,0.0459056,0.1134739,-0.11001902,-0.30510092,0.005253277,5.4162786e-07,0.035760734,0.00019620825,0.003944998,0.8290285907566911,0.05426419181366639,0.5565671506608925,0.10834311729487585,0.9608359370380027,-0.2550609163143819,-0.548610394216883,0.2717530120957502,0.7906813111324205,0.0022092536,-0.0071771545,0.10697141,-0.06385633,0.044762094,-0.051207963,1.0363734,-0.04526458,-6.399528e-05,0.0048791654,0.8875025951258947,-0.03625745724986955,-0.4593740746260895,0.06180862608199174,0.9972577746272836,0.040701654601435086,0.4566386288813712,-0.06451610449501638,0.8873098866090299,left_images/camera_left_8.png,right_images/camera_right_8.png
2025-05-15 15:25:43,0.4472990036010742,9,-0.061688535,0.04910679,0.112813324,-0.1373806,-0.32287395,0.020128295,7.053137e-07,0.03604502,0.00017256383,0.0046536727,0.8331445907996698,0.04140395268847073,0.5515032216796392,0.13137420703278885,0.9538350349299054,-0.2700732194549691,-0.5372251935154906,0.29746334033295063,0.789243088414594,0.0022092275,-0.0071771354,0.10697141,-0.06385633,0.044762094,-0.051207963,1.0412068,-0.04526458,-6.399528e-05,0.0048791654,0.8875025951258947,-0.03625745724986955,-0.4593740746260895,0.06180862608199174,0.9972577746272836,0.040701654601435086,0.4566386288813712,-0.06451610449501638,0.8873098866090299,left_images/camera_left_9.png,right_images/camera_right_9.png
2025-05-15 15:25:43,0.4949204921722412,10,-0.06204116,0.051796034,0.112056874,-0.16939467,-0.33544585,0.037712015,9.72523e-07,0.03641565,0.00012590014,0.0053958325,0.8376670223131821,0.02247774848156167,0.5457185268544272,0.15786555846273204,0.9465433575565797,-0.28130790553549373,-0.5228694150361218,0.32179251558840855,0.7893396934977154,0.0022092345,-0.0071771354,0.10697136,-0.063856326,0.04476209,-0.051207963,1.0345283,-0.04526461,-6.399528e-05,0.004879225,0.8875025951258947,-0.03625745724986955,-0.4593740746260895,0.06180862608199174,0.9972577746272836,0.040701654601435086,0.4566386288813712,-0.06451610449501638,0.8873098866090299,left_images/camera_left_10.png,right_images/camera_right_10.png
2025-05-15 15:25:43,0.539304256439209,11,-0.06193734,0.053830713,0.11121928,-0.20232926,-0.34328455,0.05660671,1.2608401e-06,0.036870327,8.212752e-05,0.0061557298,0.842184468416034,0.0006766254503873526,0.5391890793931218,0.18457796403927995,0.9392191355694032,-0.2894795166697937,-0.5066125702644146,0.34331757537047675,0.7908708782676351,0.0022092373,-0.0071771354,0.10697127,-0.06385631,0.044762086,-0.051207963,1.0078635,-0.04526464,-6.399528e-05,0.0048792847,0.8875025951258947,-0.03625745724986955,-0.4593740746260895,0.06180862608199174,0.9972577746272836,0.040701654601435086,0.4566386288813712,-0.06451610449501638,0.8873098866090299,left_images/camera_left_11.png,right_images/camera_right_11.png
2025-05-15 15:25:43,0.5899593830108643,12,-0.0626224,0.054082863,0.11006285,-0.2451031,-0.34530368,0.082233675,1.8287545e-06,0.037426174,0.00016695727,0.007203804,0.8472036523124591,-0.03045523465854051,0.5303946174220883,0.2187281315017442,0.9298118138548405,-0.29598647824812435,-0.4841528436332744,0.36677304903422897,0.7944013812324029,0.0022092373,-0.0071771354,0.10697127,-0.06385631,0.044762086,-0.051207963,0.9811962,-0.04526464,-6.399528e-05,0.0048792847,0.8875025951258947,-0.03625745724986955,-0.4593740746260895,0.06180862608199174,0.9972577746272836,0.040701654601435086,0.4566386288813712,-0.06451610449501638,0.8873098866090299,left_images/camera_left_12.png,right_images/camera_right_12.png
2025-05-15 15:25:43,0.6344876289367676,13,-0.065707795,0.052291267,0.10868821,-0.2902885,-0.34347737,0.10877871,1.7063953e-06,0.037882283,0.0004315048,0.008566592,0.849932473253077,-0.06326838527729865,0.5230792505293163,0.25450749735817424,0.9185631087889861,-0.3024363552227024,-0.4613466426651296,0.3901780703682832,0.796818893290876,0.0025532728,-0.0060735447,0.10696971,-0.12477655,0.035412926,-0.06070661,0.95453006,-0.04528083,-4.9743365e-05,0.004870209,0.8866615320565976,-0.0927789550704617,-0.45301588610895344,0.12245797169920254,0.9918002228890926,0.03655629965496272,0.44590960153192977,-0.08788847121880872,0.890752627775218,left_images/camera_left_13.png,right_images/camera_right_13.png
2025-05-15 15:25:43,0.681739091873169,14,-0.07055586,0.048410725,0.10718227,-0.3365984,-0.33602786,0.1332928,1.181234e-06,0.03825238,0.0008331535,0.010120258,0.8494970606046521,-0.09805288702571326,0.518401750932594,0.29172245783595985,0.9060069249265355,-0.3066748434079821,-0.43960522246465994,0.41174881096499405,0.7982544488136041,0.0024043983,-0.0049639414,0.1069745,-0.24144556,0.022935499,-0.07489805,0.92786366,-0.045377344,-3.0904223e-05,0.004812504,0.874620701650425,-0.19760797536343627,-0.4427072580354677,0.23713834802721445,0.9708398426569742,0.03514831154843337,0.4228522580517246,-0.13572430873850708,0.8959770532095186,left_images/camera_left_14.png,right_images/camera_right_14.png
2025-05-15 15:25:43,0.7247858047485352,15,-0.076251015,0.04245895,0.10559182,-0.3781571,-0.32451797,0.15484144,7.735059e-07,0.038630128,0.0013877992,0.011757539,0.8476241152432459,-0.13003021824881283,0.5144176334460852,0.3250075294155221,0.8935793139088423,-0.3096548329631257,-0.41940847044536816,0.42966050795525623,0.7996801753340569,0.002696127,-0.004249825,0.106896445,-0.3581037,0.014403946,-0.08639471,0.9011972,-0.04546457,-6.3133775e-05,0.004858846,0.8496963970240964,-0.2977628009012469,-0.43514750060607466,0.34839118344373315,0.9365187295322606,0.039449366711721015,0.3957772305008771,-0.18512153746856458,0.899494524820652,left_images/camera_left_15.png,right_images/camera_right_15.png
2025-05-15 15:25:43,0.7717463970184326,16,-0.08368504,0.033869088,0.10384045,-0.41618907,-0.30651003,0.1729389,5.424375e-07,0.038991936,0.0021056787,0.013579256,0.843840478589602,-0.16119964967688452,0.5118084794507821,0.35611194017412706,0.8817247330334261,-0.30942815195543016,-0.4013944852126034,0.443369110449954,0.8014401407090401,0.0029418634,-0.0048450907,0.10675693,-0.46516758,0.016317807,-0.094390295,0.8745307,-0.04550582,-0.0001306216,0.0050035277,0.8160466521875391,-0.38169094172067924,-0.43402751809290935,0.44565254592537623,0.893696060122349,0.05197268928987099,0.3680511781855074,-0.2358376075399597,0.8993992178705117,left_images/camera_left_16.png,right_images/camera_right_16.png
2025-05-15 15:25:43,0.8156330585479736,17,-0.09160335,0.024490388,0.1021993,-0.4499756,-0.28625134,0.1878031,2.7887484e-07,0.03929787,0.002841031,0.015311057,0.8390488902733243,-0.1899571118459872,0.5098168841753221,0.38409898858438496,0.8704726483159089,-0.30780730254875444,-0.38531146712699227,0.45408552519654155,0.8033314441171997,0.0019466674,-0.007537596,0.106589615,-0.5566509,0.03415137,-0.09788918,0.84786344,-0.045508504,-0.0001884274,0.005206179,0.7794175218388203,-0.442800716438113,-0.4432108439247922,0.5237042069896487,0.8487676842621499,0.07298850411956043,0.3438636797220314,-0.2889999025504365,0.8934410031411492,left_images/camera_left_17.png,right_images/camera_right_17.png
2025-05-15 15:25:43,0.8574676513671875,18,-0.098975286,0.015427552,0.100842275,-0.47882268,-0.26280585,0.19895557,1.384411e-07,0.039534207,0.0034599504,0.016739123,0.8335687404731357,-0.2175851024982663,0.5077596656656073,0.40896986520898576,0.8609701947598519,-0.3024466450237575,-0.3713580539815641,0.4597684709786022,0.8066635908710794,-0.000114304574,-0.011139596,0.10645452,-0.6391102,0.060165502,-0.09734323,0.8211967,-0.04545682,-0.00020883989,0.0054129874,0.7400193447926393,-0.49000374364409854,-0.4607251898338547,0.5900112862126436,0.8017946573285166,0.09493160496456694,0.32289015388267084,-0.3420842859504295,0.8824512960109526,left_images/camera_left_18.png,right_images/camera_right_18.png
2025-05-15 15:25:43,0.9032115936279297,19,-0.10491528,0.007117835,0.09979119,-0.5021317,-0.23514871,0.20589282,9.366558e-08,0.03975495,0.0039071892,0.017785566,0.8276385683026655,-0.2451025283608006,0.5049149936861221,0.43078151176862,0.8540723566449829,-0.2915264974804639,-0.35978005694626286,0.4587866172917727,0.8124488601861141,-0.0010213857,-0.012394398,0.10641578,-0.71433055,0.07288607,-0.09436926,0.79452986,-0.045324024,-0.00023168843,0.0055466695,0.6985176883669639,-0.5344119338248858,-0.47589591721721985,0.6481271340910955,0.7543711104964828,0.10418947021252406,0.30332203529143104,-0.3812192448366809,0.8733084393688261,left_images/camera_left_19.png,right_images/camera_right_19.png
2025-05-15 15:25:43,0.9526588916778564,20,-0.109676875,-0.00039429837,0.09896727,-0.52156425,-0.20568255,0.21052414,4.7333696e-08,0.03997457,0.004229776,0.01855241,0.8217221880834765,-0.27200743882987755,0.5007839842012859,0.4501507616673396,0.8486851104475251,-0.2776650411466767,-0.34948095424732,0.45359181708434965,0.8198277417192591,0.0004764161,-0.011411594,0.10645258,-0.7806139,0.074154824,-0.08987479,0.76786304,-0.045033272,-0.0003083701,0.005670812,0.6574500678269604,-0.574486399070769,-0.487570287852968,0.6971270214482895,0.709328527140048,0.10424469555793281,0.2859603543866897,-0.4084341046827885,0.8668380805265812,left_images/camera_left_20.png,right_images/camera_right_20.png
2025-05-15 15:25:43,0.9978241920471191,21,-0.113681614,-0.007194697,0.09830869,-0.53843665,-0.17590933,0.21410957,3.6106844e-08,0.04018573,0.0044694524,0.019130984,0.815982544031439,-0.2979475714015393,0.49537837309667193,0.4676450167346137,0.843981882585644,-0.26268368847432316,-0.33982440489061955,0.446006531973599,0.8280081806827874,0.003963323,-0.0092207575,0.106530555,-0.8382123,0.068500325,-0.08179468,0.741196,-0.044605743,-0.0003985868,0.005816971,0.6170791618928775,-0.6094164306128496,-0.49782017039959103,0.7379434162714646,0.6678270778051612,0.09719315064251749,0.27322668672584627,-0.42733898517372976,0.8618170161997866,left_images/camera_left_21.png,right_images/camera_right_21.png
2025-05-15 15:25:43,1.0397229194641113,22,-0.11677692,-0.015006905,0.097800605,-0.56446797,-0.13644788,0.22092126,1.9771768e-07,0.04046679,0.0046817875,0.01946849,0.8078873685253529,-0.33613064622712396,0.48408076644720827,0.49346813143574153,0.834885246353091,-0.2438356591625927,-0.3221912522625316,0.43587018031619734,0.8403630066088269,0.008809766,-0.006589108,0.106649585,-0.8964379,0.063973546,-0.065739594,0.7145285,-0.043987833,-0.00049026316,0.0060279584,0.5702624163048619,-0.6411597521404812,-0.5135318381418009,0.7772131007235547,0.6235269434642401,0.0845810075479109,0.26597099957291936,-0.4473570419802272,0.8538917404313517,left_images/camera_left_22.png,right_images/camera_right_22.png
2025-05-15 15:25:43,1.0809216499328613,23,-0.11909045,-0.023296194,0.09747946,-0.60121554,-0.094134375,0.22761828,1.7744014e-07,0.040738463,0.0049222778,0.019607292,0.7946998772919731,-0.3829187630713926,0.4709833605553361,0.5281859593589715,0.8185855910722054,-0.2256927611267386,-0.2991181996605453,0.4281248077101383,0.8527821830074731,0.013652284,-0.0049568773,0.10679755,-0.9471258,0.06856104,-0.04774199,0.68786216,-0.043261368,-0.00055317447,0.0062873727,0.5257117851779971,-0.6620667921390765,-0.5341298359684061,0.8091319639106763,0.5829789266803252,0.07376337861505647,0.262550155023789,-0.47095980061288567,0.8421782960297989,left_images/camera_left_23.png,right_images/camera_right_23.png
2025-05-15 15:25:43,1.1283879280090332,24,-0.12075504,-0.03212344,0.09736739,-0.6451629,-0.05090485,0.23223057,1.3656346e-07,0.040972613,0.005232169,0.019546987,0.7763247909615806,-0.4341048141860845,0.4570260706337478,0.5681499558340523,0.7959212172460921,-0.20908142821222425,-0.27299349190818223,0.42197443789637795,0.8645300036076325,0.018608527,-0.0044836504,0.10697127,-0.9868172,0.08052875,-0.030819856,0.6611962,-0.04244522,-0.0005632879,0.0065917787,0.48768747698926,-0.6719638615377578,-0.5573378630374171,0.8326417643962841,0.5499165414870433,0.06557049322653682,0.2624283082498768,-0.49604069005092066,0.8276925859538151,left_images/camera_left_24.png,right_images/camera_right_24.png
2025-05-15 15:25:43,1.1714963912963867,25,-0.12195782,-0.04107434,0.097421475,-0.69400007,-0.008679208,0.23546247,1.4594683e-07,0.041181084,0.005612015,0.01933767,0.7536115927861219,-0.4865941959072083,0.4419226807121147,0.6103086607489111,0.7676603792660387,-0.19550161308795358,-0.2441165824626316,0.41704152145144824,0.8754904131697995,0.0253179,-0.0050705695,0.10712515,-1.0305387,0.097118765,-0.027266974,0.6345303,-0.0414774,-0.00057818636,0.0070388666,0.45240739970745725,-0.6787995213433498,-0.5784105414962422,0.8560243733570094,0.5124179864659824,0.06819149041403585,0.25009961397146574,-0.5259838561877992,0.812890623713385,left_images/camera_left_25.png,right_images/camera_right_25.png
2025-05-15 15:25:43,1.220472812652588,26,-0.12328613,-0.048839662,0.097558506,-0.7489906,0.033688135,0.23808618,1.8017077e-07,0.04137838,0.005930718,0.019063685,0.7251014749241672,-0.541682495820981,0.42521515116932324,0.6552067649928098,0.7327326154928916,-0.18386682490488426,-0.2119715692503465,0.411925949551736,0.8862195359590345,0.032567047,-0.0062231813,0.10721355,-1.079608,0.11646841,-0.033282436,0.6078646,-0.04049046,-0.000597582,0.0076022195,0.4177733675740237,-0.6838842375726921,-0.5981369098671953,0.87964952839899,0.46919242150892615,0.0779434332450441,0.22733701971587064,-0.5587135412697706,0.7975945450343163,left_images/camera_left_26.png,right_images/camera_right_26.png
2025-05-15 15:25:44,1.2634074687957764,27,-0.12530555,-0.05561828,0.097748965,-0.8204913,0.08449541,0.23955955,3.0897505e-07,0.041624047,0.006140645,0.018725658,0.683037815106308,-0.6087426607117002,0.4035984590709443,0.7099828173013675,0.6830705394916627,-0.17128641865419997,-0.17141686694025776,0.40354307218462876,0.8987598381214958,0.04102585,-0.0071569695,0.10722074,-1.1282319,0.13356587,-0.043384742,0.58119833,-0.039474364,-0.000627473,0.008299158,0.38536959470278187,-0.6868516049286015,-0.6162184257920384,0.900617033355364,0.4253864332675954,0.08908053447334346,0.20094585019053407,-0.5893057400016377,0.782521252166563,left_images/camera_left_27.png,right_images/camera_right_27.png
2025-05-15 15:25:44,1.309328317642212,28,-0.12757212,-0.06101859,0.09802143,-0.8908265,0.13562757,0.23819707,4.4235287e-07,0.04186779,0.0062857596,0.018326465,0.6363368052158256,-0.6714943437853509,0.3796983231356145,0.7599963807286207,0.6300812471675697,-0.15938357270169795,-0.13221562542723148,0.38999098480867606,0.9112771588056211,0.0492133,-0.0075946143,0.10717845,-1.1732241,0.14755581,-0.04967152,0.55453116,-0.038539384,-0.0006390036,0.00901347,0.3534376902160491,-0.6881849603161403,-0.6336270666010226,0.9183865681785255,0.3840795143283259,0.09512643198705717,0.17789859618337361,-0.6155358536007387,0.7677680003803201,left_images/camera_left_28.png,right_images/camera_right_28.png
2025-05-15 15:25:44,1.353550910949707,29,-0.1287621,-0.06420614,0.09838614,-0.9541172,0.18339564,0.23463379,6.136374e-07,0.042155646,0.0063065826,0.017807115,0.5898148200495406,-0.7256682179714768,0.3542938264717992,0.8016182631403972,0.5791604015269152,-0.14826122049597223,-0.09760449912632604,0.3714550669048461,0.9233062845128994,0.056286417,-0.0076922616,0.107106045,-1.2172832,0.16359961,-0.050380707,0.5278635,-0.03768319,-0.0006330005,0.0097322855,0.31892671715339604,-0.6863906815843406,-0.6535698748565005,0.9344868712089671,0.34281611523874045,0.09597603175112968,0.15817723168595707,-0.6413617882028854,0.7507562986811127,left_images/camera_left_29.png,right_images/camera_right_29.png
2025-05-15 15:25:44,1.4080533981323242,30,-0.13024092,-0.066820905,0.0988071,-1.0130786,0.22728105,0.232402,1.0986557e-06,0.04239525,0.006389823,0.01728955,0.5446651480349627,-0.7718889621503899,0.3279135657859342,0.8362344761910963,0.5295354784567707,-0.14249237833990275,-0.06365357291979223,0.35182326126331226,0.933899681704942,0.061166596,-0.007142907,0.107026294,-1.2701952,0.18304679,-0.047059756,0.5011958,-0.03697086,-0.0006269691,0.010387087,0.2751972205016032,-0.6836834481040064,-0.6759019400895431,0.9518717803961638,0.2924408353159905,0.09175222899266805,0.13493184766254884,-0.6686219414798635,0.7312578860142764,left_images/camera_left_30.png,right_images/camera_right_30.png
2025-05-15 15:25:44,1.4612524509429932,31,-0.13294415,-0.06937292,0.09933507,-1.0806754,0.2729085,0.23131116,2.1771868e-06,0.042548396,0.006594576,0.01676014,0.4917466748375633,-0.8178701800088112,0.2987868411402252,0.870426650737168,0.47090434447328916,-0.14354979638668175,-0.023294923753378938,0.3306621644647845,0.9434616470841768,0.063664526,-0.0062161777,0.10693371,-1.3265688,0.21214335,-0.04300697,0.4745288,-0.036362838,-0.000644963,0.011037576,0.22835540728790882,-0.6736593584654965,-0.7028775687943308,0.967480769460272,0.23769029586894075,0.08651175627795288,0.10878772305243711,-0.6997759584335486,0.7060303388038471,left_images/camera_left_31.png,right_images/camera_right_31.png
2025-05-15 15:25:44,1.5119514465332031,32,-0.13475423,-0.07068885,0.099945076,-1.1398339,0.31181434,0.2269944,2.3356301e-06,0.042636976,0.0067531373,0.016166152,0.44256554100005524,-0.854004235156029,0.2735187530223372,0.8966875167886689,0.4182762492941268,-0.1449016097626528,0.009340190292441847,0.30938931075912013,0.9508895915053952,0.06371045,-0.0060307314,0.10682719,-1.3848926,0.24904287,-0.04854887,0.44786382,-0.03591414,-0.0006238878,0.011653961,0.18624137430574583,-0.6567292442647764,-0.7307673023775235,0.9796664717612965,0.1806159241252534,0.08735841149628132,0.07461738807731078,-0.7321779754129433,0.6770137795619255,left_images/camera_left_32.png,right_images/camera_right_32.png
2025-05-15 15:25:44,1.5648109912872314,33,-0.13646074,-0.07127035,0.10055333,-1.1906582,0.3453536,0.22273642,2.5416186e-06,0.042666547,0.0068931924,0.015609589,0.3989049570300545,-0.8819955480929031,0.2509156997900884,0.9162497939563492,0.3723611660898197,-0.14776155475351918,0.03689377090780922,0.28884427488272824,0.9566649541692603,0.061584286,-0.0070365057,0.10673809,-1.4146327,0.29358053,-0.053669836,0.42119825,-0.035600364,-0.0005554971,0.012222402,0.1667741120845176,-0.6288244710966228,-0.7594512361491509,0.9843313941836401,0.15090790440606577,0.09120587049231482,0.0572547112726276,-0.7627624721614339,0.6441392000951858,left_images/camera_left_33.png,right_images/camera_right_33.png
2025-05-15 15:25:44,1.6090500354766846,34,-0.13785122,-0.07144395,0.10105768,-1.2306243,0.37144095,0.21833746,2.3828113e-06,0.042670432,0.007007314,0.015165003,0.3637279797675561,-0.9018520302695565,0.2331627591037887,0.9297257501288374,0.33601209697893664,-0.15068477106591974,0.05754985909264433,0.271585688471423,0.960692056559187,0.05770771,-0.006787755,0.10672901,-1.4505459,0.34269348,-0.052810773,0.3945291,-0.03535215,-0.00049281196,0.012709586,0.1384391636118399,-0.5972159569037094,-0.7900428461786366,0.9895813196237093,0.11526403921257528,0.08627289908308433,0.03953997762078765,-0.7937551902721572,0.6069508119162202,left_images/camera_left_34.png,right_images/camera_right_34.png
2025-05-15 15:25:44,1.6522777080535889,35,-0.13848452,-0.07218455,0.10152068,-1.2613921,0.3916354,0.2135432,2.0526495e-06,0.042670336,0.0071729943,0.014748321,0.336415843435791,-0.9158941430300981,0.21900296584418097,0.9388950513248918,0.30823375817320275,-0.1531927965671115,0.07280427791698926,0.2571572847219882,0.9636231981596335,0.053174328,-0.005926175,0.106806226,-1.4978933,0.39032352,-0.06279587,0.36786482,-0.03516203,-0.00045061298,0.01308907,0.10933115174792524,-0.5656910920582391,-0.8173373156925046,0.9939651753228945,0.06961379895480596,0.08477705609660702,0.008940330128106577,-0.8216736014750848,0.5698882023135448,left_images/camera_left_35.png,right_images/camera_right_35.png
2025-05-15 15:25:44,1.6983528137207031,36,-0.13946429,-0.072773665,0.101926334,-1.2861384,0.40803933,0.21025504,2.0353093e-06,0.04261715,0.0073265135,0.014418663,0.31448116407824883,-0.9263139175037889,0.20747077789118495,0.9454044640623738,0.2859425368757957,-0.15635621169614655,0.08551021442450908,0.24531488304588872,0.9656648545873752,0.048433054,-0.004757097,0.10699577,-1.5492449,0.43603897,-0.08157573,0.34120065,-0.034983147,-0.0004110935,0.013354865,0.08441404285994675,-0.5332008572034597,-0.84176666318258,0.9960415208657023,0.021542750131292532,0.08623919426988907,-0.02784884341544641,-0.84571434645173,0.532908703368734,left_images/camera_left_36.png,right_images/camera_right_36.png
2025-05-15 15:25:44,1.742649793624878,37,-0.14066759,-0.073237985,0.102272905,-1.305287,0.420425,0.20813325,1.8715698e-06,0.042515323,0.007463125,0.014169022,0.2976572330818026,-0.9337025509199758,0.19899677886743644,0.9498703642693763,0.26877287040800935,-0.1597104730924105,0.09563714067687103,0.23656012034611695,0.9668985710947053,0.044023342,-0.0035452412,0.10730358,-1.5975056,0.47872663,-0.10236446,0.3145346,-0.034775514,-0.00034153135,0.013511442,0.06415219200556777,-0.5002524288661638,-0.8634998573679005,0.995982886130043,-0.022070891097208056,0.08678114024512934,-0.06247068750182283,-0.8655982804856297,0.49682696185228375,left_images/camera_left_37.png,right_images/camera_right_37.png
2025-05-15 15:25:44,1.7859127521514893,38,-0.14198792,-0.0736249,0.10257183,-1.3206155,0.4302366,0.20621406,1.6090158e-06,0.04238803,0.007579623,0.013975445,0.2841927177232238,-0.9392122520052549,0.19265213436737594,0.9531685628267964,0.2550874336085938,-0.1624810513680925,0.10346105562861573,0.22980588960729154,0.9677215834474365,0.039720062,-0.0023938867,0.10774972,-1.6447283,0.5216669,-0.122748345,0.28786695,-0.03451577,-0.00020246411,0.013573808,0.044898404706826434,-0.46466659885415795,-0.8843466996399609,0.9945228381157837,-0.06284690379547947,0.083514017682355,-0.09438462650722829,-0.8832526357688558,0.459299818948865,left_images/camera_left_38.png,right_images/camera_right_38.png
2025-05-15 15:25:44,1.83017897605896,39,-0.14311658,-0.07402711,0.10282176,-1.3330396,0.43835607,0.20418075,1.2845423e-06,0.042277146,0.007682374,0.013817204,0.27321209719346484,-0.9435050719412951,0.1874922109534156,0.9557103129915102,0.24406257224558803,-0.16447266785255418,0.10942096503329787,0.2241241621287596,0.9683983748237412,0.03629487,-0.0010271105,0.108247526,-1.6840605,0.5609098,-0.13741334,0.2615507,-0.0342196,-5.3924043e-05,0.013589936,0.027568974576197558,-0.4301314105758786,-0.9023452339746811,0.9925808187427891,-0.09515764289261708,0.07568580621896959,-0.11841988812995569,-0.8977371511946725,0.4243167890387589,left_images/camera_left_39.png,right_images/camera_right_39.png
2025-05-15 15:25:44,1.882934808731079,40,-0.14372529,-0.07444538,0.10303832,-1.3420758,0.44450092,0.20181203,9.237408e-07,0.04219583,0.007765859,0.013662329,0.2650709096441229,-0.9466060034407794,0.1835060955671839,0.9575768118168048,0.23611459164640197,-0.16521667313687366,0.11306662784040633,0.21951531577894068,0.9690350684094311,0.03443092,0.00094941515,0.10875765,-1.7152352,0.59555966,-0.14269304,0.25870547,-0.03384824,6.627035e-05,0.013614142,0.008970498566753249,-0.39777534682384746,-0.9174389917670993,0.9908996632571072,-0.11968898251885152,0.06158250417572869,-0.13430334140450656,-0.9096424137664041,0.39308178737358795,left_images/camera_left_40.png,right_images/camera_right_40.png
2025-05-15 15:25:44,1.9386863708496094,41,-0.14373748,-0.074768044,0.10328063,-1.3495868,0.45174912,0.19756536,5.523896e-07,0.04216415,0.007809572,0.01344603,0.25742999869312977,-0.9497080235486128,0.17828198389137015,0.9595380385887537,0.22945701599035973,-0.16320609766196667,0.11409008841307308,0.21308249064666798,0.9703500934743656,0.03506367,0.0037231662,0.10927084,-1.7383811,0.6229225,-0.13996047,0.25481212,-0.03333534,9.81747e-05,0.013670756,-0.009973293599208732,-0.36989750062624455,-0.9290190377194869,0.9894959501402176,-0.13764358624056627,0.0441815326006651,-0.14421615052029307,-0.918819940030305,0.36738483873428285,left_images/camera_left_41.png,right_images/camera_right_41.png
2025-05-15 15:25:44,1.9955193996429443,42,-0.14355865,-0.074757345,0.10352797,-1.3562608,0.46006912,0.191958,7.977685e-07,0.042160355,0.0077973073,0.013207407,0.24981158121910696,-0.9528732318659746,0.17212430938743778,0.961666387343768,0.22338702947880795,-0.1590471455695462,0.11310142944276058,0.20525798170577209,0.9721508255430725,0.038077783,0.006807196,0.10982728,-1.7538815,0.64363706,-0.12906948,0.25349128,-0.032653715,8.345171e-05,0.01372989,-0.0300784490714735,-0.3464362512755609,-0.937591174608417,0.9884467846237673,-0.14971809090718247,0.023610320244423777,-0.14855383155068858,-0.926048820018278,0.34693708662286965,left_images/camera_left_42.png,right_images/camera_right_42.png
2025-05-15 15:25:44,2.053563356399536,43,-0.14301893,-0.07431064,0.10378287,-1.3590089,0.46829203,0.18621767,1.5626664e-06,0.04217893,0.0077077486,0.012939029,0.24494671739123258,-0.9553079340167275,0.1654927697633678,0.9633554704486392,0.22056967007583445,-0.15262784214984615,0.10930390293095865,0.19681405398834956,0.9743289408391451,0.04341464,0.009831192,0.11049049,-1.771877,0.65939564,-0.11897015,0.2578296,-0.031759687,8.615235e-05,0.013774307,-0.051554094514918436,-0.3248520338079306,-0.9443586879303847,0.9864781804383238,-0.1638733072655042,0.0025176745141398116,-0.15557305312244907,-0.9314594437208292,0.32890778319377434,left_images/camera_left_43.png,right_images/camera_right_43.png
2025-05-15 15:25:44,2.102536916732788,44,-0.14160675,-0.073770225,0.10405814,-1.351045,0.47319633,0.18389352,2.1294168e-06,0.042206228,0.0075638616,0.0126153715,0.24931254681021275,-0.9551510360830336,0.15978032504821538,0.9630069424185325,0.22709536207903658,-0.1450700705724695,0.10227845744200244,0.19003735104368075,0.9764348018949273,0.050811224,0.0121460045,0.11125624,-1.7899848,0.6696395,-0.11063186,0.25437725,-0.030672356,0.00013667077,0.01378666,-0.07170786108307325,-0.30618002951669016,-0.9492690725943037,0.9838838888991746,-0.17800737239414377,-0.01690764732212846,-0.16380010935139067,-0.9351829579812131,0.31401012607554724,left_images/camera_left_44.png,right_images/camera_right_44.png
2025-05-15 15:25:44,2.1463050842285156,45,-0.13974136,-0.0733039,0.10433213,-1.3346525,0.47520798,0.1851798,2.235486e-06,0.04222783,0.007399399,0.012278151,0.2612005491950058,-0.9527358524637004,0.1551408022748812,0.9607237073469008,0.24098172202889678,-0.1376145624184239,0.09372422974799072,0.18499244600321907,0.9782604784411421,0.059482638,0.013714806,0.11205078,-1.8041931,0.67395425,-0.10079197,0.25373706,-0.029491538,0.00021875973,0.013772528,-0.09035205794005136,-0.29216366032051616,-0.9520908051305378,0.9813018319041704,-0.1892574460093584,-0.03504759380519645,-0.1699506408564465,-0.9374550734398597,0.30380053481577396,left_images/camera_left_45.png,right_images/camera_right_45.png
2025-05-15 15:25:44,2.197955369949341,46,-0.13779022,-0.073332794,0.10456822,-1.3081727,0.4739489,0.19146392,2.0296904e-06,0.042230804,0.007256862,0.011982507,0.28235602721458397,-0.9472240391276165,0.15179490635183054,0.9555993117143509,0.26381705622814877,-0.13126506120888767,0.08429133613044892,0.18211858922657428,0.9796569757376641,0.068417214,0.015134165,0.11280823,-1.8167264,0.6746663,-0.091520585,0.25307724,-0.028323822,0.00027935926,0.013759958,-0.10710185890375817,-0.28140890696438087,-0.9535922707847793,0.9785583023884348,-0.19955168350497116,-0.05101739347513151,-0.17593419407842248,-0.9386096913474973,0.29674737852680644,left_images/camera_left_46.png,right_images/camera_right_46.png
2025-05-15 15:25:44,2.2447149753570557,47,-0.1358299,-0.0736233,0.10473586,-1.2841933,0.47085065,0.1978995,1.5414371e-06,0.042247523,0.007169555,0.0117498115,0.30204211110421286,-0.9413990787725611,0.15012773762993753,0.9501972583272446,0.28461945864294846,-0.12695248729025446,0.07678367917140738,0.1809959619659178,0.9804818857913358,0.07825154,0.017226417,0.11353029,-1.8332636,0.67032266,-0.08316894,0.253651,-0.027127473,0.0002791289,0.013762118,-0.1256465253508896,-0.27393254065276035,-0.9535061163090524,0.9745388656443248,-0.2139930537368422,-0.06694006499140592,-0.18570662351117395,-0.9376395555456823,0.2938453910820693,left_images/camera_left_47.png,right_images/camera_right_47.png
2025-05-15 15:25:45,2.3054308891296387,48,-0.13398811,-0.07365234,0.10487676,-1.2639884,0.4674976,0.20255826,1.3322904e-06,0.042262685,0.0070724622,0.011544757,0.3184598590111498,-0.9360847496925517,0.14942777382947192,0.9453723345996838,0.3020414214706806,-0.12264635620153838,0.06967400643096752,0.18032282470337455,0.9811366936970883,0.0882843,0.019185854,0.114171706,-1.8433814,0.66025347,-0.06806023,0.25718844,-0.025983838,0.00025532476,0.013757296,-0.1453851491639651,-0.27259060647790245,-0.9510822885863142,0.970868365876367,-0.2243685956306553,-0.08410320704515545,-0.1904672532041254,-0.9356030646351778,0.2972694584079212,left_images/camera_left_48.png,right_images/camera_right_48.png
2025-05-15 15:25:45,2.3592495918273926,49,-0.13229935,-0.07340712,0.10501286,-1.2489194,0.4646265,0.20527124,1.2604122e-06,0.042273115,0.0069708372,0.011348886,0.3304564713937981,-0.9319561303040926,0.14918542724603318,0.9416774275117263,0.3149133973352489,-0.1186304121786203,0.06357785014340754,0.179686736759821,0.9816672214165804,0.097709104,0.02088043,0.11474751,-1.8523738,0.64962083,-0.05511295,0.25430077,-0.024927009,0.00022178388,0.013769314,-0.1622357749061257,-0.2724746040297188,-0.9483866002319183,0.9672915275097773,-0.2338537920506821,-0.09828277952580439,-0.19500424136005473,-0.9333113061044338,0.30150182710760676,left_images/camera_left_49.png,right_images/camera_right_49.png
2025-05-15 15:25:45,2.414311647415161,50,-0.13095142,-0.073375724,0.105128184,-1.2373633,0.46248507,0.2077049,1.010037e-06,0.042281955,0.006913908,0.011188207,0.33976877015330154,-0.9286700443024368,0.14875863552689403,0.9386295139211859,0.3248270134901652,-0.11602606131011584,0.059429104188029554,0.17905127791325698,0.9820431871628856,0.10572967,0.02245356,0.11524508,-1.8607758,0.6409282,-0.04506819,0.2581234,-0.024020385,0.0001737575,0.0137892915,-0.1760085079511918,-0.2719145966284768,-0.9460885039303502,0.9639255407626681,-0.24255339836334253,-0.10961478371000594,-0.19967112208377308,-0.9312520072905972,0.30479688634079016,left_images/camera_left_50.png,right_images/camera_right_50.png
2025-05-15 15:25:45,2.466404676437378,51,-0.12994236,-0.073408596,0.10521395,-1.2288824,0.4607706,0.20982073,6.0651973e-07,0.042288654,0.006882367,0.011069298,0.3467003088873292,-0.926157058520882,0.14843179837682252,0.9362560735135432,0.33212537405396053,-0.11453078502533429,0.05677552841174686,0.17867803127822948,0.9822681408414419,0.11219406,0.023963675,0.11564935,-1.8687042,0.6341256,-0.037636157,0.2571755,-0.023287091,0.00011069118,0.013811596,-0.18713191321475667,-0.2710892410055629,-0.9441886837214333,0.9608168068003613,-0.25058599602847653,-0.11848089451204119,-0.20448156598222217,-0.9293639125796977,0.30735973576253284,left_images/camera_left_51.png,right_images/camera_right_51.png
2025-05-15 15:25:45,2.515009641647339,52,-0.12913479,-0.07340264,0.10528544,-1.2223488,0.45977858,0.2110447,0.026667368,0.042297322,0.006849627,0.010970367,0.3518915822918101,-0.9242678593470386,0.14799067028096458,0.934461736181023,0.337700072978036,-0.11287127324601866,0.05434682995092213,0.17801006962717625,0.982526761562052,0.11701436,0.02501322,0.11596269,-1.8745813,0.6290908,-0.032335293,0.25419647,-0.022732604,6.775197e-05,0.013823635,-0.1951445181497319,-0.2704224614160457,-0.9427567604625255,0.9584487753709239,-0.2565096387941681,-0.12481486368081812,-0.20807345343912748,-0.9279409989688849,0.30924252684024967,left_images/camera_left_52.png,right_images/camera_right_52.png
2025-05-15 15:25:45,2.564650058746338,53,-0.12869714,-0.07338741,0.10534283,-1.2191164,0.46078637,0.21138488,0.05333396,0.04231584,0.00682243,0.010896764,0.3541193523847481,-0.923657881345302,0.14647731051365853,0.933700096438671,0.3403198516233773,-0.11129478200463466,0.05294916597098845,0.17617751507996304,0.9829332983489909,0.12051167,0.025519894,0.11618985,-1.8784337,0.6248982,-0.027979884,0.25828755,-0.022332318,6.216008e-05,0.01382498,-0.2012325994714831,-0.2704739735968705,-0.9414612421744557,0.9567436204195403,-0.26043228405327246,-0.12967910475210115,-0.21011207889233896,-0.9268327006690664,0.31118171423466473,left_images/camera_left_53.png,right_images/camera_right_53.png
2025-05-15 15:25:45,2.6193838119506836,54,-0.1284454,-0.073327,0.10539101,-1.2175466,0.46260324,0.21110898,0.08000094,0.042336874,0.006792996,0.010837993,0.3548476891344878,-0.9236637864373801,0.14466626123625254,0.9334846202384112,0.34145073152796607,-0.10962600839840042,0.05186117328274829,0.1739442656806443,0.9833889419464499,0.12317844,0.025757706,0.116341665,-1.8812046,0.6217272,-0.024649186,0.25475004,-0.02203967,7.373432e-05,0.013845076,-0.2058205638130648,-0.2704930432370166,-0.9404634012400745,0.9554711454835721,-0.26320878153025984,-0.13340175213866756,-0.21145398000506543,-0.9260424671070616,0.3126220776821175,left_images/camera_left_54.png,right_images/camera_right_54.png
2025-05-15 15:25:45,2.67637038230896,55,-0.12827201,-0.07333675,0.10543056,-1.2166002,0.46524483,0.2100686,0.10666831,0.042368256,0.006763439,0.0107879955,0.3548887707169097,-0.9239901650284897,0.14246450557828222,0.9335467507078569,0.3420115671287103,-0.10732451813526067,0.05044229041035746,0.1710855425826141,0.9839640808776351,0.12525734,0.02590759,0.116424665,-1.8830471,0.61934793,-0.021876015,0.25856408,-0.021832008,8.6263986e-05,0.013891409,-0.20932805377004535,-0.2704731666037643,-0.9396946483045314,0.9545357368244611,-0.2650947293203053,-0.13633162366661966,-0.2122340524746859,-0.9255101569588127,0.313668067128686,left_images/camera_left_55.png,right_images/camera_right_55.png
2025-05-15 15:25:45,2.730027437210083,56,-0.12811923,-0.07353291,0.10547716,-1.2164899,0.4682588,0.20841435,0.13333535,0.042399514,0.0067536766,0.010733379,0.3542615478424658,-0.92458281549452,0.1401619527992044,0.9338588553477253,0.3419151223148912,-0.10488892897264701,0.049055010028500746,0.16804959513375534,0.9845572302139092,0.126768,0.02603943,0.116449825,-1.8842773,0.61768126,-0.019494869,0.25888512,-0.021702578,9.577721e-05,0.013953946,-0.212118234978144,-0.27042416783795403,-0.9390828631377037,0.9538292066136917,-0.2663856727454048,-0.1387390282749364,-0.21263983399272207,-0.9251537400914123,0.31444372818426425,left_images/camera_left_56.png,right_images/camera_right_56.png
2025-05-15 15:25:45,2.7848994731903076,57,-0.12790872,-0.074149154,0.105577126,-1.2184328,0.47333494,0.20487188,0.16000287,0.042436626,0.006780265,0.010628081,0.3517009852273824,-0.92609414178487,0.13658717927328912,0.934910608249341,0.3400993355339221,-0.10136368458294993,0.04741910556870094,0.16334651058755367,0.9854285087747029,0.12762977,0.026149526,0.11644989,-1.8860372,0.6171499,-0.01817917,0.2549953,-0.021637663,0.00011005916,0.014005948,-0.21445289918882862,-0.2698097450948524,-0.9387292769916984,0.9531125907147044,-0.26789679247181175,-0.14073982380413613,-0.21350958632017053,-0.924896756419421,0.31461030897639675,left_images/camera_left_57.png,right_images/camera_right_57.png
2025-05-15 15:25:45,2.838611364364624,58,-0.12772168,-0.07544036,0.105798565,-1.2235863,0.4824112,0.19970095,0.18666947,0.042467907,0.0068765427,0.010419253,0.34620188154359927,-0.9291223213062825,0.12990754122104273,0.9369975924650931,0.33555087229901376,-0.0971654455760392,0.046687995569427855,0.15536191344662384,0.9867537215130799,0.12799625,0.026331317,0.116435446,-1.8861821,0.61751723,-0.016637107,0.25864884,-0.021616418,0.000106247375,0.014049141,-0.21582600233013316,-0.2691295606380425,-0.9386098317772766,0.9528454175762046,-0.2680551808351279,-0.14223934136333405,-0.21331841674412827,-0.9250490255214698,0.3142921466717827,left_images/camera_left_58.png,right_images/camera_right_58.png
2025-05-15 15:25:45,2.8894712924957275,59,-0.12757821,-0.07721094,0.10609906,-1.2302359,0.49193394,0.19424087,0.21333566,0.042459466,0.0070396136,0.010152916,0.3398070685596622,-0.932437595061523,0.12284660138877328,0.9393253115966721,0.3299638671435902,-0.09376462751732163,0.04689472412440411,0.1472548053393513,0.9879862889502898,0.12821466,0.0267575,0.11641145,-1.8861202,0.6179111,-0.015082486,0.25480807,-0.021613266,7.259892e-05,0.01408896,-0.21694368632996827,-0.2686407934245523,-0.9384921742187259,0.9526273334447941,-0.2681889481772384,-0.14344285151044567,-0.21315862763544324,-0.9251523183691502,0.3140964617450519,left_images/camera_left_59.png,right_images/camera_right_59.png
2025-05-15 15:25:45,2.938875913619995,60,-0.12770602,-0.07945004,0.10648437,-1.2402217,0.50269663,0.18757927,0.24000178,0.042401083,0.0072735036,0.009834587,0.33090345730147475,-0.9366108699795858,0.1151650128381653,0.9424341241406639,0.3217714894313326,-0.09100016617766002,0.04817492710063003,0.13864770760898104,0.989169343223709,0.12833901,0.027335363,0.11638214,-1.8859096,0.61831564,-0.013640166,0.25475967,-0.021620916,1.9176281e-05,0.0141264815,-0.21777419701982914,-0.26828064888140546,-0.9384028412937275,0.9524634343296939,-0.26829245462032547,-0.14433490589142062,-0.21304413950459505,-0.9252268112358032,0.3139546820692025,left_images/camera_left_60.png,right_images/camera_right_60.png
2025-05-15 15:25:45,2.9866509437561035,61,-0.12809682,-0.08154868,0.106879294,-1.2504888,0.5130599,0.18129484,0.26666808,0.04230916,0.007505748,0.009526435,0.32191888637687344,-0.9406054471391286,0.10784073166514205,0.9454572648542007,0.3133913782495931,-0.08886171489023863,0.04978745753989928,0.13056506749900584,0.9901888568453457,0.12824528,0.02775492,0.11634585,-1.8820809,0.61882025,-0.01041157,0.25448197,-0.021645721,-3.6458252e-05,0.01415831,-0.21765893237537928,-0.2686778506260943,-0.9383159391911406,0.9531363551224845,-0.26548783382575514,-0.14507687146590037,-0.21013252413901867,-0.9259203111896026,0.31387242571706486,left_images/camera_left_61.png,right_images/camera_right_61.png
2025-05-15 15:25:45,3.031473398208618,62,-0.12865871,-0.08346843,0.107249185,-1.2606837,0.5227264,0.17546174,0.29333478,0.042207096,0.0077283955,0.0092508,0.3131361851009344,-0.9443159274144589,0.10106017421221904,0.9483054978578161,0.30511690436152833,-0.08729465851630086,0.051598568905280126,0.12317103516739925,0.9910431291234093,0.12799773,0.028019065,0.11630455,-1.8774449,0.6193464,-0.006963583,0.25504678,-0.02168555,-7.997267e-05,0.014184073,-0.21725189982064474,-0.2693082861996839,-0.9382295342870579,0.9540141726682569,-0.2619629080641144,-0.14571339384796994,-0.206539512859941,-0.9267407845685769,0.3138358613109673,left_images/camera_left_62.png,right_images/camera_right_62.png
2025-05-15 15:25:45,3.0741498470306396,63,-0.12903729,-0.085389756,0.1076147,-1.2734118,0.53277886,0.16818327,0.32000172,0.042132054,0.007963214,0.008968318,0.3022983388250429,-0.9485664837255925,0.09400712896416583,0.9517069420142124,0.29480690891171774,-0.08569004014397023,0.05356874896407977,0.11537119402339537,0.9918769463618156,0.12772293,0.028217554,0.11625981,-1.8740104,0.619817,-0.004291004,0.25450093,-0.021731384,-0.00011062529,0.014208537,-0.21707560903686884,-0.2697755959752245,-0.9381360816947,0.9546383305944409,-0.2593395594011507,-0.1463169528437357,-0.20382305493032787,-0.9273425045504112,0.3138344173812666,left_images/camera_left_63.png,right_images/camera_right_63.png
2025-05-15 15:25:45,3.1202778816223145,64,-0.129164,-0.08707886,0.107947096,-1.2875425,0.5413796,0.1605214,0.3466679,0.042076543,0.00819238,0.008700476,0.29051942887942284,-0.9528144062656684,0.08799527632876802,0.9552359768256241,0.283424080119115,-0.08482346011941379,0.05588103454277044,0.10869911692941998,0.9925028019895936,0.12738784,0.028222978,0.11620787,-1.8696707,0.6202659,-0.0012605338,0.25473934,-0.021785352,-0.00012503273,0.014234833,-0.21666259166581248,-0.2704413454308656,-0.9380398712497231,0.9554738949844117,-0.2559038134785735,-0.1469111100306622,-0.20031714199232004,-0.9281027512773934,0.3138444291290862,left_images/camera_left_64.png,right_images/camera_right_64.png
2025-05-15 15:25:45,3.1606361865997314,65,-0.12907518,-0.088575654,0.10824064,-1.3022295,0.5494076,0.15227823,0.37333524,0.042054314,0.008404833,0.008452227,0.27829394242207656,-0.9569632466419746,0.0823032574545471,0.9587513532822476,0.27160449615545396,-0.08382625034916683,0.05786470591506678,0.10223669715221384,0.9930756937740293,0.12706207,0.028131105,0.11614952,-1.864576,0.62065923,0.0021004512,0.25475508,-0.021841764,-0.00013323524,0.014267063,-0.21603149034803049,-0.271256314799382,-0.9379501089394189,0.9564700026008892,-0.25183028729460255,-0.14746742191336,-0.19620277598103392,-0.9289787500705151,0.31385180040069816,left_images/camera_left_65.png,right_images/camera_right_65.png
2025-05-15 15:25:45,3.203852653503418,66,-0.12899518,-0.08966735,0.10848853,-1.31711,0.55671126,0.14444363,0.4000018,0.042047024,0.008582178,0.008240927,0.2658801699324394,-0.9609226824602346,0.07704111610123912,0.9621338290453052,0.2595366131123163,-0.08330210958197726,0.06005189625080165,0.0962722430797959,0.9935418586899437,0.12686017,0.028136823,0.11608716,-1.8606259,0.620958,0.004843455,0.25355542,-0.021891676,-0.0001467138,0.014309351,-0.21561258285773838,-0.27184695886647536,-0.937875495504848,0.9572080328851864,-0.24871425951706033,-0.14796620861856447,-0.19303884555572515,-0.9296453345593305,0.31384001663042227,left_images/camera_left_66.png,right_images/camera_right_66.png
2025-05-15 15:25:45,3.2471539974212646,67,-0.12899749,-0.0903589,0.10867669,-1.331194,0.56349266,0.13694078,0.42666912,0.042057823,0.008712056,0.00808142,0.25399399579005894,-0.964510141663422,0.07216118576496248,0.9652323633494871,0.2480057714156017,-0.08258100318666714,0.06175382454037577,0.09062739085374927,0.993968380373178,0.12673393,0.02813217,0.116028234,-1.8557562,0.6211614,0.008050109,0.2549855,-0.021932494,-0.00016496354,0.014354503,-0.2149119503956393,-0.2726016023654202,-0.9378172636313258,0.958129917610255,-0.24488610081832166,-0.14838415887878575,-0.18920865349478128,-0.9304403065290132,0.31381670036645215,left_images/camera_left_67.png,right_images/camera_right_67.png
2025-05-15 15:25:46,3.293160915374756,68,-0.12881266,-0.09078812,0.108799346,-1.3439415,0.5690501,0.12954728,0.45333666,0.042101905,0.00880335,0.0079642795,0.24318238712260626,-0.9675833153617217,0.06815316886961316,0.967959542115973,0.2375426020260311,-0.08141152897064856,0.06258315604047958,0.08576736008716686,0.9943476799005927,0.12670508,0.028292768,0.1159774,-1.8519619,0.6213037,0.010651644,0.2550458,-0.021961492,-0.00019737321,0.014398368,-0.21435114677340253,-0.27315348635811915,-0.9377850280140606,0.9588191335019189,-0.2419974671659431,-0.1486710971100237,-0.18633157302925618,-0.9310340481291076,0.31377722370619865,left_images/camera_left_68.png,right_images/camera_right_68.png
2025-05-15 15:25:46,3.340758800506592,69,-0.12828395,-0.091344036,0.108911574,-1.3570267,0.5738949,0.1215639,0.48000348,0.042172153,0.008910703,0.007837787,0.23224656893389362,-0.9705164230879847,0.06449343947207226,0.9706016135309034,0.22693751866368939,-0.08019894284823352,0.0631984100246264,0.08122336572237866,0.9946902662794523,0.12669142,0.028533546,0.11593604,-1.8490542,0.6214343,0.012690125,0.25443226,-0.021984478,-0.00023501494,0.01443498,-0.2138920141544765,-0.2735587884643599,-0.9377717182421599,0.9593326457531243,-0.23984666456403098,-0.14884371766997634,-0.18420391166653244,-0.931471506140376,0.31373516247836725,left_images/camera_left_69.png,right_images/camera_right_69.png
2025-05-15 15:25:46,3.3865532875061035,70,-0.12728855,-0.09223855,0.109088935,-1.3704686,0.57816964,0.11243092,0.50667083,0.042236775,0.009057706,0.007636371,0.22123105095245887,-0.9733103414134453,0.061022957910227896,0.9731689513561507,0.21627527908202504,-0.07853149542930282,0.06323775937555794,0.07675925322483987,0.995042211583772,0.12662314,0.02875206,0.11590052,-1.846895,0.62159294,0.014250038,0.25497487,-0.022009406,-0.0002666606,0.014462636,-0.21358223089413778,-0.27385752406166053,-0.9377551317700695,0.959702878419116,-0.23826344943493652,-0.1489997107964613,-0.1826280805362278,-0.9317899898465225,0.31371069318955425,left_images/camera_left_70.png,right_images/camera_right_70.png
2025-05-15 15:25:46,3.432145357131958,71,-0.1260562,-0.09303376,0.109287545,-1.3814129,0.5811958,0.10466091,0.5333377,0.042288028,0.009189766,0.0074067833,0.21232745086684784,-0.9754651088225915,0.058179679254149304,0.9751616761309793,0.2076668900609016,-0.07703355228633937,0.06306154940853491,0.07309093132641548,0.9953295719228039,0.12656327,0.028907571,0.11587339,-1.845306,0.6217099,0.015408913,0.25511366,-0.0220293,-0.00028912304,0.014483058,-0.21336819057466636,-0.27408359864180987,-0.9377378078154086,0.9599723175038904,-0.23709426176287982,-0.14912900678716012,-0.1814584384290318,-0.9320217229199491,0.3137010410059663,left_images/camera_left_71.png,right_images/camera_right_71.png
2025-05-15 15:25:46,3.4806478023529053,72,-0.12451056,-0.09410324,0.10948511,-1.3905191,0.58409935,0.09792205,0.5600043,0.04236962,0.009344218,0.0071627153,0.20509106506357794,-0.9772029168146676,0.05488273316802637,0.9767096986078503,0.2007304600122391,-0.07579872735499521,0.06305410118659416,0.06915013949501783,0.9956115901953784,0.12649763,0.02890175,0.11585262,-1.8423264,0.62176144,0.017235594,0.25577474,-0.022044096,-0.00030184048,0.014498431,-0.2128051731262934,-0.2745744540588561,-0.9377221483301806,0.9605298475203297,-0.23475285193549664,-0.14924312557274727,-0.17915459891741625,-0.932469821327442,0.31369357978815526,left_images/camera_left_72.png,right_images/camera_right_72.png
2025-05-15 15:25:46,3.5266811847686768,73,-0.122596204,-0.095491655,0.10967697,-1.3981677,0.5862457,0.09191782,0.58667064,0.042477366,0.00952826,0.006905989,0.19928749380816663,-0.9785723566608882,0.05177487412650279,0.9779014437575397,0.19518784604608835,-0.07490307772586952,0.06319225513129839,0.06555797079717882,0.99584581706024,0.12645656,0.028888771,0.11583788,-1.8401153,0.62178785,0.018593336,0.2596609,-0.022054188,-0.00031058188,0.0145097,-0.2123916060729847,-0.2749377908378595,-0.9377094522499683,0.9609397628461634,-0.23301091686182576,-0.1493341381077029,-0.17743894119075782,-0.9327996160979102,0.3136882183900027,left_images/camera_left_73.png,right_images/camera_right_73.png
2025-05-15 15:25:46,3.5741353034973145,74,-0.12050753,-0.097388834,0.10991767,-1.4059364,0.58803236,0.08633181,0.6133364,0.04257094,0.009779917,0.0066056326,0.19374309444114196,-0.9798436887498915,0.04868222440867453,0.9789474272292237,0.18984041410540203,-0.0749836775143311,0.0642304295303596,0.062184908050870825,0.9959957274672668,0.12643431,0.028916134,0.11582593,-1.8384444,0.6218101,0.019664617,0.25480628,-0.022061603,-0.00032089232,0.014519559,-0.21209797045397538,-0.27520574267153775,-0.9376973126387386,0.9612402247285634,-0.2317149643716283,-0.14941688542476084,-0.17615811446846752,-0.9330433936783769,0.31368510359921775,left_images/camera_left_74.png,right_images/camera_right_74.png
2025-05-15 15:25:46,3.6314406394958496,75,-0.11851687,-0.09936447,0.11017853,-1.4125439,0.58952266,0.08128462,0.6400039,0.04263975,0.010037071,0.00629655,0.18921941438206863,-0.980862898812874,0.04586923754884316,0.9797726628087708,0.1854983943217811,-0.07507246443704416,0.06512712517467079,0.059146592771234296,0.9961225517626012,0.1264697,0.028975854,0.115819246,-1.837188,0.6217812,0.020563893,0.26514903,-0.022061655,-0.00033258938,0.014528169,-0.21193274452352337,-0.27540516496827727,-0.9376761204741877,0.9614507775496476,-0.23076829788435113,-0.14952723845753907,-0.17520534851398056,-0.9332191531469742,0.31369586871959165,left_images/camera_left_75.png,right_images/camera_right_75.png
2025-05-15 15:25:46,3.681302309036255,76,-0.11661593,-0.10117569,0.11042601,-1.4185898,0.5903219,0.07778711,0.6666699,0.04269797,0.010287125,0.006004002,0.18517235604518617,-0.9817415185368602,0.043529178002973165,0.9804149029949875,0.18153633378307515,-0.07636214704897411,0.06706576281534424,0.05681681351096397,0.9961295262968849,0.12652946,0.029061403,0.11581598,-1.8362341,0.621738,0.021311874,0.25588986,-0.02205811,-0.00034575665,0.014535457,-0.21183908952249822,-0.2755507448174745,-0.9376545137633658,0.961599850919574,-0.23007557944213777,-0.1496360733774364,-0.17449907409992743,-0.9333472101929161,0.3137085564076447,left_images/camera_left_76.png,right_images/camera_right_76.png
2025-05-15 15:25:46,3.7288429737091064,77,-0.114952676,-0.10256186,0.11061734,-1.4234194,0.59035605,0.0751226,0.6933366,0.042751882,0.010483458,0.005767348,0.1819406512151795,-0.9824090937933868,0.042071033591449744,0.9809059382647057,0.17834003420258687,-0.07757817011026642,0.06871055022653871,0.055382349468730815,0.9960982158677375,0.12656914,0.029154075,0.11581178,-1.8355106,0.62172,0.021927124,0.2554486,-0.022057142,-0.00035826117,0.014542181,-0.21179797732291458,-0.27565660695631355,-0.9376326849269145,0.9617051108530219,-0.22956374818018085,-0.14974566865403305,-0.1739680906404939,-0.9334419749308465,0.31372150528151854,left_images/camera_left_77.png,right_images/camera_right_77.png
2025-05-15 15:25:46,3.7782633304595947,78,-0.113601826,-0.103444286,0.11077161,-1.4279048,0.5905767,0.07270079,0.7200043,0.04279902,0.010619021,0.005574194,0.17869855511528543,-0.983060674007498,0.04072514726349087,0.9814156974766036,0.17515208533113813,-0.07838989571791363,0.06992892925121154,0.05397645990686536,0.9960906016169923,0.1265287,0.029189326,0.115802474,-1.8350266,0.62176466,0.022401534,0.2597766,-0.022065729,-0.00036256888,0.014547482,-0.2118569095999198,-0.2757321955051883,-0.9375971449490765,0.9617659036621107,-0.22919865193051528,-0.14991439059088918,-0.17355977762078,-0.9335093648781049,0.313747142261252,left_images/camera_left_78.png,right_images/camera_right_78.png
2025-05-15 15:25:46,3.8234992027282715,79,-0.11233843,-0.103881545,0.110902436,-1.4309205,0.5904912,0.0708119,0.7466717,0.042842906,0.010694275,0.0054009175,0.17640534359924992,-0.9835148963033005,0.03974422598489879,0.9817951968163439,0.1729210086691298,-0.07859081542526045,0.07042262603728432,0.05288452997199525,0.9961143911377116,0.12645176,0.029173188,0.11578739,-1.8346905,0.6218352,0.022778124,0.2555344,-0.022081334,-0.0003598415,0.014554863,-0.21197391012775824,-0.2757874639938539,-0.9375544443545599,0.9618012197538667,-0.22891656070574096,-0.15011869275552914,-0.1732208853029079,-0.9335622544525317,0.3137770577279086,left_images/camera_left_79.png,right_images/camera_right_79.png
2025-05-15 15:25:46,3.8705291748046875,80,-0.11110303,-0.10395044,0.11101889,-1.4328096,0.5901727,0.06926031,0.77333915,0.042885613,0.010720089,0.0052378913,0.1748212409504845,-0.9838267509325673,0.03901868606194688,0.982088944792286,0.17140981852499243,-0.07823029227865151,0.07027686838004887,0.05199613699783186,0.9961714528674248,0.12633923,0.029122457,0.11576397,-1.8344569,0.62194055,0.02314057,0.26324725,-0.022104636,-0.00035228417,0.014566314,-0.21218342893893108,-0.27582202624028895,-0.9374968812345026,0.961810472775814,-0.2286910413471787,-0.15040286588462387,-0.17291271480860732,-0.9336073143716497,0.3138129627808145,left_images/camera_left_80.png,right_images/camera_right_80.png
2025-05-15 15:25:46,3.9233601093292236,81,-0.10989621,-0.1034454,0.11113343,-1.4333452,0.58977526,0.06789302,0.8000071,0.04292065,0.010670376,0.0050724726,0.17399121218619817,-0.9839964077492188,0.03844642530340832,0.9823237605619505,0.1706933270636789,-0.07683630347277054,0.06904409835319106,0.051135678665342126,0.9963021905275676,0.12625416,0.029094676,0.11574057,-1.8342638,0.62202483,0.023469187,0.25548965,-0.022125725,-0.00034705817,0.014579465,-0.21237420848526,-0.2758484493349365,-0.9374459070099834,0.9618136769233454,-0.22851244949709382,-0.1506536136573987,-0.17266049476777817,-0.9336432366939468,0.3138449619194117,left_images/camera_left_81.png,right_images/camera_right_81.png
2025-05-15 15:25:46,3.9801766872406006,82,-0.10870867,-0.1025067,0.11123496,-1.4333234,0.58903587,0.0665636,0.8266749,0.042952366,0.010567162,0.0049152505,0.1733801398296395,-0.98411140839793,0.03826307585253946,0.9825619606139581,0.17019622285128266,-0.0748681459741812,0.06716636559401895,0.05057649244658116,0.9964590798144656,0.12620604,0.029152142,0.11572145,-1.8340657,0.62209356,0.023821652,0.26321006,-0.022141453,-0.0003516327,0.01459207,-0.21252772046186555,-0.275867245356846,-0.9374055850988455,0.9618137453214721,-0.2283815340926896,-0.15085156345279288,-0.17247112032443412,-0.933669715597917,0.3138703153044886,left_images/camera_left_82.png,right_images/camera_right_82.png
2025-05-15 15:25:46,4.03798508644104,83,-0.10745238,-0.10083395,0.111333266,-1.4322375,0.5885026,0.065451935,0.8533431,0.04299084,0.010372863,0.0047499966,0.1731830982416887,-0.9841622500677676,0.037845475620721526,0.9827883105825754,0.17017718140961352,-0.07188089808653458,0.06430203002749513,0.049642647683504085,0.9966949666098022,0.12619525,0.029297965,0.11570611,-1.8338664,0.6221434,0.024266228,0.25528133,-0.022151828,-0.00036597438,0.014603984,-0.2127080203237096,-0.27588141547370415,-0.9373605190566721,0.9617996715540855,-0.22830278677037574,-0.1510603500304884,-0.1723272755207998,-0.9336847873608662,0.3139044885987975,left_images/camera_left_83.png,right_images/camera_right_83.png
2025-05-15 15:25:46,4.095095157623291,84,-0.106132984,-0.09857543,0.11144435,-1.4306233,0.58802336,0.0635689,0.8800115,0.043024182,0.010101953,0.0045656385,0.17303655866384093,-0.98420166092055,0.03748919853779327,0.9830922337882946,0.17027617432339426,-0.06734748935877391,0.05989999358026872,0.04850891772674394,0.9970250125598976,0.12619646,0.029452085,0.11569408,-1.833691,0.62218344,0.024651147,0.2549281,-0.02215929,-0.0003814021,0.014614153,-0.21284393087981368,-0.2758910730151353,-0.9373268250285951,0.9617879399177853,-0.22824915642153187,-0.15121600848310263,-0.17222491026658066,-0.9336950457314297,0.3139301544296946,left_images/camera_left_84.png,right_images/camera_right_84.png
2025-05-15 15:25:46,4.1434221267700195,85,-0.10487116,-0.09606483,0.11154526,-1.428654,0.5875169,0.06189232,0.90667844,0.04305642,0.00980019,0.004391388,0.17304901512743054,-0.9842103233935152,0.03720319460824053,0.9833605283301302,0.1705327450672316,-0.06261512742238852,0.055282091907901475,0.047419639238050953,0.9973441071810769,0.1261608,0.029560117,0.11568295,-1.8336139,0.62224036,0.025010342,0.263413,-0.02216911,-0.00039102638,0.014620779,-0.21306493747093044,-0.2758971557806041,-0.9372748219453467,0.9617534752893211,-0.2282435365077002,-0.1514435235042142,-0.1721440826442252,-0.9336946221729197,0.31397574322859234,left_images/camera_left_85.png,right_images/camera_right_85.png
2025-05-15 15:25:46,4.187532663345337,86,-0.10351054,-0.092981316,0.111624524,-1.4261167,0.5871115,0.060185917,0.9333463,0.043109573,0.009425748,0.004224972,0.173179942592469,-0.9842037902083001,0.03676420573445986,0.9836273645129121,0.17094764868250328,-0.057044799862092696,0.049858953709959825,0.04604129396031334,0.9976944842913626,0.12610589,0.02964148,0.11567243,-1.8335813,0.62230504,0.025320513,0.2558093,-0.022180509,-0.0003972014,0.014625771,-0.21329298704681274,-0.27590338982398394,-0.9372211164716056,0.9617144176148626,-0.2282563757423048,-0.15167203395713047,-0.17207986700469458,-0.9336896413780236,0.31402575205709504,left_images/camera_left_86.png,right_images/camera_right_86.png
2025-05-15 15:25:46,4.235313653945923,87,-0.10218729,-0.08976002,0.1116866,-1.4231377,0.5868403,0.058826957,0.9600131,0.043171793,0.009032156,0.0040746555,0.173601559737821,-0.9841508201796819,0.03618924696999376,0.9838142888366616,0.17165087489433395,-0.05143366824195598,0.04440657088100408,0.044532463301159904,0.9980204988751089,0.12606451,0.029705783,0.11566434,-1.8335663,0.62235063,0.025585616,0.26755935,-0.022189293,-0.0004020488,0.014629162,-0.21350030587059726,-0.27591068546657144,-0.9371717628260725,0.9616774342724717,-0.22827605716635485,-0.15187677286438278,-0.17202945039811546,-0.9336826738083714,0.314074088115802,left_images/camera_left_87.png,right_images/camera_right_87.png
2025-05-15 15:25:47,4.285979747772217,88,-0.100647666,-0.086412504,0.111742586,-1.4199482,0.58635736,0.057675216,0.9866799,0.043254714,0.008623979,0.003917422,0.17414280365199114,-0.9840775046564346,0.03557736310336948,0.9839488255049477,0.1724627816964565,-0.04583991401556705,0.038974257191872766,0.0429889957859605,0.9983150572427807,0.12603688,0.029752936,0.11565859,-1.8335828,0.6223765,0.025845628,0.25553644,-0.02219542,-0.0004047125,0.014631711,-0.21373400314924448,-0.2759159345846248,-0.9371169473123897,0.961632858112497,-0.22831313637885417,-0.15210311619175054,-0.1719884359373885,-0.9336720563448089,0.31412810938320535,left_images/camera_left_88.png,right_images/camera_right_88.png
2025-05-15 15:25:47,4.34294867515564,89,-0.098443836,-0.08264345,0.11180333,-1.4171332,0.58606064,0.0567714,1.0133467,0.043402582,0.008174229,0.0037173303,0.17413234561239976,-0.9841330584727506,0.034059498419585874,0.9841423273933392,0.17273878485154415,-0.040313665683410264,0.03379061473761015,0.04053930721018733,0.9986064084145327,0.12601914,0.029787721,0.11565471,-1.8336219,0.6223885,0.02610266,0.2552194,-0.022199875,-0.00040569494,0.014633173,-0.21398793965135945,-0.27591969749609424,-0.9370578862682015,0.9615826499429889,-0.22836238009251855,-0.1523464167189339,-0.17195339197696885,-0.9336589012547054,0.3141863890996409,left_images/camera_left_89.png,right_images/camera_right_89.png
2025-05-15 15:25:47,4.395503520965576,90,-0.09526677,-0.0786936,0.111847594,-1.4138691,0.5857777,0.057412673,1.0238279,0.04365627,0.007712114,0.0034766048,0.1744205635713426,-0.984173574036269,0.031302446743533406,0.984216763772176,0.17328619050423366,-0.035906240270392104,0.02991369106746825,0.037071179495761164,0.9988648050349522,0.12598313,0.029828575,0.115650006,-1.8336891,0.62241644,0.026408538,0.26343226,-0.022206452,-0.00040685292,0.014633923,-0.21430852134500608,-0.2759225497006041,-0.9369837801401018,0.9615172158250247,-0.22843484880394735,-0.15265046191875853,-0.17192004348245638,-0.9336403303299592,0.31425981644231094,left_images/camera_left_90.png,right_images/camera_right_90.png
2025-05-15 15:25:47,4.4402546882629395,91,-0.09182777,-0.07488843,0.11185392,-1.4114504,0.5857955,0.058845498,1.024529,0.043968014,0.0072776936,0.0032553459,0.1741362902596753,-0.9843292614949539,0.027793117482507228,0.9843379292396819,0.17321133757834023,-0.03281270477204194,0.027484422401298968,0.0330717023922357,0.9990750067067768,0.12590125,0.029857345,0.11564246,-1.8337673,0.62248707,0.026653651,0.2555019,-0.022218369,-0.00040671497,0.014634247,-0.2145963240239332,-0.275924555375254,-0.936917316232539,0.9614576573153413,-0.22850375447954424,-0.1529222265677816,-0.17189412702332457,-0.9336228756461147,0.3143258423438465,left_images/camera_left_91.png,right_images/camera_right_91.png
2025-05-15 15:25:47,4.50252628326416,92,-0.088072345,-0.070452444,0.11183035,-1.4096608,0.5865918,0.060572278,1.0245755,0.044342205,0.0067774854,0.0030393004,0.17295932949638604,-0.9846575183847139,0.023122323166528652,0.984605045087843,0.1722527568912029,-0.029696682153849106,0.02525817744270479,0.027902674277512658,0.9992914816210712,0.12579864,0.029889615,0.1156331,-1.8338593,0.622574,0.026921133,0.26723063,-0.022233069,-0.00040630356,0.014634656,-0.21491772879858292,-0.27592867032904417,-0.93684243004814,0.9613906169782078,-0.2285833347924476,-0.15322447794469524,-0.1718675403743225,-0.9336021786315676,0.3144018457644152,left_images/camera_left_92.png,right_images/camera_right_92.png
2025-05-15 15:25:47,4.560003995895386,93,-0.08403417,-0.06603134,0.11179898,-1.4080073,0.5862606,0.062349137,1.0245787,0.044730257,0.006283595,0.002818117,0.17175981147928338,-0.9849507166104181,0.01925235074543064,0.9848653724092531,0.17121887933447816,-0.026912703108918613,0.023211320293865873,0.02358349439903789,0.9994523767554642,0.12565382,0.029914573,0.11562111,-1.8339723,0.62269884,0.027176155,0.25976717,-0.02225278,-0.00040507154,0.014634311,-0.2152548877278544,-0.2759325529134154,-0.9367638760925585,0.9613194376953447,-0.22867076085663252,-0.1535402938591543,-0.1718437430294611,-0.9335796213349636,0.3144818255634029,left_images/camera_left_93.png,right_images/camera_right_93.png
2025-05-15 15:25:47,4.614182233810425,94,-0.07924874,-0.06163611,0.11178229,-1.407038,0.58575076,0.06275017,1.0245786,0.045180663,0.005788487,0.002546912,0.17001455061748555,-0.9853272854313375,0.015006437380207816,0.9852321028565767,0.16964475378924032,-0.02320260788351347,0.02031639926617107,0.018729604808956954,0.9996181500075706,0.12543485,0.029913746,0.11560452,-1.834125,0.62288666,0.027392156,0.25519067,-0.022281352,-0.00039992924,0.014633279,-0.21561454453916604,-0.2759360231993697,-0.9366801371247737,0.961242985212375,-0.22876605895894483,-0.15387661826409693,-0.17182052136799614,-0.9335552481611946,0.31456685627624614,left_images/camera_left_94.png,right_images/camera_right_94.png
2025-05-15 15:25:47,4.6615309715271,95,-0.07447951,-0.057762988,0.111761756,-1.4078308,0.5852169,0.06291345,1.0245788,0.045636963,0.005367395,0.0022857338,0.16715541673872242,-0.9858719356044917,0.010751429781969694,0.985755415650205,0.16691024910766233,-0.020669524888337197,0.01858298068651811,0.014053303180060928,0.9997285519072332,0.12524989,0.029928839,0.115588136,-1.8342355,0.6230457,0.02760741,0.26425374,-0.022306949,-0.0003976595,0.0146339135,-0.21592532122587801,-0.2759438341894421,-0.9366062438540171,0.9611782704663324,-0.22884129759353142,-0.15416871569504131,-0.17179228165680505,-0.9335344990350052,0.3146438479846865,left_images/camera_left_95.png,right_images/camera_right_95.png
2025-05-15 15:25:47,4.721297264099121,96,-0.070311174,-0.05478822,0.11171426,-1.409821,0.5843866,0.063244596,1.0245788,0.04605031,0.0050589223,0.0020862613,0.1638625975638901,-0.9864561490970403,0.007301714062628123,0.986313518175586,0.16369266087842338,-0.01975744514453438,0.018294616249388402,0.01043928556843237,0.9997781395555256,0.1251076,0.029954305,0.11557479,-1.8343343,0.62316746,0.027841445,0.2554876,-0.022327174,-0.00039637578,0.014635042,-0.21623080840134462,-0.27595008634858176,-0.936533922152482,0.9611141120660285,-0.22891746106010052,-0.15445536445629499,-0.17176699649708776,-0.9335139773276069,0.3147185298776699,left_images/camera_left_96.png,right_images/camera_right_96.png
2025-05-15 15:25:47,4.775107145309448,97,-0.06652987,-0.05240277,0.11164335,-1.413295,0.5833107,0.062918134,1.0245792,0.046437897,0.00482479,0.0019317027,0.15970115981693106,-0.9871550112572038,0.004530265214884419,0.9869907844566705,0.15958491398762048,-0.019540896222285498,0.01856693164562765,0.007592033808796821,0.999798794794189,0.12501466,0.029978894,0.11556465,-1.8344042,0.6232475,0.028052406,0.2547016,-0.022341471,-0.00039591955,0.014636781,-0.21648484726622388,-0.2759542249413093,-0.9364740127954225,0.9610615137630646,-0.22897612453738828,-0.15469551110257068,-0.17174131031166273,-0.9334983664307506,0.31477884649949617,left_images/camera_left_97.png,right_images/camera_right_97.png
2025-05-15 15:25:47,4.835389137268066,98,-0.06317588,-0.05051267,0.1115641,-1.4165566,0.58176035,0.06274941,1.024579,0.046781197,0.0046462687,0.0018109493,0.15601924546128093,-0.987750493281233,0.0026378150756643376,0.9875676433319135,0.1559373763266329,-0.019841484526531058,0.019187102166379068,0.005700674262480281,0.9997996586433754,0.124959305,0.029998716,0.11555605,-1.8344619,0.6232952,0.028283268,0.26336372,-0.022351667,-0.00039522606,0.014639679,-0.2167437660560645,-0.2759547250294005,-0.9364139734165557,0.9610094103706714,-0.2290267460018206,-0.15494406343849343,-0.1717062988211217,-0.9334858002935907,0.3148352070455052,left_images/camera_left_98.png,right_images/camera_right_98.png
2025-05-15 15:25:47,4.888774633407593,99,-0.060704123,-0.04909609,0.1115171,-1.4211841,0.58125895,0.061506223,1.024579,0.04704041,0.0045229653,0.0017126426,0.15141675238628804,-0.9884697551470641,0.0007143222612460611,0.9882733416952519,0.1513721711790177,-0.020056617039025594,0.01971723082203774,0.003742853464073697,0.9997985906454645,0.124914944,0.030026432,0.11554872,-1.8345225,0.623334,0.02852894,0.25491408,-0.022360468,-0.0003951192,0.0146422135,-0.21701263556549916,-0.27595425600188905,-0.9363518380391846,0.9609541013344931,-0.22908529061797628,-0.15520033747029655,-0.17167623928002507,-0.9334715733309296,0.31489377677201935,left_images/camera_left_99.png,right_images/camera_right_99.png
2025-05-15 15:25:47,4.949474334716797,100,-0.059850253,-0.048090745,0.11154122,-1.4268167,0.58165735,0.059682935,1.024579,0.047119215,0.004451176,0.0016426509,0.14618227776598142,-0.9892575791586663,-0.0004286540375968203,0.9890493594447348,0.14616037362519135,-0.02045751118058602,0.02030040022040898,0.0025665655804925636,0.9997906313283855,0.12488995,0.030058801,0.1155435,-1.8345675,0.6233562,0.028747842,0.2647144,-0.022366093,-0.0003961824,0.014644463,-0.21723737285836678,-0.27595401633184713,-0.9362997942453677,0.9609074631035596,-0.2291361553712197,-0.15541386570566262,-0.1716530546931117,-0.9334591598843621,0.3149432101863837,left_images/camera_left_100.png,right_images/camera_right_100.png
2025-05-15 15:25:47,5.00021767616272,101,-0.060311735,-0.047411516,0.111619264,-1.4321616,0.58255285,0.05739624,1.024579,0.04704784,0.0044096196,0.0015985137,0.14135789335335813,-0.9899583240654531,-0.0006801472045251458,0.9897496596402552,0.1413421446449904,-0.020445277918227006,0.0203361065275423,0.0022169259513604694,0.9997907421108813,0.1248766,0.030091526,0.11553884,-1.834583,0.6233731,0.028920442,0.26375183,-0.022370435,-0.00039794436,0.014647235,-0.2173944172955851,-0.27595260656135406,-0.9362637589166352,0.9608760238394607,-0.22916506378645876,-0.1555655500109716,-0.17163022501640213,-0.9334524800287063,0.31497544886717177,left_images/camera_left_101.png,right_images/camera_right_101.png
2025-05-15 15:25:47,5.060164928436279,102,-0.062179275,-0.046987105,0.1117615,-1.4374834,0.58425623,0.054361932,1.024579,0.04681687,0.004390507,0.001576568,0.13667750751645363,-0.9906155687342665,-0.00023220761274464138,0.9904210092847557,0.13665530208333881,-0.019787692636508744,0.019633728796519638,0.002474549210881548,0.9998041774766434,0.124855064,0.03011921,0.115534425,-1.8346117,0.62339574,0.029087402,0.2555573,-0.022374984,-0.000399234,0.014649093,-0.21756080479962409,-0.27595072361346307,-0.9362256642242541,0.9608417556473616,-0.229200687780513,-0.15572464585105183,-0.1716112374509186,-0.933444290173841,0.3150100638430755,left_images/camera_left_102.png,right_images/camera_right_102.png
2025-05-15 15:25:47,5.119875431060791,103,-0.0645119,-0.04679504,0.11196269,-1.4421194,0.58575493,0.050884787,1.0245789,0.046502776,0.0043897773,0.0015321784,0.13271332612593395,-0.9911540146680867,0.0009446035812021858,0.9909863212158593,0.13267319789773951,-0.018545450187177754,0.0182560738289845,0.0033973176067860636,0.9998275721350305,0.124847345,0.030132623,0.11553169,-1.8346636,0.6233958,0.029267557,0.26806992,-0.022377903,-0.00039839873,0.014650206,-0.21776306113002192,-0.2759518198590403,-0.9361783175889975,0.9607991890699805,-0.22924930028922846,-0.1559156072988428,-0.17159302867468162,-0.93343202828775,0.3150563141358493,left_images/camera_left_103.png,right_images/camera_right_103.png
2025-05-15 15:25:47,5.171396017074585,104,-0.06668903,-0.046536427,0.11221776,-1.4457272,0.58582723,0.047238242,1.0245788,0.046146393,0.0043754047,0.0014354428,0.1296239660376453,-0.9915573441202991,0.0034147840004305876,0.9914321977925648,0.12955008497845738,-0.01670247473516215,0.016119075931194923,0.005550567824349073,0.9998546727339683,0.12481952,0.030150333,0.11552824,-1.8347461,0.62341315,0.029512104,0.25978848,-0.022383042,-0.00039729744,0.01465065,-0.21805012775988572,-0.27595063796177277,-0.9361118454503117,0.9607379597130757,-0.2293218741276077,-0.15618594947356218,-0.17157131039382417,-0.9334145506981837,0.31511991684857654,left_images/camera_left_104.png,right_images/camera_right_104.png
2025-05-15 15:25:47,5.219717025756836,105,-0.0685022,-0.04618023,0.11250772,-1.4484295,0.58478945,0.043462325,1.0245787,0.04578426,0.004344058,0.001290963,0.1272578793025012,-0.9918473485126601,0.006653525669584472,0.9917801483976755,0.12715341014595472,-0.014288020595571882,0.013325516864830939,0.008417097876371168,0.9998757838169823,0.12476783,0.03013708,0.115523934,-1.8348907,0.62343764,0.02978358,0.25484908,-0.022390764,-0.00039177795,0.014649665,-0.21843205372414332,-0.2759520920773493,-0.9360223719463052,0.9606553855727644,-0.22942426943708605,-0.1565430763825183,-0.17154785943256923,-0.9333889582973401,0.31520847776148087,left_images/camera_left_105.png,right_images/camera_right_105.png
2025-05-15 15:25:48,5.266874313354492,106,-0.07003065,-0.045624852,0.11281556,-1.4508703,0.5826444,0.040005844,1.0245786,0.045419134,0.0042934897,0.0011169473,0.12502009244080448,-0.9920969139859813,0.010662539359123232,0.992097748364075,0.12489110746412857,-0.012011201743186919,0.010584619833738021,0.01207992284228787,0.9998710123246395,0.12471543,0.030113962,0.11551999,-1.8350302,0.62346107,0.030014385,0.2615895,-0.022398323,-0.0003852857,0.014648573,-0.2187784496793393,-0.27595386623105167,-0.9359409456093046,0.9605804081240672,-0.22951697392964304,-0.15686694427565007,-0.17152629385637969,-0.9333656423879735,0.3152892451790585,left_images/camera_left_106.png,right_images/camera_right_106.png
2025-05-15 15:25:48,5.31532621383667,107,-0.07168032,-0.044837438,0.113129556,-1.4545987,0.58014363,0.036088835,1.0245788,0.045031685,0.004225871,0.0009446107,0.121578145680999,-0.9924663213953299,0.01514448377435163,0.992550369091788,0.12143859355564901,-0.009820020925705261,0.007906915234476253,0.016225562894633158,0.9998370926307081,0.12467948,0.030105628,0.115516916,-1.8351647,0.6234708,0.030287003,0.25493395,-0.022404008,-0.0003804313,0.014647613,-0.21914833892323396,-0.2759564333742326,-0.9358536490427123,0.9605001441606693,-0.2296164352632413,-0.15721248590469844,-0.17150358192912668,-0.9333404199628206,0.31537625441542816,left_images/camera_left_107.png,right_images/camera_right_107.png
2025-05-15 15:25:48,5.371832370758057,108,-0.07303035,-0.044077564,0.11339634,-1.4582449,0.57807136,0.03216781,1.0245787,0.04470776,0.0041569886,0.0007959651,0.11817391734369453,-0.9928132587443276,0.018888052337765422,0.9929790379517988,0.11805033231370987,-0.007533208409612358,0.005249328334715465,0.01964566878706789,0.9997932247469687,0.1246571,0.030102652,0.11551484,-1.8353025,0.6234672,0.030586064,0.26731253,-0.02240815,-0.00037575292,0.014646647,-0.21953971041882747,-0.2759592143090673,-0.9357610953588206,0.9604148020274543,-0.22972312033978692,-0.15757758732737853,-0.1714809715268234,-0.9333133450343856,0.315468661494201,left_images/camera_left_108.png,right_images/camera_right_108.png
2025-05-15 15:25:48,5.424107551574707,109,-0.07401744,-0.043542072,0.113598935,-1.4610593,0.5758101,0.029429033,1.024579,0.044452943,0.004112893,0.0006819889,0.11558237124417098,-0.9930467852363545,0.022333781348358096,0.9932915912096445,0.1154722894580979,-0.006161590664568312,0.00353981493684042,0.022896128472885646,0.9997315824816009,0.12464369,0.030100761,0.115513526,-1.8354323,0.6234571,0.03087199,0.2559506,-0.02241097,-0.00037181203,0.014645738,-0.21991071194091244,-0.2759609197664322,-0.9356734737798789,0.960333609403793,-0.22982489789014654,-0.15792363648063124,-0.17146030859392464,-0.9332877836291699,0.3155555030504581,left_images/camera_left_109.png,right_images/camera_right_109.png
2025-05-15 15:25:48,5.471804618835449,110,-0.07467155,-0.043233007,0.11375611,-1.463593,0.57407266,0.027081033,1.0245788,0.044267025,0.004091726,0.0005880501,0.113326150390196,-0.993246170560068,0.024884298372642867,0.9935551990092085,0.1132325399301628,-0.005143775144377551,0.0022913226552606965,0.025306848257420796,0.9996771045051324,0.12462758,0.03009219,0.1155123,-1.8355395,0.6234535,0.031081786,0.25466365,-0.022413626,-0.00036801305,0.014644773,-0.22019682727750228,-0.27596145435822894,-0.9356060244383919,0.9602706627075304,-0.2299045341965334,-0.15819026360403893,-0.17144565203049678,-0.9332680112724137,0.3156219376650991,left_images/camera_left_110.png,right_images/camera_right_110.png
2025-05-15 15:25:48,5.519798755645752,111,-0.07492327,-0.04321959,0.11388155,-1.4660374,0.57277524,0.024624443,1.0245789,0.044147164,0.004099937,0.0004988462,0.1112844760993823,-0.9934324361452063,0.02660376277684544,0.9937878979851407,0.1112128810587929,-0.00416039720198434,0.0011743924222813486,0.026901485111484727,0.9996373997111326,0.12461541,0.030064682,0.11551202,-1.835639,0.6234442,0.031224199,0.25464714,-0.022415567,-0.0003622952,0.0146436505,-0.22042508611906225,-0.2759620391432191,-0.9355521013611805,0.9602204309377476,-0.22996784055713398,-0.15840301865562767,-0.17143367644407115,-0.9332522409624341,0.31567506920798244,left_images/camera_left_111.png,right_images/camera_right_111.png
2025-05-15 15:25:48,5.578567981719971,112,-0.07471597,-0.043500062,0.11398744,-1.467674,0.57135826,0.022613859,1.0245788,0.044082485,0.0041369004,0.00040134508,0.11007688427462053,-0.9935297223089533,0.027960158030409944,0.9939230167927143,0.11002366442265282,-0.0034394704070341686,0.00034093703404835564,0.028168850805547173,0.9996031210466649,0.124619134,0.029962491,0.115514055,-1.8358483,0.6233887,0.031441566,0.25450882,-0.022415053,-0.00034690183,0.014640428,-0.22084770880471782,-0.2759642503285396,-0.9354517743081754,0.9601282717186634,-0.23007987361801074,-0.15879846851419094,-0.17140592569172997,-0.9332239732757228,0.3157736916546941,left_images/camera_left_112.png,right_images/camera_right_112.png
2025-05-15 15:25:48,5.624523878097534,113,-0.07373045,-0.0442132,0.11408532,-1.4688938,0.56905526,0.02091002,1.024579,0.044084616,0.004223514,0.00026919134,0.1094761486987873,-0.9935545877967621,0.029398196102605856,0.9939894227465526,0.10942771291344544,-0.003256242390807986,1.827720307644512e-05,0.029577976849994535,0.999562475761973,0.12460681,0.029590596,0.11552147,-1.8344953,0.62320447,0.032702945,0.2624933,-0.02241221,-0.00030779478,0.014631149,-0.22120159504416959,-0.2763074284376961,-0.9352668385760625,0.9603074694363218,-0.22882902527775406,-0.1595206611547258,-0.16993945537962357,-0.9334299556906134,0.31595743277330335,left_images/camera_left_113.png,right_images/camera_right_113.png
2025-05-15 15:25:48,5.6728150844573975,114,-0.072365984,-0.045060553,0.114167236,-1.4699346,0.5668709,0.01895312,1.0245793,0.04413576,0.004320265,0.00012916978,0.1090794418976091,-0.9935689072868298,0.030372715192444277,0.9940329059312286,0.10904408840473578,-0.0028228903445731823,-0.0005072289654886354,0.03049939764709115,0.9995346564586649,0.124597676,0.029102677,0.11553374,-1.8337171,0.622998,0.033582564,0.25495952,-0.022406545,-0.00025314686,0.014617268,-0.22170773511998831,-0.2765638808098091,-0.9350711737720199,0.9603858122771073,-0.22796417543993674,-0.16028545253026116,-0.16883356231746688,-0.933565613413116,0.31614944834332165,left_images/camera_left_114.png,right_images/camera_right_114.png
2025-05-15 15:25:48,5.7198169231414795,115,-0.07054548,-0.04603225,0.1142309,-1.4699572,0.56425536,0.017424166,1.024579,0.044235248,0.004425213,-2.0127743e-05,0.10960410435136214,-0.9934818827079893,0.03131595504411481,0.9939747927797525,0.10958213994243582,-0.0024219669867074616,-0.001025489046264495,0.0313927274480207,0.9995066007964082,0.12465105,0.028666329,0.115549915,-1.8332194,0.62275946,0.03427147,0.25404918,-0.022393558,-0.00020336697,0.014604304,-0.22221003345515591,-0.2767552594615966,-0.9348953029041287,0.9604157920859194,-0.22735249380555536,-0.1609731340080413,-0.16800061709361186,-0.9336580583493825,0.31632012698439904,left_images/camera_left_115.png,right_images/camera_right_115.png
2025-05-15 15:25:48,5.772640228271484,116,-0.06841508,-0.04705822,0.114275604,-1.4701543,0.5622788,0.01593171,1.024579,0.044388693,0.004536572,-0.00017080829,0.11000073125241328,-0.9934384110372254,0.03130435432598629,0.9939306183743246,0.10998815908246651,-0.0021285487268006952,-0.0013285262386122862,0.03134849816949099,0.9995076321272143,0.124720864,0.028375668,0.11556402,-1.8328606,0.6225587,0.034925643,0.2540233,-0.02238071,-0.00016908883,0.014594653,-0.2227005615694111,-0.27689510689727886,-0.9347371607318358,0.96041155365992,-0.22692899394357213,-0.16159479974397994,-0.16737415413739282,-0.9337196214518055,0.3164704742036602,left_images/camera_left_116.png,right_images/camera_right_116.png
2025-05-15 15:25:48,5.8189756870269775,117,-0.06622656,-0.04802485,0.11429687,-1.4698527,0.5602548,0.015177596,1.024579,0.044560537,0.0046422924,-0.00030520186,0.1107948729248826,-0.9933527263120765,0.03122270426987432,0.9938425559955844,0.11077842757770623,-0.0022613879752884994,-0.0012124461732382335,0.03128100241002209,0.9995098943294666,0.124753825,0.028089812,0.1155736,-1.8307772,0.62235343,0.036424637,0.25409025,-0.022371441,-0.00014543335,0.0145881735,-0.2226563103320354,-0.2773386633740558,-0.9346161957013246,0.9607489911111327,-0.22515536157589403,-0.16206924209290696,-0.1654857805017252,-0.9340173065588885,0.31658510309269805,left_images/camera_left_117.png,right_images/camera_right_117.png
2025-05-15 15:25:48,5.876426935195923,118,-0.0638707,-0.048853412,0.114299364,-1.4694206,0.5585113,0.01440325,1.0245792,0.04476462,0.004729296,-0.00043333042,0.11161391704658835,-0.9932771749333382,0.030704841278922583,0.9937508202886192,0.11160035972153542,-0.002160297599961218,-0.0012808970348156586,0.03075408048487919,0.999526160656296,0.12478024,0.02776775,0.11557501,-1.8293476,0.621768,0.035929177,0.25786832,-0.022367075,-0.00012978935,0.01458275,-0.22126897264996,-0.27804015484042083,-0.9347372433142622,0.9612281162272971,-0.22392147683573213,-0.1609337776410737,-0.16456169152191263,-0.9341053712017822,0.3168068894065079,left_images/camera_left_118.png,right_images/camera_right_118.png
2025-05-15 15:25:48,5.928175449371338,119,-0.060784098,-0.04961473,0.11429686,-1.4703693,0.5582762,0.012893154,1.024579,0.045073308,0.004811721,-0.0005981028,0.11121053347729332,-0.9934030375373084,0.027975386598666975,0.9937960318120005,0.11120291163991253,-0.0018329204912637953,-0.0012901156604381275,0.02800566825581676,0.9996069318222678,0.12480281,0.027525878,0.11557456,-1.8282794,0.6213301,0.03559538,0.25417298,-0.022364322,-0.00011787587,0.014579883,-0.22026603926393934,-0.2785612260293081,-0.9348189746148853,0.9615784117122234,-0.22299801391125113,-0.16012134124043348,-0.16385917757627932,-0.9341710384852906,0.31697735057782783,left_images/camera_left_119.png,right_images/camera_right_119.png
2025-05-15 15:25:48,5.988647937774658,120,-0.05736944,-0.05027627,0.11431098,-1.4725058,0.5588263,0.010993294,1.0245793,0.045421515,0.004889899,-0.0007945318,0.10974987110766671,-0.9936665183371198,0.024120864985254967,0.993958646414816,0.10974394999928122,-0.0015731038688461072,-0.0010839783565422673,0.02414779025794339,0.9997078119213538,0.12482639,0.027288567,0.1155721,-1.827563,0.6207814,0.03456904,0.25396276,-0.022362959,-0.000109163,0.014577369,-0.21888337192410764,-0.2791330534242668,-0.9349731589629608,0.9619418732493084,-0.2223673687545694,-0.15880990461171135,-0.1635784276264578,-0.9341506793870114,0.3171822917756302,left_images/camera_left_120.png,right_images/camera_right_120.png
2025-05-15 15:25:48,6.038527727127075,121,-0.05449083,-0.050748516,0.114745975,-1.4747899,0.5593257,0.008793467,1.0246454,0.04548479,0.004966772,-0.001313366,0.10805895451110181,-0.9939253335098132,0.02087327854876108,0.9941436085243242,0.10806296078121758,-0.000939221716282029,-0.0013221120235949232,0.020852527774914267,0.9997816882225805,0.12484709,0.027106887,0.11557082,-1.8270322,0.62036973,0.033797957,0.25827146,-0.022361495,-0.000102331396,0.014575115,-0.217850910712197,-0.279558234081518,-0.9350872549976764,0.9622117123426177,-0.2218963770725795,-0.1578309807127588,-0.1633695238793148,-0.9341355317079459,0.3173345349440543,left_images/camera_left_121.png,right_images/camera_right_121.png
2025-05-15 15:25:48,6.090450763702393,122,-0.05261137,-0.05101148,0.11507658,-1.4763839,0.5594127,0.006616013,1.0246571,0.045497052,0.005009048,-0.0016914629,0.10683442154286565,-0.9940941048559817,0.01906087784404946,0.9942743797727169,0.10685704906563859,0.00016968371417324692,-0.00220547073896543,0.018933614434866852,0.9998183105661005,0.124864295,0.026988247,0.11556993,-1.8266374,0.6200655,0.03326703,0.25433686,-0.02236003,-9.8805875e-05,0.014573615,-0.21711336408777926,-0.27987224511442993,-0.9351648590217105,0.9624047648675724,-0.22155542309741205,-0.1571313560570236,-0.16321414060883271,-0.9341224335764211,0.31745302549288296,left_images/camera_left_122.png,right_images/camera_right_122.png
2025-05-15 15:25:48,6.151684522628784,123,-0.051153567,-0.05078634,0.115294226,-1.4768507,0.5592775,0.0035402447,1.0246887,0.04552147,0.004970571,-0.0019540256,0.10627299707288529,-0.9941733074619915,0.018041197943338874,0.9943241243494524,0.10634642729299226,0.0031580276615047476,-0.005058243750654404,0.017603185282798386,0.9998322569501636,0.1248841,0.026908437,0.11556935,-1.8263361,0.6198355,0.032874487,0.25870806,-0.022358533,-9.716384e-05,0.014572749,-0.2165554357480725,-0.28010511173521396,-0.9352245022601609,0.9625495645905111,-0.22130126722631865,-0.15660167569551287,-0.16310143762266338,-0.9341128815640156,0.3175390456961028,left_images/camera_left_123.png,right_images/camera_right_123.png
2025-05-15 15:25:48,6.205724716186523,124,-0.05049149,-0.050032187,0.11538902,-1.4776067,0.55867517,0.0005672972,1.0246904,0.0455222,0.0048695323,-0.0020724558,0.10518706804101802,-0.9942849928048427,0.01824921368191088,0.9944188197970183,0.10531672346950699,0.006292741147767142,-0.008178725477704141,0.017485446540514715,0.9998136664443227,0.12490037,0.026828557,0.11556959,-1.8261338,0.619657,0.03256899,0.25453728,-0.022356616,-9.3658804e-05,0.014571646,-0.21615573308263097,-0.2802779059263046,-0.935265200093041,0.9626533921806377,-0.22111831680451127,-0.15622143417806483,-0.1630188503781756,-0.9341043760860483,0.3176064687601193,left_images/camera_left_124.png,right_images/camera_right_124.png
2025-05-15 15:25:49,6.267008543014526,125,-0.04992299,-0.04894162,0.11546701,-1.4792043,0.55811507,-0.0018854601,1.0246927,0.045524295,0.0047413656,-0.0021728585,0.10322682669680011,-0.9944876442471826,0.018399665480596118,0.9946012335649133,0.10340064444565794,0.008757449364715838,-0.010611712456608406,0.017396326276305128,0.9997923581378418,0.12490794,0.026752936,0.115571044,-1.8260092,0.61952186,0.032327548,0.2545015,-0.022355184,-8.87675e-05,0.014569385,-0.21587548676501786,-0.2804067576606395,-0.9352913046063317,0.9627256590951927,-0.22099369691880408,-0.15595220819817296,-0.16296343005009784,-0.9340951965299933,0.3176619024779328,left_images/camera_left_125.png,right_images/camera_right_125.png
2025-05-15 15:25:49,6.329615831375122,126,-0.04921503,-0.047403328,0.11552563,-1.4807789,0.557099,-0.003563463,1.0246952,0.045542523,0.004568266,-0.002266311,0.10105762345972374,-0.9947033724274275,0.01877651783945538,0.9948001959669097,0.10127136254504393,0.010801908741901619,-0.012646218599675824,0.017587268399980996,0.999765353043081,0.12491985,0.02662576,0.11557158,-1.8259941,0.6191957,0.031323846,0.25854737,-0.022353472,-8.452241e-05,0.014565883,-0.21499414402124625,-0.28068807531533363,-0.9354099221263079,0.9628880608557377,-0.2209493915918834,-0.15500951137479846,-0.1631689317794563,-0.9340211832345935,0.31777402186302295,left_images/camera_left_126.png,right_images/camera_right_126.png
2025-05-15 15:25:49,6.386590480804443,127,-0.048446946,-0.045840427,0.115575336,-1.4825486,0.55505,-0.0043190653,1.0246985,0.045553815,0.0044040442,-0.0023551849,0.09872528384602292,-0.994913438225209,0.020014214159338097,0.9950208236511189,0.09897229442161498,0.01174927391674156,-0.013670363205550377,0.018754609455139494,0.9997306566240799,0.12491884,0.026539866,0.11557158,-1.8259863,0.6189629,0.030616043,0.25442374,-0.02235331,-8.209841e-05,0.014562855,-0.2143741791761318,-0.2808979496005619,-0.9354892052892755,0.963001241180955,-0.22092304860750592,-0.15434252841620139,-0.16331662740364228,-0.9339643186461493,0.31786527131684916,left_images/camera_left_127.png,right_images/camera_right_127.png
2025-05-15 15:25:49,6.44868540763855,128,-0.047653656,-0.04453175,0.115621135,-1.484315,0.55237466,-0.0038347594,1.0247104,0.045560297,0.0042811385,-0.0024410253,0.09655471680351557,-0.9950904243734288,0.021730945292425793,0.9952395403941775,0.09681369975412024,0.01119664127787726,-0.013245523733674052,0.020546407477428873,0.9997011559665179,0.12492401,0.026476238,0.11557198,-1.8259791,0.6187836,0.030086897,0.25415087,-0.022352308,-8.025137e-05,0.014560701,-0.21390787350706522,-0.2810546452995936,-0.9355488806081728,0.9630860987647305,-0.22090283280157133,-0.15384116752798183,-0.16342762317863213,-0.9339219586323906,0.3179326770975617,left_images/camera_left_128.png,right_images/camera_right_128.png
2025-05-15 15:25:49,6.511389493942261,129,-0.0470063,-0.043385424,0.11569083,-1.4862226,0.54985964,-0.0028630826,1.0247191,0.045543108,0.004183134,-0.0025382033,0.09436459757215643,-0.9952629751624111,0.023386598639190785,0.9954637016782879,0.09461797089637258,0.009972874430853828,-0.012138425186380822,0.022339423768728103,0.9996767521452501,0.12491491,0.026427474,0.11557167,-1.8259827,0.61866295,0.029697722,0.2624695,-0.022353213,-7.867208e-05,0.014558785,-0.21357594025383814,-0.2811697549545295,-0.9355901274829158,0.9631456495535882,-0.2208929864893135,-0.15348207148011933,-0.16351078096163996,-0.9338896387789308,0.31798485355543704,left_images/camera_left_129.png,right_images/camera_right_129.png
2025-05-15 15:25:49,6.5676422119140625,130,-0.046490617,-0.042275973,0.11576177,-1.4872504,0.54749924,-0.0013131372,1.0247242,0.04551439,0.0040861457,-0.0026289304,0.09294681349301542,-0.9953567251816867,0.02501758375788082,0.9956112573318369,0.09318730619757792,0.008622658392717787,-0.010913942258105155,0.024106339399146345,0.9996498238209017,0.12490719,0.02638339,0.11557119,-1.8259916,0.6185709,0.029403273,0.2548206,-0.02235401,-7.648533e-05,0.014557383,-0.21333293459118804,-0.2812562314124698,-0.935619576168844,0.9631891467676532,-0.2208862185055331,-0.15321862165979128,-0.16357177802943962,-0.9338651994618823,0.3180252547617981,left_images/camera_left_130.png,right_images/camera_right_130.png
2025-05-15 15:25:49,6.617196798324585,131,-0.046325397,-0.041186504,0.11577016,-1.4891086,0.5457283,0.00075043726,1.0247258,0.04549535,0.0040001147,-0.0026484304,0.09085996215065462,-0.9955155028733028,0.02633155553508093,0.9958252858045192,0.09105686854869255,0.006375487624829805,-0.008744565759935421,0.02564235225211553,0.9996329338015275,0.124891825,0.02634789,0.115572296,-1.8260214,0.61850667,0.02917316,0.25410855,-0.02235473,-7.456634e-05,0.0145543525,-0.21316311574995409,-0.28132181667317047,-0.9356385635209135,0.9632169164518353,-0.22089708094098717,-0.1530282702403995,-0.16362963651120616,-0.9338428749503085,0.31806104282001046,left_images/camera_left_131.png,right_images/camera_right_131.png
2025-05-15 15:25:49,6.67250657081604,132,-0.046485197,-0.040213827,0.11575734,-1.4914174,0.5446116,0.002995768,1.0247285,0.045467097,0.003931545,-0.002631864,0.08846504332942634,-0.9957052103119198,0.027295975278744142,0.996060718621694,0.08859747419206404,0.003678639099020513,-0.006081194583057625,0.026863017784337716,0.9996206267119347,0.12486562,0.026211848,0.115574084,-1.824261,0.6183969,0.02998219,0.26277554,-0.02235416,-7.011322e-05,0.0145513695,-0.21264424022573344,-0.28169728650667814,-0.9356436639413506,0.9635657936135892,-0.2194449757454555,-0.15292110383426666,-0.16224484114027987,-0.934072021524492,0.3180975795703488,left_images/camera_left_132.png,right_images/camera_right_132.png
2025-05-15 15:25:49,6.724844694137573,133,-0.046619415,-0.039514698,0.115762524,-1.493968,0.543663,0.0051223706,1.0247331,0.045435436,0.0038961445,-0.0026310594,0.08601445690850318,-0.9958980435438675,0.02808202393404332,0.9962888335254717,0.08606963831477144,0.0007599689594917775,-0.0031738612430617912,0.027912438550964393,0.9996053333085756,0.12484269,0.026109233,0.115576275,-1.8229752,0.61831355,0.030615041,0.25473785,-0.022353742,-6.619666e-05,0.014548113,-0.21230617752882716,-0.281975991747889,-0.9356364823268127,0.9638129416293395,-0.21838210040320136,-0.15288515876724335,-0.16121631595746522,-0.9342370139858944,0.3181359790527035,left_images/camera_left_133.png,right_images/camera_right_133.png
2025-05-15 15:25:49,6.776848793029785,134,-0.04660264,-0.039075784,0.1157439,-1.4966534,0.5426896,0.0074246046,1.0247452,0.04543234,0.003892918,-0.002617328,0.083599856645455,-0.996084980290708,0.0287363186250309,0.9964993820262885,0.08355890826674395,-0.0026249705703010294,0.0002135183468691109,0.028855170914929517,0.9995835800579088,0.1248215,0.026049718,0.11557848,-1.822017,0.61825776,0.031091217,0.2537943,-0.022353332,-6.5161614e-05,0.01454488,-0.21205006650958175,-0.2821840139752878,-0.9356318461606983,0.9639954307093752,-0.21759909574749264,-0.152851048741315,-0.1604605212029684,-0.9343568995767453,0.3181660028170886,left_images/camera_left_134.png,right_images/camera_right_134.png
2025-05-15 15:25:49,6.828330039978027,135,-0.046346437,-0.03872281,0.1157429,-1.4998782,0.5417756,0.0092630945,1.0246754,0.045445353,0.0039007897,-0.0026311986,0.08076693666481705,-0.9963073408396356,0.02912704123037299,0.9967268008348343,0.08062875645444356,-0.005889662992637519,0.003519437361034017,0.029507392661237454,0.9995583661492697,0.12482293,0.025973164,0.11558009,-1.8213784,0.6179876,0.030697033,0.25640786,-0.022351291,-6.7669316e-05,0.014540866,-0.21123002103254815,-0.2825216318048526,-0.9357154512868282,0.9642268876926119,-0.2170839915139959,-0.15212182512371603,-0.16015113881957999,-0.9343746936805783,0.3182696098343619,left_images/camera_left_135.png,right_images/camera_right_135.png
2025-05-15 15:25:49,6.88442850112915,136,-0.045478348,-0.038291294,0.11558445,-1.502386,0.5409805,0.009409922,1.0247877,0.04560602,0.003871059,-0.0025461065,0.07843890975535406,-0.9964982437299649,0.02895837839877584,0.9969077102246043,0.07826716328854877,-0.007019148488222972,0.004728079010285458,0.02941940505616842,0.9995559733576771,0.124850646,0.025915373,0.11557966,-1.820964,0.6175555,0.029778505,0.25414494,-0.022348844,-7.517391e-05,0.014538185,-0.2100752036185229,-0.2829569283612116,-0.935843889501355,0.964478725000669,-0.21677628576577151,-0.15095969975685714,-0.16015366947316578,-0.9343144110105466,0.3184452598678385,left_images/camera_left_136.png,right_images/camera_right_136.png
2025-05-15 15:25:49,6.935656785964966,137,-0.045214824,-0.037980795,0.11580491,-1.5050716,0.54027355,0.00883638,1.0247514,0.045502245,0.0038647344,-0.0027466575,0.07600614141575956,-0.9966750254921803,0.029359155765265512,0.9970929202852155,0.07581368353117401,-0.007615359908487475,0.005364213286993606,0.029852620481233515,0.9995399172950599,0.12487649,0.025935795,0.115577325,-1.8206282,0.6172433,0.029232182,0.25862664,-0.022348002,-8.691789e-05,0.0145382155,-0.20928638595301782,-0.2832794961579892,-0.9359230394168102,0.9646513870471973,-0.2165612221850087,-0.15016303977228684,-0.16014652703896692,-0.934266538040516,0.31858927441950446,left_images/camera_left_137.png,right_images/camera_right_137.png
2025-05-15 15:25:49,6.9889631271362305,138,-0.045470335,-0.037742298,0.115735054,-1.5079231,0.53907645,0.008611387,1.0247259,0.045492943,0.0038609025,-0.0026741032,0.07348898178243113,-0.996822254170647,0.03073699963775606,0.9972751141227937,0.07325292708309883,-0.008738159138324608,0.006458816296348795,0.031295403239263775,0.9994893103120922,0.12489774,0.02595803,0.11557519,-1.8203912,0.6170077,0.028859908,0.2543261,-0.022347413,-9.6145086e-05,0.014538483,-0.2087369218513052,-0.28351905545516065,-0.9359732061602273,0.9647709369545546,-0.21641548227474472,-0.14960407160107753,-0.1601434877348209,-0.9342276404739922,0.31870484638694163,left_images/camera_left_138.png,right_images/camera_right_138.png
2025-05-15 15:25:49,7.042409658432007,139,-0.045547403,-0.037542775,0.11563311,-1.5086211,0.5371796,0.00789734,0.99850214,0.045504577,0.0038362888,-0.0025835675,0.07278934718305308,-0.996809915173356,0.032736889723233964,0.9973296001931298,0.07255307230731767,-0.008349866907959932,0.005948068197025879,0.033257250500535296,0.9994291249377654,0.124901496,0.02598326,0.11557259,-1.8202271,0.6168441,0.028625969,0.25414443,-0.022348596,-0.00010360568,0.014538667,-0.2083741902381411,-0.283697162648096,-0.9360000623653925,0.9648501066669934,-0.21631986461737576,-0.14923132324217847,-0.16013890379071005,-0.9341957161523167,0.31880071426420875,left_images/camera_left_139.png,right_images/camera_right_139.png
2025-05-15 15:25:49,7.102796316146851,140,-0.045050852,-0.037696954,0.115582004,-1.5104516,0.53518724,0.009123401,0.9722849,0.045548704,0.0038834559,-0.0025656754,0.07138914520052153,-0.996866035833475,0.03408366983163579,0.9974137857119855,0.0710597181449315,-0.010782232090269867,0.008326464989682855,0.03476525649000725,0.9993608191849226,0.12490496,0.02599801,0.115570486,-1.8201243,0.61671674,0.028480897,0.2586953,-0.022349775,-0.00010805321,0.014538785,-0.20814869953130608,-0.28383110730869887,-0.9360096267706566,0.9648994507995313,-0.21626290573848114,-0.14899464905932536,-0.16013484545903411,-0.9341682172529028,0.3188833221483126,left_images/camera_left_140.png,right_images/camera_right_140.png
2025-05-15 15:25:49,7.16098952293396,141,-0.045470677,-0.03784466,0.115461454,-1.5101248,0.533218,0.00947907,0.9462209,0.04553482,0.0038988076,-0.0024396447,0.07177696041181603,-0.996754515200854,0.036448654032089245,0.9973836432629738,0.07141132322591148,-0.011237929818307003,0.008598610673672872,0.03715991579423625,0.9992723375299888,0.12490905,0.026018241,0.11556877,-1.8200521,0.6166212,0.028411264,0.25439927,-0.022350658,-0.000111974194,0.014539313,-0.20801447909491572,-0.2839306323954678,-0.9360092801219339,0.9649293639786369,-0.216228814685059,-0.14885033500693862,-0.1601290074241838,-0.9341458642457314,0.31895172878343436,left_images/camera_left_141.png,right_images/camera_right_141.png
