jiaqis7/OS_Teleop_Extension/demo_3/teleop_log.csv
Epoch Time (Seconds),Time (Seconds),Frame Number,PSM1_joint_1,PSM1_joint_2,PSM1_joint_3,PSM1_joint_4,PSM1_joint_5,PSM1_joint_6,PSM1_jaw_angle,PSM1_ee_x,PSM1_ee_y,PSM1_ee_z,"PSM1_Orientation_Matrix_[1,1]","PSM1_Orientation_Matrix_[1,2]","PSM1_Orientation_Matrix_[1,3]","PSM1_Orientation_Matrix_[2,1]","PSM1_Orientation_Matrix_[2,2]","PSM1_Orientation_Matrix_[2,3]","PSM1_Orientation_Matrix_[3,1]","PSM1_Orientation_Matrix_[3,2]","PSM1_Orientation_Matrix_[3,3]",PSM2_joint_1,PSM2_joint_2,PSM2_joint_3,PSM2_joint_4,PSM2_joint_5,PSM2_joint_6,PSM2_jaw_angle,PSM2_ee_x,PSM2_ee_y,PSM2_ee_z,"PSM2_Orientation_Matrix_[1,1]","PSM2_Orientation_Matrix_[1,2]","PSM2_Orientation_Matrix_[1,3]","PSM2_Orientation_Matrix_[2,1]","PSM2_Orientation_Matrix_[2,2]","PSM2_Orientation_Matrix_[2,3]","PSM2_Orientation_Matrix_[3,1]","PSM2_Orientation_Matrix_[3,2]","PSM2_Orientation_Matrix_[3,3]",PSM3_joint_1,PSM3_joint_2,PSM3_joint_3,PSM3_joint_4,PSM3_joint_5,PSM3_joint_6,PSM3_jaw_angle,PSM3_ee_x,PSM3_ee_y,PSM3_ee_z,"PSM3_Orientation_Matrix_[1,1]","PSM3_Orientation_Matrix_[1,2]","PSM3_Orientation_Matrix_[1,3]","PSM3_Orientation_Matrix_[2,1]","PSM3_Orientation_Matrix_[2,2]","PSM3_Orientation_Matrix_[2,3]","PSM3_Orientation_Matrix_[3,1]","PSM3_Orientation_Matrix_[3,2]","PSM3_Orientation_Matrix_[3,3]",Camera Left,Camera Right
2025-05-30 17:02:33,0.0021936893463134766,1,-0.03432311,-0.00027699364,0.11403821,-0.0006741705,0.00029399688,-0.027664913,1.0471792,0.05790705,2.6582396e-05,0.0020310753,0.8332778288575591,-0.000580938562296078,0.55285416019491,0.0006732902942470612,0.9999997726922069,3.599603131527722e-05,-0.5528540554383337,0.00034223664537145993,0.8332780305873103,0.07067476,0.000531236,0.11086681,0.00077453855,1.5859872e-05,-0.015304952,1.0471791,-0.056456868,-6.071176e-05,0.0067547746,0.8369175257917197,0.0009481324117090706,-0.5473281977640071,-0.0007829443671552911,0.9999995503360772,0.000535094161003266,0.5473284589903801,-1.9302151867862916e-05,0.8369178917950332,0.0026657255,0.019344743,0.09063903,-0.00016294567,-0.012031062,-0.006226944,0.5235896,0.00019111253,-0.011352362,0.0023486614,0.9999936400418761,-0.00014323904631166856,0.0035636159128948305,0.0010357560162236078,0.9677929595718953,-0.2517453368238365,-0.0034127826291579333,0.25174742677065765,0.9677869528099037,left_images/camera_left_1.png,right_images/camera_right_1.png
2025-05-30 17:02:33,0.05621218681335449,2,-0.03432311,-0.00027699425,0.11403821,-0.00067415304,0.00029400107,-0.027664913,1.0471792,0.05790705,2.6582396e-05,0.0020310753,0.8332778288575591,-0.000580938562296078,0.55285416019491,0.0006732902942470612,0.9999997726922069,3.599603131527722e-05,-0.5528540554383337,0.00034223664537145993,0.8332780305873103,0.07067476,0.0005312344,0.11086681,0.000774515,1.58807e-05,-0.015304952,1.0471791,-0.056456868,-6.071176e-05,0.0067547746,0.8369175257917197,0.0009481324117090706,-0.5473281977640071,-0.0007829443671552911,0.9999995503360772,0.000535094161003266,0.5473284589903801,-1.9302151867862916e-05,0.8369178917950332,0.0026657255,0.019344743,0.09063903,-0.00016294567,-0.012031062,-0.006226944,0.5235896,0.00019111253,-0.011352362,0.0023486614,0.9999936400418761,-0.00014323904631166856,0.0035636159128948305,0.0010357560162236078,0.9677929595718953,-0.2517453368238365,-0.0034127826291579333,0.25174742677065765,0.9677869528099037,left_images/camera_left_2.png,right_images/camera_right_2.png
2025-05-30 17:02:33,0.10770082473754883,3,-0.03432311,-0.00027699425,0.11403821,-0.0006741356,0.00029400527,-0.027664913,1.0471792,0.05790705,2.6582396e-05,0.0020310753,0.8332778288575591,-0.000580938562296078,0.55285416019491,0.0006732902942470612,0.9999997726922069,3.599603131527722e-05,-0.5528540554383337,0.00034223664537145993,0.8332780305873103,0.07067476,0.00053123274,0.11086681,0.0007744914,1.5901527e-05,-0.015304952,1.0471791,-0.056456868,-6.071176e-05,0.0067547746,0.8369175257917197,0.0009481324117090706,-0.5473281977640071,-0.0007829443671552911,0.9999995503360772,0.000535094161003266,0.5473284589903801,-1.9302151867862916e-05,0.8369178917950332,0.0026657255,0.019344743,0.09063903,-0.00016294567,-0.012031062,-0.006226944,0.5235896,0.00019111253,-0.011352362,0.0023486614,0.9999936400418761,-0.00014323904631166856,0.0035636159128948305,0.0010357560162236078,0.9677929595718953,-0.2517453368238365,-0.0034127826291579333,0.25174742677065765,0.9677869528099037,left_images/camera_left_3.png,right_images/camera_right_3.png
2025-05-30 17:02:33,0.16522502899169922,4,-0.03432311,-0.00027699425,0.11403821,-0.0006741181,0.00029400946,-0.027664913,1.0471792,0.05790705,2.6582396e-05,0.0020310753,0.8332778288575591,-0.000580938562296078,0.55285416019491,0.0006732902942470612,0.9999997726922069,3.599603131527722e-05,-0.5528540554383337,0.00034223664537145993,0.8332780305873103,0.07067476,0.0005312236,0.11086681,0.0007745679,1.5888336e-05,-0.015304952,1.0471791,-0.056456868,-6.071176e-05,0.0067547746,0.8369175257917197,0.0009481324117090706,-0.5473281977640071,-0.0007829443671552911,0.9999995503360772,0.000535094161003266,0.5473284589903801,-1.9302151867862916e-05,0.8369178917950332,0.0026657255,0.019344743,0.09063903,-0.00016294567,-0.012031062,-0.006226944,0.5235896,0.00019111253,-0.011352362,0.0023486614,0.9999936400418761,-0.00014323904631166856,0.0035636159128948305,0.0010357560162236078,0.9677929595718953,-0.2517453368238365,-0.0034127826291579333,0.25174742677065765,0.9677869528099037,left_images/camera_left_4.png,right_images/camera_right_4.png
2025-05-30 17:02:33,0.2268078327178955,5,-0.03432311,-0.00027697632,0.11403821,-0.0006741529,0.00029396126,-0.027664969,1.0471792,0.05790705,2.6589018e-05,0.0020310734,0.8332778163798742,-0.0005807727554359488,0.5528541791758431,0.0006733336341152303,0.9999997726761054,3.563081156612635e-05,-0.5528540741922826,0.00034256494874259865,0.8332780180097458,0.07067476,0.00053122087,0.11086681,0.0007745443,1.5909154e-05,-0.015304952,1.0471791,-0.056456868,-6.071176e-05,0.0067547746,0.8369175257917197,0.0009481324117090706,-0.5473281977640071,-0.0007829443671552911,0.9999995503360772,0.000535094161003266,0.5473284589903801,-1.9302151867862916e-05,0.8369178917950332,0.0026657255,0.019344743,0.09063903,-0.00016294567,-0.012031062,-0.006226944,0.5235896,0.00019111253,-0.011352362,0.0023486614,0.9999936400418761,-0.00014323904631166856,0.0035636159128948305,0.0010357560162236078,0.9677929595718953,-0.2517453368238365,-0.0034127826291579333,0.25174742677065765,0.9677869528099037,left_images/camera_left_5.png,right_images/camera_right_5.png
2025-05-30 17:02:33,0.2908177375793457,6,-0.03432311,-0.00027697982,0.11403821,-0.0006741898,0.0002940067,-0.027664969,1.0471792,0.05790705,2.6582396e-05,0.0020310753,0.8332778288575591,-0.000580938562296078,0.55285416019491,0.0006732902942470612,0.9999997726922069,3.599603131527722e-05,-0.5528540554383337,0.00034223664537145993,0.8332780305873103,0.07067476,0.00053121924,0.11086681,0.00077452074,1.5929982e-05,-0.015304952,1.0471791,-0.056456868,-6.071176e-05,0.0067547746,0.8369175257917197,0.0009481324117090706,-0.5473281977640071,-0.0007829443671552911,0.9999995503360772,0.000535094161003266,0.5473284589903801,-1.9302151867862916e-05,0.8369178917950332,0.0026657255,0.019344743,0.09063903,-0.00016294567,-0.012031062,-0.006226944,0.5235896,0.00019111253,-0.011352362,0.0023486614,0.9999936400418761,-0.00014323904631166856,0.0035636159128948305,0.0010357560162236078,0.9677929595718953,-0.2517453368238365,-0.0034127826291579333,0.25174742677065765,0.9677869528099037,left_images/camera_left_6.png,right_images/camera_right_6.png
2025-05-30 17:02:33,0.359483003616333,7,-0.03432311,-0.00027698043,0.11403821,-0.00067417236,0.00029401088,-0.027664969,1.0471792,0.05790705,2.6582396e-05,0.0020310753,0.8332778288575591,-0.000580938562296078,0.55285416019491,0.0006732902942470612,0.9999997726922069,3.599603131527722e-05,-0.5528540554383337,0.00034223664537145993,0.8332780305873103,0.07067476,0.0005312176,0.11086681,0.00077449717,1.5950809e-05,-0.015304952,1.0471791,-0.056456868,-6.071176e-05,0.0067547746,0.8369175257917197,0.0009481324117090706,-0.5473281977640071,-0.0007829443671552911,0.9999995503360772,0.000535094161003266,0.5473284589903801,-1.9302151867862916e-05,0.8369178917950332,0.0026657255,0.019344743,0.09063903,-0.00016294567,-0.012031062,-0.006226944,0.5235896,0.00019111253,-0.011352362,0.0023486614,0.9999936400418761,-0.00014323904631166856,0.0035636159128948305,0.0010357560162236078,0.9677929595718953,-0.2517453368238365,-0.0034127826291579333,0.25174742677065765,0.9677869528099037,left_images/camera_left_7.png,right_images/camera_right_7.png
2025-05-30 17:02:33,0.42246532440185547,8,-0.03432311,-0.00027698043,0.11403821,-0.0006741549,0.00029401507,-0.027664969,1.0471792,0.05790705,2.6582396e-05,0.0020310753,0.8332778288575591,-0.000580938562296078,0.55285416019491,0.0006732902942470612,0.9999997726922069,3.599603131527722e-05,-0.5528540554383337,0.00034223664537145993,0.8332780305873103,0.07067476,0.000531216,0.11086681,0.0007744736,1.5971636e-05,-0.015304952,1.0471791,-0.056456868,-6.0721755e-05,0.0067547467,0.8369175261331009,0.0009477379071404458,-0.5473281979252573,-0.0007825498625559672,0.9999995507077664,0.0005349766143841396,0.5473284590325658,-1.9419698590020695e-05,0.8369178917647252,0.0026657255,0.019344743,0.09063903,-0.00016294567,-0.012031062,-0.006226944,0.5235896,0.00019111253,-0.011352362,0.0023486614,0.9999936400418761,-0.00014323904631166856,0.0035636159128948305,0.0010357560162236078,0.9677929595718953,-0.2517453368238365,-0.0034127826291579333,0.25174742677065765,0.9677869528099037,left_images/camera_left_8.png,right_images/camera_right_8.png
2025-05-30 17:02:33,0.4944894313812256,9,-0.03432311,-0.00027698043,0.11403821,-0.00067413744,0.00029401926,-0.027664969,1.0471792,0.05790705,2.6582396e-05,0.0020310753,0.8332778288575591,-0.000580938562296078,0.55285416019491,0.0006732902942470612,0.9999997726922069,3.599603131527722e-05,-0.5528540554383337,0.00034223664537145993,0.8332780305873103,0.07067476,0.0005312368,0.11086681,0.0007744414,1.5901533e-05,-0.015304952,1.0471791,-0.056456868,-6.0721755e-05,0.0067547467,0.8369175261331009,0.0009477379071404458,-0.5473281979252573,-0.0007825498625559672,0.9999995507077664,0.0005349766143841396,0.5473284590325658,-1.9419698590020695e-05,0.8369178917647252,0.0026657255,0.019344743,0.09063897,-0.00016293119,-0.012031062,-0.0062269443,0.4969216,0.00019111393,-0.011352377,0.002348721,0.9999936400418761,-0.00014323904631166856,0.0035636159128948305,0.0010357560162236078,0.9677929595718953,-0.2517453368238365,-0.0034127826291579333,0.25174742677065765,0.9677869528099037,left_images/camera_left_9.png,right_images/camera_right_9.png
2025-05-30 17:02:34,0.5526103973388672,10,-0.03432311,-0.00027698043,0.11403821,-0.00067412,0.00029402346,-0.027664969,1.0471792,0.05790705,2.6582396e-05,0.0020310753,0.8332778288575591,-0.000580938562296078,0.55285416019491,0.0006732902942470612,0.9999997726922069,3.599603131527722e-05,-0.5528540554383337,0.00034223664537145993,0.8332780305873103,0.07067476,0.00053125195,0.11086681,0.0007745085,1.5814718e-05,-0.015304952,1.0471791,-0.056456868,-6.071176e-05,0.0067547746,0.8369175257917197,0.0009481324117090706,-0.5473281977640071,-0.0007829443671552911,0.9999995503360772,0.000535094161003266,0.5473284589903801,-1.9302151867862916e-05,0.8369178917950332,0.0026657255,0.019344743,0.09063897,-0.00016293116,-0.012031062,-0.0062269443,0.47025508,0.00019111393,-0.011352377,0.002348721,0.9999936400418761,-0.00014323904631166856,0.0035636159128948305,0.0010357560162236078,0.9677929595718953,-0.2517453368238365,-0.0034127826291579333,0.25174742677065765,0.9677869528099037,left_images/camera_left_10.png,right_images/camera_right_10.png
2025-05-30 17:02:34,0.6083526611328125,11,-0.03432311,-0.0002769625,0.11403821,-0.0006741548,0.00029397526,-0.027665025,1.0471792,0.05790705,2.6589018e-05,0.0020310734,0.8332778163798742,-0.0005807727554359488,0.5528541791758431,0.0006733336341152303,0.9999997726761054,3.563081156612635e-05,-0.5528540741922826,0.00034256494874259865,0.8332780180097458,0.07067476,0.0005312512,0.11086681,0.00077448494,1.5835534e-05,-0.015304952,1.0471791,-0.056456868,-6.071176e-05,0.0067547746,0.8369175257917197,0.0009481324117090706,-0.5473281977640071,-0.0007829443671552911,0.9999995503360772,0.000535094161003266,0.5473284589903801,-1.9302151867862916e-05,0.8369178917950332,0.0026657255,0.019344743,0.09063897,-0.00016293113,-0.012031062,-0.0062269443,0.44358855,0.00019111393,-0.011352377,0.002348721,0.9999936400418761,-0.00014323904631166856,0.0035636159128948305,0.0010357560162236078,0.9677929595718953,-0.2517453368238365,-0.0034127826291579333,0.25174742677065765,0.9677869528099037,left_images/camera_left_11.png,right_images/camera_right_11.png
2025-05-30 17:02:34,0.6714270114898682,12,-0.03432311,-0.00027696375,0.11403821,-0.000674175,0.0002939514,-0.027665025,1.0471792,0.05790705,2.6589018e-05,0.0020310734,0.8332778163798742,-0.0005807727554359488,0.5528541791758431,0.0006733336341152303,0.9999997726761054,3.563081156612635e-05,-0.5528540741922826,0.00034256494874259865,0.8332780180097458,0.07067476,0.00053124205,0.11086681,0.0007745616,1.5822337e-05,-0.015304952,1.0445532,-0.056456868,-6.071176e-05,0.0067547746,0.8369175257917197,0.0009481324117090706,-0.5473281977640071,-0.0007829443671552911,0.9999995503360772,0.000535094161003266,0.5473284589903801,-1.9302151867862916e-05,0.8369178917950332,0.0013245582,0.02349929,0.090642974,-0.02708297,-0.036235575,0.011577643,0.41692233,0.0002133729,-0.011295631,0.0023681242,0.9995622885178206,-0.027078356769362804,-0.01191612217494707,0.022831246153728776,0.9622045617033022,-0.2713689658682879,0.01881397278846248,0.270978124637446,0.9624016263472791,left_images/camera_left_12.png,right_images/camera_right_12.png
2025-05-30 17:02:34,0.7302713394165039,13,-0.03432311,-0.00027697044,0.11403821,-0.0006742119,0.00029399683,-0.027665025,1.0471792,0.05790705,2.6582396e-05,0.0020310753,0.8332778288575591,-0.000580938562296078,0.55285416019491,0.0006732902942470612,0.9999997726922069,3.599603131527722e-05,-0.5528540554383337,0.00034223664537145993,0.8332780305873103,0.07067476,0.0005312393,0.11086681,0.00077453774,1.5843149e-05,-0.015304952,1.0420425,-0.056456868,-6.071176e-05,0.0067547746,0.8369175257917197,0.0009481324117090706,-0.5473281977640071,-0.0007829443671552911,0.9999995503360772,0.000535094161003266,0.5473284589903801,-1.9302151867862916e-05,0.8369178917950332,0.00034960825,0.026609557,0.09064635,-0.04891317,-0.051307116,0.02614127,0.39025524,0.00022943855,-0.011303126,0.0023753354,0.9985195542381445,-0.04883786031413897,-0.023949179610030343,0.04005616246915871,0.958082706761596,-0.2836776883235931,0.036799506142082994,0.2822984066627191,0.9586205745462533,left_images/camera_left_13.png,right_images/camera_right_13.png
2025-05-30 17:02:34,0.7967588901519775,14,-0.03432311,-0.0002769757,0.1140381,-0.000674182,0.0002940064,-0.027665025,1.0205145,0.05790711,2.6578671e-05,0.0020311647,0.8332778288575591,-0.000580938562296078,0.55285416019491,0.0006732902942470612,0.9999997726922069,3.599603131527722e-05,-0.5528540554383337,0.00034223664537145993,0.8332780305873103,0.07067476,0.00053123606,0.1108667,0.00077452615,1.5866475e-05,-0.015304979,1.0153778,-0.056456927,-6.071176e-05,0.006754864,0.8369175257917197,0.0009481324117090706,-0.5473281977640071,-0.0007829443671552911,0.9999995503360772,0.000535094161003266,0.5473284589903801,-1.9302151867862916e-05,0.8369178917950332,-0.00018591314,0.02790068,0.09062915,-0.06995827,-0.056479633,0.03966909,0.36358827,0.0002780375,-0.01132202,0.0023963666,0.9969326607155728,-0.06978376573662147,-0.03543297952733651,0.056642180976410765,0.955756641553135,-0.2886536080864184,0.05400864127900129,0.2857612082958224,0.9567777163482162,left_images/camera_left_14.png,right_images/camera_right_14.png
2025-05-30 17:02:34,0.8490238189697266,15,-0.03432311,-0.00027697667,0.1140381,-0.00067416445,0.0002940106,-0.027665025,0.99384886,0.05790711,2.6578671e-05,0.0020311647,0.8332778288575591,-0.000580938562296078,0.55285416019491,0.0006732902942470612,0.9999997726922069,3.599603131527722e-05,-0.5528540554383337,0.00034223664537145993,0.8332780305873103,0.07067476,0.00053123257,0.1108667,0.00077450264,1.5889587e-05,-0.015304979,0.9887114,-0.056456927,-6.071176e-05,0.006754864,0.8369175257917197,0.0009481324117090706,-0.5473281977640071,-0.0007829443671552911,0.9999995503360772,0.000535094161003266,0.5473284589903801,-1.9302151867862916e-05,0.8369178917950332,-0.00018446546,0.025873533,0.0904731,-0.09653878,-0.055572826,0.054155644,0.336922,0.0003856312,-0.011172666,0.0026004035,0.9941838449188162,-0.09623427528342661,-0.04834714844862245,0.0780860231912975,0.9532894124371425,-0.29179079683467735,0.07416910060535734,0.28631845975403236,0.9552594852287367,left_images/camera_left_15.png,right_images/camera_right_15.png
2025-05-30 17:02:34,0.9147045612335205,16,-0.03432311,-0.00027697667,0.1140381,-0.00067414687,0.00029401478,-0.027665025,0.96718055,0.05790711,2.6578671e-05,0.0020311647,0.8332778288575591,-0.000580938562296078,0.55285416019491,0.0006732902942470612,0.9999997726922069,3.599603131527722e-05,-0.5528540554383337,0.00034223664537145993,0.8332780305873103,0.07067476,0.0005312291,0.1108667,0.0007744791,1.5912701e-05,-0.015304979,0.9620431,-0.056456927,-6.0721755e-05,0.006754836,0.8369175261331009,0.0009477379071404458,-0.5473281979252573,-0.0007825498625559672,0.9999995507077664,0.0005349766143841396,0.5473284590325658,-1.9419698590020695e-05,0.8369178917647252,3.2567532e-05,0.02221852,0.0902272,-0.1229796,-0.0501003,0.06833289,0.31025568,0.0005203442,-0.01097294,0.0029086731,0.9905488083743617,-0.12251635440577474,-0.061666856018862806,0.0994006857827521,0.9510087624521919,-0.2927487615773453,0.09451223145207789,0.2838522091551683,0.9541988060481316,left_images/camera_left_16.png,right_images/camera_right_16.png
2025-05-30 17:02:34,0.9792191982269287,17,-0.03432311,-0.00027697667,0.1140381,-0.0006741293,0.00029401897,-0.027665025,0.94051224,0.05790711,2.6578671e-05,0.0020311647,0.8332778288575591,-0.000580938562296078,0.55285416019491,0.0006732902942470612,0.9999997726922069,3.599603131527722e-05,-0.5528540554383337,0.00034223664537145993,0.8332780305873103,0.07067476,0.0005312495,0.1108667,0.000774447,1.584259e-05,-0.015304979,0.9353748,-0.056456927,-6.0721755e-05,0.006754836,0.8369175261331009,0.0009477379071404458,-0.5473281979252573,-0.0007825498625559672,0.9999995507077664,0.0005349766143841396,0.5473284590325658,-1.9419698590020695e-05,0.8369178917647252,0.0010890848,0.015276138,0.089857675,-0.16139945,-0.032162964,0.08258336,0.28358948,0.0007631298,-0.0107139265,0.0033567725,0.9839781401095081,-0.16063498805764975,-0.0773525720215682,0.13237392598586994,0.9488659752485271,-0.2865842018233893,0.11943267352663844,0.27175312625134673,0.9549272615581247,left_images/camera_left_17.png,right_images/camera_right_17.png
2025-05-30 17:02:34,1.0303919315338135,18,-0.03432311,-0.00027697667,0.1140381,-0.0006741117,0.00029402316,-0.027665025,0.9138439,0.057907112,2.6590096e-05,0.0020311936,0.8332779236770514,-0.0005807184912001942,0.5528540175114007,0.0006729545916268302,0.9999997729142894,3.610384270594195e-05,-0.5528539129323222,0.00034196111449686696,0.833278125248717,0.07067476,0.00053126464,0.1108667,0.0007745141,1.5755777e-05,-0.015304979,0.9087065,-0.056456927,-6.071176e-05,0.006754864,0.8369175257917197,0.0009481324117090706,-0.5473281977640071,-0.0007829443671552911,0.9999995503360772,0.000535094161003266,0.5473284589903801,-1.9302151867862916e-05,0.8369178917950332,0.0023453597,0.008057862,0.08953983,-0.20793097,-0.0039880536,0.09248522,0.2569226,0.0010417886,-0.010590022,0.0037200414,0.9741392028488743,-0.20642431804646336,-0.09187934692852523,0.1748484941929511,0.9462466190572527,-0.2721127339930568,0.1431112069385808,0.24901071631913974,0.9578689083621055,left_images/camera_left_18.png,right_images/camera_right_18.png
2025-05-30 17:02:34,1.0890862941741943,19,-0.03432311,-0.00027698773,0.1140381,-0.00067405717,0.00029402232,-0.027664969,0.8871756,0.057907112,2.6590096e-05,0.0020311936,0.8332779236770514,-0.0005807184912001942,0.5528540175114007,0.0006729545916268302,0.9999997729142894,3.610384270594195e-05,-0.5528539129323222,0.00034196111449686696,0.833278125248717,0.07067476,0.00053126225,0.1108667,0.0007744906,1.5778882e-05,-0.015304979,0.8820382,-0.056456927,-6.071176e-05,0.006754864,0.8369175257917197,0.0009481324117090706,-0.5473281977640071,-0.0007829443671552911,0.9999995503360772,0.000535094161003266,0.5473284589903801,-1.9302151867862916e-05,0.8369178917950332,0.0030442073,0.00048470873,0.089333445,-0.25049284,0.027856374,0.10005488,0.23025587,0.0013069741,-0.010468215,0.0039813668,0.9629474922358996,-0.24769795198583464,-0.10666701354502799,0.21431754169436737,0.9429289377551973,-0.25485880339108985,0.16370741742106593,0.22255503347684197,0.9610770721203614,left_images/camera_left_19.png,right_images/camera_right_19.png
2025-05-30 17:02:34,1.151540994644165,20,-0.037402455,-0.0039651063,0.11403267,0.06436733,0.026702484,0.019572966,0.8605091,0.057952225,-3.894919e-05,0.0020137783,0.8550077742006958,0.042333511993653976,0.5168844936914386,-0.06386653572293796,0.9976713877876507,0.02393465279910257,-0.5146676322357201,-0.053475936197004116,0.8557204874120588,0.07489348,-0.0042685345,0.11088225,-0.09573504,0.030965434,-0.0793859,0.8553713,-0.05651509,-0.00015179053,0.0067371903,0.8643419667175181,-0.06387080951763732,-0.49883212031950647,0.09318107755796151,0.9950668177548114,0.034048714930963495,0.4941965715745406,-0.07591144771952743,0.8660295611288885,0.0031295726,-0.007829017,0.08920914,-0.2946851,0.06476473,0.1061844,0.20358926,0.0015757768,-0.010336114,0.0041805347,0.9491693769597618,-0.28964823815625845,-0.12321279144144412,0.255752754329652,0.9378619812804755,-0.23453237030622776,0.18348848055018088,0.19109893302066405,0.9642682071414309,left_images/camera_left_20.png,right_images/camera_right_20.png
2025-05-30 17:02:34,1.2223222255706787,21,-0.04328055,-0.0096651735,0.11385631,0.1595921,0.06225059,0.079809986,0.83384186,0.057831664,-0.00011939331,0.0023571989,0.8727131251689707,0.10548114156763416,0.476702768957132,-0.15427492826317052,0.9859350567329672,0.06427527062839886,-0.4632181426360605,-0.12963715778490764,0.8767115601235385,0.080508776,-0.009179196,0.11107759,-0.21233058,0.04646847,-0.15661545,0.8287042,-0.05638792,-9.204971e-05,0.0066919066,0.8833031830429069,-0.1519291048756716,-0.4435008837848538,0.2024982063909763,0.976872518727395,0.06866264314482294,0.4228119714893451,-0.150458064745207,0.8936399764549595,0.00199259,-0.015460584,0.089139864,-0.370778,0.10694729,0.10588927,0.17692295,0.0018087208,-0.0102913575,0.0043235207,0.9225150725795933,-0.36008507945906865,-0.13894126965888925,0.3274232821028964,0.9207322093898577,-0.21224088420716378,0.20435247784266064,0.15030280816747163,0.9672895795244242,left_images/camera_left_21.png,right_images/camera_right_21.png
2025-05-30 17:02:34,1.2827303409576416,22,-0.04988758,-0.013325389,0.11358069,0.24152403,0.08015841,0.13413379,0.8071753,0.05762678,-0.00017278333,0.0028949669,0.8810553478793868,0.16379131308282868,0.4437497940638795,-0.22839273514776598,0.9688379381347301,0.09586348711875256,-0.41422002909668076,-0.18581026717985097,0.8910085926104737,0.08569613,-0.012241133,0.11139681,-0.3206443,0.047535986,-0.21524745,0.80203736,-0.056079354,-5.136704e-05,0.006627734,0.8828460619256513,-0.23757680434472062,-0.40514206518173257,0.3008615196110308,0.9484713027030929,0.09942099358807052,0.3606455004013085,-0.20966509005089087,0.9088318728204031,-0.00084593653,-0.022061752,0.08910759,-0.4806065,0.15116736,0.09446913,0.15025705,0.0019785664,-0.010293995,0.0044366512,0.876281298865907,-0.4571551334831674,-0.1521192597532145,0.4280033967911584,0.8835977629178376,-0.1899159964347989,0.22123331031539706,0.10131227613956623,0.9699441453559638,left_images/camera_left_22.png,right_images/camera_right_22.png
2025-05-30 17:02:34,1.3494932651519775,23,-0.057846278,-0.0145022655,0.113272704,0.32343805,0.081945114,0.18935998,0.7805085,0.057336364,-0.0002914674,0.0035391478,0.8828506280651789,0.22723650142838125,0.41102109549694466,-0.3002274050729865,0.9460544879729473,0.12183764208726873,-0.3611623925162476,-0.23096423577002956,0.9034474240525047,0.091241315,-0.013833179,0.11177282,-0.4299701,0.035424557,-0.2648725,0.7753707,-0.05566948,-1.6507343e-05,0.0065648174,0.8674698437321865,-0.3270609547539106,-0.37486958010849103,0.397460019286452,0.9088110199529992,0.12683872863129178,0.29920160976182775,-0.25902444264480096,0.918359806845052,-0.004825791,-0.028341709,0.08902827,-0.5972764,0.1927067,0.07327116,0.123590715,0.0021004216,-0.010252271,0.00462606,0.8171825577719468,-0.5527886636778178,-0.1632095603284046,0.5290137154220372,0.8317445349780509,-0.16836127057467087,0.2288168616353929,0.0512417978162179,0.9721199113215875,left_images/camera_left_23.png,right_images/camera_right_23.png
2025-05-30 17:02:34,1.4034686088562012,24,-0.06762893,-0.014520258,0.11301534,0.4178422,0.07223352,0.25050813,0.7538412,0.056914166,-0.0004534261,0.0042418484,0.8758584952093182,0.30313094836836885,0.37547772838207305,-0.38032173105130473,0.9125351368822956,0.15044934312036368,-0.2970307682039145,-0.2745746749001138,0.9145389388340385,0.09910809,-0.015048036,0.11218493,-0.5466412,0.010337471,-0.31969902,0.7487041,-0.05513595,4.549336e-05,0.0065838164,0.8390587725372013,-0.42363749095754116,-0.34133803257704004,0.4953790885399237,0.8542887610634323,0.1574492659813324,0.22489983296063082,-0.3012009113132049,0.9266596333920969,-0.009267658,-0.03451477,0.088842236,-0.71393925,0.22767235,0.047447708,0.09692375,0.0022061104,-0.010100494,0.0049602566,0.748535575294359,-0.6397455775852039,-0.17441355589207175,0.6216149711270831,0.7685715273743982,-0.15130312283644515,0.23084479675621622,0.004837692586189449,0.972978559137365,left_images/camera_left_24.png,right_images/camera_right_24.png
2025-05-30 17:02:34,1.4752843379974365,25,-0.078124486,-0.014262889,0.112815216,0.5135105,0.05630011,0.30198517,0.7271757,0.05635459,-0.00059735077,0.004975278,0.8566810415621661,0.3794247110582831,0.34947744085462873,-0.45861990007680475,0.8703595249184662,0.17928213697198978,-0.23614694637344733,-0.3138649168385024,0.919632227412924,0.10885137,-0.015874932,0.11258153,-0.6633098,-0.02816195,-0.37010276,0.7220379,-0.054532126,0.00014441647,0.006703181,0.7956746409919504,-0.5204053927689234,-0.30996789004565206,0.5877286758983502,0.7871002629118974,0.18721159058881476,0.14654988641791183,-0.3311365327188237,0.9321328915395339,-0.012984395,-0.03901159,0.0886103,-0.82540387,0.24880126,0.021717101,0.07025726,0.002285616,-0.009867764,0.0053347917,0.6747615317036326,-0.7149969243918178,-0.18296522468274964,0.7011547549140985,0.6984194671535345,-0.1435000263495571,0.23038855222063084,-0.03145863969109751,0.9725900827144329,left_images/camera_left_25.png,right_images/camera_right_25.png
2025-05-30 17:02:34,1.5273571014404297,26,-0.09032298,-0.01365,0.11264663,0.6208366,0.030790763,0.349975,0.7005098,0.0556516,-0.00073345867,0.005788006,0.8227258859625646,0.46385573563131216,0.32857262985380825,-0.542494610790603,0.8133511800257521,0.21014151235267353,-0.16976959041673373,-0.35113774287685307,0.9208043069496817,0.12020909,-0.016731966,0.11293146,-0.7799803,-0.078131534,-0.41472524,0.695372,-0.05391651,0.00026426022,0.006934195,0.737106859009997,-0.6146591693981975,-0.28083372994555766,0.6726341682082089,0.7073535063431403,0.21728850135917474,0.0650903538112033,-0.34906320708258964,0.9348358804100052,-0.016744105,-0.04335616,0.08834009,-0.9092672,0.26222596,0.00080316444,0.043590717,0.002251645,-0.009583274,0.0057431273,0.6146594888284489,-0.7658789986934369,-0.18874075382250688,0.755151245785654,0.6404852136630945,-0.13973291332866045,0.2279041657836131,-0.056639654300485134,0.9720347940167557,left_images/camera_left_26.png,right_images/camera_right_26.png
2025-05-30 17:02:35,1.5786573886871338,27,-0.10483869,-0.011642976,0.112462044,0.73655117,-0.015703036,0.39381322,0.67384315,0.054919515,-0.0008578659,0.0066715386,0.7713531873483341,0.5575576188962466,0.306828554698407,-0.6292047559085843,0.7404658356617417,0.23624504515391898,-0.09547583730758508,-0.3752863544395214,0.9219785879628166,0.13157696,-0.018591715,0.113226846,-0.89665157,-0.13033484,-0.45026034,0.6687061,-0.053343974,0.00039272918,0.0072331177,0.6651143037064593,-0.7003374525869254,-0.2591339721247055,0.7465792443104454,0.6164119764376582,0.25031122082132845,-0.015569038824401762,-0.35994961843051837,0.9328418286193048,-0.019502526,-0.04739992,0.08809715,-0.9488899,0.27039334,-0.008724103,0.01692346,0.0021862898,-0.009318829,0.006101365,0.5849325091731568,-0.7877733736788736,-0.19304681151213168,0.7784127231362029,0.6121098644434494,-0.13926645795274228,0.22787626504766986,-0.06880861554796426,0.9712557759181133,left_images/camera_left_27.png,right_images/camera_right_27.png
2025-05-30 17:02:35,1.6347618103027344,28,-0.1211413,-0.010384446,0.11223812,0.85225207,-0.068388574,0.43260542,0.6471764,0.054147243,-0.0009608355,0.0076880585,0.707404484532271,0.645332487542103,0.28831384945290783,-0.7065819590263301,0.6560059086445668,0.26532655917176917,-0.017911740343862864,-0.39141056238448435,0.9200418149256675,0.14248292,-0.021514423,0.11349724,-1.0133334,-0.18941619,-0.4723053,0.6420417,-0.05287656,0.0006144999,0.007510092,0.5786541590042409,-0.7784288255280607,-0.24332679230635224,0.810439692249471,0.5154023501311249,0.278474276560504,-0.0913612034382074,-0.3583419889802439,0.9291093312630141,-0.020889241,-0.050247308,0.08791291,-0.9513111,0.27298218,-0.0040719323,0.0013394756,0.0021348489,-0.009113885,0.006360422,0.5821501382991927,-0.7888959463321077,-0.19683597826362756,0.7785950440573333,0.6106337395246496,-0.14462431857575625,0.23428822814556896,-0.06906245010793438,0.969710990005527,left_images/camera_left_28.png,right_images/camera_right_28.png
2025-05-30 17:02:35,1.6886065006256104,29,-0.13630947,-0.010503784,0.1120238,0.9466375,-0.11249967,0.45700538,0.62050974,0.053382322,-0.0009907177,0.008680436,0.6464983527803891,0.7095136828287286,0.28041079460509033,-0.7616957374245007,0.5795094324056911,0.28980755915293194,0.04312172818417667,-0.40094781659419004,0.9150854413259791,0.15181781,-0.025975615,0.113752946,-1.130022,-0.25271443,-0.47965574,0.61537796,-0.052592926,0.00095549366,0.0076904017,0.4794202354406918,-0.846345803251906,-0.23206684202590788,0.8629058740200479,0.40645576603840544,0.3003117760525386,-0.1598427052814383,-0.34422738353015886,0.9251798841286446,-0.021535862,-0.05202115,0.0877736,-0.95141923,0.2741131,0.0016596887,8.887878e-05,0.002127433,-0.00897371,0.006550097,0.5809736070377552,-0.7888547517418191,-0.20044412832480965,0.7774637123514426,0.6107391506003832,-0.1501594682350588,0.24087308671217936,-0.06859934823506214,0.9681292710787499,left_images/camera_left_29.png,right_images/camera_right_29.png
2025-05-30 17:02:35,1.7457211017608643,30,-0.1495979,-0.011838867,0.11188954,1.0172282,-0.1490617,0.47282687,0.59384304,0.052676212,-0.00090253353,0.009522012,0.5958898902310046,0.7540387336035304,0.27629843818969624,-0.7981560105227479,0.5181014878608702,0.3074375239666814,0.0886691693143252,-0.4037281715485516,0.910571986122553,0.15914881,-0.03173401,0.114006445,-1.246694,-0.3125823,-0.47729334,0.58871204,-0.05244304,0.0012978173,0.0077849943,0.37350495395760214,-0.8997361206563759,-0.22576306729698906,0.9004068006522152,0.2931168804152428,0.3214810845988893,-0.2230731779223389,-0.3233533788316609,0.9196091287551342,-0.022507269,-0.052756824,0.08765524,-0.98140633,0.27550787,-0.0010344642,6.1176597e-06,0.00213396,-0.00886373,0.0067112558,0.556910768243233,-0.8052064819771829,-0.20369810405759908,0.7938931334331081,0.5881368569038251,-0.15436557336093726,0.2440985229420557,-0.07574667605392392,0.9667876458479848,left_images/camera_left_30.png,right_images/camera_right_30.png
2025-05-30 17:02:35,1.7971830368041992,31,-0.16095698,-0.014532781,0.11192728,1.076118,-0.18300796,0.4850505,0.5671763,0.05202914,-0.00067173387,0.010116194,0.5498805805371534,0.789717890465458,0.2719871332010211,-0.8254605945684124,0.4641263820838126,0.32124991559306887,0.12746040154842686,-0.4011637507709011,0.9070950838277849,0.1642394,-0.038172025,0.114202835,-1.3575348,-0.3582711,-0.47664753,0.56204337,-0.052336656,0.0015037954,0.007895966,0.274590932217684,-0.9343701148244326,-0.22705133443078515,0.9181992962553207,0.18468420688868187,0.35043087204487655,-0.28549933852823084,-0.30470351532083695,0.9086505904092438,-0.024335988,-0.05203858,0.08755708,-1.0559409,0.27776298,-0.016206153,9.28654e-07,0.0021336656,-0.00879137,0.006845032,0.4967850943847143,-0.8428201739799436,-0.2070234873863066,0.8336004047196651,0.5297656954567784,-0.15639268898643063,0.241484855111829,-0.09488130611249848,0.965754939154859,left_images/camera_left_31.png,right_images/camera_right_31.png
2025-05-30 17:02:35,1.8480963706970215,32,-0.16992407,-0.018589584,0.11215933,1.1256363,-0.21356346,0.49590215,0.5405096,0.05145253,-0.0003080021,0.010422968,0.5085439612371438,0.8186691395759382,0.26676558885138746,-0.845746002592406,0.416807740465244,0.33314412284659023,0.16154485008257163,-0.3950343622955489,0.9043512116526127,0.16717711,-0.044607654,0.11431541,-1.4401548,-0.39355037,-0.47672182,0.5353824,-0.052363213,0.0017564539,0.007980959,0.1988731109524136,-0.9532053910291028,-0.22770368519891018,0.9218541187641792,0.10309214069910949,0.3735732782782969,-0.33261760244705607,-0.284203260078294,0.8992185704839741,-0.025953623,-0.05104858,0.08745326,-1.1372721,0.27918226,-0.035401586,4.3397725e-07,0.0021365026,-0.008732005,0.0069806427,0.42882900919983674,-0.8786673446329125,-0.20987943764083491,0.8723546689934811,0.46313695416022777,-0.1565295281295547,0.23474030832807632,-0.11596490489339359,0.9651161217589861,left_images/camera_left_32.png,right_images/camera_right_32.png
2025-05-30 17:02:35,1.8999512195587158,33,-0.1766909,-0.023841988,0.11253091,1.1641585,-0.23898019,0.50689286,0.513843,0.050939456,0.00017701602,0.010507498,0.47458235613233,0.8406724527516061,0.260847492670497,-0.8594211399025973,0.37853076706435407,0.34367100935952133,0.19017594889051226,-0.3872780468478306,0.9021357009304769,0.1679305,-0.05070892,0.11426519,-1.5049992,-0.4175525,-0.4719239,0.50872576,-0.052532572,0.0020558566,0.008078571,0.1390267753729607,-0.9627358296769531,-0.23197258024521922,0.9207936575235208,0.03946927716355331,0.3880479563464333,-0.36443188114358643,-0.2675479366700759,0.8919683321675337,-0.026930481,-0.05045036,0.08733955,-1.2203922,0.2775711,-0.058529735,2.0929369e-07,0.0021353473,-0.008638983,0.007128804,0.3573682205315858,-0.9098771809392788,-0.2107402917338743,0.9068250219500485,0.3920341686354024,-0.15484698959825594,0.22350913744046655,-0.13576717654992854,0.9651999478099234,left_images/camera_left_33.png,right_images/camera_right_33.png
2025-05-30 17:02:35,1.9520423412322998,34,-0.18249172,-0.030007679,0.11300511,1.1919322,-0.2621773,0.523599,0.48717648,0.050462045,0.0007447924,0.010473008,0.4487637521127765,0.8577660172740141,0.2506961395784502,-0.8666481760402217,0.3492891972986142,0.3562555201209471,0.218018425266809,-0.37713991602635377,0.9001296850919958,0.16651717,-0.05584841,0.113977715,-1.5639621,-0.42729586,-0.45611402,0.48207286,-0.05280931,0.0023371165,0.008242647,0.08690114871162863,-0.9654025359197477,-0.24585795490957735,0.9199714031093486,-0.016921785980748227,0.39162005901158653,-0.38223135378147116,-0.2602145207303815,0.8866722028954341,-0.0270452,-0.051394198,0.08725127,-1.2899259,0.27353078,-0.08029136,2.4998798e-07,0.0021439223,-0.008442118,0.0072754472,0.29624390722192395,-0.9316807658519471,-0.2102629258224512,0.9312863943568322,0.3306322385975403,-0.15293127373376028,0.2120028280937291,-0.1505100439887939,0.9656094073375384,left_images/camera_left_34.png,right_images/camera_right_34.png
2025-05-30 17:02:35,2.0012035369873047,35,-0.18823168,-0.03717313,0.11356364,1.2148043,-0.28872573,0.5235988,0.4605096,0.049929135,0.0015973588,0.010324222,0.4195083017138692,0.8742199210172771,0.24444286549149102,-0.8785617523949621,0.3232817833848441,0.35159370836266135,0.22834629846318655,-0.3622546317551518,0.9036755777103311,0.16458988,-0.060115088,0.11353443,-1.6159708,-0.43379775,-0.43849462,0.45541015,-0.05319431,0.002569204,0.00849097,0.04083884901505763,-0.9650053256842118,-0.25903071210231754,0.9179352956181904,-0.06615413996415631,0.3911756930382412,-0.39462258104354697,-0.2537485983541805,0.8831107899713478,-0.025784599,-0.05586929,0.08725748,-1.3484933,0.26625824,-0.10263892,3.4943176e-07,0.00219509,-0.007959792,0.0074028913,0.24437447187994993,-0.9471757427657771,-0.2076998551022466,0.9485775688977091,0.2779513451120515,-0.15147159976217744,0.2012006791179085,-0.16000363141660223,0.9663938765617219,left_images/camera_left_35.png,right_images/camera_right_35.png
2025-05-30 17:02:35,2.0528223514556885,36,-0.19307055,-0.04421515,0.11411491,1.2325567,-0.31212053,0.52359885,0.4338429,0.049453408,0.0024398707,0.010143755,0.394580856729976,0.8875251555191374,0.23791814941901585,-0.8880891556153697,0.3019132133930039,0.34662092155132534,0.2358041542904148,-0.3480625086093609,0.9073306403511019,0.16262461,-0.06415648,0.11304008,-1.6598568,-0.4397615,-0.42300394,0.42874467,-0.05363297,0.0028076754,0.008772917,0.0012751163794967324,-0.9631338439818796,-0.2690196510571435,0.9146799882868119,-0.10760835356938392,0.38959076127357606,-0.4041768092133154,-0.2465636648388707,0.8808220399577706,-0.023623595,-0.061776668,0.087333664,-1.3963729,0.2572206,-0.1213078,2.0390273e-07,0.0022841496,-0.007352449,0.007494447,0.2011846964359154,-0.9579138873606261,-0.20475766730855782,0.9602369022861657,0.2341677587242268,-0.15202155196530825,0.19357119984092974,-0.16603145839185357,0.9669352333100789,left_images/camera_left_36.png,right_images/camera_right_36.png
2025-05-30 17:02:35,2.1106550693511963,37,-0.19696733,-0.051780794,0.11469813,1.2460142,-0.33181578,0.52359885,0.4071761,0.049001932,0.0033478676,0.009902344,0.3734002462604644,0.8981895372861386,0.23200821365274377,-0.8960225315310506,0.2844314813063087,0.3409433316998394,0.2402412934557927,-0.3351929109507115,0.911004848157833,0.16054416,-0.06832472,0.11255787,-1.6965185,-0.44413504,-0.40964794,0.40207922,-0.054073043,0.0030920575,0.009040078,-0.03219764605218578,-0.960246159804286,-0.2772915869077537,0.911043007824325,-0.14229616997435413,0.38697860135288725,-0.4110522466586277,-0.24016476134468995,0.8794071513952698,-0.02091961,-0.06854592,0.0874546,-1.4365853,0.2449312,-0.1360142,4.554989e-07,0.002358464,-0.0066560344,0.0075589903,0.16377660558838436,-0.9660937777518898,-0.19959968950634355,0.9681650893392922,0.19623380540340662,-0.15539837000926937,0.18929760496790926,-0.16779483366891818,0.9674767751979543,left_images/camera_left_37.png,right_images/camera_right_37.png
2025-05-30 17:02:35,2.1628196239471436,38,-0.20001811,-0.05899918,0.11530343,1.2573429,-0.34812483,0.5235988,0.38050944,0.04856959,0.004215097,0.009610681,0.3550052567162493,0.9068601720683618,0.2271032717068851,-0.9026106566789189,0.2692302773862929,0.3358706003629233,0.24344459360084525,-0.32422166191456286,0.9141198191658894,0.15815084,-0.07241377,0.1121138,-1.7267567,-0.44530153,-0.3978012,0.37541407,-0.054486584,0.0034075105,0.009264135,-0.059705579640821405,-0.9565214956248325,-0.28548532741173743,0.907782980864692,-0.1709773388728863,0.38301019470029807,-0.41516900584240096,-0.23629087582803443,0.8785222356823148,-0.018053943,-0.0755872,0.0876019,-1.4647753,0.23172912,-0.14930837,3.208953e-07,0.0024121641,-0.0059740543,0.0075951787,0.13732345238924187,-0.9716420866984421,-0.19249396037329825,0.9730430660346443,0.16867899301252115,-0.15727234009253133,0.18528211210421425,-0.1657077326879441,0.9686131767953718,left_images/camera_left_38.png,right_images/camera_right_38.png
2025-05-30 17:02:35,2.2144696712493896,39,-0.20219626,-0.06559979,0.11588762,1.2667837,-0.3567392,0.52359885,0.3538428,0.048116587,0.004989852,0.009318932,0.34141866962628586,0.9121704736276345,0.22666786069611672,-0.9074049610410088,0.25700864946983637,0.3325098356076948,0.24505005347639192,-0.3192046070150428,0.9154555642692822,0.15502852,-0.07638316,0.11172089,-1.7522761,-0.4399542,-0.38571244,0.34875065,-0.054842927,0.003768678,0.009417984,-0.08198988810215413,-0.9514373364565097,-0.29672319263168245,0.9057976488652572,-0.19532116584127307,0.3760056668250865,-0.415702150053579,-0.23794250770080605,0.8778240629362375,-0.015489602,-0.08232453,0.08776297,-1.4875896,0.21998613,-0.16286421,1.373189e-07,0.0024570795,-0.0053509627,0.0076110763,0.1160631149465074,-0.9756728368577808,-0.18598889420286294,0.9767849871900122,0.1460669458379345,-0.15670206167688291,0.18005677479373425,-0.16348383024466925,0.9699755641764438,left_images/camera_left_39.png,right_images/camera_right_39.png
2025-05-30 17:02:35,2.263643503189087,40,-0.20382777,-0.071413845,0.116418704,1.2736819,-0.35959095,0.52359885,0.3805089,0.047664106,0.0056668315,0.009057794,0.33244442075818914,0.9148182296417832,0.22932142032925204,-0.910743614421898,0.2482307134363695,0.3300417878036173,0.24500362425174252,-0.3185735701873971,0.9156877767457455,0.15174241,-0.07953238,0.11143141,-1.7620479,-0.429389,-0.3797829,0.32208413,-0.055119656,0.004121394,0.009486741,-0.08974634652031155,-0.9475114043569949,-0.30686761298594456,0.9064638669515882,-0.20536060197670103,0.3689854754146025,-0.4126364637273703,-0.24504930477192194,0.8773152153207923,-0.01264727,-0.09087291,0.08792112,-1.5089175,0.20682485,-0.17745048,1.2831886e-07,0.0025015422,-0.004594403,0.0076810904,0.09598967123321678,-0.9792536960570467,-0.17846058885690289,0.9798330309053248,0.1245255111048027,-0.1562710102065407,0.1752518603707933,-0.15986117678379966,0.9714582799039158,left_images/camera_left_40.png,right_images/camera_right_40.png
2025-05-30 17:02:35,2.3157622814178467,41,-0.2052485,-0.07625435,0.11686212,1.2789973,-0.3599454,0.52359885,0.4071759,0.047251217,0.0062296856,0.008857869,0.3261798167608125,0.91612691846749,0.23306264479136093,-0.9131713114703502,0.24162570606811967,0.3282303673863881,0.24438674891532788,-0.3198882420883017,0.9153942481402495,0.14869466,-0.08204015,0.111282036,-1.7597078,-0.41743457,-0.3795508,0.34874904,-0.055307165,0.0044507505,0.009460333,-0.08671984176077935,-0.9453139654179472,-0.31442197097337476,0.9088803807532664,-0.2043099137605336,0.3635848080172782,-0.4079413224065235,-0.25424194367759156,0.8768950402119158,-0.009910532,-0.10024701,0.08804495,-1.5243299,0.19527228,-0.18893227,2.6196517e-07,0.0025603343,-0.003782908,0.007817933,0.08117609313065022,-0.9817560465908589,-0.17194623254474334,0.9814238849042526,0.10882155571760166,-0.15800325044329014,0.17383210302900942,-0.15592605296578207,0.9723525420149957,left_images/camera_left_41.png,right_images/camera_right_41.png
2025-05-30 17:02:35,2.3685319423675537,42,-0.20661439,-0.079650536,0.11719782,1.2790585,-0.35677338,0.5235988,0.43384284,0.046866793,0.006640751,0.008741913,0.3258543845079506,0.9150797549893864,0.2375877987302996,-0.9141464430329559,0.2408625201674514,0.3260698193160154,0.2411538944059157,-0.3234413213971721,0.915003011375215,0.14575678,-0.08381767,0.11124437,-1.7427856,-0.40173963,-0.38592502,0.3754143,-0.05540459,0.0047537284,0.00936018,-0.06988390199411804,-0.9446677457210023,-0.32049819100343835,0.9134803809373554,-0.18969908815621794,0.35995534389038303,-0.4008364178622259,-0.2676137256328595,0.8761923647055365,-0.007429828,-0.10932714,0.08813699,-1.5284075,0.18507572,-0.19654934,3.2742352e-07,0.0026034531,-0.0030160998,0.007980134,0.07683820943368208,-0.9833376937902507,-0.16475093184044992,0.9814988753973481,0.10366499034724758,-0.16097679140188453,0.17537345056982367,-0.1493336859103666,0.9731102728301955,left_images/camera_left_42.png,right_images/camera_right_42.png
2025-05-30 17:02:35,2.4191734790802,43,-0.20790657,-0.08160239,0.11742319,1.2724553,-0.35039508,0.5235988,0.46050993,0.046522222,0.006908101,0.008705646,0.3322352818888309,0.9115796399184063,0.24216167647767417,-0.9135752920792518,0.24717587024434118,0.32293075863296516,0.23452058155001843,-0.3285219159434897,0.9149171807187029,0.14258689,-0.08530561,0.1112608,-1.718594,-0.38251877,-0.39720064,0.4020783,-0.055457182,0.005034065,0.009225117,-0.044888799862710604,-0.9439951877969142,-0.3268915432726186,0.9181693097366095,-0.16792223248463217,0.3588415283870796,-0.39363703370577774,-0.2840338170951584,0.874285237460676,-0.005439963,-0.116676204,0.08822047,-1.5239199,0.1770457,-0.2015769,2.7119506e-07,0.0026263478,-0.0024063801,0.008102672,0.08068688744027075,-0.9841948695868873,-0.1576390969082572,0.9808162427689756,0.1065552558093561,-0.1632344184905642,0.17745175151502748,-0.14144410959192505,0.9739119260723714,left_images/camera_left_43.png,right_images/camera_right_43.png
2025-05-30 17:02:35,2.4882524013519287,44,-0.20846204,-0.08270957,0.11753272,1.2553995,-0.3380992,0.5235988,0.487177,0.04625225,0.007111242,0.00871797,0.34848317260041767,0.9041179420925338,0.2472452733637373,-0.9107306577976486,0.2642298683697671,0.3174149423211797,0.22165095840489796,-0.3357876165787792,0.9154875909538769,0.13797979,-0.08643108,0.11127842,-1.6869309,-0.3537553,-0.4130636,0.42874262,-0.055512045,0.005286906,0.009051331,-0.00955381236627062,-0.9413892539556353,-0.33718688765449123,0.9227827158725136,-0.13819714154169782,0.3596854311153732,-0.3852022636956045,-0.3077138648266541,0.8700180420182249,-0.0035849754,-0.12402904,0.088286065,-1.5089939,0.16963603,-0.2037993,2.809101e-07,0.0026284973,-0.0018066986,0.008242339,0.09431079517872526,-0.9843317726044528,-0.14898468160899203,0.9787854714412466,0.1190213697819375,-0.1667720433129252,0.18189138189670628,-0.13009563780775849,0.9746746381306427,left_images/camera_left_44.png,right_images/camera_right_44.png
2025-05-30 17:02:36,2.5552172660827637,45,-0.20836043,-0.083564416,0.117543526,1.2406255,-0.32694903,0.5235988,0.51384366,0.04612079,0.0072609843,0.008751919,0.36265429851472747,0.89735819947792,0.25145600330581974,-0.9077909817895559,0.27915337328494166,0.31303183155262704,0.21070688918577188,-0.34179183140236624,0.9158498516876394,0.13166966,-0.08720181,0.11129303,-1.6558906,-0.31950492,-0.42583606,0.45541096,-0.05563753,0.0055060172,0.008803985,0.026704057536434567,-0.9363592387630136,-0.3500260980187632,0.9271203026689244,-0.10773825208089355,0.35894346827548773,-0.3738112326966286,-0.33410154896633437,0.8652406123663656,-0.0015569582,-0.1318042,0.08838376,-1.487494,0.1606704,-0.20470417,3.2142748e-07,0.002604737,-0.0011565925,0.008365016,0.11376574780573045,-0.9839262466499153,-0.1376462704892969,0.9756188324952285,0.13681265519666563,-0.17161057968168947,0.1876839052951801,-0.11476688778322798,0.9755015700457389,left_images/camera_left_45.png,right_images/camera_right_45.png
2025-05-30 17:02:36,2.6210713386535645,46,-0.2073503,-0.08431393,0.11747531,1.2282574,-0.31553805,0.5235988,0.5405102,0.046116564,0.0073696245,0.008783062,0.3751910514397625,0.8909773127896036,0.2557168414745942,-0.904775382518146,0.2920289343352116,0.3100009817729348,0.2015271249947963,-0.34767589736025417,0.9157009819182647,0.12555926,-0.08760575,0.111304946,-1.6270846,-0.28783432,-0.43328276,0.48208013,-0.055784035,0.005682265,0.008556856,0.05946555496764416,-0.9306376224737177,-0.36107819569846095,0.9312234296473262,-0.07857409567176538,0.35587783797988287,-0.3595646977224844,-0.35740694890534835,0.8619591063536067,0.0005309297,-0.13960482,0.08854852,-1.4659287,0.15145989,-0.20531695,3.346049e-07,0.0025811316,-0.00046786584,0.008436507,0.1331037040023863,-0.9830494628259953,-0.12608393084912758,0.9719916224102693,0.15433820090176703,-0.17723432429035424,0.1936896743378381,-0.09896197946650144,0.9760588284908722,left_images/camera_left_46.png,right_images/camera_right_46.png
2025-05-30 17:02:36,2.6881465911865234,47,-0.20532909,-0.084879465,0.11734611,1.2155691,-0.3013978,0.5235988,0.5671769,0.04620547,0.007435147,0.008801365,0.3890199440670702,0.8834957872967955,0.2609572320263785,-0.9009498314812958,0.30576316481204036,0.30789330651696534,0.19223133009964438,-0.35488601109784623,0.9149333499524329,0.12058689,-0.087889485,0.11133304,-1.6045197,-0.26264992,-0.4366728,0.5087477,-0.055900853,0.0058200397,0.008340889,0.08467266925220424,-0.9252619998839007,-0.36975771885459185,0.9343145344849397,-0.05522506929563287,0.3521456266539213,-0.34624686241451663,-0.37528712113811885,0.8598096806712319,0.0023289218,-0.1468732,0.08875349,-1.4426441,0.14411113,-0.20414886,3.7323144e-07,0.0025632312,0.00020656304,0.008466047,0.1541562734100293,-0.9812283158535093,-0.11587422291268307,0.967446652698932,0.17372341879236536,-0.18403029083475483,0.20070579849611792,-0.08373270526131546,0.9760666045509688,left_images/camera_left_47.png,right_images/camera_right_47.png
2025-05-30 17:02:36,2.756943464279175,48,-0.20248042,-0.08524306,0.117159575,1.2029492,-0.2848031,0.5235988,0.5938436,0.046372186,0.007451793,0.008817812,0.4038004752823081,0.8749575639194201,0.26719737555218626,-0.8963480450702176,0.3199470327123983,0.30691053803564783,0.1830446892444066,-0.3634324663520384,0.9134612658130028,0.11684063,-0.08804501,0.11141872,-1.5845988,-0.24199025,-0.43800816,0.53541505,-0.05593351,0.0059344014,0.00813365,0.10615496779646,-0.9202531849943177,-0.37664996790116223,0.9368152067733365,-0.03441936044352645,0.3481272410841897,-0.33332925339724306,-0.3898068536268605,0.858453391684816,0.0035453816,-0.15482418,0.0890449,-1.4215508,0.13720188,-0.2061731,2.7495483e-07,0.0025006444,0.0009559045,0.008444177,0.1734135379621221,-0.9791859331929386,-0.1054639895345043,0.9632420724745531,0.19094196810026742,-0.18895998156468058,0.20516445760995644,-0.06881913291426188,0.9763050098604134,left_images/camera_left_48.png,right_images/camera_right_48.png
2025-05-30 17:02:36,2.8152551651000977,49,-0.19939086,-0.085456505,0.11696262,1.1884078,-0.26965946,0.52359885,0.6205102,0.04659531,0.007463039,0.008814487,0.4191908542747006,0.866387999318681,0.27138692365149075,-0.891200468057134,0.3356028507977975,0.3051761004258634,0.17332268584115615,-0.3697871836245338,0.9128070362348459,0.11347787,-0.088225,0.11163832,-1.5675883,-0.22240411,-0.43611702,0.56208277,-0.05585724,0.0060673384,0.007838419,0.12411654341920997,-0.914817738013555,-0.38432224742451504,0.9394697224227823,-0.016317914703596115,0.3422431391724118,-0.3193614320805316,-0.40353715055182837,0.8574182432302121,0.004452163,-0.16269264,0.08944236,-1.4027722,0.13025202,-0.2116475,1.7461524e-07,0.002408195,0.0017236669,0.0083271405,0.1906252114419505,-0.9771049115228668,-0.09448820371137695,0.9597769492898821,0.20572135271201936,-0.19106787445864498,0.2061315996506098,-0.054265245933543024,0.9770184474764299,left_images/camera_left_49.png,right_images/camera_right_49.png
2025-05-30 17:02:36,2.866863250732422,50,-0.19645016,-0.08562479,0.11677856,1.171582,-0.25717717,0.52359885,0.647177,0.04684228,0.0074923784,0.008794545,0.43491810215170823,0.8581137485071868,0.272923137611491,-0.8856087266093591,0.3527823818719771,0.3020625339132346,0.16292153870530984,-0.3730755763430234,0.913384468097753,0.109221525,-0.08866047,0.11203585,-1.5554411,-0.20165224,-0.4295803,0.5887515,-0.055721838,0.006257605,0.0073544607,0.13677154823693266,-0.9086244102488638,-0.39458234209449455,0.9428692393945065,-0.002749301714362995,0.33315167528275746,-0.3037945703867942,-0.4176052231952897,0.8563379803345845,0.005145305,-0.17037635,0.089939885,-1.38635,0.12393266,-0.21947742,4.6349385e-08,0.0023080069,0.002507316,0.0081199175,0.20571974986443176,-0.9750173476564133,-0.08378875989515737,0.9569766703618668,0.21833686338447889,-0.19111427594646618,0.20463390945498322,-0.040867907414988636,0.977985059826933,left_images/camera_left_50.png,right_images/camera_right_50.png
2025-05-30 17:02:36,2.9238123893737793,51,-0.19334926,-0.08606057,0.116588525,1.1560348,-0.24730897,0.52359885,0.6738436,0.047145534,0.007555607,0.008755781,0.44847506987348545,0.8511593815879109,0.2727596356443852,-0.8804735660565203,0.36822411620319023,0.2986256849671412,0.15374137757184025,-0.374083824003745,0.9145626722324984,0.1035605,-0.089338206,0.112611145,-1.5469702,-0.17964792,-0.41986966,0.6154196,-0.055583462,0.006499053,0.006651491,0.14525867777701312,-0.9020238990936219,-0.4065129788757224,0.946754758522255,0.0074053784318665605,0.321870451557374,-0.2873244572707671,-0.4316225733603613,0.8550711142471361,0.005426043,-0.17736691,0.090461254,-1.3735878,0.119221896,-0.22743192,1.277315e-08,0.0022059092,0.0032494592,0.007877992,0.21746820924906618,-0.9731931484590582,-0.07485101040299907,0.9548347588270781,0.22801928289696727,-0.19051978890075522,0.20248002692028638,-0.030038349147353413,0.9788255903269294,left_images/camera_left_51.png,right_images/camera_right_51.png
2025-05-30 17:02:36,2.9788362979888916,52,-0.18976144,-0.08686154,0.116363816,1.1423086,-0.23794007,0.52359885,0.70051026,0.047522075,0.0076474873,0.008710912,0.4603361498796815,0.8449316992560972,0.272361988365035,-0.8756983363728298,0.381819536464698,0.2955778497244699,0.14574996668201856,-0.3745721094343347,0.9156706187522362,0.096969865,-0.090274744,0.113377325,-1.5425831,-0.15965134,-0.4099964,0.64208615,-0.055449538,0.006772004,0.005732177,0.14932609141108577,-0.8963208941649546,-0.4175051773418197,0.9502825886956362,0.013405998439477762,0.3111001138343752,-0.27324845845092804,-0.4432032647546462,0.8537600049574907,0.005064697,-0.18423846,0.091036305,-1.3646,0.11572535,-0.2364652,1.3131501e-08,0.002071979,0.004003176,0.007591217,0.2257963523441341,-0.9718710178033577,-0.06695320770470622,0.95357285512046,0.23455826758879106,-0.18889475663225697,0.1992857677946375,-0.021193014405953337,0.9797122224892834,left_images/camera_left_52.png,right_images/camera_right_52.png
2025-05-30 17:02:36,3.0427281856536865,53,-0.18478453,-0.08813294,0.11606237,1.127659,-0.22383836,0.5235988,0.7271769,0.048013493,0.007756427,0.008658109,0.47430641585910727,0.8366711213990149,0.27388840517955915,-0.8696551507059159,0.3969191102918426,0.29352195613923454,0.13686980209512353,-0.3774078092753869,0.9158766307600575,0.08975125,-0.09091299,0.11434956,-1.5378468,-0.14088182,-0.40105242,0.66875225,-0.055289444,0.0070203207,0.004597065,0.15343868593163001,-0.8912888774444433,-0.42668572345861133,0.9532405073451143,0.019734723874372695,0.30156769692729235,-0.26036340913423983,-0.4530062666425556,0.8526407318247059,0.0031911652,-0.19076487,0.09165007,-1.359734,0.114058055,-0.2454324,9.12579e-09,0.0018396147,0.004749759,0.0072648516,0.23044533893032665,-0.9712198943677869,-0.06022343853942114,0.9531752305572373,0.237752929256486,-0.18689709597026313,0.19583647672853044,-0.014333925288801286,0.98053180109998,left_images/camera_left_53.png,right_images/camera_right_53.png
2025-05-30 17:02:36,3.1039905548095703,54,-0.17877479,-0.08968346,0.115715384,1.1135044,-0.20760861,0.5207169,0.7538439,0.048587892,0.007892378,0.008583095,0.48772576887610863,0.8277219607678113,0.27748861244544476,-0.8638988271639086,0.41184225138869324,0.2899392632878744,0.12570756062795754,-0.3811329369574112,0.9159341098393412,0.083152995,-0.09065069,0.115407184,-1.5346234,-0.12558149,-0.39214772,0.695419,-0.05508102,0.0071665808,0.0034011267,0.155761109836488,-0.8873877233405463,-0.4339141679260865,0.9557423912053649,0.024394582900765294,0.29319172221969253,-0.24958957974153728,-0.46037803247937464,0.8519137919383998,-0.00032765884,-0.19568129,0.09221598,-1.3542564,0.11374958,-0.25219163,1.25570345e-08,0.0014779533,0.005356262,0.0069270255,0.2356968980656724,-0.9703578847797458,-0.05340924721429084,0.9525614803668145,0.2415639591289538,-0.185130980042044,0.19254505541198036,-0.007240793859954353,0.981261419062563,left_images/camera_left_54.png,right_images/camera_right_54.png
2025-05-30 17:02:36,3.1709702014923096,55,-0.1730267,-0.09156097,0.115409516,1.1036029,-0.19527093,0.51797557,0.7805104,0.049160633,0.008067652,0.008483672,0.4966644407578226,0.8216203765686706,0.27975773464530906,-0.8599639794776185,0.42223149131148235,0.2866749409102578,0.11741544739827661,-0.38296282398169856,0.9162712961564523,0.07804702,-0.08934529,0.1157731,-1.5302259,-0.11359655,-0.38316453,0.7220855,-0.055180408,0.007130306,0.0028325217,0.15866574850371762,-0.8842615300948897,-0.43921148282575656,0.9578813654933831,0.0300232050256124,0.2855904354149877,-0.2393500990020418,-0.46602591511013086,0.8517812961984305,-0.0052706837,-0.19921392,0.092699274,-1.3448023,0.11396384,-0.25748715,0.02666671,0.0009804736,0.0058162245,0.0066123884,0.24457559273093782,-0.9685918671192779,-0.04486172523099967,0.9511250670548179,0.2486469439250369,-0.18312783539568223,0.1885308628853084,0.002119487468903211,0.9820649782537766,left_images/camera_left_55.png,right_images/camera_right_55.png
2025-05-30 17:02:36,3.2243499755859375,56,-0.16773778,-0.09389297,0.11518199,1.0956342,-0.18440054,0.5163394,0.80717695,0.049665175,0.008290889,0.008358428,0.5038728707015898,0.8166283669876264,0.28147866775665586,-0.8566194811217107,0.4305550432054261,0.2842981170059786,0.1109738470708767,-0.38437021867139587,0.9164847736131754,0.075019054,-0.08697882,0.11588945,-1.5263691,-0.10564745,-0.3726682,0.7487527,-0.055273898,0.0069589736,0.0025631944,0.16015720948987122,-0.881964086306878,-0.4432708187026207,0.9600744916520735,0.03483770868866132,0.27756675689343074,-0.22936137148053165,-0.4700273231613223,0.8523307320250582,-0.010411105,-0.2019731,0.09310587,-1.3307953,0.11502753,-0.2613746,0.05333361,0.00046518963,0.006179597,0.0063393908,0.25775136840595675,-0.9655440020150782,-0.03590281684720144,0.9484498884442262,0.25993051803035433,-0.1813254943647108,0.18440998127810732,0.012684871665829114,0.9827675477119855,left_images/camera_left_56.png,right_images/camera_right_56.png
2025-05-30 17:02:36,3.293691635131836,57,-0.16352233,-0.096074626,0.11504365,1.088998,-0.17702119,0.51495665,0.83384347,0.050061062,0.008519177,0.00822175,0.509097070050164,0.8132291045716974,0.28191948627906843,-0.8541908671973207,0.43713621316501045,0.28154909613856666,0.10572670269628014,-0.3841488703839569,0.9171976393993295,0.0732726,-0.08437126,0.115912326,-1.5218166,-0.100172505,-0.36165142,0.77541494,-0.05533356,0.0067576636,0.002431971,0.16152427427705557,-0.8801868338292451,-0.44629703827486855,0.9622625363545609,0.04011416238663329,0.2691498933763604,-0.21899936061038597,-0.472929161217267,0.8534502261541527,-0.0143086715,-0.20407815,0.09342358,-1.3180947,0.115505464,-0.26399696,0.0800005,6.0105667e-05,0.006463286,0.006126903,0.2695064586397807,-0.9625847734808933,-0.02822804658812693,0.9458007275593868,0.2700947125218797,-0.18030482527058894,0.18118292551887627,0.021895207933710123,0.9832056485649179,left_images/camera_left_57.png,right_images/camera_right_57.png
2025-05-30 17:02:36,3.355520009994507,58,-0.16035467,-0.09787808,0.11498434,1.0835928,-0.1718425,0.5139876,0.8605101,0.050337996,0.008716763,0.008084469,0.5130886648042989,0.810743796265351,0.2818413008531379,-0.8522955004780011,0.44234341939468447,0.279149922412979,0.10164842307825372,-0.38344073353709507,0.9179546840395985,0.07199827,-0.082099475,0.11561298,-1.5190572,-0.097067416,-0.3511716,0.80207705,-0.055561077,0.006561976,0.0025845962,0.1608879551407229,-0.879274595515307,-0.4483204786444963,0.9643510954931533,0.043351630034152155,0.26105095440265547,-0.21010004881434952,-0.4743382989542121,0.8549041745326974,-0.01783075,-0.20567009,0.09365906,-1.3088614,0.11612293,-0.26585317,0.106667295,-0.0002966944,0.0066765524,0.00597288,0.2780205329619935,-0.9603190219600479,-0.02218015584314885,0.9438160629759111,0.2773915248517567,-0.17962511296884004,0.17865000005648024,0.029005482276882308,0.9834850580856352,left_images/camera_left_58.png,right_images/camera_right_58.png
2025-05-30 17:02:36,3.4233531951904297,59,-0.15795545,-0.09921339,0.11498554,1.0792271,-0.16838947,0.5131801,0.88717663,0.05052623,0.008872486,0.007941889,0.5161041485468103,0.8089840518272786,0.2813917407137084,-0.8508437209012125,0.4464449565758313,0.2770412665127412,0.09849604284310923,-0.38240254266560914,0.9187310949930482,0.07110331,-0.080428585,0.11571112,-1.5162951,-0.094863914,-0.34215552,0.82873607,-0.055547643,0.0064575765,0.002434114,0.1603715752932497,-0.8786104244235478,-0.44980515774303353,0.9661546473893283,0.04644438714016147,0.25374813542404223,-0.2020548320777427,-0.47527533177880016,0.8563219043307178,-0.020887073,-0.20686895,0.09383157,-1.3013275,0.11645896,-0.26788002,0.13333434,-0.0006103709,0.0068294425,0.0058613177,0.28488692422943707,-0.9584150508948512,-0.0167341154923297,0.9422912661897886,0.28321159508221005,-0.1785451261542452,0.17585963171102117,0.03509676095040623,0.9837894120721437,left_images/camera_left_59.png,right_images/camera_right_59.png
2025-05-30 17:02:36,3.4933762550354004,60,-0.15598415,-0.100053534,0.11503911,1.0752734,-0.16664904,0.5122277,0.9138432,0.05066172,0.008987843,0.007774975,0.5184469830764062,0.8078852728883503,0.280239382651847,-0.8497199784199843,0.44999006630069366,0.27474515192199256,0.09585762365568014,-0.3805657973081831,0.9197722489324588,0.07047074,-0.07915314,0.11558645,-1.5145309,-0.09360721,-0.33544546,0.8553989,-0.05564966,0.0063601183,0.0024848701,0.15966211834709304,-0.878274557137103,-0.45071255834572044,0.9674577982507023,0.048423731295720696,0.24835569421960713,-0.19629930353626326,-0.47569837558375727,0.8574250048244176,-0.02321005,-0.20775984,0.09395743,-1.2955229,0.116427176,-0.26874572,0.1600012,-0.0008528872,0.0069490056,0.0057825595,0.2900698773696785,-0.9569240594408818,-0.012482415868853333,0.9409935806522914,0.28756834622235994,-0.1784251311394105,0.17432884848446234,0.04000988270565432,0.983874312029723,left_images/camera_left_60.png,right_images/camera_right_60.png
2025-05-30 17:02:37,3.5644068717956543,61,-0.15414096,-0.100599505,0.11517299,1.0704697,-0.1675198,0.51078355,0.9405099,0.050769504,0.009105192,0.0075342134,0.5203489781192789,0.8076717994736761,0.2773142717300642,-0.8488759760436705,0.45386015957465536,0.2709622350933318,0.0929866563875043,-0.3764003452254289,0.9217788573448894,0.07025984,-0.07811996,0.11560703,-1.513393,-0.09301614,-0.33058867,0.8820642,-0.055641707,0.006285522,0.0024435204,0.15905264131488378,-0.8780601603622573,-0.4513453357190764,0.9683604053734922,0.04970141530592492,0.24455652643402004,-0.19230284084132632,-0.4759623137404839,0.8581838342122043,-0.024807684,-0.20831217,0.09404792,-1.2894365,0.115786694,-0.2704682,0.18666834,-0.0010399953,0.0070187687,0.0057203798,0.2953942153951017,-0.9553415524352032,-0.008048335343891433,0.9398076620217785,0.29208506802834155,-0.17733547710494169,0.1717667485757079,0.044819986898420414,0.9841175503252417,left_images/camera_left_61.png,right_images/camera_right_61.png
2025-05-30 17:02:37,3.6277077198028564,62,-0.1521898,-0.10106418,0.11537009,1.0659164,-0.1689899,0.50945115,0.96717644,0.050856512,0.009222396,0.007233358,0.5219303867471736,0.8078242999304676,0.27387692825755866,-0.8481665473974315,0.4574107788371642,0.26718698935296187,0.09056588356476565,-0.3717462573388319,0.9239061320765788,0.07023636,-0.07738985,0.11561423,-1.5136435,-0.09244593,-0.3273457,0.90873116,-0.0556232,0.006228339,0.0024318201,0.15794367116028446,-0.8777790827377996,-0.4522805309190294,0.9689661559942786,0.04957097342414568,0.24217206100509236,-0.19015358339532676,-0.47649407184326,0.8583676451382279,-0.02585996,-0.20854346,0.09411428,-1.2840576,0.1146934,-0.27291667,0.21333542,-0.0011833127,0.007046764,0.0056661367,0.29996866356201135,-0.953941833302552,-0.003712082459640026,0.938961577196916,0.29594068828863107,-0.1754145534530465,0.16843383694703767,0.049133366367648756,0.9844876611114439,left_images/camera_left_62.png,right_images/camera_right_62.png
2025-05-30 17:02:37,3.682542562484741,63,-0.15031222,-0.101389125,0.11560471,1.0617054,-0.17126584,0.50802517,0.9938431,0.05092321,0.009333104,0.00690307,0.5230415893074771,0.8083865805620949,0.27007153167602127,-0.8477078781963787,0.4605370868845441,0.2632431287758363,0.0884242562790438,-0.36662886952751234,0.926155722829847,0.07051541,-0.07715597,0.115689404,-1.5153704,-0.09304317,-0.3249596,0.93540025,-0.055554423,0.006225501,0.0023796884,0.15551826017846426,-0.8779318247206073,-0.4528242284748118,0.9695344456368858,0.047832977591707904,0.24023939097968,-0.18925387571893976,-0.47639029943677086,0.8586240464416914,-0.026491774,-0.20868935,0.09416257,-1.2798991,0.11402568,-0.27571228,0.24000245,-0.0012763677,0.0070557687,0.0056241155,0.30354626356765285,-0.9528166103863694,-0.0004157474549705831,0.9384259118622521,0.2990371975745992,-0.1730131856600257,0.16497416106656648,0.05212735787050223,0.9849194204308406,left_images/camera_left_63.png,right_images/camera_right_63.png
2025-05-30 17:02:37,3.742342472076416,64,-0.14838439,-0.10169217,0.11581864,1.0592647,-0.17157055,0.504833,1.0205085,0.05096823,0.009429363,0.006598193,0.5233220318099068,0.808541311429877,0.26906318725088707,-0.847867637245141,0.4625028276503716,0.2592520089174871,0.0851734743608185,-0.363802256901556,0.927573930820957,0.070712134,-0.07750771,0.115702175,-1.5158422,-0.09241305,-0.32274443,0.96207,-0.05551495,0.0062864786,0.0023859208,0.15416454063083862,-0.8775467024656985,-0.4540320246454663,0.9701504829776758,0.047382719296624076,0.23782959927275593,-0.18719330861509142,-0.47714427891743194,0.8586570923867682,-0.026995173,-0.20880243,0.09419795,-1.2776866,0.114169054,-0.2780161,0.26666915,-0.001335796,0.0070580235,0.005593146,0.305556954506096,-0.9521729067604069,0.0013050610702069615,0.938239574541965,0.3008514898630662,-0.1708650982807362,0.16230048772653716,0.053433479005308794,0.9852935679304504,left_images/camera_left_64.png,right_images/camera_right_64.png
2025-05-30 17:02:37,3.815089702606201,65,-0.14684376,-0.10191156,0.1159788,1.0576233,-0.1714671,0.5016925,1.043565,0.051002882,0.00950317,0.0063650906,0.5233432140485131,0.8085812536149235,0.26890190890339716,-0.8481550705667051,0.4638759624246608,0.2558360173169172,0.08212707581157028,-0.36196056109348906,0.9285686273138496,0.07065785,-0.078589946,0.11581837,-1.5169382,-0.0889578,-0.3188437,0.9887382,-0.05539679,0.0064534135,0.0023165522,0.15187998042658601,-0.87594109395775,-0.4578860900504842,0.9713020624620224,0.04647927688795683,0.23326375688690695,-0.18304309602561145,-0.48017379846892205,0.8578626628203875,-0.027422123,-0.20889504,0.09422422,-1.2769206,0.11491431,-0.27995437,0.29333574,-0.0013721609,0.007056086,0.005570287,0.306410800512765,-0.9518975435646052,0.0018675879622715025,0.9383196038184195,0.30170875225093036,-0.16890278240819678,0.16021467604177375,0.05350603116338358,0.9856309462521823,left_images/camera_left_65.png,right_images/camera_right_65.png
2025-05-30 17:02:37,3.8836441040039062,66,-0.14572549,-0.102050014,0.11608587,1.0565281,-0.1711889,0.49856642,1.046941,0.05102692,0.009557806,0.006203657,0.5231618664681945,0.8085338015315378,0.2693970179019714,-0.8485496671874755,0.4648316583638067,0.25277458673446185,0.07915253495334033,-0.3608387744737438,0.929263286182526,0.070082955,-0.08029704,0.11582529,-1.5179015,-0.079836056,-0.31146798,1.0154085,-0.055300213,0.0067127785,0.002351392,0.14914997124333518,-0.8718289514334963,-0.4665496388600924,0.9732813344949645,0.04613562829434703,0.2249332072540358,-0.17457872150354828,-0.487632836511505,0.855415972935934,-0.027765844,-0.20896997,0.09424358,-1.2766621,0.11574064,-0.28168422,0.3200023,-0.0013967952,0.0070513813,0.0055529037,0.3068315401736322,-0.9517616059542946,0.002061888934671227,0.9384863194481285,0.3021897972375714,-0.16710701557451374,0.15842295971033382,0.05320875751995761,0.9859366074752476,left_images/camera_left_66.png,right_images/camera_right_66.png
2025-05-30 17:02:37,3.9453349113464355,67,-0.14486018,-0.1021929,0.116159596,1.055875,-0.17067355,0.49552044,1.0471642,0.05104369,0.009605054,0.006087917,0.5228236215716521,0.8084230320015248,0.27038428588984853,-0.849020858474233,0.46545275000567904,0.2500346363762965,0.07628264941897263,-0.36028591263274823,0.929717709068731,0.06934243,-0.08247093,0.11598269,-1.5172821,-0.06580812,-0.3026169,1.0411038,-0.055064343,0.0070515405,0.0022953711,0.147828447585571,-0.8653010080579959,-0.47895815635424366,0.9754951649076238,0.04777459215610014,0.2147714403410433,-0.16295991324951087,-0.4989706943279678,0.8511593933427378,-0.027938478,-0.20900835,0.09425733,-1.2775873,0.11617664,-0.28304815,0.3466688,-0.0014070858,0.007047646,0.0055405675,0.30608999520187513,-0.9520005302698906,0.00197615868868585,0.9389324461930775,0.3015442191191952,-0.1657617127133959,0.15720933917296281,0.05259348136073147,0.9861638552467631,left_images/camera_left_67.png,right_images/camera_right_67.png
2025-05-30 17:02:37,3.998028039932251,68,-0.14422385,-0.102324374,0.11621195,1.0553689,-0.17028211,0.49327955,1.047179,0.051057428,0.009642797,0.0060045654,0.5225813535024376,0.8083344478383346,0.27111648679018974,-0.8493598500683094,0.46592747306480614,0.2479907960699012,0.07413888361379165,-0.35987082443751833,0.9300518349291945,0.06902246,-0.08483242,0.116338044,-1.5157604,-0.053049173,-0.29255158,1.0467777,-0.05469929,0.0074426,0.002093969,0.14604417946489312,-0.8590659099291026,-0.49058827956047724,0.9778629348884057,0.050240899498487646,0.20312541098793224,-0.14985051957153708,-0.5093933788490637,0.8473861028886859,-0.027792405,-0.20846018,0.09423603,-1.2833415,0.115170665,-0.28571415,0.3733355,-0.0013997933,0.0069788424,0.0055367276,0.3005884676428162,-0.9537521838168624,0.001828929935611845,0.9410646381216136,0.2962769530833026,-0.16314813498385777,0.1550610202377767,0.050761589181587505,0.9865998890465069,left_images/camera_left_68.png,right_images/camera_right_68.png
2025-05-30 17:02:37,4.0534279346466064,69,-0.1437433,-0.10246561,0.1162502,1.0550317,-0.16998638,0.49163052,1.047179,0.05106893,0.009675599,0.005942774,0.5223584167321547,0.8082939729144847,0.27166622502474513,-0.8496338771402294,0.46623851895420143,0.24646281313629176,0.07255314800019749,-0.3595587529090504,0.9302975566568743,0.0694187,-0.08731523,0.116854265,-1.5143844,-0.04374713,-0.28461125,1.0471535,-0.054231998,0.007847054,0.0017827163,0.1441750596709258,-0.8541366750556592,-0.4996639795840287,0.9797454974389928,0.05230042448844463,0.19329621270565397,-0.13896874618742855,-0.5174120272309024,0.8443769784047302,-0.02756535,-0.20753819,0.09418341,-1.29036,0.113559335,-0.28852788,0.40000212,-0.0013909608,0.0068662697,0.005546388,0.2937612000481378,-0.9558771668876037,0.0017886221531368401,0.9436147535097369,0.2896929080475334,-0.1602161539474789,0.1526288121720038,0.04875305990286287,0.9870803335317098,left_images/camera_left_69.png,right_images/camera_right_69.png
2025-05-30 17:02:37,4.104961156845093,70,-0.14331985,-0.10267164,0.11627514,1.0547727,-0.16965726,0.49046257,1.047179,0.051085457,0.009710001,0.005896615,0.5221976738293428,0.8082607829125477,0.2720736963633546,-0.8498326266140783,0.4664750444783027,0.24532741310579645,0.07137293737432897,-0.359326508463488,0.9304785672577305,0.07054203,-0.08967901,0.11755473,-1.5130407,-0.037828717,-0.2765844,1.0471786,-0.05364197,0.008259896,0.0013380824,0.14145917200508484,-0.8505301660260818,-0.506544903572508,0.9815625032096418,0.054063963336812626,0.1833361398119244,-0.12854709233762368,-0.523140062075121,0.842496362308812,-0.027240388,-0.20637542,0.09411772,-1.2983091,0.11181875,-0.2932015,0.42666933,-0.0013766016,0.0067114937,0.0055557527,0.2860364691771831,-0.9582166736656823,0.001986104157822091,0.9466772280068594,0.28226989475677816,-0.1553252474237406,0.14827462451107137,0.046308884925819034,0.9878613885070253,left_images/camera_left_70.png,right_images/camera_right_70.png
2025-05-30 17:02:37,4.158763408660889,71,-0.14297096,-0.10289336,0.116291784,1.0546572,-0.16940495,0.48959962,1.047179,0.05110223,0.009743004,0.005862129,0.5219932724657967,0.8082898055120422,0.2723795399910814,-0.8500304124329181,0.4665715833734221,0.24445706274832954,0.0705075984527292,-0.35913583487828465,0.9306181443893655,0.07198395,-0.09192484,0.11879052,-1.5122743,-0.03205919,-0.26952425,1.0471797,-0.05272236,0.008701675,0.00047655962,0.1387329862667278,-0.8467908765972202,-0.513515695800262,0.9831118866125496,0.05527005214154346,0.1744598513623823,-0.11934897118379101,-0.5290467206665044,0.840157955642502,-0.026587326,-0.20523362,0.094072156,-1.304645,0.10984874,-0.29801944,0.4533366,-0.0013406217,0.006565962,0.005547191,0.27973752975389704,-0.9600731385054555,0.002546206486509592,0.9492759148231833,0.27619289793188523,-0.15030875113776848,0.1436041503014308,0.04446405123548273,0.9886358258549668,left_images/camera_left_71.png,right_images/camera_right_71.png
2025-05-30 17:02:37,4.222745895385742,72,-0.14265741,-0.1030757,0.116303355,1.0531981,-0.16843629,0.48918024,1.0471791,0.05111345,0.009768009,0.0058371313,0.5230879501141549,0.8075048835043903,0.2726075192688796,-0.8494557018402698,0.4679541543035235,0.2438112386276089,0.06931094470879837,-0.35910273263599,0.9307208068787001,0.07381885,-0.09392839,0.11920828,-1.5128837,-0.027271865,-0.26480448,1.0471799,-0.052233405,0.009021154,0.00031287642,0.1359810571667489,-0.8433150230405285,-0.5199316532064252,0.9842272567153506,0.055046983082251755,0.1681265499322393,-0.11316297641184966,-0.534592930712421,0.8374989786273868,-0.025635384,-0.20380777,0.09406367,-1.3099786,0.107941106,-0.30354846,0.4800036,-0.0012808841,0.0064038276,0.0054925503,0.27438389687743175,-0.9616148795852831,0.0032094383520698128,0.9516875325829858,0.27106977424351236,-0.1442637092885083,0.13785614770645122,0.04263802119883237,0.989534073030224,left_images/camera_left_72.png,right_images/camera_right_72.png
2025-05-30 17:02:37,4.284085988998413,73,-0.1424927,-0.103196636,0.11631221,1.0520724,-0.16778113,0.48887965,1.0471791,0.0511164,0.0097854,0.0058224397,0.5239191281867015,0.8069096381690608,0.27277386779155033,-0.8490172262291964,0.46900744775082476,0.24331412519691265,0.06839953717802641,-0.359066636968868,0.9308021559545825,0.076409645,-0.09579407,0.119459935,-1.5133379,-0.024420042,-0.26030827,1.0471787,-0.051791254,0.009309792,0.00031986926,0.13314103656815024,-0.8404405871026648,-0.5252933313226874,0.9852624373907315,0.0548113846695818,0.16202975522254628,-0.10738432775984397,-0.5391245975293015,0.8353521859015125,-0.024693627,-0.20179775,0.094102964,-1.3160483,0.10615846,-0.30866376,0.5066703,-0.0012174696,0.006215254,0.0053725643,0.26837522085016674,-0.963308576137737,0.003365705440211711,0.9542236434878527,0.2653620722132283,-0.13798626322742777,0.1320302201861065,0.04024372957601588,0.9904284240607298,left_images/camera_left_73.png,right_images/camera_right_73.png
2025-05-30 17:02:37,4.355762958526611,74,-0.14238068,-0.1032999,0.116319664,1.0512208,-0.16728126,0.48867887,1.0471791,0.051116943,0.009799728,0.0058117844,0.5245512410515543,0.8064552112072524,0.2729028908383717,-0.8486813505295091,0.46980226051329416,0.24295226131898287,0.0677197221988001,-0.35904850415127054,0.9308588565900056,0.07912564,-0.097355425,0.11971376,-1.513153,-0.02217306,-0.25622392,1.047179,-0.05134431,0.00955947,0.00032746373,0.1310283965971158,-0.8377984467547275,-0.5300238880470907,0.9861238658297484,0.055169931555389906,0.15657585986724012,-0.10193763056978,-0.5431850893273301,0.833401870772006,-0.023811987,-0.19914316,0.09418327,-1.3246818,0.10387999,-0.3140191,0.533337,-0.0011612613,0.0059904014,0.005192212,0.2598508904095506,-0.9656434059011073,0.0032136261563874002,0.9574382282248856,0.25720700164914984,-0.1309831952436883,0.1256564916228192,0.03711294844610913,0.9913793800411025,left_images/camera_left_74.png,right_images/camera_right_74.png
2025-05-30 17:02:37,4.427098512649536,75,-0.14226356,-0.10345687,0.11632394,1.0506282,-0.16687252,0.48855802,1.0471791,0.0511215,0.009818872,0.005803372,0.5249716809311546,0.8061480676409005,0.27300188142055004,-0.8484612137636289,0.47034786435916515,0.24266531526265092,0.06721832309026621,-0.3590239261269566,0.9309046769188122,0.081924796,-0.09873928,0.12002256,-1.5127703,-0.021703606,-0.2524601,1.0471792,-0.050884563,0.009792823,0.0002790317,0.12893443720294268,-0.836064203114504,-0.5332659366335614,0.9868933884949516,0.05555847198498193,0.15150807217982237,-0.0970430350314371,-0.5458112351914377,0.8322696347282436,-0.02301918,-0.19596356,0.09430334,-1.336717,0.10012974,-0.31928742,0.56000364,-0.0011280585,0.0057460465,0.004958296,0.2477351906549316,-0.9688222165750457,0.003284506322080827,0.9614617731062625,0.24543298605691583,-0.12391088818400017,0.11924149515385457,0.03385501478069176,0.9922879137668021,left_images/camera_left_75.png,right_images/camera_right_75.png
2025-05-30 17:02:37,4.498227834701538,76,-0.14215524,-0.10361959,0.116325386,1.0501801,-0.16653161,0.48849297,1.0471791,0.051127683,0.009837881,0.0057977512,0.5252847104734611,0.8059194929301136,0.2730746122547479,-0.8482974183035695,0.47075693607581676,0.2424446271543424,0.06683908319472127,-0.3590009443605659,0.9309408460830962,0.084237546,-0.1000869,0.12025274,-1.5115054,-0.021547742,-0.24916379,1.0471807,-0.05052467,0.010011261,0.00025927927,0.12767420746349734,-0.8347676331386041,-0.5355952720223927,0.987521617413352,0.05679368184909339,0.14688612202431275,-0.0921973529440254,-0.5476654785233381,0.831602171560367,-0.02240191,-0.19346726,0.09444223,-1.3482835,0.096512266,-0.32407624,0.5866703,-0.0011090634,0.0055711037,0.004735483,0.2360474830408869,-0.971735753267136,0.003348368619784166,0.965060916160736,0.23401994309302393,-0.11786472896392174,0.11374978614952697,0.031053052299082798,0.9930240148626052,left_images/camera_left_76.png,right_images/camera_right_76.png
2025-05-30 17:02:38,4.567084789276123,77,-0.14207888,-0.10375012,0.11632667,1.049836,-0.16627261,0.4884586,1.0471791,0.05113197,0.009853257,0.005793603,0.5255252459867501,0.8057448504296567,0.27312717154588584,-0.8481707172805459,0.47106893860966553,0.2422818388261226,0.06655561718119585,-0.35898369194610097,0.93096780757359,0.08590078,-0.1012334,0.12042825,-1.511322,-0.021755759,-0.24659927,1.0471809,-0.050264373,0.01019319,0.00023668678,0.12590466365945058,-0.834009282217131,-0.5371931988069713,0.9880553334589552,0.05692306678951492,0.14320063718639295,-0.088851976298297,-0.5488062332398767,0.8312141990275097,-0.021852747,-0.19211395,0.09462627,-1.3599738,0.09365956,-0.32902998,0.61333686,-0.0010828597,0.0055105523,0.0045168046,0.2244689831015827,-0.9744775431103587,0.0026820885407550024,0.9683547885698467,0.22274878860842728,-0.1125698921884784,0.10909939999463267,0.027865662509210964,0.9936401892907382,left_images/camera_left_77.png,right_images/camera_right_77.png
2025-05-30 17:02:38,4.629145383834839,78,-0.14201553,-0.103871524,0.11632909,1.0495965,-0.16606809,0.4884505,1.0471791,0.051134877,0.009867261,0.005789414,0.5256898630565559,0.8056238161394389,0.273167411578518,-0.8480844390733848,0.4712841066791752,0.24216538768617282,0.06635474422497681,-0.3589729205114777,0.9309862997156825,0.087056026,-0.10210626,0.12051735,-1.5114361,-0.021996146,-0.2442699,1.0471809,-0.05010292,0.010330761,0.00024783472,0.12411937820139429,-0.833535045951845,-0.5383434843340772,0.9885195101240684,0.05676082699555218,0.14002637831084883,-0.08616007230133449,-0.5495430244201418,0.8310107738484456,-0.021400565,-0.19110991,0.09481814,-1.3707827,0.09128556,-0.33316687,0.6400034,-0.001058295,0.005487675,0.0043050665,0.21382397662485791,-0.9768707323236161,0.0016968647129108894,0.9711703817442476,0.21238820092417426,-0.10825590852662431,0.10539163459717506,0.02479565360530569,0.9941216117353153,left_images/camera_left_78.png,right_images/camera_right_78.png
2025-05-30 17:02:38,4.684359312057495,79,-0.14197434,-0.10403839,0.116333954,1.049383,-0.16586623,0.48852834,1.0471792,0.051134806,0.009886073,0.005785049,0.5258375543061156,0.8055177871465823,0.273195829162593,-0.8480046666315134,0.47146705125054866,0.2420886303738544,0.06620386584285769,-0.3589706313552493,0.9309979237204963,0.08791182,-0.1027182,0.12060307,-1.5121543,-0.022519328,-0.24234226,1.0471808,-0.04997584,0.010432664,0.00023726141,0.12212938673239848,-0.8333659835437617,-0.5390598764223753,0.9889171646815262,0.055976313750165874,0.1375117947566448,-0.08442306731349467,-0.54987979574729,0.8309662784579765,-0.021033786,-0.18993111,0.09500182,-1.3800416,0.0890218,-0.3367033,0.66667,-0.0010430097,0.0054481584,0.0040941043,0.2046083518899099,-0.9788433870856537,0.0010226903635699863,0.973530060535819,0.20338876260083816,-0.10426999798995035,0.10185599427632702,0.022330132251843653,0.9945485013932682,left_images/camera_left_79.png,right_images/camera_right_79.png
2025-05-30 17:02:38,4.746742010116577,80,-0.14194158,-0.10420098,0.11634333,1.0492799,-0.16571648,0.48861298,1.0471792,0.05113168,0.009904647,0.0057776812,0.5258977765834563,0.8054696058618362,0.2732219658397822,-0.8479740283014159,0.47154762865366256,0.24203900767722777,0.06611789402912532,-0.35897290697751216,0.9310031558191776,0.088727616,-0.10313224,0.12069011,-1.5123554,-0.023332253,-0.24058211,1.0471811,-0.04985615,0.010509212,0.00021790527,0.12069094478170161,-0.8333777526935502,-0.5393655691302034,0.9892356320180635,0.05568027749450888,0.13532394852337545,-0.08274394354587486,-0.5498920148661758,0.831127073192117,-0.020711673,-0.18863662,0.095160335,-1.3896931,0.086583935,-0.34019062,0.69333667,-0.0010327151,0.0053878063,0.0039010681,0.1949508963736049,-0.9808129399550763,0.00035329846846975793,0.9758807070805785,0.19393443881747613,-0.10023112784190774,0.09823947043341688,0.019884925376538055,0.9949641180423199,left_images/camera_left_80.png,right_images/camera_right_80.png
2025-05-30 17:02:38,4.8225016593933105,81,-0.14197403,-0.104386695,0.116369896,1.0488486,-0.16618837,0.48858568,1.0471792,0.05112071,0.009935273,0.005757061,0.5258999563863526,0.8055993144152795,0.2728350792813571,-0.8479950360351434,0.4717871889987751,0.24149796511852903,0.06583050001776272,-0.3583665622100728,0.9312570817755673,0.089647636,-0.10342643,0.120792836,-1.5116376,-0.024689237,-0.23856598,1.0471811,-0.049726143,0.010576266,0.00018569548,0.11981452211049104,-0.8336389346222004,-0.5391573118982965,0.9895273812054932,0.056241938676889536,0.13293760257528087,-0.08049870890910604,-0.5494387782235863,0.8316471528527825,-0.02035471,-0.18726341,0.09529499,-1.3997761,0.084046766,-0.34298143,0.72000325,-0.0010172826,0.005316046,0.003727356,0.1848531327259007,-0.9827659777244655,-0.0005935896695643955,0.9781409793660507,0.18404165766019015,-0.09679304071322777,0.09523415252021589,0.01731188242117651,0.9953043529095971,left_images/camera_left_81.png,right_images/camera_right_81.png
2025-05-30 17:02:38,4.8939433097839355,82,-0.14202537,-0.104646794,0.11644071,1.0481168,-0.16691014,0.48870587,1.0471793,0.051086225,0.009981522,0.005702098,0.5260068455161798,0.8057659475012179,0.27213606214094854,-0.8479526178697815,0.47221900088265845,0.2408019373949637,0.06552218187684208,-0.3574219537925003,0.931641771621072,0.090866625,-0.10350226,0.12088609,-1.5114081,-0.027395958,-0.23540087,1.0471804,-0.049588177,0.010627307,0.00016670022,0.11781535080413053,-0.8344681222548165,-0.5383144954907123,0.9899769380431473,0.05618399034759991,0.12957245606738707,-0.07787942769187392,-0.548184560316269,0.8327235330968165,-0.019981975,-0.18571962,0.09541633,-1.4100589,0.08074484,-0.3457316,0.7466699,-0.0010125001,0.005224918,0.0035590287,0.17429915878537955,-0.9846922675980903,-0.0009702469994223584,0.9803789879545597,0.1736276313449055,-0.09332998237839163,0.09206977367139747,0.015316127646648324,0.9956347588398113,left_images/camera_left_82.png,right_images/camera_right_82.png
2025-05-30 17:02:38,4.9672980308532715,83,-0.14200255,-0.1049201,0.11658287,1.0472963,-0.16768426,0.4890253,1.0471793,0.05101694,0.01003626,0.005585937,0.526194559769713,0.8059581217401703,0.2712024912677142,-0.8478458458165994,0.4727130206483098,0.24020787214636727,0.06539653660778112,-0.3563339811337213,0.9320672652170012,0.09221221,-0.10327099,0.12098499,-1.5096395,-0.030982735,-0.2303395,1.0471803,-0.049446374,0.010660559,0.00013805786,0.11604584416657326,-0.8357152913342785,-0.5367618781934212,0.9905458800830944,0.05757080187367958,0.12451691540521351,-0.07315887849109617,-0.546136937591373,0.8344951910563904,-0.019434772,-0.18343697,0.09555192,-1.4209149,0.074624,-0.3491628,0.7733365,-0.0010395607,0.0050749923,0.0033492893,0.16226108443088744,-0.9867473953023659,0.0009583023057139553,0.9828579750331744,0.16153520577369335,-0.08886269301196553,0.08753023130896381,0.015360831997234203,0.9960434244787485,left_images/camera_left_83.png,right_images/camera_right_83.png
2025-05-30 17:02:38,5.037612676620483,84,-0.14188151,-0.10510532,0.116829,1.0453206,-0.17011066,0.48897704,1.0471795,0.050916206,0.010113519,0.0053695757,0.526454533506255,0.8065755185310965,0.26885229598611166,-0.8477320304813327,0.4738952663615663,0.23827228335687023,0.06477676008189892,-0.3533542265579861,0.9332442134441012,0.09330105,-0.10269646,0.12107101,-1.5051146,-0.03423527,-0.22317103,1.0471803,-0.049332805,0.010671366,9.8069664e-05,0.11560437276862429,-0.8369192578167973,-0.5349783031975726,0.9911412287862716,0.06174207840145479,0.11758818118632419,-0.06538114098738376,-0.5438327607362852,0.8366428358344665,-0.018624663,-0.18063499,0.095697366,-1.4309963,0.066639125,-0.3527999,0.8000032,-0.0010768982,0.004882265,0.0031100065,0.15030219192580574,-0.9886294045046237,0.004599092424756097,0.9852185154367706,0.1493936960494462,-0.08382124087158052,0.08218106803190195,0.01712962724401418,0.9964701941993133,left_images/camera_left_84.png,right_images/camera_right_84.png
2025-05-30 17:02:38,5.1140687465667725,85,-0.1416473,-0.1052498,0.11713241,1.0432967,-0.17268528,0.48893046,1.0471795,0.050793253,0.010193323,0.0050994717,0.5267037088275939,0.8072688026926699,0.26627107110311554,-0.8476178035938168,0.475092145369868,0.23628692820096941,0.06424377120041361,-0.35014930187992577,0.934488204449339,0.094055705,-0.101852745,0.12113771,-1.5009756,-0.03724878,-0.21408544,1.04718,-0.04925596,0.010664632,5.059177e-05,0.11403629780458885,-0.8381407869137688,-0.533400172567081,0.9918740787715247,0.06556798657065604,0.10902591892852662,-0.05640509413308806,-0.5414987169408981,0.8388072513439537,-0.01648974,-0.17742977,0.095844045,-1.4408296,0.057389364,-0.35649917,0.8266697,-0.0010080939,0.004652696,0.0028533777,0.13832388171761245,-0.9903535487032712,0.008145693181647588,0.9874309183458635,0.1372713459174787,-0.07833746922545239,0.07646362037738447,0.018879252126116488,0.9968936194990627,left_images/camera_left_85.png,right_images/camera_right_85.png
2025-05-30 17:02:38,5.1741602420806885,86,-0.14137408,-0.10560916,0.11742619,1.0402182,-0.1742066,0.48926836,1.0471796,0.050670844,0.010291403,0.0048415614,0.5280306862338655,0.8071688531392972,0.263935668141282,-0.8468640931752135,0.4773252035123507,0.23448210546311726,0.0632835056386464,-0.3473313873143123,0.935604673620434,0.09468898,-0.10086933,0.121199235,-1.4955082,-0.040878102,-0.20346306,1.0471805,-0.04920334,0.0106569,-9.105541e-06,0.11271924499700997,-0.8397318235088715,-0.5311730757425203,0.9925824900102054,0.07065715890216057,0.09893213037742168,-0.045545277828161174,-0.538384649188979,0.8414675259243315,-0.014258525,-0.17469119,0.09597044,-1.4504616,0.050442763,-0.35952362,0.85333633,-0.0008880653,0.0044529373,0.0026331954,0.1273316414943877,-0.9918157874915877,0.009385987256901918,0.9892607750225696,0.12630759301109185,-0.07354937762815991,0.07176191243333752,0.018650352012398952,0.9972474077648554,left_images/camera_left_86.png,right_images/camera_right_86.png
2025-05-30 17:02:38,5.23022198677063,87,-0.14131226,-0.10642228,0.117680885,1.0408133,-0.17639798,0.48885247,1.0471798,0.050553087,0.010433311,0.0046319086,0.5262698016428689,0.8086816889491575,0.26281937112228576,-0.847979337040631,0.4762183932317478,0.23269526402551616,0.06301698049659117,-0.3453258865276548,0.9363647218167619,0.095372714,-0.09984891,0.121263444,-1.4880158,-0.04555269,-0.1921866,1.0471802,-0.049161702,0.010654718,-7.8558456e-05,0.1125894832309281,-0.8418042147765826,-0.5279102880700219,0.9930911289630538,0.07764987379843102,0.08798014931775625,-0.033069893266829714,-0.5341686635169353,0.8447308571822457,-0.01254677,-0.17254756,0.096070625,-1.460018,0.04513894,-0.36222526,0.8800029,-0.0007879293,0.004292399,0.0024602767,0.11688327093932976,-0.9930997042650966,0.00955397106447288,0.9908287548293153,0.1159484788307284,-0.06938536488502958,0.06779881693593028,0.01757633765656814,0.9975441808645222,left_images/camera_left_87.png,right_images/camera_right_87.png
2025-05-30 17:02:38,5.288268804550171,88,-0.14171626,-0.10774288,0.117913865,1.0447155,-0.18073423,0.48844853,1.0471799,0.050430506,0.010634826,0.004466354,0.5212805784323082,0.8123026279935086,0.2615931939178041,-0.8509775149581369,0.4717749356578775,0.23079358552758736,0.06406112381899312,-0.34291813985242203,0.9371783831134832,0.09575903,-0.0987936,0.12130357,-1.4814955,-0.048916653,-0.17990193,1.0471807,-0.049140967,0.010653481,-0.00013426691,0.11144211095666878,-0.8432785081731179,-0.5257965514900628,0.9935666270984488,0.08381843763278363,0.07615659543999495,-0.020149774731580083,-0.5309009579630836,0.8471942866970638,-0.011183977,-0.17127867,0.09616047,-1.4698406,0.040615246,-0.3645251,0.9066695,-0.0007056361,0.00420675,0.0023304662,0.10640096941812932,-0.994281117839419,0.009159280259815581,0.9921967348210731,0.10556677095266215,-0.06634226617345516,0.06499594692966408,0.016146689401351322,0.9977548853822229,left_images/camera_left_88.png,right_images/camera_right_88.png
2025-05-30 17:02:38,5.348370552062988,89,-0.14269258,-0.1093423,0.11813382,1.054012,-0.18766919,0.48778594,1.0471799,0.05028723,0.010864969,0.004342965,0.5115377680820231,0.8187583041608562,0.2606989666134125,-0.8566189134074798,0.4621537729170278,0.22938597902039498,0.06732866416505746,-0.3406592572442369,0.9377729583622859,0.09613998,-0.09773611,0.121365905,-1.4743402,-0.05269029,-0.16803922,1.0471802,-0.04911504,0.010652062,-0.00021051895,0.11103500154476498,-0.844911307968423,-0.5232553010711332,0.9937903308754881,0.09057536255548626,0.06462880129114071,-0.007211566427730964,-0.5271821178350329,0.8497217238276468,-0.009999092,-0.1708139,0.096259385,-1.4794357,0.036735937,-0.36675888,0.9333365,-0.00062953867,0.0041961325,0.0022231415,0.09632357908589245,-0.9953148095394411,0.008378426078328557,0.9933574512654155,0.0955949762463017,-0.06405134293632418,0.06295031475347371,0.014492426571668788,0.9979114326654963,left_images/camera_left_89.png,right_images/camera_right_89.png
2025-05-30 17:02:38,5.405472040176392,90,-0.144141,-0.110876076,0.118333496,1.0687538,-0.19744858,0.4863261,1.0471799,0.050137028,0.011084838,0.004256824,0.4968801030640147,0.827940164222847,0.2600485486322494,-0.8647658799740938,0.44726423549160294,0.22833019178974845,0.07273332119273451,-0.33833384122306953,0.9382111041079814,0.0967676,-0.09670639,0.121417806,-1.4670624,-0.05734494,-0.15746439,1.0471687,-0.04908486,0.0106439,-0.00026698224,0.11133277800337349,-0.8468226487089534,-0.5200926976757164,0.9937719003168934,0.09736150675882571,0.05420467823169772,0.0047352595073872905,-0.5228882659184501,0.8523880798569359,-0.008479369,-0.17040993,0.09634616,-1.4859362,0.03264649,-0.36820212,0.9600048,-0.0005336328,0.0041912505,0.0021289056,0.08910941288692537,-0.9959857710768029,0.008476812342731205,0.9941165678138831,0.08840957870783656,-0.06257791935377793,0.061577285851948244,0.014003221245458823,0.9980040819865709,left_images/camera_left_90.png,right_images/camera_right_90.png
2025-05-30 17:02:38,5.470805644989014,91,-0.14599279,-0.11225191,0.1185154,1.0903139,-0.21082142,0.48353794,1.0471799,0.04999172,0.01128272,0.0041956017,0.4759096922578938,0.8403230042823873,0.25955194718749414,-0.8757771531854412,0.425688158823572,0.22760485362970917,0.08077340387405285,-0.33562902125891947,0.9385248091102222,0.097465046,-0.095751755,0.121508494,-1.4597127,-0.062096484,-0.14821559,1.047173,-0.049028166,0.010637839,-0.000348391,0.11238824111371304,-0.8486870364665138,-0.5168164058861253,0.9935401672669701,0.10420191068338258,0.04494327354625158,0.015710483330780733,-0.518528953814171,0.8549157296306429,-0.005884778,-0.16947025,0.09643024,-1.4884231,0.027859423,-0.3696971,0.9866724,-0.00035833305,0.004135451,0.0020159455,0.08557713981452048,-0.9962851875894557,0.009611354275492763,0.9945531324268816,0.08484428820091744,-0.06054348469949071,0.059503108499000416,0.014740140756542425,0.9981192856214299,left_images/camera_left_91.png,right_images/camera_right_91.png
2025-05-30 17:02:38,5.525130748748779,92,-0.1478334,-0.113363594,0.118683465,1.1172882,-0.22663999,0.47926298,1.0471799,0.049876183,0.011440399,0.0041320156,0.44987877791379105,0.8546617825122447,0.25915694606895356,-0.8884538007765954,0.39875862030573883,0.22724745678991715,0.09087865023434015,-0.3324827818772819,0.9387205498372388,0.09834521,-0.09478182,0.12154428,-1.4557627,-0.06774476,-0.13949461,1.0471749,-0.048995104,0.0106181465,-0.00037728855,0.11093557034829804,-0.8509979137281856,-0.5133184684596624,0.9935302953204364,0.10759677826162928,0.03633848632241571,0.02430743738003746,-0.5140286802679335,0.8574285185075325,-0.0022159377,-0.1680938,0.09651366,-1.4919472,0.02307483,-0.37130296,1.0133383,-7.398523e-05,0.004037928,0.0018876065,0.08129707217423482,-0.9966463739597644,0.00931618638452271,0.9950593667655705,0.08062608353918094,-0.05793350727545499,0.05698809233514872,0.013979983046732421,0.9982769742942156,left_images/camera_left_92.png,right_images/camera_right_92.png
2025-05-30 17:02:39,5.582720041275024,93,-0.14929856,-0.114146724,0.11883076,1.1431012,-0.2412241,0.47453335,1.0471799,0.049794007,0.0115478095,0.0040614046,0.42493342201539275,0.867422306981243,0.25886314570758523,-0.8996322349505328,0.3729347813331543,0.2271155888747005,0.10046605741342551,-0.3293906346928078,0.9388335214959422,0.099336356,-0.09386474,0.12160235,-1.4518033,-0.07304046,-0.1326927,1.0471613,-0.048934713,0.0105891125,-0.0004116944,0.11053784784704379,-0.8530369551412816,-0.5100091541890547,0.993376047889473,0.1110348030725028,0.029585469172248274,0.03139126746143453,-0.5099011920656213,0.8596600273696706,0.0013127114,-0.16671409,0.096607395,-1.5011911,0.019080702,-0.373283,1.0396771,0.00023071896,0.003939097,0.0017508315,0.07197057483663305,-0.9973865032453287,0.006356060237314304,0.9959321590018669,0.07151631793244284,-0.05481378417210292,0.054215966500328346,0.010275184350731745,0.9984763640482401,left_images/camera_left_93.png,right_images/camera_right_93.png
2025-05-30 17:02:39,5.639160871505737,94,-0.15051,-0.114498146,0.11896631,1.1681336,-0.25495964,0.46930683,1.0471799,0.049731653,0.0115957735,0.0039819544,0.40077445838892245,0.8789172210678863,0.2586200920527444,-0.909583626984462,0.3479045105873838,0.22720052164276353,0.1097153545537577,-0.32629276734744994,0.9388799555597541,0.10023309,-0.093112096,0.12164135,-1.447303,-0.07718126,-0.13027823,1.0471511,-0.048882917,0.010537006,-0.00042605586,0.11287995243624244,-0.8544819127992981,-0.5070688089764983,0.9929835696773882,0.11511216847999234,0.02707063018449446,0.03523842630912247,-0.5065667274571897,0.8614803560990638,0.004235544,-0.16551642,0.09670884,-1.5110126,0.015309148,-0.37560803,1.0466835,0.00048285694,0.0038552976,0.0016137222,0.06207289654922599,-0.9980652666729349,0.003560754845926075,0.9967601598512198,0.06180810803021308,-0.05146786876388751,0.0511482086427309,0.0067439782628062085,0.9986683030465275,left_images/camera_left_94.png,right_images/camera_right_94.png
2025-05-30 17:02:39,5.713213920593262,95,-0.15155499,-0.114506274,0.11911536,1.192494,-0.26791763,0.46383727,1.0471799,0.049666442,0.011596768,0.003881054,0.37736730699269894,0.8892801998719555,0.2584078979612914,-0.9184120681492696,0.32358786098631853,0.22761847310813935,0.11879894229689039,-0.3232207022113435,0.9388371472045332,0.1011002,-0.09232195,0.12166249,-1.4457885,-0.082141735,-0.12801707,1.0471506,-0.048854474,0.010474919,-0.00043398328,0.1128380862316975,-0.8564781459359588,-0.5036990687202728,0.9929172628057613,0.11616904459206806,0.0249010501963364,0.037187034271132124,-0.5029412874408585,0.8635202289868195,0.0066401456,-0.16443034,0.09681696,-1.5197421,0.010486215,-0.3778063,1.0471473,0.00066284643,0.0037850826,0.0014753584,0.05270225336501605,-0.9986068812704656,0.0026017627724531332,0.9974476103263661,0.052515028117226026,-0.048378057795543807,0.0481740297719806,0.005144754719267619,0.998825707695996,left_images/camera_left_95.png,right_images/camera_right_95.png
2025-05-30 17:02:39,5.783459424972534,96,-0.15226662,-0.1143336,0.11932054,1.2162793,-0.2798465,0.45853603,1.0471803,0.049585838,0.011570759,0.0037175082,0.3547700059132793,0.8985947386996079,0.25819709232614363,-0.9261458590157517,0.29994429926800675,0.22866408805188415,0.12803160052216497,-0.32025132773808723,0.9386410370049486,0.101640254,-0.09133866,0.12169213,-1.44463,-0.0860477,-0.12385167,1.0471679,-0.048834413,0.010404685,-0.00046285754,0.11180747149760828,-0.8580865187506805,-0.5011852109306995,0.9929055197445922,0.11700483249478244,0.0211777721583144,0.04046873086758554,-0.4999973955044227,0.865080855360215,0.008496769,-0.16355431,0.09699232,-1.528315,0.0063838707,-0.3808305,1.0471778,0.0008021098,0.0037522474,0.0012830487,0.043627943068486386,-0.9990466183056539,0.0015674934290117147,0.9980572377378651,0.04351477695102124,-0.044589397685608004,0.044478677843157,0.003509791865617496,0.9990041684489532,left_images/camera_left_96.png,right_images/camera_right_96.png
2025-05-30 17:02:39,5.845773696899414,97,-0.15255553,-0.113933444,0.11958549,1.2413758,-0.29163167,0.45279908,1.0471802,0.049503572,0.011511864,0.0034778193,0.3311740277838385,0.9076219885030438,0.25796528701980415,-0.9334206828232713,0.2751402774176303,0.23026866182849826,0.138020260103969,-0.31704913456486516,0.9383124501318858,0.10171546,-0.09029686,0.12174922,-1.4438635,-0.08798599,-0.119795,1.0471642,-0.048814103,0.010323577,-0.00052862195,0.11079456172930746,-0.8589289060667425,-0.49996569823758885,0.9928923023502897,0.1176649986143452,0.017883624761973527,0.043467700937036,-0.498393501586924,0.8658605410521796,0.010023178,-0.16314152,0.09726072,-1.5373856,0.0021926782,-0.3845516,1.047179,0.000910818,0.003792471,0.001023069,0.03398705404256841,-0.9994220124058418,0.0007219945737611012,0.9986024392771807,0.03392991039182014,-0.04052072865173301,0.04047281096207497,0.002098165737033423,0.999178437153929,left_images/camera_left_97.png,right_images/camera_right_97.png
2025-05-30 17:02:39,5.904021978378296,98,-0.15236904,-0.113187246,0.11989333,1.2617755,-0.30046484,0.44812623,1.0471804,0.049407035,0.011414784,0.0031819744,0.31240874731535123,0.9143071522201164,0.25776579680010636,-0.9385697773802569,0.25521458093431276,0.2322763239482186,0.1465863144677146,-0.3144963419145981,0.9378723278427123,0.1014927,-0.08922829,0.12176024,-1.4428458,-0.089357734,-0.11628982,1.0471703,-0.048842654,0.010229043,-0.0005738945,0.11035636472986726,-0.8596123714967734,-0.49888680432869903,0.9928215581966402,0.11863494773640809,0.015202064187965741,0.046117527509655476,-0.4969832189775353,0.8665338156766436,0.011134501,-0.16251782,0.097576275,-1.546954,-0.0016505277,-0.38773078,1.0471791,0.000988725,0.0038362197,0.0007119924,0.023932298077956826,-0.9997135329110798,-0.0003118062786240487,0.9990389740041086,0.023927603532965303,-0.03672326524136073,0.0367202060114854,0.0005673655054675049,0.9993254247575498,left_images/camera_left_98.png,right_images/camera_right_98.png
