jiaqis7/OS_Teleop_Extension/demo_6/teleop_log.csv
Epoch Time (Seconds),Time (Seconds),Frame Number,PSM1_joint_1,PSM1_joint_2,PSM1_joint_3,PSM1_joint_4,PSM1_joint_5,PSM1_joint_6,PSM1_jaw_angle,PSM1_ee_x,PSM1_ee_y,PSM1_ee_z,"PSM1_Orientation_Matrix_[1,1]","PSM1_Orientation_Matrix_[1,2]","PSM1_Orientation_Matrix_[1,3]","PSM1_Orientation_Matrix_[2,1]","PSM1_Orientation_Matrix_[2,2]","PSM1_Orientation_Matrix_[2,3]","PSM1_Orientation_Matrix_[3,1]","PSM1_Orientation_Matrix_[3,2]","PSM1_Orientation_Matrix_[3,3]",PSM2_joint_1,PSM2_joint_2,PSM2_joint_3,PSM2_joint_4,PSM2_joint_5,PSM2_joint_6,PSM2_jaw_angle,PSM2_ee_x,PSM2_ee_y,PSM2_ee_z,"PSM2_Orientation_Matrix_[1,1]","PSM2_Orientation_Matrix_[1,2]","PSM2_Orientation_Matrix_[1,3]","PSM2_Orientation_Matrix_[2,1]","PSM2_Orientation_Matrix_[2,2]","PSM2_Orientation_Matrix_[2,3]","PSM2_Orientation_Matrix_[3,1]","PSM2_Orientation_Matrix_[3,2]","PSM2_Orientation_Matrix_[3,3]",PSM3_joint_1,PSM3_joint_2,PSM3_joint_3,PSM3_joint_4,PSM3_joint_5,PSM3_joint_6,PSM3_jaw_angle,PSM3_ee_x,PSM3_ee_y,PSM3_ee_z,"PSM3_Orientation_Matrix_[1,1]","PSM3_Orientation_Matrix_[1,2]","PSM3_Orientation_Matrix_[1,3]","PSM3_Orientation_Matrix_[2,1]","PSM3_Orientation_Matrix_[2,2]","PSM3_Orientation_Matrix_[2,3]","PSM3_Orientation_Matrix_[3,1]","PSM3_Orientation_Matrix_[3,2]","PSM3_Orientation_Matrix_[3,3]",Camera Left,Camera Right
2025-05-30 16:04:39,0.0015106201171875,1,-0.01979421,-0.013605059,0.112858996,0.023885034,0.07763296,0.08660138,1.0471799,0.06088071,0.00012908684,0.001683658,0.8970188104514422,-0.012716874686243258,0.44180938739969533,-0.018258809847894318,0.9976665638448781,0.06578786551403076,-0.44161506944308193,-0.06707986645908104,0.8946934793305548,0.02255552,-0.009991862,0.11227836,-0.050235044,0.06904876,-0.093695745,1.047179,-0.060936335,-0.00015990422,0.0023217704,0.8981472154767404,-0.012128276975177477,-0.43952756936168513,0.0444768450015514,0.996998229866561,0.06337459981453178,0.43743958393141047,-0.07646851993178277,0.8959906114850518,0.0027197327,-0.0064675915,0.09171622,-0.00016586916,-0.012021652,-0.0062273038,4.3169073e-13,0.00019916201,-0.008734992,0.0019246545,0.9999938163188936,-0.00021565912874792404,0.003510101866820876,0.0011782479379545722,0.9609759519069928,-0.27662941200864055,-0.003313465824778869,0.2766318371908586,0.9609702636380788,left_images/camera_left_1.png,right_images/camera_right_1.png
2025-05-30 16:04:39,0.054639577865600586,2,-0.019743694,-0.013731726,0.11285669,0.024593638,0.07874766,0.0860031,1.0471802,0.06088135,0.000122872,0.0016872156,0.8967588072063337,-0.012620825286873995,0.4423396392671043,-0.01891923499203486,0.997585779916742,0.06681821798897208,-0.44211503508158356,-0.06828855304502968,0.8943550577247419,0.02255546,-0.009991718,0.11227836,-0.050235882,0.06904819,-0.09369593,1.047179,-0.06093641,-0.0001598761,0.0023217965,0.8981472013280377,-0.012129200629064748,-0.4395275727855003,0.04447773099240643,0.9969982085230764,0.06337431378360966,0.4374395228970292,-0.07646865170693273,0.8959906300368009,0.0027197327,-0.0064675915,0.09171622,-0.00016589164,-0.012021652,-0.0062273364,6.216439e-13,0.00019916201,-0.008734992,0.0019246545,0.9999938163188936,-0.00021565912874792404,0.003510101866820876,0.0011782479379545722,0.9609759519069928,-0.27662941200864055,-0.003313465824778869,0.2766318371908586,0.9609702636380788,left_images/camera_left_2.png,right_images/camera_right_2.png
2025-05-30 16:04:39,0.11424064636230469,3,-0.019657891,-0.013869771,0.11286362,0.025109123,0.07967935,0.08550903,1.0471802,0.06088172,0.00012154685,0.0016797371,0.8965641982418816,-0.01258677103605588,0.4427349225278909,-0.019397804583857443,0.9975211508567834,0.06764080699314967,-0.4424888287948275,-0.06923241139989239,0.894097595122332,0.02255546,-0.009991541,0.11227836,-0.050236523,0.06904774,-0.093696155,1.047179,-0.06093634,-0.00015988151,0.0023217043,0.8981473856609218,-0.01212988512794217,-0.43952717722256285,0.04447832902430147,0.9969981980310088,0.06337405912616974,0.4374390836192592,-0.07646867992651764,0.8959908420919481,0.0027197327,-0.0064675915,0.09171622,-0.00016591414,-0.012021652,-0.006227369,6.192512e-13,0.00019914132,-0.008734992,0.0019246545,0.999993815789883,-0.00021610827430784652,0.0035102249505144455,0.0011787136049179314,0.9609759515920718,-0.2766294111188278,-0.0033134598574631672,0.2766318379343303,0.960970263444633,left_images/camera_left_3.png,right_images/camera_right_3.png
2025-05-30 16:04:39,0.17683172225952148,4,-0.019709403,-0.013799119,0.11286094,0.02465825,0.078990735,0.08588242,1.0471799,0.060881644,0.00012612698,0.0016824063,0.8967182945978169,-0.012654810357728502,0.44242079054718114,-0.01897630473455382,0.997572761509557,0.06699615923930137,-0.4421947534652623,-0.06847219339999562,0.8943016039003785,0.02255546,-0.009991543,0.11227836,-0.050236974,0.06904752,-0.093696155,1.047179,-0.060936294,-0.00015988175,0.0023217043,0.8981473482138519,-0.012130289901757418,-0.43952724257243253,0.04447880771987958,0.9969981736571134,0.06337410660671354,0.43743911183185785,-0.0764689335042698,0.8959908066763161,0.0027197327,-0.0064675915,0.09171622,-0.0001659308,-0.012021652,-0.006227369,4.654767e-13,0.00019914132,-0.008734992,0.0019246545,0.999993815789883,-0.00021610827430784652,0.0035102249505144455,0.0011787136049179314,0.9609759515920718,-0.2766294111188278,-0.0033134598574631672,0.2766318379343303,0.960970263444633,left_images/camera_left_4.png,right_images/camera_right_4.png
2025-05-30 16:04:39,0.24447321891784668,5,-0.019723438,-0.013784003,0.11285724,0.024786603,0.07906741,0.08583387,1.04718,0.060881678,0.00012293953,0.0016867407,0.8966876678664976,-0.012593660899024826,0.44248460538339857,-0.01909961009058076,0.9975636348379926,0.06709693989445287,-0.44225154741451084,-0.06861628198884293,0.8942624752585216,0.022555355,-0.009991501,0.11227836,-0.050237287,0.069047295,-0.093696155,1.047179,-0.060936373,-0.00015995672,0.0023218514,0.8981474524278137,-0.01213068367264621,-0.43952701874977224,0.04447911372369569,0.9969981743142546,0.06337388150017277,0.4374388667457237,-0.07646886247145036,0.8959909323941508,0.0027197327,-0.0064675915,0.09171622,-0.00016594745,-0.012021652,-0.006227369,1.5902649e-13,0.00019914132,-0.008734992,0.0019246545,0.999993815789883,-0.00021610827430784652,0.0035102249505144455,0.0011787136049179314,0.9609759515920718,-0.2766294111188278,-0.0033134598574631672,0.2766318379343303,0.960970263444633,left_images/camera_left_5.png,right_images/camera_right_5.png
2025-05-30 16:04:39,0.3099029064178467,6,-0.019672625,-0.01380427,0.112863764,0.024907054,0.079232894,0.0857347,1.04718,0.060882255,0.00012226525,0.0016787751,0.8966630908992858,-0.01256247677607788,0.4425352930515141,-0.01921419528830344,0.9975511467465076,0.06724971616408729,-0.44229641205684894,-0.06880329790044856,0.8942259166897703,0.022555243,-0.009991557,0.11227836,-0.05023754,0.069047295,-0.093696155,1.047179,-0.060936395,-0.00015993966,0.0023218216,0.8981474817634357,-0.012131026497817273,-0.43952694934225367,0.04447948590884014,0.9969981579437108,0.06337387782148686,0.43743876866972375,-0.07646902152477635,0.8959909667020974,0.0027197327,-0.0064675915,0.09171622,-0.0001659641,-0.012021652,-0.006227369,1.5732863e-13,0.00019914132,-0.008734992,0.0019246545,0.999993815789883,-0.00021610827430784652,0.0035102249505144455,0.0011787136049179314,0.9609759515920718,-0.2766294111188278,-0.0033134598574631672,0.2766318379343303,0.960970263444633,left_images/camera_left_6.png,right_images/camera_right_6.png
2025-05-30 16:04:39,0.37018847465515137,7,-0.019732313,-0.01374011,0.11285977,0.02456951,0.0786036,0.08608141,1.0471799,0.060881604,0.00012649427,0.0016833944,0.896799073704801,-0.01256184515843281,0.4422596764893068,-0.0189029379857757,0.9975962571139934,0.06666623378935595,-0.4420340488443358,-0.06814622394796872,0.8944059435311891,0.022555232,-0.009991562,0.11227836,-0.050237764,0.069047295,-0.093696155,1.047179,-0.060936395,-0.00015993966,0.0023218216,0.8981474817634357,-0.012131026497817273,-0.43952694934225367,0.04447948590884014,0.9969981579437108,0.06337387782148686,0.43743876866972375,-0.07646902152477635,0.8959909667020974,0.0027197327,-0.0064675915,0.09171622,-0.00016598075,-0.012021652,-0.006227369,1.5847275e-13,0.00019914132,-0.008734992,0.0019246545,0.999993815789883,-0.00021610827430784652,0.0035102249505144455,0.0011787136049179314,0.9609759515920718,-0.2766294111188278,-0.0033134598574631672,0.2766318379343303,0.960970263444633,left_images/camera_left_7.png,right_images/camera_right_7.png
2025-05-30 16:04:39,0.42991161346435547,8,-0.01973502,-0.013735902,0.11285558,0.02475827,0.07875313,0.08598664,1.0471799,0.06088238,0.00012307585,0.0016878163,0.8967516314562192,-0.012480655005301763,0.44235816340523,-0.019083939561783583,0.9975816671042328,0.06683278168939402,-0.4421225109982659,-0.06837434246980842,0.8943448074207229,0.022555185,-0.009991587,0.11227836,-0.050237875,0.069047295,-0.093696155,1.047179,-0.060936328,-0.00015995157,0.0023217322,0.898147531843607,-0.012131498899525736,-0.43952683396772063,0.04448001204748566,0.9969981328205318,0.06337390378246467,0.4374386123463416,-0.0764692741355923,0.8959910214626501,0.0027197327,-0.0064675915,0.09171622,-0.0001659974,-0.012021652,-0.006227369,1.5777095e-13,0.00019914132,-0.008734992,0.0019246545,0.999993815789883,-0.00021610827430784652,0.0035102249505144455,0.0011787136049179314,0.9609759515920718,-0.2766294111188278,-0.0033134598574631672,0.2766318379343303,0.960970263444633,left_images/camera_left_8.png,right_images/camera_right_8.png
2025-05-30 16:04:39,0.4938938617706299,9,-0.01965113,-0.01385566,0.11286279,0.025267286,0.079659596,0.085503474,1.0471802,0.060882583,0.00012009585,0.0016802633,0.8965612507521379,-0.012448075351165532,0.442744812583743,-0.01955661768965339,0.9975175501789334,0.06764817654275591,-0.4424878104019395,-0.06930932480605219,0.8940921401850183,0.022554299,-0.009999503,0.112278745,-0.050242532,0.06905262,-0.09369692,1.047179,-0.06093641,-0.00015906108,0.0023214202,0.8981479051205596,-0.012136774231261565,-0.4395259255593575,0.044484713462847825,0.9969980621693151,0.06337171528970316,0.437437367854735,-0.07646935818934443,0.8959916218706686,0.0027197327,-0.0064675915,0.09171622,-0.00016601404,-0.012021652,-0.006227369,1.5871266e-13,0.00019914132,-0.008734992,0.0019246545,0.999993815789883,-0.00021610827430784652,0.0035102249505144455,0.0011787136049179314,0.9609759515920718,-0.2766294111188278,-0.0033134598574631672,0.2766318379343303,0.960970263444633,left_images/camera_left_9.png,right_images/camera_right_9.png
2025-05-30 16:04:39,0.5597186088562012,10,-0.019720754,-0.0137834335,0.11285941,0.024771797,0.0789577,0.08589607,1.0471799,0.060881197,0.00012473279,0.0016841544,0.8967169007596774,-0.01254948196888413,0.44242661582941795,-0.019090294398114906,0.9975710866245129,0.06698871390452009,-0.44219267356182196,-0.06851596626408325,0.8942992797800671,0.022553632,-0.010005765,0.11227919,-0.050245937,0.06905644,-0.09369763,1.047179,-0.06093612,-0.00015857563,0.0023208791,0.8981481190496217,-0.01214108387979564,-0.43952536938139364,0.044488305131929806,0.9969980502742445,0.06336938105933856,0.43743656334846437,-0.07646882915004724,0.8959920597942295,0.0027197327,-0.0064675915,0.09171622,-0.00016603069,-0.012021652,-0.006227369,1.576331e-13,0.00019914132,-0.008734992,0.0019246545,0.999993815789883,-0.00021610827430784652,0.0035102249505144455,0.0011787136049179314,0.9609759515920718,-0.2766294111188278,-0.0033134598574631672,0.2766318379343303,0.960970263444633,left_images/camera_left_10.png,right_images/camera_right_10.png
2025-05-30 16:04:40,0.6290600299835205,11,-0.019728117,-0.013777495,0.112856545,0.024837583,0.07907635,0.08582777,1.04718,0.060881313,0.00012190401,0.001687591,0.8966818479219789,-0.0125584296002097,0.4424974005044565,-0.019149616919739796,0.997561354062423,0.06711659297798286,-0.44226118502424794,-0.06865588632536601,0.8942546692602875,0.022554575,-0.009999698,0.11227919,-0.050276317,0.06903089,-0.093707256,1.047179,-0.06093618,-0.00015867274,0.0023209024,0.8981507396023248,-0.01217692765296596,-0.4395190227791413,0.04451969837067976,0.9969976635411907,0.06335341624877389,0.43742798882648165,-0.07646817198247352,0.8959963020375018,0.0027197327,-0.0064675915,0.09171622,-0.00016604734,-0.012021652,-0.006227369,1.5783653e-13,0.00019914132,-0.008734992,0.0019246545,0.999993815789883,-0.00021610827430784652,0.0035102249505144455,0.0011787136049179314,0.9609759515920718,-0.2766294111188278,-0.0033134598574631672,0.2766318379343303,0.960970263444633,left_images/camera_left_11.png,right_images/camera_right_11.png
2025-05-30 16:04:40,0.6900241374969482,12,-0.019668698,-0.013817268,0.11286443,0.024874432,0.079307966,0.08570062,1.04718,0.06088209,0.00012230308,0.0016782442,0.8966503291150846,-0.012622255850549475,0.44255944906312145,-0.019178613297991535,0.9975478970146838,0.06730805266495028,-0.44232382717843316,-0.06883946410907692,0.8942095728023708,0.022555491,-0.0099941455,0.11227919,-0.05029886,0.06901165,-0.093714505,1.047179,-0.06093613,-0.0001590582,0.0023209918,0.8981527280441974,-0.012202887130264642,-0.43951423941944356,0.04454263911319544,0.9969973446253254,0.06334230901128947,0.4374215705787696,-0.07646819179067903,0.8959994337256393,0.0027197327,-0.0064675915,0.09171622,-0.00016606398,-0.012021652,-0.006227369,1.5733263e-13,0.00019914132,-0.008734992,0.0019246545,0.999993815789883,-0.00021610827430784652,0.0035102249505144455,0.0011787136049179314,0.9609759515920718,-0.2766294111188278,-0.0033134598574631672,0.2766318379343303,0.960970263444633,left_images/camera_left_12.png,right_images/camera_right_12.png
2025-05-30 16:04:40,0.7535364627838135,13,-0.019759428,-0.013654524,0.11285991,0.024075793,0.07804256,0.086374134,1.0471799,0.060881805,0.000127154,0.0016825106,0.8969288648890649,-0.012738530295295153,0.4419913360855954,-0.01843263671897615,0.9976388978875396,0.06615789692336017,-0.4417905037825056,-0.06748599312191787,0.8945763195501816,0.022556074,-0.009990213,0.11227919,-0.050315667,0.0689976,-0.093719766,1.047179,-0.06093606,-0.00015922551,0.0023210011,0.8981541727520419,-0.01222276832844623,-0.43951073468401675,0.044560199939694824,0.9969971033778524,0.06333375432978935,0.43741681557689277,-0.07646816194051498,0.8960017576210493,0.0027197327,-0.0064675915,0.09171622,-0.00016608063,-0.012021652,-0.006227369,1.5793072e-13,0.00019914132,-0.008734992,0.0019246545,0.999993815789883,-0.00021610827430784652,0.0035102249505144455,0.0011787136049179314,0.9609759515920718,-0.2766294111188278,-0.0033134598574631672,0.2766318379343303,0.960970263444633,left_images/camera_left_13.png,right_images/camera_right_13.png
2025-05-30 16:04:40,0.8183434009552002,14,-0.019717624,-0.0137655735,0.11285752,0.024767384,0.07902962,0.085844666,1.0471802,0.06088213,0.00012142846,0.0016859844,0.8966956643658246,-0.012599608605241161,0.4424682309166696,-0.019081589019489434,0.9975653405208409,0.06707670498787278,-0.442236111673418,-0.06859038747910344,0.8942720952134438,0.022556562,-0.009987086,0.11227919,-0.050328005,0.06898695,-0.09372374,1.047179,-0.06093597,-0.00015955532,0.0023208763,0.8981550372536321,-0.01223703152214392,-0.43950857115129477,0.044572858412726804,0.9969969239091572,0.06332767174464383,0.4374137507541866,-0.0764682206881029,0.8960032488088142,0.0027197327,-0.0064675915,0.09171622,-0.00016609728,-0.012021652,-0.006227369,1.5726281e-13,0.00019914132,-0.008734992,0.0019246545,0.999993815789883,-0.00021610827430784652,0.0035102249505144455,0.0011787136049179314,0.9609759515920718,-0.2766294111188278,-0.0033134598574631672,0.2766318379343303,0.960970263444633,left_images/camera_left_14.png,right_images/camera_right_14.png
2025-05-30 16:04:40,0.8771543502807617,15,-0.019697523,-0.01371921,0.11286356,0.024475412,0.07856784,0.086080514,1.0471799,0.060883127,0.00012481527,0.0016778829,0.8968165097805065,-0.01263200029768716,0.44222232005360135,-0.01881065692278062,0.9975994989944998,0.06664382035910246,-0.44200260968827326,-0.06808577071901373,0.894426084623181,0.022557009,-0.009985022,0.11227919,-0.050337195,0.06897933,-0.09372679,1.047179,-0.060935967,-0.00015955503,0.002321015,0.898155986501885,-0.012247678142308278,-0.43950633475633555,0.04458244240578897,0.9969967585227065,0.06332352899476137,0.4374108249002992,-0.07646867250932438,0.8960046385955273,0.0027197327,-0.0064675915,0.09171622,-0.00016611392,-0.012021652,-0.006227369,1.5871484e-13,0.00019914132,-0.008734992,0.0019246545,0.999993815789883,-0.00021610827430784652,0.0035102249505144455,0.0011787136049179314,0.9609759515920718,-0.2766294111188278,-0.0033134598574631672,0.2766318379343303,0.960970263444633,left_images/camera_left_15.png,right_images/camera_right_15.png
2025-05-30 16:04:40,0.93849778175354,16,-0.019783232,-0.013564205,0.11285764,0.023849878,0.07743257,0.086678475,1.0471799,0.060883306,0.00012798741,0.001683631,0.8970591321000179,-0.012663397937489738,0.4417290480245096,-0.01823255861735641,0.9976775911053584,0.06562772289569524,-0.44153424252511536,-0.06692579890360875,0.894744907847419,0.022557246,-0.009983422,0.11227919,-0.05034396,0.068973556,-0.093728885,1.047179,-0.060935922,-0.00015964327,0.0023210328,0.8981565647111124,-0.012255744919557023,-0.4395049282804457,0.04458939829011488,0.9969966901419743,0.06331970788051032,0.4374089286085258,-0.07646827160603549,0.8960055985378255,0.0027197327,-0.0064675915,0.09171622,-0.00016613057,-0.012021652,-0.006227369,1.5875846e-13,0.00019914132,-0.008734992,0.0019246545,0.999993815789883,-0.00021610827430784652,0.0035102249505144455,0.0011787136049179314,0.9609759515920718,-0.2766294111188278,-0.0033134598574631672,0.2766318379343303,0.960970263444633,left_images/camera_left_16.png,right_images/camera_right_16.png
2025-05-30 16:04:40,0.9923717975616455,17,-0.019745305,-0.013697225,0.11285706,0.024622219,0.078570955,0.086086474,1.0471802,0.06088164,0.00012198393,0.0016863076,0.8967949741782771,-0.012522921281374801,0.44226909312223467,-0.01895424757393328,0.9975943082176821,0.06668082715886511,-0.44204016874882474,-0.06818190855545839,0.8944001993281564,0.022557886,-0.009979258,0.11227919,-0.05038144,0.068946205,-0.09374028,1.047179,-0.060935907,-0.0001595802,0.0023208652,0.898159858619147,-0.012299642311504402,-0.43949697059734405,0.04462809220596428,0.9969961660361119,0.06330069743177845,0.4373982187335582,-0.07646805678387979,0.8960108451020041,0.0027197327,-0.0064675915,0.09171622,-0.00016614722,-0.012021652,-0.006227369,1.5892546e-13,0.00019914132,-0.008734992,0.0019246545,0.999993815789883,-0.00021610827430784652,0.0035102249505144455,0.0011787136049179314,0.9609759515920718,-0.2766294111188278,-0.0033134598574631672,0.2766318379343303,0.960970263444633,left_images/camera_left_17.png,right_images/camera_right_17.png
2025-05-30 16:04:40,1.043616771697998,18,-0.019685548,-0.0137524,0.11286457,0.024720605,0.07890876,0.085901484,1.04718,0.060882106,0.00012221781,0.0016775951,0.8967365389352578,-0.012581291896527552,0.4423859071360988,-0.019040589218709474,0.9975735098668851,0.06696677067074429,-0.4421549905865805,-0.06847483848887899,0.8943210613606853,0.022558494,-0.009975692,0.11227919,-0.05040918,0.068925716,-0.09374878,1.047179,-0.060935955,-0.00015975075,0.0023208316,0.8981620292142135,-0.012332241992421777,-0.4394916211775222,0.04465692855161512,0.9969957648722599,0.06328667757998883,0.43739081838802046,-0.07646803668342654,0.8960144593451826,0.0027197327,-0.0064675915,0.09171622,-0.00016616387,-0.012021652,-0.006227369,1.5837395e-13,0.00019914132,-0.008734992,0.0019246545,0.999993815789883,-0.00021610827430784652,0.0035102249505144455,0.0011787136049179314,0.9609759515920718,-0.2766294111188278,-0.0033134598574631672,0.2766318379343303,0.960970263444633,left_images/camera_left_18.png,right_images/camera_right_18.png
2025-05-30 16:04:40,1.104109525680542,19,-0.019737575,-0.013701167,0.112861,0.02437014,0.078406565,0.086180694,1.0471799,0.060881507,0.00012582511,0.0016817944,0.8968456960330005,-0.012650312050225895,0.4421626025707229,-0.018711424534283858,0.9976113330681894,0.06649444131510539,-0.4419475988157204,-0.06790874567345583,0.8944667250166868,0.022559108,-0.00997297,0.11227919,-0.050429706,0.068910375,-0.09375532,1.047179,-0.060935825,-0.00015982825,0.002320895,0.8981638875798934,-0.01235592652653044,-0.439487158091159,0.0446777335193586,0.9969954910918941,0.06327630575504518,0.4373848776248964,-0.0764677829030224,0.8960173809714578,0.0027197327,-0.0064675915,0.09171622,-0.00016618051,-0.012021652,-0.006227369,1.5845817e-13,0.00019914132,-0.008734992,0.0019246545,0.999993815789883,-0.00021610827430784652,0.0035102249505144455,0.0011787136049179314,0.9609759515920718,-0.2766294111188278,-0.0033134598574631672,0.2766318379343303,0.960970263444633,left_images/camera_left_19.png,right_images/camera_right_19.png
2025-05-30 16:04:40,1.1669385433197021,20,-0.019748805,-0.013719018,0.112856485,0.024536466,0.078656234,0.08604905,1.0471799,0.060881373,0.00012297684,0.0016871821,0.8967784601309566,-0.012629290065304765,0.4422995528797154,-0.018865933253509923,0.9975922714633423,0.06673632053899045,-0.44207744797447407,-0.06819208861044779,0.8943809976980283,0.022559445,-0.009971126,0.11227919,-0.05044503,0.06889923,-0.093760096,1.047179,-0.060935967,-0.00015974729,0.0023209322,0.8981652188114263,-0.012374239576764045,-0.4394839222455356,0.04469410493469014,0.9969952318785297,0.06326882799265572,0.43738047133075114,-0.07646820127591726,0.896019496156259,0.0027197327,-0.0064675915,0.09171622,-0.00016619716,-0.012021652,-0.006227369,1.5771496e-13,0.00019914132,-0.008734992,0.0019246545,0.999993815789883,-0.00021610827430784652,0.0035102249505144455,0.0011787136049179314,0.9609759515920718,-0.2766294111188278,-0.0033134598574631672,0.2766318379343303,0.960970263444633,left_images/camera_left_20.png,right_images/camera_right_20.png
2025-05-30 16:04:40,1.2242698669433594,21,-0.019660894,-0.013855829,0.11286358,0.025065681,0.0796222,0.08553714,1.0471802,0.060881693,0.00012091739,0.001679685,0.8965764269484139,-0.012601631637984428,0.44270973506404426,-0.019356327999112622,0.9975250759356844,0.0675947886001441,-0.4424658667138139,-0.06917312888375045,0.8941135470585522,0.022559859,-0.009969565,0.11227919,-0.050456263,0.068890676,-0.093763635,1.047179,-0.060935915,-0.00015987118,0.0023209509,0.898166205878611,-0.012387221059335544,-0.4394815392846982,0.04470539845859707,0.99699510131521,0.06326290620997543,0.4373772901812331,-0.07646780177238807,0.8960210830810958,0.0027197327,-0.0064675915,0.09171622,-0.00016621381,-0.012021652,-0.006227369,1.5840488e-13,0.00019914132,-0.008734992,0.0019246545,0.999993815789883,-0.00021610827430784652,0.0035102249505144455,0.0011787136049179314,0.9609759515920718,-0.2766294111188278,-0.0033134598574631672,0.2766318379343303,0.960970263444633,left_images/camera_left_21.png,right_images/camera_right_21.png
2025-05-30 16:04:40,1.2845792770385742,22,-0.01970225,-0.013788293,0.11286259,0.024689795,0.07892498,0.08591207,1.0471799,0.060881525,0.00012619112,0.0016801832,0.8967339581773445,-0.012598658197732225,0.4423906441858928,-0.01901076758885624,0.9975755591539798,0.06694471222066053,-0.442161507785645,-0.06844178248877858,0.8943203695781974,0.022559986,-0.0099685965,0.11227919,-0.050464634,0.068884596,-0.09376611,1.047179,-0.06093593,-0.00015986981,0.002321004,0.8981668309819999,-0.0123967020208962,-0.439479994428366,0.0447139184424218,0.9969949607420957,0.06325910015477217,0.4373751355773165,-0.07646809814473061,0.8960221095178689,0.0027197327,-0.0064675915,0.09171622,-0.00016623046,-0.012021652,-0.006227369,1.5824955e-13,0.00019914132,-0.008734992,0.0019246545,0.999993815789883,-0.00021610827430784652,0.0035102249505144455,0.0011787136049179314,0.9609759515920718,-0.2766294111188278,-0.0033134598574631672,0.2766318379343303,0.960970263444633,left_images/camera_left_22.png,right_images/camera_right_22.png
2025-05-30 16:04:40,1.3367738723754883,23,-0.019750059,-0.013682242,0.11285666,0.024434896,0.07833251,0.08620738,1.0471799,0.06088251,0.00012484286,0.0016861018,0.8968506355475095,-0.012567045789808325,0.4421549579933998,-0.018779013304169822,0.9976133517864545,0.0664450825623512,-0.4419347080478632,-0.06789454836371413,0.894474171860282,0.02256014,-0.009967731,0.11227919,-0.050470866,0.06887975,-0.09376808,1.047179,-0.060935806,-0.00015996999,0.002320934,0.8981673027459983,-0.012404448763628756,-0.4394788116949993,0.04472065398039098,0.9969948863104013,0.0632555118426519,0.43737347814601685,-0.07646781232505769,0.8960229429499422,0.0027197327,-0.0064675915,0.09171622,-0.0001662471,-0.012021652,-0.006227369,1.576227e-13,0.00019914132,-0.008734992,0.0019246545,0.999993815789883,-0.00021610827430784652,0.0035102249505144455,0.0011787136049179314,0.9609759515920718,-0.2766294111188278,-0.0033134598574631672,0.2766318379343303,0.960970263444633,left_images/camera_left_23.png,right_images/camera_right_23.png
2025-05-30 16:04:40,1.3916912078857422,24,-0.019642143,-0.013902704,0.11286107,0.025438562,0.07997213,0.085341156,1.0471802,0.06088303,0.000119791424,0.0016823504,0.8964886394374676,-0.012439081212997277,0.44289207332953556,-0.019715407610481732,0.9974957470193314,0.0679230254118494,-0.44262785956411604,-0.06962401839108857,0.8939983635336066,0.022560121,-0.009967366,0.11227919,-0.05047551,0.068876654,-0.09376942,1.047179,-0.0609359,-0.00015990535,0.0023209015,0.8981677007859938,-0.012409791289432301,-0.43947784738818657,0.04472532546264525,0.9969948285111538,0.06325311995684865,0.4373721830741662,-0.0764676990772428,0.8960235847737327,0.0027197327,-0.0064675915,0.09171622,-0.00016626375,-0.012021652,-0.006227369,1.5829752e-13,0.00019914132,-0.008734992,0.0019246545,0.999993815789883,-0.00021610827430784652,0.0035102249505144455,0.0011787136049179314,0.9609759515920718,-0.2766294111188278,-0.0033134598574631672,0.2766318379343303,0.960970263444633,left_images/camera_left_24.png,right_images/camera_right_24.png
2025-05-30 16:04:40,1.4494621753692627,25,-0.019663002,-0.013851337,0.11286502,0.024892764,0.079299435,0.085713916,1.0471799,0.060882423,0.00012654508,0.001677284,0.8966581228954219,-0.012583930731839301,0.44254474952596,-0.01919982103661991,0.9975502397455395,0.0672672732893082,-0.44230710769534354,-0.06881252699147866,0.8942199162461251,0.022560287,-0.009966988,0.11227919,-0.050478946,0.06887416,-0.09377074,1.047179,-0.06093587,-0.0001598924,0.0023209248,0.8981681332832099,-0.012413418275233911,-0.4394768610533188,0.04472857859548392,0.9969947708864361,0.06325172789679659,0.4373709622407294,-0.07646786169252326,0.8960241668151543,0.0027197327,-0.0064675915,0.09171622,-0.0001662804,-0.012021652,-0.006227369,1.5719714e-13,0.00019914132,-0.008734992,0.0019246545,0.999993815789883,-0.00021610827430784652,0.0035102249505144455,0.0011787136049179314,0.9609759515920718,-0.2766294111188278,-0.0033134598574631672,0.2766318379343303,0.960970263444633,left_images/camera_left_25.png,right_images/camera_right_25.png
2025-05-30 16:04:40,1.5133869647979736,26,-0.019760637,-0.013653405,0.112857506,0.024103818,0.07799777,0.08638926,1.0471799,0.060882982,0.0001278416,0.0016845167,0.8969343291596827,-0.012691731905940612,0.4419815936394837,-0.01846339528772459,0.9976410779427252,0.06611643241832381,-0.44177812554416857,-0.067462578830825,0.8945841985236357,0.022560319,-0.009966579,0.11227919,-0.050481502,0.06887215,-0.09377141,1.047179,-0.06093586,-0.0001599387,0.0023209825,0.8981683144836676,-0.012416542417947572,-0.43947640247452474,0.04473112036891709,0.9969947715727109,0.06324991958270869,0.4373703301872552,-0.07646734552121563,0.8960245193859542,0.002719706,-0.00646753,0.09171622,-0.00016626432,-0.012021764,-0.006227341,2.9627479e-12,0.00019914575,-0.008734987,0.001924661,0.9999938162578211,-0.0002160805917076089,0.003510093345905655,0.0011786514891882953,0.9609758770946625,-0.2766296701780401,-0.0033133407289498737,0.27663209674822997,0.9609701893513096,left_images/camera_left_26.png,right_images/camera_right_26.png
2025-05-30 16:04:41,1.5653064250946045,27,-0.019708274,-0.013773646,0.11285985,0.024807703,0.07903544,0.08584702,1.0471802,0.06088176,0.00012235722,0.0016833879,0.8966998536089857,-0.012563529122409312,0.44246076693150277,-0.01912148986191854,0.9975645221250751,0.0670775135409088,-0.4422258938179489,-0.06860890564176511,0.8942757275603287,0.022559876,-0.009969286,0.11227919,-0.050451025,0.068893746,-0.09376217,1.047179,-0.06093585,-0.00015990995,0.0023209006,0.898165738051304,-0.012381183781646904,-0.4394826655044789,0.044700221836219946,0.9969951490534659,0.06326581171256851,0.437378779959144,-0.07646815711145738,0.8960203255448106,0.0027197022,-0.0064675193,0.09171622,-0.00016626852,-0.012021764,-0.006227407,1.9807812e-12,0.00019914575,-0.008734987,0.001924661,0.9999938162578211,-0.0002160805917076089,0.003510093345905655,0.0011786514891882953,0.9609758770946625,-0.2766296701780401,-0.0033133407289498737,0.27663209674822997,0.9609701893513096,left_images/camera_left_27.png,right_images/camera_right_27.png
2025-05-30 16:04:41,1.622847080230713,28,-0.019709226,-0.0137363225,0.112865075,0.024492996,0.078567035,0.08610151,1.0471799,0.060881358,0.00012693426,0.0016771602,0.8968198158952376,-0.012608591527580058,0.44221628332448665,-0.01882806860310602,0.9976002676287361,0.06662739571490639,-0.44199516021140856,-0.0680788472784655,0.8944302929255731,0.022559604,-0.009971522,0.11227919,-0.050428335,0.06890979,-0.09375539,1.047179,-0.060935874,-0.00016003259,0.002321112,0.8981636817009012,-0.012354160920895585,-0.43948762847368394,0.04467630347100481,0.9969954920796397,0.06327729988743083,0.43738544646758526,-0.07646805529642942,0.8960170800478824,0.0027197022,-0.0064675193,0.09171622,-0.00016627274,-0.012021764,-0.0062274733,1.0569677e-12,0.00019914575,-0.008734987,0.001924661,0.9999938162578211,-0.0002160805917076089,0.003510093345905655,0.0011786514891882953,0.9609758770946625,-0.2766296701780401,-0.0033133407289498737,0.27663209674822997,0.9609701893513096,left_images/camera_left_28.png,right_images/camera_right_28.png
2025-05-30 16:04:41,1.6801714897155762,29,-0.019768355,-0.013686389,0.112859406,0.024197644,0.078142434,0.08633957,1.0471799,0.06088069,0.00012886623,0.0016838061,0.896906453399279,-0.012670587644645584,0.442038765335651,-0.01855019758297888,0.9976316128692962,0.06623484863302254,-0.4418310808672924,-0.06760636961519467,0.8945471897933022,0.02255921,-0.009973475,0.11227919,-0.05041157,0.068922,-0.093750216,1.047179,-0.060935814,-0.0001599805,0.0023209527,0.8981623614657666,-0.012334884566667613,-0.43949086801544024,0.044659208418507595,0.9969957384504622,0.06328548502658647,0.4373899033467399,-0.07646795495071766,0.8960149129986537,0.0027197022,-0.0064675193,0.09171622,-0.00016627696,-0.012021764,-0.0062275394,1.0540872e-12,0.00019914575,-0.008734987,0.001924661,0.9999938162578211,-0.0002160805917076089,0.003510093345905655,0.0011786514891882953,0.9609758770946625,-0.2766296701780401,-0.0033133407289498737,0.27663209674822997,0.9609701893513096,left_images/camera_left_29.png,right_images/camera_right_29.png
2025-05-30 16:04:41,1.7496521472930908,30,-0.019716894,-0.013802652,0.11285782,0.024824986,0.0791378,0.08580263,1.0471802,0.060881726,0.00012370787,0.0016861679,0.8966757479562686,-0.012586924230277453,0.442508951734863,-0.019135854680547428,0.9975593115053345,0.06715086816004548,-0.44227414811710514,-0.06868034192856129,0.8942463802218406,0.022558969,-0.009974657,0.11227919,-0.05039918,0.06893077,-0.09374641,1.047179,-0.060935847,-0.00015993408,0.002320909,0.8981612400446253,-0.012320363510788891,-0.439493567102481,0.044646371405396575,0.9969959198530506,0.06329168441984218,0.43739351664357384,-0.0764679307901785,0.8960131512198,0.0027197022,-0.0064675193,0.09171622,-0.00016628118,-0.012021764,-0.0062276055,1.0605581e-12,0.00019916128,-0.008734949,0.001924661,0.9999938161790108,-0.00021636772548293726,0.0035100981106601843,0.0011789287359387796,0.960975876895453,-0.2766296696886488,-0.003313265877449114,0.27663209721581977,0.9609701894747843,left_images/camera_left_30.png,right_images/camera_right_30.png
2025-05-30 16:04:41,1.8291053771972656,31,-0.019704364,-0.013757113,0.112862684,0.024449648,0.07868413,0.08603818,1.0471799,0.060882628,0.00012716668,0.0016793953,0.8967946084149532,-0.012695500313251954,0.4422649144909268,-0.01878063880087277,0.9975950588863869,0.06671870870825647,-0.44204832080226447,-0.06813899586332517,0.89439944058493,0.02255877,-0.009975601,0.11227919,-0.050389983,0.06893737,-0.09374357,1.047179,-0.06093592,-0.00015995305,0.0023209471,0.8981604532509124,-0.01230978534476546,-0.43949547142249523,0.044637056482398976,0.9969960447340929,0.06329628719887037,0.4373960829782345,-0.07646800618128183,0.8960118920114604,0.0027197022,-0.0064675193,0.09171622,-0.00016630102,-0.012021764,-0.0062276335,7.976869e-13,0.00019916128,-0.008734949,0.001924661,0.9999938161790108,-0.00021636772548293726,0.0035100981106601843,0.0011789287359387796,0.960975876895453,-0.2766296696886488,-0.003313265877449114,0.27663209721581977,0.9609701894747843,left_images/camera_left_31.png,right_images/camera_right_31.png
2025-05-30 16:04:41,1.8982558250427246,32,-0.01979026,-0.0135814035,0.112856336,0.023775125,0.07753998,0.08663077,1.0471799,0.06088303,0.00012816151,0.001685461,0.8970363433531265,-0.012774438094028099,0.44177212727268517,-0.018153320979555042,0.9976736111583587,0.06571014028027482,-0.44158380364441013,-0.0669640151844406,0.8947175895383487,0.022558698,-0.0099763265,0.11227919,-0.050383125,0.068942234,-0.093741454,1.047179,-0.06093598,-0.00015989234,0.0023210477,0.8981599341683335,-0.012301548966126754,-0.43949676284105743,0.04462962404175261,0.9969961709442682,0.06329954012755082,0.43739790730252304,-0.07646768608701054,0.896011028766874,0.0027197022,-0.0064675193,0.09171622,-0.00016632084,-0.012021764,-0.0062276614,3.3618534e-13,0.00019916128,-0.008734949,0.001924661,0.9999938161790108,-0.00021636772548293726,0.0035100981106601843,0.0011789287359387796,0.960975876895453,-0.2766296696886488,-0.003313265877449114,0.27663209721581977,0.9609701894747843,left_images/camera_left_32.png,right_images/camera_right_32.png
2025-05-30 16:04:41,1.9669198989868164,33,-0.019678706,-0.01382044,0.11286131,0.024976533,0.079373755,0.08566527,1.0471802,0.060882226,0.00012143352,0.0016818801,0.8966280222079879,-0.012568294560533391,0.4426061768245354,-0.01927710718852227,0.997541296555186,0.067377702583578,-0.44236476230576327,-0.0689449029213802,0.8941811994396479,0.022558639,-0.009976875,0.11227919,-0.050378073,0.06894591,-0.09373991,1.047179,-0.060935818,-0.00015997948,0.0023208987,0.8981595427016364,-0.012295927541572358,-0.43949772015322175,0.04462465528682989,0.9969962398047918,0.06330195854503694,0.43739921810003135,-0.07646769240011349,0.8960103883462974,0.0027197022,-0.0064675193,0.09171622,-0.00016634066,-0.012021764,-0.0062276893,3.3169593e-13,0.00019915812,-0.00873495,0.0019246619,0.9999938147591575,-0.0002164016050732141,0.0035105005018082926,0.0011790726075750439,0.9609758768599149,-0.27662966919891985,-0.003313643193516877,0.2766320973127723,0.9609701881458774,left_images/camera_left_33.png,right_images/camera_right_33.png
2025-05-30 16:04:41,2.037386178970337,34,-0.019723954,-0.013762813,0.11285903,0.024625333,0.07871853,0.086019576,1.0471799,0.060882125,0.00012691453,0.0016836794,0.8967739312970185,-0.01256156279242438,0.44231066377185846,-0.018954577463836584,0.9975889179585572,0.06676132682505875,-0.44208284307271806,-0.06825362925505771,0.8943736366610184,0.02255858,-0.009977483,0.11227919,-0.050374333,0.06894885,-0.093738794,1.047179,-0.060935877,-0.00015997209,0.002320881,0.8981591979751813,-0.012291409811914056,-0.43949855100718443,0.04462082866660705,0.9969962667584658,0.063304231444568,0.43740031634840454,-0.07646806728640208,0.896009820227322,0.0027197022,-0.0064675193,0.09171622,-0.00016635084,-0.012021764,-0.00622772,6.073046e-13,0.00019915812,-0.00873495,0.0019246619,0.9999938147591575,-0.0002164016050732141,0.0035105005018082926,0.0011790726075750439,0.9609758768599149,-0.27662966919891985,-0.003313643193516877,0.2766320973127723,0.9609701881458774,left_images/camera_left_34.png,right_images/camera_right_34.png
2025-05-30 16:04:41,2.0913004875183105,35,-0.019739844,-0.013750621,0.112855025,0.024795322,0.078831375,0.08595241,1.04718,0.060882043,0.00012320594,0.0016888352,0.8967334659299458,-0.012482421489935126,0.4423949369455017,-0.01911767102794123,0.9975766057656537,0.06689865681420727,-0.4421578968374694,-0.06844782526001299,0.8943216923911891,0.02255853,-0.009977748,0.11227919,-0.050371535,0.068950765,-0.0937379,1.047179,-0.06093584,-0.0001598355,0.0023209462,0.8981587778157384,-0.012287783843141612,-0.4394995110358635,0.04461757132490038,0.9969963245184267,0.06330561764816071,0.4374015113846845,-0.07646789695664395,0.8960092513882999,0.0027197022,-0.0064675193,0.09171622,-0.00016636103,-0.012021764,-0.006227751,6.09644e-13,0.00019915812,-0.00873495,0.0019246619,0.9999938147591575,-0.0002164016050732141,0.0035105005018082926,0.0011790726075750439,0.9609758768599149,-0.27662966919891985,-0.003313643193516877,0.2766320973127723,0.9609701881458774,left_images/camera_left_35.png,right_images/camera_right_35.png
2025-05-30 16:04:41,2.1427805423736572,36,-0.019636191,-0.013967433,0.112862565,0.025694702,0.08037298,0.08515137,1.0471802,0.060880866,0.00011969649,0.0016820729,0.8964000673159057,-0.012394443862413708,0.44307256412170387,-0.019954951647621552,0.9974669711169599,0.06827474961872226,-0.4427964760708705,-0.07004298174763554,0.8938821295266617,0.022558497,-0.009977723,0.11227919,-0.05036949,0.06895208,-0.093737364,1.047179,-0.06093585,-0.00015984586,0.0023209732,0.898158684405076,-0.01228559739243246,-0.43949976305392313,0.044615807173949515,0.9969963203456795,0.0633069266936276,0.43740188314404915,-0.07646830267428746,0.8960090352826546,0.0027197022,-0.0064675193,0.09171622,-0.00016637122,-0.012021764,-0.0062277815,6.1078096e-13,0.00019915812,-0.00873495,0.0019246619,0.9999938147591575,-0.0002164016050732141,0.0035105005018082926,0.0011790726075750439,0.9609758768599149,-0.27662966919891985,-0.003313643193516877,0.2766320973127723,0.9609701881458774,left_images/camera_left_36.png,right_images/camera_right_36.png
2025-05-30 16:04:41,2.216810941696167,37,-0.01967148,-0.01389018,0.11286337,0.025090257,0.07955052,0.08559179,1.0471799,0.060881257,0.00012606621,0.0016802577,0.8965950961373522,-0.012526355216788757,0.4426740606896175,-0.01938627419149159,0.9975314369041199,0.0674922570445992,-0.44242672382601916,-0.06909502741141922,0.8941389552142277,0.022558395,-0.00997771,0.11227919,-0.050367907,0.06895298,-0.09373692,1.047179,-0.06093585,-0.00015985564,0.0023209136,0.8981587435027962,-0.012283920324741668,-0.43949968915908666,0.044614210818680784,0.9969963563669554,0.06330748442357689,0.4374019246213998,-0.07646810245109084,0.8960090321224585,0.0027197022,-0.0064675193,0.09171622,-0.0001663814,-0.012021764,-0.0062278123,6.181234e-13,0.00019915812,-0.00873495,0.0019246619,0.9999938147591575,-0.0002164016050732141,0.0035105005018082926,0.0011790726075750439,0.9609758768599149,-0.27662966919891985,-0.003313643193516877,0.2766320973127723,0.9609701881458774,left_images/camera_left_37.png,right_images/camera_right_37.png
2025-05-30 16:04:41,2.2847630977630615,38,-0.01969474,-0.013859995,0.11285822,0.025075825,0.079493836,0.085611716,1.04718,0.060881786,0.00012373622,0.001685909,0.8965942875897752,-0.012526625772216308,0.4426756906677239,-0.01937278313174322,0.9975335213781286,0.06746531702053321,-0.4424289533191899,-0.06906487800404376,0.8941401813424853,0.022558384,-0.0099776955,0.11227919,-0.05036675,0.06895375,-0.09373647,1.047179,-0.060935877,-0.00015986635,0.002320923,0.8981584784094078,-0.012282535509663257,-0.4395002696048675,0.04461301882420453,0.9969963719553638,0.06330807894126139,0.4374025905418126,-0.07646812165403091,0.896008705403031,0.0027197022,-0.0064675193,0.09171622,-0.00016639159,-0.012021764,-0.006227843,6.165572e-13,0.00019915812,-0.00873495,0.0019246619,0.9999938147591575,-0.0002164016050732141,0.0035105005018082926,0.0011790726075750439,0.9609758768599149,-0.27662966919891985,-0.003313643193516877,0.2766320973127723,0.9609701881458774,left_images/camera_left_38.png,right_images/camera_right_38.png
2025-05-30 16:04:41,2.3501532077789307,39,-0.01961989,-0.013961651,0.11286451,0.025465203,0.08024566,0.08521232,1.0471802,0.060882334,0.000121437304,0.0016788496,0.8964397927192277,-0.012526093096394733,0.44298848181555284,-0.019732477584344488,0.9974808762356671,0.0681361201750511,-0.44272601838822534,-0.06982118973396338,0.8939343790828511,0.022558337,-0.009977693,0.11227919,-0.05036596,0.0689542,-0.09373602,1.047179,-0.060935825,-0.00015990235,0.002320922,0.8981581865984968,-0.012281572728866652,-0.4395008928516588,0.04461209786598542,0.9969964016239414,0.06330826070038627,0.4374032836754835,-0.07646788947144999,0.8960083868523143,0.0027197022,-0.0064675193,0.09171622,-0.00016640178,-0.012021764,-0.0062278737,6.042772e-13,0.00019915812,-0.00873495,0.0019246619,0.9999938147591575,-0.0002164016050732141,0.0035105005018082926,0.0011790726075750439,0.9609758768599149,-0.27662966919891985,-0.003313643193516877,0.2766320973127723,0.9609701881458774,left_images/camera_left_39.png,right_images/camera_right_39.png
2025-05-30 16:04:41,2.419839859008789,40,-0.01968926,-0.013872696,0.11286043,0.02491886,0.07940266,0.085671656,1.0471799,0.060881797,0.0001269569,0.001682993,0.8966269758253235,-0.012606234646976317,0.44260721759858385,-0.019221410130618347,0.9975442244854041,0.06735026049247364,-0.4423693068183249,-0.06889559524264863,0.8941827516460132,0.022558225,-0.009977749,0.11227919,-0.050365288,0.06895465,-0.09373602,1.047179,-0.0609359,-0.00015989813,0.00232107,0.8981582907685922,-0.012280552353784672,-0.4395007084835328,0.04461131406072019,0.9969963890460374,0.06330901110378007,0.4374031497159309,-0.07646821733928882,0.8960084242659411,0.0027197022,-0.0064675193,0.09171622,-0.00016641196,-0.012021764,-0.0062279045,6.101689e-13,0.00019915812,-0.00873495,0.0019246619,0.9999938147591575,-0.0002164016050732141,0.0035105005018082926,0.0011790726075750439,0.9609758768599149,-0.27662966919891985,-0.003313643193516877,0.2766320973127723,0.9609701881458774,left_images/camera_left_40.png,right_images/camera_right_40.png
2025-05-30 16:04:41,2.4767990112304688,41,-0.019703966,-0.013842071,0.11285719,0.024978977,0.07938483,0.08567118,1.04718,0.060881995,0.00012370758,0.0016868636,0.8966190741367591,-0.012562427629037597,0.4426244698457216,-0.01928022743969471,0.9975419155830919,0.06736764419726435,-0.4423827626886185,-0.06893701521592557,0.8941729023008385,0.022558114,-0.0099777505,0.11227919,-0.05036484,0.06895509,-0.0937358,1.047179,-0.06093593,-0.00015989706,0.0023210682,0.898158326008922,-0.01228019818512752,-0.4395006463628749,0.04461101979461875,0.9969963885859213,0.06330922570616837,0.4374031073663457,-0.07646828021581514,0.8960084395735904,0.0027197022,-0.0064675193,0.09171622,-0.00016642215,-0.012021764,-0.006227935,6.0885016e-13,0.00019915812,-0.00873495,0.0019246619,0.9999938147591575,-0.0002164016050732141,0.0035105005018082926,0.0011790726075750439,0.9609758768599149,-0.27662966919891985,-0.003313643193516877,0.2766320973127723,0.9609701881458774,left_images/camera_left_41.png,right_images/camera_right_41.png
2025-05-30 16:04:41,2.5363731384277344,42,-0.019656274,-0.013856744,0.11286419,0.0250449,0.07948106,0.08561123,1.04718,0.060882535,0.00012352737,0.0016783234,0.8966120339510746,-0.012545199060404428,0.4426392194040784,-0.019343238087685104,0.9975348802532096,0.06745370129576309,-0.44239428083373794,-0.06904187612420254,0.894159113148689,0.022558056,-0.0099777505,0.11227919,-0.050364505,0.06895509,-0.0937358,1.047179,-0.06093598,-0.00015986172,0.0023209415,0.8981585762918666,-0.012279881637380616,-0.4395001437318756,0.044610582919333786,0.9969964130608788,0.06330914811730572,0.4374026379949767,-0.07646801194430015,0.8960086916008806,0.0027197022,-0.0064675193,0.09171622,-0.00016643234,-0.012021764,-0.006227966,6.166596e-13,0.00019915812,-0.00873495,0.0019246619,0.9999938147591575,-0.0002164016050732141,0.0035105005018082926,0.0011790726075750439,0.9609758768599149,-0.27662966919891985,-0.003313643193516877,0.2766320973127723,0.9609701881458774,left_images/camera_left_42.png,right_images/camera_right_42.png
2025-05-30 16:04:42,2.5891218185424805,43,-0.019721046,-0.013771414,0.11285999,0.024676368,0.07877612,0.08599182,1.0471799,0.06088176,0.00012686098,0.0016829418,0.8967615489333038,-0.01254302941399589,0.4423362937492931,-0.019003329888812176,0.997584474647154,0.06681384135116288,-0.4421058671945875,-0.0683219463721652,0.8943570393506389,0.022557689,-0.009980704,0.11227919,-0.050331824,0.06897829,-0.09372589,1.047179,-0.060935903,-0.00015995608,0.0023210514,0.8981554749126665,-0.012241380216767964,-0.43950755567429267,0.044576746863272204,0.9969968596929599,0.06332594572104351,0.4374124558394408,-0.07646836190716601,0.8960038689111472,0.0027197022,-0.0064675193,0.09171622,-0.00016644252,-0.012021764,-0.0062279967,6.1118726e-13,0.00019915812,-0.00873495,0.0019246619,0.9999938147591575,-0.0002164016050732141,0.0035105005018082926,0.0011790726075750439,0.9609758768599149,-0.27662966919891985,-0.003313643193516877,0.2766320973127723,0.9609701881458774,left_images/camera_left_43.png,right_images/camera_right_43.png
2025-05-30 16:04:42,2.658717632293701,44,-0.019731645,-0.013756357,0.1128549,0.024838127,0.078870736,0.085926324,1.0471799,0.06088251,0.00012318086,0.0016885074,0.8967244005597081,-0.012462573813033208,0.44241387149906,-0.019159487093312146,0.997573344627368,0.06693531312608879,-0.44217447178139224,-0.06849895140015684,0.8943095829531995,0.022564238,-0.009983716,0.11227954,-0.050302725,0.06899907,-0.09372434,1.047179,-0.06093509,-0.00016001766,0.0023210803,0.8981532512638346,-0.012207371595185427,-0.43951304568003474,0.0445466698757461,0.9969972730885462,0.0633406003838312,0.43742008578388875,-0.07646840872373349,0.8960001400781563,0.0027197022,-0.0064675193,0.09171622,-0.00016645271,-0.012021764,-0.0062280274,6.132592e-13,0.00019915812,-0.00873495,0.0019246619,0.9999938147591575,-0.0002164016050732141,0.0035105005018082926,0.0011790726075750439,0.9609758768599149,-0.27662966919891985,-0.003313643193516877,0.2766320973127723,0.9609701881458774,left_images/camera_left_44.png,right_images/camera_right_44.png
2025-05-30 16:04:42,2.727741003036499,45,-0.019637616,-0.01388785,0.11286376,0.02528793,0.07980385,0.08543364,1.0471802,0.06088294,0.00012124097,0.0016789455,0.896535487509641,-0.01248753620912539,0.4427958684035753,-0.019572314565126557,0.9975096732920874,0.06775969444497938,-0.4425393136642375,-0.06941551071726705,0.8940584112536758,0.022573542,-0.009974065,0.11227777,-0.050267313,0.0689943,-0.09372412,1.047179,-0.06093511,-0.0001610126,0.0023230184,0.8981506590894993,-0.012173682243571043,-0.4395192772083278,0.044510682344943556,0.996998773783278,0.06334227839151374,0.4374290716610933,-0.07645421201786767,0.8959969646881853,0.0027197022,-0.0064675193,0.09171622,-0.0001664629,-0.012021764,-0.006228058,6.167743e-13,0.00019915513,-0.008734949,0.0019246591,0.999993813528248,-0.00021634944337442638,0.003510854333362023,0.0011791203072880135,0.9609758814919275,-0.27662965290459024,-0.0033139976663655543,0.27663208126269717,0.9609701915438044,left_images/camera_left_45.png,right_images/camera_right_45.png
2025-05-30 16:04:42,2.783872365951538,46,-0.019715551,-0.013818534,0.112858295,0.02478464,0.07905319,0.08585227,1.0471799,0.06088191,0.00012717803,0.001685177,0.8966989771183052,-0.012569395643414381,0.4424623766244366,-0.01910082393728741,0.997566858927912,0.0670486427425366,-0.4422285641610028,-0.06857384531918036,0.8942770961945963,0.022585588,-0.009963982,0.11227512,-0.05023411,0.06898485,-0.09372753,1.047179,-0.06093552,-0.00016203648,0.0023261337,0.8981487884484022,-0.012143922870585626,-0.43952392306446836,0.04447720890280943,0.9970003819889454,0.06334047838557166,0.43743631730445437,-0.0764379712656641,0.8959948129603801,0.0027197022,-0.0064675193,0.09171622,-0.00016646028,-0.01202182,-0.006228058,5.570326e-13,0.00019915513,-0.008734949,0.0019246591,0.999993813528248,-0.00021634944337442638,0.003510854333362023,0.0011791203072880135,0.9609758814919275,-0.27662965290459024,-0.0033139976663655543,0.27663208126269717,0.9609701915438044,left_images/camera_left_46.png,right_images/camera_right_46.png
2025-05-30 16:04:42,2.8344171047210693,47,-0.019719554,-0.013806804,0.11285581,0.024846418,0.079158254,0.08578892,1.04718,0.060882233,0.00012383488,0.0016881758,0.8966678994479814,-0.01257736781702987,0.4425251268779436,-0.019156752720472996,0.9975577010888317,0.06716883074441621,-0.4422891553325173,-0.06870547880016936,0.8942370268883346,0.022586368,-0.009952221,0.11227429,-0.050219104,0.06898373,-0.093722336,1.047179,-0.060935788,-0.00016321207,0.0023269644,0.898147062084659,-0.012125793581217289,-0.43952795132815103,0.044461676496917554,0.9970005268059067,0.06334910316514464,0.4374414408715517,-0.07643896047677781,0.8959922271590588,0.0027197022,-0.0064675193,0.09171622,-0.00016645766,-0.012021876,-0.006228058,1.152894e-13,0.00019915513,-0.008734949,0.0019246591,0.999993813528248,-0.00021634944337442638,0.003510854333362023,0.0011791203072880135,0.9609758814919275,-0.27662965290459024,-0.0033139976663655543,0.27663208126269717,0.9609701915438044,left_images/camera_left_47.png,right_images/camera_right_47.png
2025-05-30 16:04:42,2.886199712753296,48,-0.019642834,-0.013916142,0.1128629,0.025328355,0.079962306,0.08536028,1.0471802,0.060882248,0.000121642894,0.0016805604,0.8964992936576178,-0.012521100122460563,0.44286819542965117,-0.019606326431209492,0.9975000632025974,0.067891206166094,-0.4426111255213375,-0.0695474367790614,0.8940126093082789,0.022593683,-0.009954981,0.11227307,-0.05020283,0.06898236,-0.09372678,1.047179,-0.060935773,-0.00016284711,0.0023283344,0.8981462756314385,-0.012113359760529196,-0.4395299012407329,0.04444571435318856,0.9970015436225714,0.0633443011631258,0.43744467769651874,-0.07642766861236842,0.8959916101311813,0.0027197022,-0.0064675193,0.09171622,-0.00016645504,-0.012021932,-0.006228058,1.1629383e-13,0.00019915513,-0.008734949,0.0019246591,0.999993813528248,-0.00021634944337442638,0.003510854333362023,0.0011791203072880135,0.9609758814919275,-0.27662965290459024,-0.0033139976663655543,0.27663208126269717,0.9609701915438044,left_images/camera_left_48.png,right_images/camera_right_48.png
2025-05-30 16:04:42,2.942981719970703,49,-0.019680396,-0.013847102,0.11286459,0.024812583,0.07925952,0.085746646,1.0471799,0.060881346,0.00012675545,0.0016784715,0.8966667103116251,-0.012635324091066723,0.4425258853491414,-0.01912030775162361,0.9975545913179042,0.06722537595321997,-0.4422931431193693,-0.06873998782137129,0.8942324024681204,0.02258224,-0.009949523,0.11227431,-0.050210007,0.068992674,-0.09371426,1.047179,-0.060936045,-0.00016384321,0.0023266599,0.8981457320904525,-0.012112235914572465,-0.43953104289555606,0.04445216360308782,0.9970002684284021,0.06335984457603042,0.43744513836446935,-0.07644447981930519,0.8959899510744784,0.0027197022,-0.0064675193,0.09171622,-0.00016645242,-0.012021988,-0.006228058,1.1580281e-13,0.00019915513,-0.008734949,0.0019246591,0.999993813528248,-0.00021634944337442638,0.003510854333362023,0.0011791203072880135,0.9609758814919275,-0.27662965290459024,-0.0033139976663655543,0.27663208126269717,0.9609701915438044,left_images/camera_left_49.png,right_images/camera_right_49.png
2025-05-30 16:04:42,3.0009965896606445,50,-0.019757647,-0.013750159,0.112857975,0.024471555,0.07861455,0.086096406,1.0471799,0.06088023,0.00012743904,0.0016860655,0.8967965493987827,-0.012647522654662144,0.44226235331207714,-0.018804358425134962,0.997598593232759,0.06665915454188924,-0.4420433746711467,-0.06809615958863043,0.8944051475470298,0.022596685,-0.00995407,0.112273805,-0.050191168,0.068992674,-0.09372643,1.047179,-0.060935073,-0.0001631483,0.0023279572,0.8981453914856012,-0.01209761608212969,-0.4395321415304067,0.04443317181298659,0.9970014881619494,0.06335397261021512,0.43744776716290795,-0.07643088569412022,0.8959898273508459,0.0027197022,-0.0064675193,0.09171622,-0.0001664498,-0.012022044,-0.006228058,1.1533918e-13,0.00019915513,-0.008734949,0.0019246591,0.999993813528248,-0.00021634944337442638,0.003510854333362023,0.0011791203072880135,0.9609758814919275,-0.27662965290459024,-0.0033139976663655543,0.27663208126269717,0.9609701915438044,left_images/camera_left_50.png,right_images/camera_right_50.png
2025-05-30 16:04:42,3.0537099838256836,51,-0.019665577,-0.013846064,0.11285914,0.02510916,0.07947603,0.085597284,1.04718,0.060883917,0.00012244249,0.0016833767,0.8966001666131783,-0.012494241427183032,0.44266469834444666,-0.019407259858448208,0.9975329344063084,0.06746408703544479,-0.44241552808870455,-0.06907922050731805,0.8941457162007174,0.022624806,-0.009964336,0.112274736,-0.050137065,0.069031596,-0.09373961,1.047179,-0.060931932,-0.00016280301,0.0023285458,0.8981409457965784,-0.012034176956516266,-0.4395429672610024,0.04437559075146383,0.9970025145865623,0.06337817332118384,0.4374627394751306,-0.07642751136240583,0.8959828051239953,0.0027197022,-0.0064675193,0.09171622,-0.000166431,-0.012022016,-0.0062280428,2.3786847e-12,0.00019915812,-0.00873495,0.0019246619,0.9999938147591575,-0.0002164016050732141,0.0035105005018082926,0.0011790726075750439,0.9609758768599149,-0.27662966919891985,-0.003313643193516877,0.2766320973127723,0.9609701881458774,left_images/camera_left_51.png,right_images/camera_right_51.png
2025-05-30 16:04:42,3.1271324157714844,52,-0.01966102,-0.013783667,0.11286315,0.02469849,0.07889847,0.08589633,1.0471799,0.060885243,0.00012595888,0.0016773883,0.8967450332374965,-0.012577120034671221,0.442368807010072,-0.019022353302627075,0.997576765404171,0.06692344283269724,-0.4421385477864499,-0.06842816070438204,0.8943327632284886,0.022620147,-0.009981179,0.11227572,-0.050123446,0.069061816,-0.09372922,1.047179,-0.060931712,-0.00016145891,0.002327446,0.8981387774129486,-0.012016002027752215,-0.43954789523150156,0.044361577785457476,0.9970023965353616,0.06338983924202987,0.43746861250100993,-0.07643191086198642,0.8959795623106738,0.0027197022,-0.0064675193,0.09171622,-0.00016644216,-0.012022016,-0.006228021,5.537903e-12,0.00019915812,-0.00873495,0.0019246619,0.9999938147591575,-0.0002164016050732141,0.0035105005018082926,0.0011790726075750439,0.9609758768599149,-0.27662966919891985,-0.003313643193516877,0.2766320973127723,0.9609701881458774,left_images/camera_left_52.png,right_images/camera_right_52.png
2025-05-30 16:04:42,3.1945714950561523,53,-0.019681137,-0.013787942,0.11285545,0.024853848,0.07894476,0.085859045,1.0471799,0.060886636,0.0001254917,0.0016854592,0.896716081115018,-0.01246771342844888,0.44243058889682435,-0.01917606794894671,0.9975701925026966,0.06697752942704296,-0.4421906243779283,-0.06854390674596178,0.8942981519383002,0.02264513,-0.009991972,0.11227605,-0.050084334,0.06908322,-0.09374608,1.047179,-0.060929373,-0.00016044159,0.002328773,0.898136512599109,-0.01197539985811433,-0.4395536310105384,0.0443208106822543,0.997003719805886,0.06339754280486022,0.43747739424658055,-0.07642102126682544,0.8959762033847535,0.0027197022,-0.0064675193,0.09171622,-0.00016645233,-0.012022016,-0.006228051,1.4447762e-12,0.00019915812,-0.00873495,0.0019246619,0.9999938147591575,-0.0002164016050732141,0.0035105005018082926,0.0011790726075750439,0.9609758768599149,-0.27662966919891985,-0.003313643193516877,0.2766320973127723,0.9609701881458774,left_images/camera_left_53.png,right_images/camera_right_53.png
2025-05-30 16:04:42,3.2549684047698975,54,-0.019608328,-0.013979355,0.11286479,0.025730375,0.08046755,0.08509339,1.0471802,0.06088201,0.000119273376,0.0016789837,0.8963857386274585,-0.012404873506705195,0.4431012600959158,-0.01998730304467459,0.9974605921781268,0.06835842865851419,-0.44282402295077233,-0.0701319197294889,0.8938615097053628,0.022627195,-0.009976473,0.112276435,-0.05011508,0.069062315,-0.09373234,1.047179,-0.060930762,-0.00016196858,0.002327459,0.8981373571615439,-0.012005720140591876,-0.4395510782091012,0.0443526473346198,0.9970025097320829,0.06339430780708148,0.4374724338118786,-0.07643205003029772,0.895977684645593,0.0027197022,-0.0064675193,0.09171622,-0.0001664635,-0.012022016,-0.0062280297,5.582486e-12,0.00019915812,-0.00873495,0.0019246619,0.9999938147591575,-0.0002164016050732141,0.0035105005018082926,0.0011790726075750439,0.9609758768599149,-0.27662966919891985,-0.003313643193516877,0.2766320973127723,0.9609701881458774,left_images/camera_left_54.png,right_images/camera_right_54.png
2025-05-30 16:04:42,3.3109846115112305,55,-0.019671513,-0.013926011,0.11286595,0.025122236,0.07963193,0.08557296,1.0471799,0.0608798,0.00012885267,0.0016782824,0.8965854261797982,-0.01252321764706417,0.4426937345182935,-0.019415217966566437,0.9975276238919969,0.06754027601140658,-0.4424450506823415,-0.06915062250009416,0.8941255887930672,0.02262705,-0.009998017,0.112275705,-0.050134435,0.06906164,-0.09374199,1.047179,-0.060931176,-0.00015942156,0.002327974,0.8981403736286955,-0.012033593659988184,-0.4395441523689444,0.04437317052926723,0.9970028677106827,0.06337431272886321,0.43746415966943863,-0.07642299654097237,0.8959824968181079,0.0027197022,-0.0064675193,0.09171622,-0.00016647368,-0.012022016,-0.00622806,1.4436315e-12,0.00019915513,-0.008734949,0.0019246591,0.999993813528248,-0.00021634944337442638,0.003510854333362023,0.0011791203072880135,0.9609758814919275,-0.27662965290459024,-0.0033139976663655543,0.27663208126269717,0.9609701915438044,left_images/camera_left_55.png,right_images/camera_right_55.png
2025-05-30 16:04:42,3.3639957904815674,56,-0.019706735,-0.01375207,0.11285844,0.024820976,0.07878837,0.08595223,1.0471799,0.060883462,0.00012422726,0.0016837604,0.8967473208616399,-0.012435142004043193,0.44236818349742346,-0.019147228941809556,0.9975788540839128,0.06685666390478233,-0.4421285176861144,-0.06842365912435826,0.8943380662370984,0.022585414,-0.009972149,0.112279855,-0.05014871,0.06908662,-0.09369584,1.0471791,-0.06093266,-0.00016291923,0.0023220787,0.8981382254335575,-0.01202234265132028,-0.43954884972234254,0.044385537390547035,0.9969991378957744,0.06342431005249369,0.43746731544838013,-0.07647340918421741,0.8959766546077697,0.0027197022,-0.0064675193,0.09171622,-0.00016647106,-0.0120220715,-0.00622806,5.576368e-13,0.0001991516,-0.008734944,0.0019246582,0.9999938126883611,-0.00021643781402889056,0.003511088103123176,0.0011792711689322052,0.9609757752985394,-0.276630021163433,-0.0033141974149648924,0.27663245009225496,0.960970084680814,left_images/camera_left_56.png,right_images/camera_right_56.png
2025-05-30 16:04:42,3.4306328296661377,57,-0.019646658,-0.013955818,0.11285748,0.025682101,0.080285676,0.08518527,1.0471802,0.06088271,0.000119879434,0.0016869828,0.896410894287983,-0.012366704541932368,0.4430514340577073,-0.019946372194064654,0.9974723361269492,0.06819883355118521,-0.4427749437785682,-0.06997144617784436,0.8938983979634748,0.022582661,-0.010027321,0.11227681,-0.050175574,0.06908104,-0.093711555,1.0471792,-0.060934752,-0.00015639348,0.0023245625,0.8981441569836934,-0.012077074721228934,-0.4395352290115421,0.04441693860348876,0.9970013944788467,0.06336682864345564,0.43745195032271234,-0.07643535617378264,0.8959874036421731,0.0027197022,-0.0064675193,0.09171622,-0.00016647542,-0.012022099,-0.006228102,2.2097187e-12,0.0001991516,-0.008734944,0.0019246582,0.9999938126883611,-0.00021643781402889056,0.003511088103123176,0.0011792711689322052,0.9609757752985394,-0.276630021163433,-0.0033141974149648924,0.27663245009225496,0.960970084680814,left_images/camera_left_57.png,right_images/camera_right_57.png
2025-05-30 16:04:42,3.4975006580352783,58,-0.019701732,-0.013854977,0.11286203,0.025197955,0.07941991,0.08566972,1.0471799,0.060879346,0.00012432353,0.0016828366,0.8966142353187171,-0.012387133885861584,0.4426392119299036,-0.019496468874113246,0.9975349884588548,0.06740797061055337,-0.4423830927208601,-0.06906884764122123,0.8941625655104561,0.022552025,-0.009994949,0.11227696,-0.05020476,0.06905976,-0.09368291,1.0471792,-0.0609375,-0.00015972732,0.0023228163,0.8981443019097568,-0.012098761195392514,-0.43953433645686024,0.04444683507222131,0.996999293013568,0.06337892853707944,0.43744861618148745,-0.07645933368779986,0.8959869856716219,0.0027197022,-0.0064675193,0.09171622,-0.0001664637,-0.012022044,-0.00622813,8.9415243e-13,0.00019915513,-0.008734949,0.0019246591,0.999993813528248,-0.00021634944337442638,0.003510854333362023,0.0011791203072880135,0.9609758814919275,-0.27662965290459024,-0.0033139976663655543,0.27663208126269717,0.9609701915438044,left_images/camera_left_58.png,right_images/camera_right_58.png
2025-05-30 16:04:43,3.5624589920043945,59,-0.0197438,-0.013691053,0.112855084,0.02465075,0.07831106,0.08532024,1.04718,0.060876362,0.00012601685,0.0016908422,0.8964562532318211,-0.012367155260249988,0.4429596364369262,-0.019055297258153255,0.9976100146279938,0.06641652174223883,-0.4427223528216849,-0.06798023377940632,0.8940780760802318,0.022547971,-0.010016102,0.112278216,-0.050227042,0.06907364,-0.093688615,1.0471792,-0.060937233,-0.000157537,0.0023214733,0.8981471805074439,-0.012121967135512841,-0.43952781488694675,0.04446971393314491,0.9969985674956894,0.06337429253449009,0.43744038072545705,-0.07646511835018904,0.8959905127770375,0.0027197022,-0.0064675193,0.09171622,-0.0001664449,-0.012022016,-0.0062281145,2.7330564e-12,0.00019915513,-0.008734949,0.0019246591,0.999993813528248,-0.00021634944337442638,0.003510854333362023,0.0011791203072880135,0.9609758814919275,-0.27662965290459024,-0.0033139976663655543,0.27663208126269717,0.9609701915438044,left_images/camera_left_59.png,right_images/camera_right_59.png
2025-05-30 16:04:43,3.613828420639038,60,-0.019595936,-0.0138387745,0.112858616,0.025591526,0.07948559,0.08398273,1.0471802,0.060877223,0.000121140096,0.001686668,0.8959042188631506,-0.012086843384655703,0.44408280628752406,-0.01999522306442538,0.9975196423694995,0.06748891865802545,-0.44379705010039405,-0.06934314172303205,0.8934403768680749,0.02253329,-0.009996806,0.11227812,-0.05023776,0.06905438,-0.09367451,1.0471792,-0.060938653,-0.00015943099,0.0023207292,0.898147453948991,-0.012131849854890416,-0.439526983453853,0.0444808859416314,0.9969980326194571,0.06337486677524061,0.4374386834183652,-0.07647052485781901,0.8959908800189749,0.0027197022,-0.0064675193,0.09171622,-0.00016644226,-0.0120220715,-0.0062281145,5.6768576e-13,0.0001991516,-0.008734944,0.0019246582,0.9999938126883611,-0.00021643781402889056,0.003511088103123176,0.0011792711689322052,0.9609757752985394,-0.276630021163433,-0.0033141974149648924,0.27663245009225496,0.960970084680814,left_images/camera_left_60.png,right_images/camera_right_60.png
2025-05-30 16:04:43,3.684213638305664,61,-0.019560669,-0.013729426,0.112863116,0.024977839,0.07849375,0.08397244,1.0471799,0.060878918,0.00012723758,0.0016790507,0.8959315564750234,-0.012150421931812084,0.4440259151886528,-0.019458826403060552,0.9975925750846261,0.06656131166856663,-0.4437657041584639,-0.06827460276635414,0.8935382355724008,0.022517027,-0.010011177,0.112278454,-0.050263926,0.06906249,-0.09366636,1.0471792,-0.060939934,-0.00015810403,0.0023195753,0.8981495684932859,-0.012158643685444458,-0.43952192209155483,0.044508096152544946,0.996997085558642,0.06337066170121526,0.4374315740686767,-0.07647861643168279,0.8959936602657942,0.0027197022,-0.0064675193,0.09171622,-0.00016644663,-0.012022099,-0.0062281564,2.2387656e-12,0.0001991516,-0.008734944,0.0019246582,0.9999938126883611,-0.00021643781402889056,0.003511088103123176,0.0011792711689322052,0.9609757752985394,-0.276630021163433,-0.0033141974149648924,0.27663245009225496,0.960970084680814,left_images/camera_left_61.png,right_images/camera_right_61.png
2025-05-30 16:04:43,3.735970973968506,62,-0.019638728,-0.0134952385,0.11285416,0.024219211,0.07688246,0.08441766,1.0471799,0.060879987,0.0001300734,0.0016869484,0.8961156093320614,-0.012089495133869484,0.4436560140681478,-0.01878924893886082,0.9976993332414965,0.06513834948620333,-0.4434227991835128,-0.06670745503226304,0.8938267934042796,0.022543946,-0.010009593,0.11227871,-0.050207883,0.06908272,-0.09367977,1.0471792,-0.060937192,-0.00015852891,0.0023207283,0.8981460453330496,-0.012097490262746431,-0.43953080891098717,0.044449383298351894,0.9969986203722901,0.06338772199840165,0.43744477774571744,-0.07646830523225431,0.8959880940715155,0.0027197022,-0.0064675193,0.09171622,-0.0001664349,-0.012022044,-0.0062281843,8.9133925e-13,0.00019915513,-0.008734949,0.0019246591,0.999993813528248,-0.00021634944337442638,0.003510854333362023,0.0011791203072880135,0.9609758814919275,-0.27662965290459024,-0.0033139976663655543,0.27663208126269717,0.9609701915438044,left_images/camera_left_62.png,right_images/camera_right_62.png
2025-05-30 16:04:43,3.793578624725342,63,-0.019501701,-0.013545704,0.11284676,0.025059631,0.07755137,0.083666086,1.0471802,0.060890324,0.00012318057,0.0016896687,0.8958227379562833,-0.01168362342976275,0.4442579375813782,-0.01962378578417545,0.9976393578404802,0.06580743665522205,-0.44397807287297986,-0.06766982068238224,0.8934787441102386,0.02262179,-0.010015547,0.11228212,-0.050163846,0.069107205,-0.09374645,1.0471792,-0.060928345,-0.00015824052,0.002322155,0.8981429613832593,-0.012044376300605904,-0.4395385693170036,0.04439956940363512,0.996999744561342,0.06340494918687793,0.4374561682665827,-0.07646203204302242,0.8959830682001592,0.0027197022,-0.0064675193,0.09171622,-0.0001664161,-0.012022016,-0.006228169,2.7308488e-12,0.00019915513,-0.008734949,0.0019246591,0.999993813528248,-0.00021634944337442638,0.003510854333362023,0.0011791203072880135,0.9609758814919275,-0.27662965290459024,-0.0033139976663655543,0.27663208126269717,0.9609701915438044,left_images/camera_left_63.png,right_images/camera_right_63.png
2025-05-30 16:04:43,3.8660061359405518,64,-0.019446056,-0.013452958,0.112847894,0.024794146,0.076879896,0.08375737,1.0471799,0.060895942,0.00012495014,0.0016840948,0.8958953077408007,-0.011607195374512012,0.44411357847239225,-0.019401301505356093,0.9976827635722393,0.06521267339066394,-0.44384139855123256,-0.06704010953449471,0.8935941118011514,0.022661367,-0.010014034,0.11228329,-0.05017625,0.06908317,-0.09378649,1.0471792,-0.060924333,-0.0001579388,0.0023233546,0.8981428890244584,-0.012063690367630539,-0.4395381874985534,0.04441151120308056,0.9970004449633172,0.0633855694587202,0.43745510463070175,-0.07644985361438916,0.8959846267179367,0.0027197022,-0.0064675193,0.09171622,-0.00016641346,-0.0120220715,-0.006228169,5.677441e-13,0.0001991516,-0.008734944,0.0019246582,0.9999938126883611,-0.00021643781402889056,0.003511088103123176,0.0011792711689322052,0.9609757752985394,-0.276630021163433,-0.0033141974149648924,0.27663245009225496,0.960970084680814,left_images/camera_left_64.png,right_images/camera_right_64.png
2025-05-30 16:04:43,3.9337408542633057,65,-0.019554192,-0.013321809,0.11284691,0.0238608,0.07588646,0.08419022,1.0471799,0.0608903,0.0001286845,0.0016876059,0.8960625286139513,-0.01196399526080124,0.4437666139215198,-0.018515665958281077,0.9977596718229833,0.06428691467020235,-0.44354155941477796,-0.06582172970297918,0.8938335331429532,0.022629714,-0.010019243,0.11228219,-0.050169513,0.06909919,-0.093749076,1.0471792,-0.06092756,-0.00015763572,0.0023226393,0.8981404153442548,-0.012054670830692896,-0.4395434895848339,0.04440614678065259,0.997000144044609,0.06339406047197095,0.4374607278983389,-0.07645520051763917,0.8959814249528073,0.0027197022,-0.0064675193,0.09171622,-0.00016641783,-0.012022099,-0.006228211,2.2397353e-12,0.0001991516,-0.008734944,0.0019246582,0.9999938126883611,-0.00021643781402889056,0.003511088103123176,0.0011792711689322052,0.9609757752985394,-0.276630021163433,-0.0033141974149648924,0.27663245009225496,0.960970084680814,left_images/camera_left_65.png,right_images/camera_right_65.png
2025-05-30 16:04:43,3.9934444427490234,66,-0.019560935,-0.013469189,0.11285742,0.024416225,0.07714865,0.08350126,1.0471802,0.06087809,0.00012250763,0.0016837511,0.8957386596225364,-0.012067495265584155,0.4444171792534999,-0.019020848715778624,0.9976760162108231,0.06542762407296517,-0.4441739084770219,-0.06705924422267888,0.8934274434964093,0.02254514,-0.010006521,0.112279266,-0.050134785,0.06912796,-0.09365158,1.0471792,-0.060936682,-0.00015958471,0.0023204284,0.8981363611804019,-0.012010362537859604,-0.43955298647300334,0.04437414321458355,0.9969994479955927,0.06342740819594783,0.43747229871112836,-0.07647124876836353,0.8959744058689448,0.0027197022,-0.0064675193,0.09171622,-0.0001664061,-0.012022044,-0.006228239,8.961529e-13,0.00019915513,-0.008734949,0.0019246591,0.999993813528248,-0.00021634944337442638,0.003510854333362023,0.0011791203072880135,0.9609758814919275,-0.27662965290459024,-0.0033139976663655543,0.27663208126269717,0.9609701915438044,left_images/camera_left_66.png,right_images/camera_right_66.png
2025-05-30 16:04:43,4.0581374168396,67,-0.019494258,-0.013511971,0.11286526,0.02459776,0.07735152,0.0832822,1.04718,0.06087869,0.00012373127,0.001674436,0.895666232715519,-0.011990917471645615,0.44456520047275194,-0.019202988123156663,0.9976613753566707,0.06559744940604338,-0.444312102941538,-0.06729040064990476,0.8933413441456988,0.022543106,-0.009984238,0.11228006,-0.050226413,0.06906426,-0.09368032,1.0471793,-0.060936593,-0.00016111226,0.0023197709,0.8981463881983665,-0.012109949542906367,-0.4395297651903651,0.04446733900797473,0.9969972695797809,0.06339637380806237,0.43744224890581734,-0.07648394323340024,0.8959879939484072,0.0027197022,-0.0064675193,0.09171622,-0.0001663873,-0.012022016,-0.0062282234,2.7329228e-12,0.00019915513,-0.008734949,0.0019246591,0.999993813528248,-0.00021634944337442638,0.003510854333362023,0.0011791203072880135,0.9609758814919275,-0.27662965290459024,-0.0033139976663655543,0.27663208126269717,0.9609701915438044,left_images/camera_left_67.png,right_images/camera_right_67.png
2025-05-30 16:04:43,4.1127235889434814,68,-0.019511413,-0.013526949,0.11285171,0.024775581,0.07728372,0.08322829,1.0471799,0.06088326,0.00012633181,0.001687319,0.8956307187198971,-0.011797947646882462,0.44464190548867755,-0.019390215557616393,0.9976622670207289,0.06552877614978708,-0.44437555651263017,-0.06731128727324381,0.8933082085034868,0.022517713,-0.009944422,0.11228105,-0.050256982,0.06863676,-0.0929849,1.0471793,-0.0609328,-0.00015756031,0.0023194905,0.8978508630787755,-0.012340216107661995,-0.44012673940027136,0.04457759077465438,0.9970185309107283,0.06298323127103496,0.43803728844634404,-0.0761693382341571,0.8957240455874482,0.0027197022,-0.0064675193,0.09171622,-0.00016638466,-0.0120220715,-0.0062282234,5.6764765e-13,0.0001991516,-0.008734944,0.0019246582,0.9999938126883611,-0.00021643781402889056,0.003511088103123176,0.0011792711689322052,0.9609757752985394,-0.276630021163433,-0.0033141974149648924,0.27663245009225496,0.960970084680814,left_images/camera_left_68.png,right_images/camera_right_68.png
2025-05-30 16:04:43,4.169520378112793,69,-0.019460624,-0.013431425,0.11285378,0.02438861,0.07683312,0.08336477,1.0471799,0.060888894,0.00012377405,0.0016811443,0.8957238556888187,-0.01194107570436481,0.44445043037551374,-0.019024959654374115,0.9976942954835955,0.06514709256476385,-0.444203585375114,-0.06680945644529,0.8934314026658001,0.021643134,-0.009236935,0.11231895,-0.05178888,0.06366739,-0.08347375,1.0471799,-0.060919926,-0.00014472532,0.00226878,0.8939584630413911,-0.015933725548253595,-0.44786647870411866,0.04705416660290307,0.9971810567901149,0.05844523405938237,0.4456727182159349,-0.07332159551661896,0.8921881930786336,0.0027197022,-0.0064675193,0.09171622,-0.00016638903,-0.012022099,-0.0062282654,2.2385362e-12,0.0001991516,-0.008734944,0.0019246582,0.9999938126883611,-0.00021643781402889056,0.003511088103123176,0.0011792711689322052,0.9609757752985394,-0.276630021163433,-0.0033141974149648924,0.27663245009225496,0.960970084680814,left_images/camera_left_69.png,right_images/camera_right_69.png
2025-05-30 16:04:43,4.2350194454193115,70,-0.019327987,-0.01380077,0.11287564,0.02055391,0.07920374,0.08202392,1.0471802,0.060884885,0.00012634188,0.0016602715,0.8952596171724123,-0.016238795098850563,0.4452488286273679,-0.015127982214031029,0.9976514680898089,0.06680338593500361,-0.44528795404146926,-0.06654209007828522,0.8929114111901447,0.02112082,-0.008628413,0.11230923,-0.047840856,0.059717644,-0.07556643,1.0471799,-0.06091609,-0.00013632202,0.0022718767,0.8908054393702841,-0.014347712657414906,-0.4541583560057169,0.043833994712920786,0.9975531724250166,0.05446328205582975,0.4522656852955162,-0.06842376287727452,0.8892547096180553,0.0027197022,-0.0064675193,0.09171622,-0.0001663773,-0.012022044,-0.0062282933,8.91761e-13,0.00019915513,-0.008734949,0.0019246591,0.999993813528248,-0.00021634944337442638,0.003510854333362023,0.0011791203072880135,0.9609758814919275,-0.27662965290459024,-0.0033139976663655543,0.27663208126269717,0.9609701915438044,left_images/camera_left_70.png,right_images/camera_right_70.png
2025-05-30 16:04:43,4.287691116333008,71,-0.018927526,-0.014475349,0.11295376,0.01322166,0.08298504,0.07985355,1.0471799,0.060877193,0.00014164508,0.0015776735,0.8945788309082556,-0.024073692816727655,0.44626132770494964,-0.007717848345710262,0.9975670319533272,0.06928529120052834,-0.4468435409712568,-0.0654253320510888,0.8922165520871452,0.020671606,-0.007841108,0.11225803,-0.044706464,0.05597361,-0.07064344,1.04718,-0.060950134,-0.0001548228,0.002303497,0.8889040419670204,-0.013243997165799404,-0.45790195535045036,0.04118644818081071,0.9978442931949275,0.05109249479683868,0.4562381841329624,-0.06427568029502209,0.8875332986776717,0.0027197022,-0.0064675193,0.09171622,-0.0001663585,-0.012022016,-0.006228278,2.730448e-12,0.00019915513,-0.008734949,0.0019246591,0.999993813528248,-0.00021634944337442638,0.003510854333362023,0.0011791203072880135,0.9609758814919275,-0.27662965290459024,-0.0033139976663655543,0.27663208126269717,0.9609701915438044,left_images/camera_left_71.png,right_images/camera_right_71.png
2025-05-30 16:04:43,4.346449613571167,72,-0.018686373,-0.014842473,0.11300478,0.0075636,0.08420396,0.076333754,1.0471798,0.060853817,0.00016687618,0.001531654,0.893169500890736,-0.029325359293208234,0.44876303990070066,-0.0022558527196174065,0.9975669904497203,0.06967790678253077,-0.44971452479000606,-0.06324652454808802,0.8909302572735349,0.020371003,-0.007861903,0.11226145,-0.04300646,0.05536981,-0.06641453,1.0471799,-0.060944613,-0.00013879515,0.002299334,0.8871619338897968,-0.012136687327086337,-0.4612986059784269,0.03974842628542087,0.9979485259977487,0.0501876684729703,0.4597431518410556,-0.06286048265520124,0.885824358468205,0.0027197022,-0.0064675193,0.09171622,-0.00016635587,-0.0120220715,-0.006228278,5.688397e-13,0.0001991516,-0.008734944,0.0019246582,0.9999938126883611,-0.00021643781402889056,0.003511088103123176,0.0011792711689322052,0.9609757752985394,-0.276630021163433,-0.0033141974149648924,0.27663245009225496,0.960970084680814,left_images/camera_left_72.png,right_images/camera_right_72.png
2025-05-30 16:04:43,4.402498722076416,73,-0.018267198,-0.014331365,0.11302532,0.0032658195,0.080488086,0.06764225,1.0471799,0.0608164,0.00017893192,0.0015181061,0.8894667156926658,-0.03131693430288734,0.4559256642269343,0.0012100548043456824,0.9978071420204797,0.06617736093478549,-0.45699835606079925,-0.058310864843449474,0.8875541367144519,0.019784858,-0.008236344,0.11232781,-0.042402457,0.055739466,-0.0637271,1.0471799,-0.06094654,-0.00010061427,0.002219553,0.8862050064703773,-0.011659674424918687,-0.46314656265500165,0.039281112198217644,0.9979745308150967,0.05003828603038386,0.4616250434403548,-0.06253709168719288,0.8848680305175445,0.0027197022,-0.0064675193,0.09171622,-0.00016636023,-0.012022099,-0.00622832,2.2391238e-12,0.0001991516,-0.008734944,0.0019246582,0.9999938126883611,-0.00021643781402889056,0.003511088103123176,0.0011792711689322052,0.9609757752985394,-0.276630021163433,-0.0033141974149648924,0.27663245009225496,0.960970084680814,left_images/camera_left_73.png,right_images/camera_right_73.png
2025-05-30 16:04:43,4.456246376037598,74,-0.01754561,-0.01307488,0.11302992,0.004304155,0.07274401,0.05628027,1.0471799,0.06078653,0.0001750472,0.0015130518,0.8845720616902878,-0.027049679976619244,0.4656184945748575,-0.0009425672876011305,0.9982110819883958,0.05978082771645801,-0.466402593521844,-0.05331932678418749,0.882964138653082,0.019818982,-0.007961912,0.11236997,-0.042729303,0.054660026,-0.062518045,1.04718,-0.060911573,-0.00011170356,0.0021897564,0.8856212089339459,-0.012354727450933248,-0.46424393910528233,0.039717672163175344,0.9979985050962209,0.04920864094492801,0.46270679787994734,-0.062018904660768356,0.8843393436121475,0.0027197022,-0.0064675193,0.09171622,-0.0001663485,-0.012022044,-0.006228348,8.956451e-13,0.00019915513,-0.008734949,0.0019246591,0.999993813528248,-0.00021634944337442638,0.003510854333362023,0.0011791203072880135,0.9609758814919275,-0.27662965290459024,-0.0033139976663655543,0.27663208126269717,0.9609701915438044,left_images/camera_left_74.png,right_images/camera_right_74.png
2025-05-30 16:04:43,4.505673170089722,75,-0.01692557,-0.012143549,0.11302391,0.002049563,0.06713713,0.047605418,1.0471799,0.06077942,0.00017112016,0.0015125116,0.8808147904383725,-0.02654121601742767,0.4727164782375605,0.0005687627658008901,0.9984861161531522,0.055001385058104466,-0.4734606440391029,-0.04817716992217247,0.8794964348104931,0.020091418,-0.00734688,0.112367205,-0.048841793,0.052997313,-0.062093977,1.04718,-0.060877778,-0.00015517065,0.0022113677,0.8850644348435447,-0.018100055798472077,-0.4651164737516494,0.04589935438432564,0.9977673719841279,0.04851309793229867,0.4631999519021765,-0.06428576346267431,0.8839191960659313,0.0027197022,-0.0064675193,0.09171622,-0.0001663297,-0.012022016,-0.0062283324,2.7324503e-12,0.00019915513,-0.008734949,0.0019246591,0.999993813528248,-0.00021634944337442638,0.003510854333362023,0.0011791203072880135,0.9609758814919275,-0.27662965290459024,-0.0033139976663655543,0.27663208126269717,0.9609701915438044,left_images/camera_left_75.png,right_images/camera_right_75.png
2025-05-30 16:04:43,4.560503721237183,76,-0.016241081,-0.011611772,0.11302968,-0.0026684753,0.0635531,0.040716387,1.0471799,0.060791504,0.00017713409,0.001491488,0.8778856208150415,-0.028978603225557984,0.47799275864942264,0.004779106993510109,0.9986477917641845,0.051766283823188444,-0.4788465275038904,-0.04316049767569878,0.8768370284938086,0.019915204,-0.006940987,0.1124013,-0.053782295,0.052138463,-0.061437093,1.0443151,-0.060868207,-0.00018827833,0.0021760026,0.884628455133381,-0.02256327707556783,-0.4657503568393042,0.050884076568242,0.997534873889777,0.048321694149771804,0.46351192769995175,-0.06644602246423754,0.883595845949129,0.0027197022,-0.0064675193,0.09171622,-0.00016632707,-0.0120220715,-0.0062283324,5.680561e-13,0.0001991516,-0.008734944,0.0019246582,0.9999938126883611,-0.00021643781402889056,0.003511088103123176,0.0011792711689322052,0.9609757752985394,-0.276630021163433,-0.0033141974149648924,0.27663245009225496,0.960970084680814,left_images/camera_left_76.png,right_images/camera_right_76.png
2025-05-30 16:04:44,4.612818479537964,77,-0.015447321,-0.011560098,0.11297861,-0.005259135,0.062489387,0.034656968,1.0471799,0.060849305,0.0001907247,0.0015130732,0.875359794761619,-0.030644286371069675,0.48249990407014975,0.007019331696830765,0.9986895820271277,0.050693665610315894,-0.48342109873010897,-0.040988369854002865,0.8744278099644849,0.019723812,-0.006758059,0.112446666,-0.06204701,0.051370047,-0.061158158,1.044173,-0.060854696,-0.0001990319,0.0021303352,0.8841757881557505,-0.02993122826049918,-0.466194484323845,0.059170127558854965,0.9970833376581365,0.04820491436751942,0.4633919201322211,-0.07020640525855845,0.8833679805250159,0.0027197022,-0.0064675193,0.09171622,-0.00016633143,-0.012022099,-0.0062283743,2.2433143e-12,0.0001991516,-0.008734944,0.0019246582,0.9999938126883611,-0.00021643781402889056,0.003511088103123176,0.0011792711689322052,0.9609757752985394,-0.276630021163433,-0.0033141974149648924,0.27663245009225496,0.960970084680814,left_images/camera_left_77.png,right_images/camera_right_77.png
2025-05-30 16:04:44,4.664034366607666,78,-0.014887527,-0.011367521,0.112941846,-0.0066173906,0.0612298,0.029346706,1.0471799,0.060881104,0.00019125774,0.0015337672,0.8730575721088472,-0.031238854287241356,0.48661546396125355,0.00807638919571482,0.9987352760278971,0.049624795768243676,-0.48755025148282394,-0.03939520783421578,0.872205692413627,0.019716723,-0.0066509796,0.11243657,-0.068359986,0.051097564,-0.06078983,1.0373442,-0.06085247,-0.00020935017,0.0021430124,0.8836536896296282,-0.03540130709855003,-0.466800711502948,0.06548689509589506,0.9966798942954599,0.04838031498336627,0.46353815740955306,-0.07332077306537793,0.8830381876580714,0.0027197022,-0.0064675193,0.09171622,-0.0001663197,-0.012022044,-0.0062284023,8.941716e-13,0.00019915513,-0.008734949,0.0019246591,0.999993813528248,-0.00021634944337442638,0.003510854333362023,0.0011791203072880135,0.9609758814919275,-0.27662965290459024,-0.0033139976663655543,0.27663208126269717,0.9609701915438044,left_images/camera_left_78.png,right_images/camera_right_78.png
2025-05-30 16:04:44,4.721921920776367,79,-0.014944749,-0.010565316,0.11288708,-0.009761715,0.057709806,0.026670545,1.0471798,0.060882814,0.00016306399,0.0015921341,0.8717147529214911,-0.03254401007009219,0.48893177126014403,0.01101417450925993,0.9988413426790089,0.04684719965029505,-0.4898898626210831,-0.035452215216439924,0.8710631796473456,0.019830672,-0.0067475447,0.11238384,-0.07275657,0.0509004,-0.06058429,1.0429966,-0.060863383,-0.00019708285,0.0021977779,0.883232703268673,-0.039292364292988685,-0.4672858889213104,0.06989264998735326,0.9963833545558891,0.048324199338413365,0.46369710949547394,-0.07534136229336744,0.882784611201012,0.0027197022,-0.0064675193,0.09171622,-0.0001663009,-0.012022016,-0.006228387,2.7300514e-12,0.00019915513,-0.008734949,0.0019246591,0.999993813528248,-0.00021634944337442638,0.003510854333362023,0.0011791203072880135,0.9609758814919275,-0.27662965290459024,-0.0033139976663655543,0.27663208126269717,0.9609701915438044,left_images/camera_left_79.png,right_images/camera_right_79.png
2025-05-30 16:04:44,4.775041341781616,80,-0.015242009,-0.0095808655,0.1127963,-0.0143809505,0.053261064,0.02559696,1.0471797,0.06089248,0.00013131069,0.0016873255,0.8710110136734535,-0.0347385059912248,0.4900337235956731,0.015492143095604123,0.9989429208586273,0.04327856708278587,-0.49101915192978796,-0.030104436017495996,0.870628460004737,0.019968694,-0.0069361813,0.1123132,-0.07887391,0.050564878,-0.06060068,1.0469034,-0.06088142,-0.00017260088,0.0022687651,0.8827672967162934,-0.04476541576782718,-0.46767291711124515,0.0760134188439062,0.995943553592776,0.04814974779429897,0.46362038350774537,-0.0780544400282731,0.882589170785595,0.0027197022,-0.0064675193,0.09171622,-0.00016629827,-0.0120220715,-0.006228387,5.683339e-13,0.0001991516,-0.008734944,0.0019246582,0.9999938126883611,-0.00021643781402889056,0.003511088103123176,0.0011792711689322052,0.9609757752985394,-0.276630021163433,-0.0033141974149648924,0.27663245009225496,0.960970084680814,left_images/camera_left_80.png,right_images/camera_right_80.png
2025-05-30 16:04:44,4.827113389968872,81,-0.015259573,-0.0095263645,0.11277772,-0.014380509,0.053261098,0.025596887,1.0471797,0.060900193,0.00012465019,0.0017042691,0.8710017970579358,-0.03476674249353599,0.49004810288198736,0.015493294674116462,0.998940546181022,0.043332932230610105,-0.49103546444425755,-0.030150602182208774,0.8706176622640174,0.019976627,-0.006947235,0.1122993,-0.07887472,0.05056509,-0.060600773,1.0441535,-0.060887787,-0.00017159377,0.0022810176,0.8827630007896841,-0.04477107535641044,-0.46768048414299135,0.07601472517715321,0.9959439907411531,0.04813864209580147,0.463628348996299,-0.07804561562327776,0.8825857668742169,0.0027197022,-0.0064675193,0.09171622,-0.00016630263,-0.012022099,-0.006228429,2.2376853e-12,0.00019914826,-0.008734944,0.0019246591,0.9999938114921041,-0.00021644815655068469,0.0035114281552716922,0.0011793751771834648,0.9609757752811847,-0.27663002078031496,-0.0033145213358119177,0.2766324501444499,0.9609700835485946,left_images/camera_left_81.png,right_images/camera_right_81.png
2025-05-30 16:04:44,4.881636142730713,82,-0.015259236,-0.009527415,0.11277847,-0.014380514,0.053261057,0.025596831,1.0471797,0.060899846,0.00012472164,0.0017035436,0.8710021140392106,-0.034766284293342636,0.49004757199241405,0.015493255251784951,0.9989405825557971,0.0433321077815014,-0.4910349034243175,-0.03014992536506672,0.8706180021223728,0.019976394,-0.0069469293,0.112299874,-0.07887472,0.05056498,-0.06060066,1.0469795,-0.06088747,-0.00017151248,0.0022805957,0.8827631399199797,-0.04477096480298556,-0.46768023211295584,0.0760147277252398,0.9959439765221247,0.04813893224984527,0.46362808366995634,-0.07804586049181186,0.8825858845985566,0.0027197022,-0.0064675193,0.09171622,-0.00016635764,-0.012022044,-0.006228429,8.992892e-13,0.00019915035,-0.008734948,0.0019246591,0.9999938119750078,-0.00021642640095920635,0.003511291971034757,0.001179315717377918,0.9609758487715901,-0.27662976573781944,-0.0033143967975531705,0.2766321948677252,0.9609701574640772,left_images/camera_left_82.png,right_images/camera_right_82.png
2025-05-30 16:04:44,4.9335548877716064,83,-0.015259243,-0.009527383,0.11277847,-0.014380514,0.053261057,0.025596831,1.0471797,0.060899846,0.00012472164,0.0017035436,0.8710021140392106,-0.034766284293342636,0.49004757199241405,0.015493255251784951,0.9989405825557971,0.0433321077815014,-0.4910349034243175,-0.03014992536506672,0.8706180021223728,0.019976387,-0.0069469125,0.112299874,-0.07887472,0.05056498,-0.06060066,1.0471666,-0.06088747,-0.00017151248,0.0022805957,0.8827631399199797,-0.04477096480298556,-0.46768023211295584,0.0760147277252398,0.9959439765221247,0.04813893224984527,0.46362808366995634,-0.07804586049181186,0.8825858845985566,0.0027197022,-0.006467546,0.09171622,-0.00016633407,-0.012021988,-0.0062284567,3.0427283e-13,0.00019915035,-0.008734948,0.0019246591,0.9999938119750078,-0.00021642640095920635,0.003511291971034757,0.001179315717377918,0.9609758487715901,-0.27662976573781944,-0.0033143967975531705,0.2766321948677252,0.9609701574640772,left_images/camera_left_83.png,right_images/camera_right_83.png
2025-05-30 16:04:44,4.983710050582886,84,-0.015259243,-0.009527383,0.11277847,-0.014380514,0.053261057,0.025596831,1.0471797,0.060899846,0.00012472164,0.0017035436,0.8710021140392106,-0.034766284293342636,0.49004757199241405,0.015493255251784951,0.9989405825557971,0.0433321077815014,-0.4910349034243175,-0.03014992536506672,0.8706180021223728,0.019976387,-0.0069469125,0.112299874,-0.07887472,0.05056498,-0.06060066,1.0471791,-0.06088747,-0.00017151248,0.0022805957,0.8827631399199797,-0.04477096480298556,-0.46768023211295584,0.0760147277252398,0.9959439765221247,0.04813893224984527,0.46362808366995634,-0.07804586049181186,0.8825858845985566,0.0027197022,-0.006467574,0.09171622,-0.00016631049,-0.012021932,-0.0062284847,3.0180378e-13,0.00019915035,-0.008734948,0.0019246591,0.9999938119750078,-0.00021642640095920635,0.003511291971034757,0.001179315717377918,0.9609758487715901,-0.27662976573781944,-0.0033143967975531705,0.2766321948677252,0.9609701574640772,left_images/camera_left_84.png,right_images/camera_right_84.png
2025-05-30 16:04:44,5.038909912109375,85,-0.015259243,-0.009527383,0.11277841,-0.01438051,0.053261053,0.025596831,1.0371623,0.060899876,0.00012471792,0.0017035734,0.8710021140392106,-0.034766284293342636,0.49004757199241405,0.015493255251784951,0.9989405825557971,0.0433321077815014,-0.4910349034243175,-0.03014992536506672,0.8706180021223728,0.019976387,-0.0069469125,0.112299874,-0.07887472,0.05056498,-0.06060066,1.0471791,-0.06088747,-0.00017151248,0.0022805957,0.8827631399199797,-0.04477096480298556,-0.46768023211295584,0.0760147277252398,0.9959439765221247,0.04813893224984527,0.46362808366995634,-0.07804586049181186,0.8825858845985566,0.0027197022,-0.0064676018,0.09171622,-0.00016628692,-0.012021876,-0.0062285126,3.0653087e-13,0.00019915035,-0.008734948,0.0019246591,0.9999938119750078,-0.00021642640095920635,0.003511291971034757,0.001179315717377918,0.9609758487715901,-0.27662976573781944,-0.0033143967975531705,0.2766321948677252,0.9609701574640772,left_images/camera_left_85.png,right_images/camera_right_85.png
2025-05-30 16:04:44,5.0933544635772705,86,-0.015259243,-0.009527383,0.11277833,-0.014380507,0.05326105,0.025596831,1.0208805,0.060899936,0.00012471792,0.0017036628,0.8710021140392106,-0.034766284293342636,0.49004757199241405,0.015493255251784951,0.9989405825557971,0.0433321077815014,-0.4910349034243175,-0.03014992536506672,0.8706180021223728,0.019976387,-0.0069469125,0.112299874,-0.07887472,0.05056498,-0.06060066,1.0471791,-0.06088747,-0.00017151248,0.0022805957,0.8827631399199797,-0.04477096480298556,-0.46768023211295584,0.0760147277252398,0.9959439765221247,0.04813893224984527,0.46362808366995634,-0.07804586049181186,0.8825858845985566,0.0027197215,-0.006467667,0.09171622,-0.00016629627,-0.012021792,-0.0062285545,4.5360686e-12,0.00019915035,-0.008734948,0.0019246591,0.9999938119750078,-0.00021642640095920635,0.003511291971034757,0.001179315717377918,0.9609758487715901,-0.27662976573781944,-0.0033143967975531705,0.2766321948677252,0.9609701574640772,left_images/camera_left_86.png,right_images/camera_right_86.png
2025-05-30 16:04:44,5.158292531967163,87,-0.015276095,-0.008499718,0.11277473,0.08716355,0.044429522,0.037443373,1.0384226,0.060918514,0.00013783723,0.0016925838,0.8732759584097025,0.056177074930375645,0.4839764836393215,-0.08565050063672704,0.9955621586386013,0.03898692123682429,-0.47963850158665694,-0.07549916912864194,0.8742120928336505,0.01934665,-0.0072559165,0.11230032,-0.17048056,0.05019482,-0.06244743,1.0471797,-0.06088745,-0.0001727209,0.002280905,0.87407643857319,-0.1228176813123205,-0.47000659217533736,0.16668724624451825,0.9846002666084877,0.0527036709719018,0.45629567329816745,-0.12441114158933046,0.8810880355434477,0.0027197252,-0.0064677,0.09171622,-0.00016627272,-0.012021736,-0.0062285825,6.846908e-13,0.0001991349,-0.008734985,0.0019246619,0.9999938120662292,-0.00021613823463508187,0.003511283741699892,0.001179036477348579,0.9609758525287195,-0.2766297538763423,-0.0033144686204999163,0.27663218204136003,0.9609701609086515,left_images/camera_left_87.png,right_images/camera_right_87.png
2025-05-30 16:04:44,5.23238468170166,88,-0.020409554,-0.009575355,0.11235782,0.20383357,0.06260035,0.064083874,1.0466008,0.06070321,-0.00014464487,0.0023379894,0.8689080008038791,0.14529967365708302,0.4731668743415491,-0.1986885594762996,0.9779338431043647,0.06456202323627117,-0.45334505894763993,-0.1501113031929076,0.8786039233815701,0.01877767,-0.012073607,0.11208442,-0.27933788,0.06984717,-0.06345418,1.0471802,-0.06089112,-9.638432e-06,0.0025521806,0.8535461294037832,-0.20548916943925954,-0.4787830471340682,0.2716539674558161,0.959667195694915,0.07240853176644331,0.44459321513641487,-0.19186733632961323,0.874942168548553,0.0027197252,-0.0064677,0.09171622,-0.00016623348,-0.012021736,-0.0062285825,2.740417e-13,0.0001991349,-0.008734985,0.0019246619,0.9999938120662292,-0.00021613823463508187,0.003511283741699892,0.001179036477348579,0.9609758525287195,-0.2766297538763423,-0.0033144686204999163,0.27663218204136003,0.9609701609086515,left_images/camera_left_88.png,right_images/camera_right_88.png
2025-05-30 16:04:44,5.283814191818237,89,-0.027884224,-0.01031912,0.11172966,0.32049236,0.07876176,0.0874979,1.0471417,0.060284797,-0.00044682293,0.0033655064,0.8510258623448187,0.2313462449282452,0.47141690315246226,-0.30818573831820234,0.9468997389739389,0.09166479710527276,-0.42517823594055487,-0.22329307935689968,0.877133780214735,0.018366884,-0.020592205,0.111496866,-0.38076007,0.10672377,-0.06521389,1.0471803,-0.060937323,0.00030816946,0.0032702694,0.8253221538128881,-0.27137618623652976,-0.4951750276108154,0.365648209372677,0.9250981060097884,0.10244452762181731,0.4302844749792984,-0.2656096003551427,0.8627321779039953,0.0027197252,-0.0064677,0.09171622,-0.00016619425,-0.012021736,-0.0062285825,5.4673656e-14,0.0001991349,-0.008734985,0.0019246619,0.9999938120662292,-0.00021613823463508187,0.003511283741699892,0.001179036477348579,0.9609758525287195,-0.2766297538763423,-0.0033144686204999163,0.27663218204136003,0.9609701609086515,left_images/camera_left_89.png,right_images/camera_right_89.png
2025-05-30 16:04:44,5.33458399772644,90,-0.036396977,-0.010517496,0.11120808,0.43716004,0.08549183,0.11430817,1.0471776,0.059735052,-0.0006702407,0.0043564187,0.8240477258368908,0.31702307073333313,0.46951221301032886,-0.41295420721104903,0.9034971628878897,0.11472444987982205,-0.3878326550069532,-0.2884254657209413,0.8754407932201445,0.017874075,-0.030451883,0.110652745,-0.46968293,0.1466361,-0.070481576,1.0471802,-0.061064634,0.0007578118,0.0042772563,0.7951137464574469,-0.32220206484626523,-0.5137898009918122,0.4442202731839753,0.8861819174058474,0.13171923988260154,0.4128710199163381,-0.3329676240593055,0.8477441136578558,0.0027197252,-0.0064677,0.09171622,-0.00016615502,-0.012021736,-0.0062285825,5.570674e-14,0.0001991349,-0.008734985,0.0019246619,0.9999938120662292,-0.00021613823463508187,0.003511283741699892,0.001179036477348579,0.9609758525287195,-0.2766297538763423,-0.0033144686204999163,0.27663218204136003,0.9609701609086515,left_images/camera_left_90.png,right_images/camera_right_90.png
2025-05-30 16:04:44,5.406181812286377,91,-0.047249984,-0.0102900285,0.11098234,0.55383885,0.07778913,0.15227646,1.0471804,0.05895994,-0.00078200415,0.0051517477,0.7914031989781997,0.4038815286512154,0.4588689218735892,-0.5113731362227094,0.8486946116941478,0.13496285278205344,-0.3349305781752733,-0.34146327312857155,0.8781937946191035,0.017352102,-0.042241048,0.10971141,-0.5536022,0.18903899,-0.08111994,1.0471802,-0.061200157,0.0014062629,0.005441084,0.7634022152388544,-0.3640665375585327,-0.5335471994102787,0.5139781331528456,0.8426725302857142,0.16040413131396652,0.391207791856356,-0.3966844626803701,0.8304203156587997,0.0027197252,-0.0064677,0.09171622,-0.00016611579,-0.012021736,-0.0062285825,5.1465153e-14,0.0001991349,-0.008734985,0.0019246619,0.9999938120662292,-0.00021613823463508187,0.003511283741699892,0.001179036477348579,0.9609758525287195,-0.2766297538763423,-0.0033144686204999163,0.27663218204136003,0.9609701609086515,left_images/camera_left_91.png,right_images/camera_right_91.png
2025-05-30 16:04:44,5.4760706424713135,92,-0.058764674,-0.010654588,0.111089416,0.6704974,0.06396803,0.18175621,1.0471807,0.057933513,-0.00074728293,0.0057171807,0.7452029461338098,0.4872379639749197,0.455271057212146,-0.6039744629310332,0.7825471527440295,0.15111188523535374,-0.2826436222536435,-0.38758111434096926,0.8774357313248374,0.0167724,-0.05872772,0.10881018,-0.65704256,0.23613846,-0.103907466,1.0471804,-0.061235175,0.0025362135,0.0067031006,0.7219868583697882,-0.4122208628492794,-0.5557058003774289,0.593174420916807,0.7822330472430283,0.19040894456641588,0.35620090217647365,-0.46710322203200594,0.8092808519024681,0.0027197252,-0.0064677,0.09171622,-0.00016607656,-0.012021736,-0.0062285825,5.416628e-14,0.0001991349,-0.008734985,0.0019246619,0.9999938120662292,-0.00021613823463508187,0.003511283741699892,0.001179036477348579,0.9609758525287195,-0.2766297538763423,-0.0033144686204999163,0.27663218204136003,0.9609701609086515,left_images/camera_left_92.png,right_images/camera_right_92.png
2025-05-30 16:04:44,5.530930280685425,93,-0.070635624,-0.012979721,0.1115195,0.7871598,0.04941465,0.20544909,1.0471807,0.05667142,-0.0004977563,0.00606406,0.687509704642711,0.5635931143953145,0.4579227090113376,-0.6889286580983861,0.7055799581496974,0.1659344048358514,-0.22958159785324517,-0.4295575910907188,0.8733685166431692,0.0148401875,-0.080485426,0.108181626,-0.7600009,0.28780222,-0.13212089,1.0471802,-0.061178073,0.0042574233,0.007818608,0.6764357668721506,-0.4505848781322964,-0.5825872646175753,0.6638468914381234,0.7155940112296956,0.21733043003715383,0.31897015224629643,-0.5337588207146533,0.7831727544324283,0.0027197252,-0.0064677,0.09171622,-0.00016603732,-0.012021736,-0.0062285825,5.3473417e-14,0.0001991349,-0.008734985,0.0019246619,0.9999938120662292,-0.00021613823463508187,0.003511283741699892,0.001179036477348579,0.9609758525287195,-0.2766297538763423,-0.0033144686204999163,0.27663218204136003,0.9609701609086515,left_images/camera_left_93.png,right_images/camera_right_93.png
2025-05-30 16:04:45,5.585276365280151,94,-0.08241213,-0.016981427,0.11217203,0.9038237,0.034752734,0.22395915,1.0471802,0.055264987,-6.50828e-05,0.006254483,0.6197466104184404,0.6314947703982094,0.4659704860123296,-0.7649612476046079,0.618737846682699,0.1788791959554236,-0.17535229835407304,-0.4673091396946669,0.866529710638807,0.011501959,-0.10492505,0.10798813,-0.855175,0.33439776,-0.16398352,1.0471803,-0.06106665,0.006430896,0.008549437,0.6318472228335911,-0.4797765764892034,-0.6087557175499693,0.7216584491608684,0.6507094696266922,0.23619117022632155,0.2828041190509937,-0.5885504420102398,0.7573837913880538,0.0027197252,-0.0064677,0.09171622,-0.00016599809,-0.012021736,-0.0062285825,5.548161e-14,0.0001991349,-0.008734985,0.0019246619,0.9999938120662292,-0.00021613823463508187,0.003511283741699892,0.001179036477348579,0.9609758525287195,-0.2766297538763423,-0.0033144686204999163,0.27663218204136003,0.9609701609086515,left_images/camera_left_94.png,right_images/camera_right_94.png
2025-05-30 16:04:45,5.637704610824585,95,-0.09356454,-0.021735536,0.11289948,1.0204877,0.019322552,0.23614058,1.0471799,0.053849053,0.00047123886,0.0063713137,0.5427037862539346,0.690290152605962,0.4785102983227023,-0.8312330640562436,0.5231491775935055,0.18805991386499055,-0.12051636239661626,-0.4998144087543662,0.8577070380941332,0.008277834,-0.12901704,0.10819292,-0.93784523,0.36892948,-0.1964355,1.04718,-0.060875833,0.008793402,0.008896705,0.5915406348979844,-0.502652663381621,-0.630412545290663,0.766340874923053,0.5935364921511808,0.24583753966194982,0.25060195666965357,-0.6285337958139037,0.7363042352405063,0.0027197252,-0.0064677,0.09171622,-0.00016595886,-0.012021736,-0.0062285825,5.3186432e-14,0.0001991349,-0.008734985,0.0019246619,0.9999938120662292,-0.00021613823463508187,0.003511283741699892,0.001179036477348579,0.9609758525287195,-0.2766297538763423,-0.0033144686204999163,0.27663218204136003,0.9609701609086515,left_images/camera_left_95.png,right_images/camera_right_95.png
2025-05-30 16:04:45,5.693577527999878,96,-0.10450324,-0.02671036,0.113626435,1.1371531,0.00056064763,0.24337369,1.0471799,0.052475758,0.0010646919,0.0064711375,0.457783848936546,0.7404104747032141,0.49216488761654115,-0.8867639762846391,0.42004479888472795,0.19290416608706026,-0.06390303605226683,-0.5247425043577558,0.8488590613898477,0.0054990957,-0.15196213,0.10873222,-1.0113813,0.39540544,-0.22866158,1.04718,-0.060582113,0.011199508,0.008950874,0.5548741555563347,-0.5203234495080792,-0.6491364874875372,0.8018555166210856,0.5424073338577278,0.2506432018660849,0.2216808560971743,-0.6595891085132959,0.7181920397572359,0.0027197252,-0.0064677,0.09171622,-0.00016591963,-0.012021736,-0.0062285825,5.4185463e-14,0.0001991349,-0.008734985,0.0019246619,0.9999938120662292,-0.00021613823463508187,0.003511283741699892,0.001179036477348579,0.9609758525287195,-0.2766297538763423,-0.0033144686204999163,0.27663218204136003,0.9609701609086515,left_images/camera_left_96.png,right_images/camera_right_96.png
