jiaqis7/OS_Teleop_Extension/rollout_a/teleop_log.csv
Epoch Time (Seconds),Time (Seconds),Frame Number,PSM1_joint_1,PSM1_joint_2,PSM1_joint_3,PSM1_joint_4,PSM1_joint_5,PSM1_joint_6,PSM1_jaw_angle,PSM1_ee_x,PSM1_ee_y,PSM1_ee_z,"PSM1_Orientation_Matrix_[1,1]","PSM1_Orientation_Matrix_[1,2]","PSM1_Orientation_Matrix_[1,3]","PSM1_Orientation_Matrix_[2,1]","PSM1_Orientation_Matrix_[2,2]","PSM1_Orientation_Matrix_[2,3]","PSM1_Orientation_Matrix_[3,1]","PSM1_Orientation_Matrix_[3,2]","PSM1_Orientation_Matrix_[3,3]",PSM2_joint_1,PSM2_joint_2,PSM2_joint_3,PSM2_joint_4,PSM2_joint_5,PSM2_joint_6,PSM2_jaw_angle,PSM2_ee_x,PSM2_ee_y,PSM2_ee_z,"PSM2_Orientation_Matrix_[1,1]","PSM2_Orientation_Matrix_[1,2]","PSM2_Orientation_Matrix_[1,3]","PSM2_Orientation_Matrix_[2,1]","PSM2_Orientation_Matrix_[2,2]","PSM2_Orientation_Matrix_[2,3]","PSM2_Orientation_Matrix_[3,1]","PSM2_Orientation_Matrix_[3,2]","PSM2_Orientation_Matrix_[3,3]",PSM3_joint_1,PSM3_joint_2,PSM3_joint_3,PSM3_joint_4,PSM3_joint_5,PSM3_joint_6,PSM3_jaw_angle,PSM3_ee_x,PSM3_ee_y,PSM3_ee_z,"PSM3_Orientation_Matrix_[1,1]","PSM3_Orientation_Matrix_[1,2]","PSM3_Orientation_Matrix_[1,3]","PSM3_Orientation_Matrix_[2,1]","PSM3_Orientation_Matrix_[2,2]","PSM3_Orientation_Matrix_[2,3]","PSM3_Orientation_Matrix_[3,1]","PSM3_Orientation_Matrix_[3,2]","PSM3_Orientation_Matrix_[3,3]",Camera Left,Camera Right
2025-06-03 16:17:11,0.0016727447509765625,1,-0.034088105,-0.012278421,0.11399738,0.02740266,0.07675572,0.08513568,0.5235884,0.058847994,3.3444376e-06,0.001580934,0.8898824151278735,-0.01093643668193334,0.456058857603802,-0.02182133027539471,0.9975477652513866,0.0665002675707143,-0.45566777019139176,-0.06912922966926881,0.8874615669504445,0.05762877,-0.011930227,0.11234795,-0.040411383,0.07623703,-0.10743535,0.5235896,-0.05759817,-6.4097985e-05,0.004339002,0.8889658177198799,0.0016358657705173897,-0.4579706310112105,0.03328024787397099,0.9971190391883525,0.06816191597618014,0.45676273931558,-0.0758349894921707,0.8863503000178033,0.0027112945,-0.0066372748,0.09113527,-0.00016017818,-0.012059744,-0.0063069337,2.2488119e-05,0.00019613956,-0.008872889,0.0024891812,0.9999935043920685,-0.00021059795223301366,0.0035981692807717496,0.0011984526373022485,0.9609184675103811,-0.27682894088006266,-0.0033992477030539443,0.2768314549432625,0.960912478152433,left_images/camera_left_1.png,right_images/camera_right_1.png
2025-06-03 16:17:11,0.04886937141418457,2,-0.034087997,-0.012278382,0.11399758,0.027402664,0.0767558,0.08513566,0.5235885,0.058848027,3.3964752e-06,0.0015806342,0.8898826006402137,-0.01093647676875365,0.45605849466235865,-0.02182130263770881,0.9975477594951938,0.06650036298632302,-0.45566740922410026,-0.06912930639031258,0.8874617463130402,0.057628665,-0.01193036,0.11234795,-0.04040918,0.07623862,-0.10743462,0.5235896,-0.05759812,-6.407668e-05,0.0043387897,0.8889656337726786,0.001638465240988183,-0.4579709787779068,0.033277831581093154,0.9971190580090601,0.0681628203670088,0.45676327336641276,-0.07583468590809078,0.8863500507794992,0.0027112945,-0.0066372743,0.091135286,-0.00016017823,-0.012059744,-0.0063069332,2.2485205e-05,0.00019613863,-0.0088728815,0.0024891812,0.9999935043920685,-0.00021059795223301366,0.0035981692807717496,0.0011984526373022485,0.9609184675103811,-0.27682894088006266,-0.0033992477030539443,0.2768314549432625,0.960912478152433,left_images/camera_left_2.png,right_images/camera_right_2.png
2025-06-03 16:17:11,0.10596370697021484,3,-0.034088094,-0.012279055,0.11399759,0.02740263,0.07675576,0.08513565,0.52358836,0.05884792,3.4876284e-06,0.0015807273,0.8898824119526828,-0.010936092632940677,0.4560588720496502,-0.021821355377861413,0.9975478116806262,0.06649956286071952,-0.45566777519015816,-0.06912861411251818,0.8874616123326877,0.057628773,-0.011930407,0.11234795,-0.040407594,0.076239735,-0.107434176,0.5235896,-0.057598192,-6.4058404e-05,0.0043389127,0.8889654515395663,0.0016403317205184557,-0.45797132582826783,0.03327621607600727,0.9971190529263121,0.06816368340250678,0.4567637457293624,-0.07583471238938647,0.8863498050905756,0.0027112954,-0.0066372743,0.091135256,-0.00016017818,-0.012059744,-0.0063069323,2.2487238e-05,0.00019613816,-0.008872889,0.002489211,0.9999935043920685,-0.00021059795223301366,0.0035981692807717496,0.0011984526373022485,0.9609184675103811,-0.27682894088006266,-0.0033992477030539443,0.2768314549432625,0.960912478152433,left_images/camera_left_3.png,right_images/camera_right_3.png
2025-06-03 16:17:11,0.15754437446594238,4,-0.034088,-0.012279185,0.113997474,0.027402556,0.076755844,0.08513569,0.52358836,0.05884801,3.4215045e-06,0.0015807822,0.8898825710435602,-0.010936339850683124,0.45605855569605697,-0.021821085571726823,0.9975478130454695,0.06649963092132596,-0.4556674774189777,-0.06912855530727918,0.8874617698040598,0.057628784,-0.0119303735,0.11234795,-0.040406466,0.07624063,-0.10743395,0.5235896,-0.057598166,-6.4091524e-05,0.0043388885,0.8889652088583326,0.0016417139631461838,-0.4579717919421721,0.03327499663509569,0.9971190556506598,0.06816423884465089,0.4567643068787176,-0.07583464665704887,0.8863495215365127,0.0027112958,-0.0066372715,0.09113529,-0.00016017843,-0.0120597435,-0.0063069277,2.2484668e-05,0.0001961391,-0.0088728815,0.0024891812,0.9999935043920685,-0.00021059795223301366,0.0035981692807717496,0.0011984526373022485,0.9609184675103811,-0.27682894088006266,-0.0033992477030539443,0.2768314549432625,0.960912478152433,left_images/camera_left_4.png,right_images/camera_right_4.png
2025-06-03 16:17:11,0.20846343040466309,5,-0.034088,-0.012278469,0.11399756,0.027402677,0.07675602,0.08513557,0.5235883,0.058848027,3.3907127e-06,0.0015806332,0.8898825889328476,-0.010936631555767198,0.45605851379443224,-0.02182127178133273,0.9975477418650296,0.06650063757457984,-0.45566743356533407,-0.0691295363082511,0.8874617159054177,0.057628784,-0.011930349,0.11234795,-0.040405575,0.0762413,-0.10743395,0.5235896,-0.057598222,-6.4086984e-05,0.00433895,0.8889653181110462,0.0016427591877447509,-0.4579715761245207,0.033274156312435195,0.9971190368949241,0.06816492340958517,0.4567641554647455,-0.0758348706334366,0.8863495804018795,0.002711296,-0.0066372724,0.09113528,-0.0001601784,-0.012059745,-0.006306927,2.2485738e-05,0.00019613816,-0.008872889,0.0024891812,0.9999935043920685,-0.00021059795223301366,0.0035981692807717496,0.0011984526373022485,0.9609184675103811,-0.27682894088006266,-0.0033992477030539443,0.2768314549432625,0.960912478152433,left_images/camera_left_5.png,right_images/camera_right_5.png
2025-06-03 16:17:11,0.257220983505249,6,-0.034088124,-0.01227832,0.11399755,0.027402677,0.07675593,0.08513554,0.52358836,0.058847897,3.3465913e-06,0.0015807878,0.889882178740613,-0.010936585733736725,0.4560593152785588,-0.021821272303874803,0.9975477575414762,0.06650040224699545,-0.4556682346125297,-0.0691293173440956,0.8874613216634512,0.057628784,-0.011930319,0.11234795,-0.040404905,0.07624175,-0.10743395,0.5235896,-0.057598174,-6.409042e-05,0.00433892,0.8889652634575291,0.0016434939713077593,-0.4579716795757701,0.033273526031803724,0.997119033522517,0.06816528040382668,0.456764307746672,-0.07583489905503739,0.8863494994944239,0.0027112958,-0.006637274,0.091135256,-0.0001601784,-0.012059745,-0.0063069253,2.2487136e-05,0.00019613816,-0.008872889,0.002489211,0.9999935043920685,-0.00021059795223301366,0.0035981692807717496,0.0011984526373022485,0.9609184675103811,-0.27682894088006266,-0.0033992477030539443,0.2768314549432625,0.960912478152433,left_images/camera_left_6.png,right_images/camera_right_6.png
2025-06-03 16:17:11,0.30515265464782715,7,-0.034087997,-0.012278477,0.11399764,0.027402708,0.07675598,0.085135594,0.52358836,0.05884792,3.384077e-06,0.0015805131,0.889882587339261,-0.010936325118765026,0.4560585242524028,-0.021821673899036203,0.9975477255781382,0.06650074993658071,-0.4556674174204547,-0.06912981980867726,0.8874617021114731,0.057628784,-0.011930364,0.11234795,-0.04040438,0.07624219,-0.10743387,0.5235896,-0.05759816,-6.4109685e-05,0.0043388903,0.8889652953213762,0.0016446561115047893,-0.4579716135531257,0.03327258618926736,0.9971190157980799,0.06816599843137787,0.4567643141954682,-0.0758351069106105,0.8863494783872783,0.0027112965,-0.0066372715,0.09113529,-0.00016017868,-0.0120597435,-0.0063069207,2.248282e-05,0.0001961391,-0.0088728815,0.0024891812,0.9999935043920685,-0.00021059795223301366,0.0035981692807717496,0.0011984526373022485,0.9609184675103811,-0.27682894088006266,-0.0033992477030539443,0.2768314549432625,0.960912478152433,left_images/camera_left_7.png,right_images/camera_right_7.png
2025-06-03 16:17:11,0.40488100051879883,8,-0.034088075,-0.012278345,0.11399761,0.02740271,0.07675593,0.08513556,0.5235884,0.058847826,3.331632e-06,0.0015806714,0.8898821777979583,-0.010936300402911079,0.45605932396022775,-0.021821587450452592,0.9975477513570525,0.06650039160508733,-0.45566822136144725,-0.06912945172634458,0.8874613179994437,0.057628784,-0.011930325,0.11234795,-0.040403932,0.07624219,-0.10743387,0.5235896,-0.057598162,-6.409158e-05,0.004338922,0.8889653118006855,0.0016448397622688682,-0.4579715809057003,0.03327227674994844,0.9971190394308069,0.06816580377622986,0.4567643046637782,-0.07583479219158637,0.8863495102262279,-0.0012236083,-0.007432618,0.09120269,0.0025707895,-0.012444816,-0.0028525107,2.5644997e-05,-0.00014082491,-0.00877595,0.0024460992,0.9999884572404637,0.0025950799670261893,0.004043630275105483,-0.0013688077064161405,0.9605884856743561,-0.2779710192723518,-0.004605621706118087,0.2779622757674358,0.9605809499979103,left_images/camera_left_8.png,right_images/camera_right_8.png
2025-06-03 16:17:11,0.4705839157104492,9,-0.034087967,-0.012278443,0.113997586,0.027402649,0.076756045,0.085135676,0.5235883,0.058848027,3.3907127e-06,0.0015806034,0.8898825889328476,-0.010936631555767198,0.45605851379443224,-0.02182127178133273,0.9975477418650296,0.06650063757457984,-0.45566743356533407,-0.0691295363082511,0.8874617159054177,0.057628784,-0.011930335,0.11234795,-0.04040371,0.076242335,-0.10743369,0.5235896,-0.05759816,-6.409339e-05,0.004338919,0.8889652050656919,0.0016448276090848153,-0.4579717881318111,0.033272362014476586,0.9971190297211943,0.06816590418854224,0.4567645061828794,-0.07583492012259455,0.8863493954313444,-0.0044360585,-0.008135987,0.091138184,0.0039932136,-0.012407882,0.000898085,4.0053765e-05,-0.00040743584,-0.008730406,0.0025266223,0.9999855792402956,0.004083958339716256,0.003487491323304908,-0.002950664420339285,0.9604022192679175,-0.27860163460528653,-0.004487191875684481,0.27858732654149665,0.9604004199288609,left_images/camera_left_9.png,right_images/camera_right_9.png
2025-06-03 16:17:11,0.5321323871612549,10,-0.03408813,-0.0122782495,0.113997616,0.02740274,0.07675593,0.08513566,0.52358836,0.05884783,3.32715e-06,0.0015806379,0.8898823875204657,-0.010936134811456357,0.456058918711455,-0.021821723009082365,0.9975477502977806,0.06650036301217997,-0.4556678052987623,-0.06912949320819935,0.8874615283960128,0.057628784,-0.011930272,0.11234795,-0.04040357,0.076242335,-0.10743369,0.5235896,-0.05759816,-6.416446e-05,0.00433895,0.8889652402799214,0.0016453477163974536,-0.45797171790947255,0.03327187519659279,0.9971190322610713,0.06816610465360824,0.4567644731094612,-0.0758348754441943,0.8863494162977711,-0.0068957657,-0.008500067,0.09122225,0.0047603906,-0.012736785,0.0042524147,3.286416e-05,-0.00060753745,-0.008669685,0.00245744,0.9999846324216096,0.0049063504969776624,0.002581210068829768,-0.0039903811345018015,0.960209794082925,-0.279251191950238,-0.0038486074130824575,0.2792366005236922,0.9602146161921055,left_images/camera_left_10.png,right_images/camera_right_10.png
2025-06-03 16:17:11,0.5984280109405518,11,-0.03408805,-0.012278374,0.11399756,0.027402671,0.07675601,0.08513573,0.5235884,0.058847904,3.3404795e-06,0.0015807878,0.8898823909463872,-0.010936696807286305,0.4560588985498329,-0.021821227330107752,0.9975477434738469,0.06650062802744126,-0.4556678223457841,-0.06912950276967021,0.8874615188984079,0.057628784,-0.011930307,0.11234795,-0.040403347,0.07624256,-0.10743369,0.5235896,-0.057598177,-6.412121e-05,0.0043388903,0.8889652674777215,0.0016453838437194834,-0.4579716649862408,0.033271929618421396,0.9971190171761728,0.06816629874864623,0.4567644162122632,-0.07583507300471005,0.8863494287156959,-0.0089329695,-0.008405695,0.091339454,0.006817989,-0.013166442,0.008644858,2.4180596e-05,-0.0007588423,-0.008640034,0.0023454186,0.9999754120657226,0.007009763653222673,0.00019615686135506937,-0.0066754896284310465,0.9601120259272078,-0.2795359288323659,-0.0021478133552540963,0.27952774617822607,0.9601352123603801,left_images/camera_left_11.png,right_images/camera_right_11.png
2025-06-03 16:17:11,0.6587908267974854,12,-0.034088,-0.012278983,0.11399755,0.027402654,0.07675598,0.08513575,0.5235884,0.05884798,3.4190016e-06,0.0015807236,0.8898825599174062,-0.010936562693111905,0.4560585720620805,-0.021821025029567516,0.997547789982774,0.066499996745433,-0.4556675020467262,-0.06912885285424056,0.887461733981558,0.057628784,-0.011930328,0.11234795,-0.040403236,0.07624256,-0.10743369,0.5235896,-0.057598192,-6.411766e-05,0.00433895,0.8889652845754803,0.001645630244486801,-0.45797163091258597,0.033271586858635356,0.9971190369855935,0.06816617628143067,0.45676440790361905,-0.07583480719314335,0.8863494557399102,-0.010787273,-0.007888852,0.09137423,0.0084909275,-0.013395683,0.014214609,3.6889665e-05,-0.00088136294,-0.008674664,0.0023015048,0.9999557101043217,0.008719277835681152,-0.003542883541114955,-0.009361725331342127,0.9601880651895229,-0.279197488467251,0.0009674340195646284,0.279218290342206,0.9602271660444696,left_images/camera_left_12.png,right_images/camera_right_12.png
2025-06-03 16:17:11,0.714893102645874,13,-0.03408803,-0.012278599,0.113997534,0.02740272,0.07675593,0.08513565,0.52358836,0.05884792,3.45445e-06,0.0015807245,0.8898824258269513,-0.010936096870313106,0.45605884487594767,-0.02182154613881601,0.9975477818157177,0.06649994826052866,-0.45566773895948803,-0.06912904440092163,0.8874615974180311,0.057628363,-0.011933496,0.11234795,-0.0403714,0.07626683,-0.10742348,0.5235896,-0.057598162,-6.417575e-05,0.004338748,0.8889619415843892,0.0016837313248543838,-0.457977981417599,0.03323834558664965,0.9971189666916571,0.06818341914589303,0.45677333415729887,-0.07583489508522966,0.8863448481771848,-0.012431503,-0.0065586106,0.09132233,0.011495691,-0.015020833,0.02272464,4.056613e-05,-0.00095541275,-0.008782176,0.0023279004,0.9998760538896703,0.011761471479551979,-0.010466357850603696,-0.014217396175755683,0.9600900545762981,-0.27932946989113483,0.006763320486478213,0.2794436524459206,0.9601382726481018,left_images/camera_left_13.png,right_images/camera_right_13.png
2025-06-03 16:17:11,0.779341459274292,14,-0.034087937,-0.012279011,0.113997474,0.027402608,0.07675592,0.085135676,0.5235883,0.05884801,3.4215045e-06,0.0015807822,0.8898825710435602,-0.010936339850683124,0.45605855569605697,-0.021821085571726823,0.9975478130454695,0.06649963092132596,-0.4556674774189777,-0.06912855530727918,0.8874617698040598,0.05762818,-0.011936095,0.11234795,-0.040347863,0.076284885,-0.10741601,0.5235896,-0.05759806,-6.4134656e-05,0.0043387543,0.888959370723647,0.0017120632477045754,-0.4579828665376614,0.03321371438877764,0.9971189011500217,0.06819637927246534,0.45678012914214894,-0.0758351225278175,0.8863413269232528,-0.0138802705,-0.005018617,0.09134784,0.015122243,-0.015983153,0.03045882,6.559758e-06,-0.0010189052,-0.008900771,0.0022713644,0.9997397994335459,0.015409971356808255,-0.016818626916493627,-0.019486996851956203,0.9602222914501893,-0.27855593326267497,0.011857081523954526,0.27881119738082677,0.9602727351293507,left_images/camera_left_14.png,right_images/camera_right_14.png
2025-06-03 16:17:12,0.8387913703918457,15,-0.034087975,-0.012277865,0.1139976,0.027402773,0.0767559,0.085135475,0.52358854,0.05884787,3.412948e-06,0.0015806109,0.889882271849613,-0.010936416011299698,0.4560591376703237,-0.021821619322204038,0.9975477275836774,0.06650073776130722,-0.45566803616001894,-0.06912977648936186,0.8874613877936338,0.057627853,-0.011937948,0.11234795,-0.04033041,0.07629819,-0.10741029,0.5235896,-0.057597976,-6.413431e-05,0.0043389304,0.8889574012035018,0.0017324030696508515,-0.4579866129322129,0.03319590206575643,0.9971188781349438,0.06820538800528657,0.456785256911338,-0.07583496321958129,0.8863386979151524,-0.015523316,-0.0029018344,0.09137072,0.014623227,-0.016521173,0.039698523,4.9779135e-07,-0.0010881952,-0.009079225,0.002202144,0.9995906143612883,0.014920429486929109,-0.024412793055029334,-0.02110167024327194,0.9606732509840048,-0.27687835660587,0.019321573273580073,0.2772801572917699,0.9605948111344788,left_images/camera_left_15.png,right_images/camera_right_15.png
2025-06-03 16:17:12,0.9039421081542969,16,-0.034087967,-0.012277845,0.11399746,0.027402688,0.076755695,0.085135624,0.52358836,0.058847934,3.408175e-06,0.0015807273,0.8898825089902329,-0.010936310462883743,0.4560586774820838,-0.021821727958517882,0.9975477212470109,0.06650079716665223,-0.45566756784102197,-0.06912988462564655,0.8874616198289886,0.0576273,-0.011939543,0.11234795,-0.040317386,0.076308295,-0.107405774,0.5235896,-0.057598002,-6.4272084e-05,0.004338856,0.8889558488880744,0.0017481936007682428,-0.4579895659802932,0.0331821438578311,0.9971188489178674,0.0682125095690331,0.45678927751938453,-0.07583498501246944,0.8863366239705304,-0.01730033,-2.965874e-05,0.09133174,0.015950896,-0.016704606,0.0521635,3.4939897e-06,-0.0011385225,-0.009350668,0.0021740906,0.9992513127726979,0.016234955556009772,-0.035117518991727506,-0.025248205572237666,0.961409009661309,-0.2739621219392253,0.029314536281885503,0.27464366433645493,0.9610991185108967,left_images/camera_left_16.png,right_images/camera_right_16.png
2025-06-03 16:17:12,0.9620199203491211,17,-0.034087922,-0.012277772,0.11399761,0.027402641,0.07675552,0.085135534,0.5235883,0.05884798,3.3446122e-06,0.0015806947,0.8898823660052516,-0.0109369719739742,0.45605894061725805,-0.021820955891976215,0.9975477450818373,0.0665006929745992,-0.4556678840524704,-0.06912943603257575,0.8874614924135933,0.057626966,-0.011940976,0.11234795,-0.04030782,0.07631599,-0.1074026,0.5235896,-0.057598114,-6.427505e-05,0.0043387534,0.8889547047409785,0.001759587629567027,-0.4579917431245393,0.03317233227215824,0.9971188090235819,0.06821786469114739,0.4567922167578008,-0.0758352460454111,0.8863350868417241,-0.01901876,0.0027311277,0.09131906,0.017945135,-0.017757118,0.06293765,1.05135805e-05,-0.0011988863,-0.009590389,0.002128792,0.9988558115230173,0.01822380743624519,-0.04421493672076851,-0.029586106557757955,0.9618614200128279,-0.2719324750552231,0.03757299675894779,0.2729294808800127,0.9613000407682917,left_images/camera_left_17.png,right_images/camera_right_17.png
2025-06-03 16:17:12,1.017076015472412,18,-0.034088153,-0.012278435,0.11399745,0.02740269,0.07675545,0.085135646,0.52358836,0.05884792,3.3312244e-06,0.0015807878,0.8898824125891605,-0.010935991839510398,0.4560588732246979,-0.02182167239092425,0.9975477782699299,0.06649996002096252,-0.45566775876570215,-0.06912911218302027,0.8874615819686106,0.057626862,-0.011942068,0.11234795,-0.04030066,0.07632168,-0.10740037,0.5235896,-0.05759812,-6.435794e-05,0.004338787,0.8889541249543925,0.0017681818288951094,-0.45799283538019425,0.03316462618630389,0.9971188225585497,0.06822141356915602,0.4567939046183656,-0.0758348681839104,0.8863342492937052,-0.019973164,0.0048575005,0.09119609,0.023905903,-0.019111924,0.07191491,1.2036729e-05,-0.0012003129,-0.0097977575,0.0022062482,0.9983357497179465,0.024178705819476874,-0.05235571621132807,-0.03748480817294268,0.9619866587096398,-0.2705116589370976,0.04382487868030687,0.2720240038113514,0.9612920062910637,left_images/camera_left_18.png,right_images/camera_right_18.png
2025-06-03 16:17:12,1.0732030868530273,19,-0.03408809,-0.012278486,0.11399758,0.027402665,0.07675563,0.08513563,0.52358836,0.058847904,3.3444376e-06,0.0015807552,0.8898824151278735,-0.01093643668193334,0.456058857603802,-0.02182133027539471,0.9975477652513866,0.0665002675707143,-0.45566777019139176,-0.06912922966926881,0.8874615669504445,0.05762685,-0.011943259,0.11234795,-0.040295396,0.076326445,-0.10739883,0.5235896,-0.057598174,-6.42378e-05,0.0043387944,0.8889535530047593,0.0017747450214544297,-0.457993920134671,0.033158941126786315,0.9971188028531041,0.06822446496780268,0.45679543038822634,-0.07583497396914857,0.8863334538984374,-0.021132996,0.0072210985,0.091228105,0.028242808,-0.020393295,0.08086785,1.0316605e-06,-0.0012247434,-0.009988653,0.002129308,0.9977766410903092,0.02850511751998274,-0.06024311387795457,-0.04371845102447134,0.9622023669667275,-0.2688034636005422,0.05030379244710213,0.2708395526484252,0.9613092453454506,left_images/camera_left_19.png,right_images/camera_right_19.png
2025-06-03 16:17:12,1.1381382942199707,20,-0.03408843,-0.01227629,0.11399753,0.027434817,0.076732434,0.08514598,0.5235883,0.058847927,3.573834e-06,0.0015807142,0.8898861504029112,-0.010898006852646747,0.45605248904893286,-0.02185456579766694,0.9975482433872984,0.0664821785797562,-0.4556588825809092,-0.06912839909584782,0.8874661949412848,0.057626963,-0.011943964,0.11234795,-0.04029152,0.0763296,-0.10739766,0.5235896,-0.05759806,-6.419368e-05,0.0043387413,0.8889530234296317,0.001778979769866993,-0.4579949315945485,0.033155286550985485,0.9971187918321313,0.06822640213988312,0.45679672624597345,-0.07583501965589123,0.8863327821336362,-0.022832392,0.009295642,0.090921976,0.034130514,-0.020678662,0.09007606,3.1913532e-06,-0.0012898524,-0.0102576455,0.0023827422,0.9971037757179417,0.034367582509422935,-0.06784489458671486,-0.051288699939229666,0.9625559158044462,-0.2661871112740196,0.05615629713191663,0.26889585013964357,0.9615308066152172,left_images/camera_left_20.png,right_images/camera_right_20.png
2025-06-03 16:17:12,1.2004501819610596,21,-0.034088697,-0.012275446,0.11399757,0.02745851,0.07671505,0.08515378,0.5235885,0.058847852,3.8124272e-06,0.0015805895,0.8898890841392346,-0.01086923784873984,0.4560474510381804,-0.02187899850235716,0.9975486652613871,0.06646781070381974,-0.45565198052281947,-0.06912684069023031,0.8874698600751574,0.057626963,-0.011944477,0.11234795,-0.040288594,0.07633203,-0.10739677,0.5235896,-0.057598162,-6.421929e-05,0.004338894,0.8889528679338659,0.0017825476071874694,-0.4579952195342032,0.03315225362622051,0.9971187676895442,0.06822822876777368,0.4567972489755796,-0.07583525331475474,0.8863324927379281,-0.024435775,0.011299973,0.090944245,0.035001006,-0.0202457,0.097993664,7.312402e-06,-0.0013671094,-0.010446659,0.0023179464,0.9966267048955152,0.035194595927675515,-0.074138731487634,-0.0536071917694161,0.9632006691802819,-0.2633832566456235,0.06214080848930833,0.26646915639177643,0.9618381925314415,left_images/camera_left_21.png,right_images/camera_right_21.png
2025-06-03 16:17:12,1.2632365226745605,22,-0.034089383,-0.012272109,0.11399742,0.027508313,0.07667883,0.08516984,0.52358836,0.05884804,3.881287e-06,0.001580704,0.8898950610394262,-0.010809794882408887,0.45603720097403905,-0.0219303591174283,0.9975494031187914,0.06643980498408678,-0.45563783829552224,-0.06912551390002897,0.8874772242944831,0.057626784,-0.011944916,0.11234795,-0.04028645,0.07633383,-0.107395925,0.5235896,-0.057598058,-6.418355e-05,0.004338925,0.8889526674931261,0.001784983117722027,-0.4579955990968966,0.0331496848212557,0.9971188362821091,0.06822847446384904,0.4567978254688907,-0.07583429413320954,0.8863322776928587,-0.0259231,0.012823412,0.090867825,0.034101006,-0.018081022,0.10795479,1.3244284e-06,-0.0014138417,-0.010646761,0.002354051,0.9960043269322412,0.03421334162602965,-0.0824913812894047,-0.05460778163316836,0.9642176644838761,-0.25942684071306815,0.07066378787864092,0.26289492720864743,0.9622332806188957,left_images/camera_left_22.png,right_images/camera_right_22.png
2025-06-03 16:17:12,1.329505443572998,23,-0.03409492,-0.0122669,0.113997765,0.0275457,0.07664099,0.08518843,0.5235884,0.058847472,3.9701117e-06,0.001580649,0.889900226554934,-0.01076118516288799,0.4560282706931306,-0.02196903473447875,0.9975505021446355,0.0664105201291249,-0.4556258863259554,-0.06911723782730092,0.8874840050078716,0.05762708,-0.011942086,0.11234795,-0.04031663,0.07631106,-0.10740534,0.5235896,-0.05759811,-6.4140535e-05,0.0043387907,0.8889559135670297,0.0017489515812196717,-0.4579894375447696,0.03318143564215581,0.997118852001581,0.06821280900076757,0.4567892030936517,-0.07583492698892955,0.8863366672916397,-0.027786588,0.014282678,0.09049839,0.03237287,-0.014679354,0.119652875,5.77003e-06,-0.0014721502,-0.010934579,0.0026730038,0.9952193413780767,0.03236222905748004,-0.09214742903314709,-0.05494833679121906,0.9655480884120828,-0.2543571686578771,0.08074120900052491,0.2582045218314431,0.9627103832798989,left_images/camera_left_23.png,right_images/camera_right_23.png
2025-06-03 16:17:12,1.3936753273010254,24,-0.034099307,-0.012264126,0.11399837,0.027573124,0.076612666,0.08520333,0.5235884,0.058846615,4.164118e-06,0.0015804805,0.889904204618535,-0.01072491304069514,0.4560213622655435,-0.021997553202339048,0.9975513696630525,0.06638804513222583,-0.45561674053458884,-0.06911035467741226,0.8874892363409257,0.057627525,-0.011939629,0.11234795,-0.04033899,0.07629395,-0.107412465,0.5235896,-0.057598114,-6.403378e-05,0.0043389117,0.8889583538853657,0.0017222886872061208,-0.4579848019084244,0.03320473941714279,0.9971188936415255,0.06820085940323317,0.45678276055216926,-0.07583498971304642,0.8863399821725079,-0.029395958,0.014187752,0.09041,0.032426804,-0.012462367,0.12793979,1.6211403e-05,-0.0015441603,-0.010991896,0.0027593747,0.9945891943954789,0.03235398606642202,-0.0987195724127998,-0.05642978238132888,0.9661078387940009,-0.2518954614144142,0.08722393050160099,0.25610322802807184,0.9627061454781792,left_images/camera_left_24.png,right_images/camera_right_24.png
2025-06-03 16:17:12,1.4524767398834229,25,-0.03410216,-0.012261646,0.11399844,0.027593382,0.076591544,0.085214935,0.5235884,0.05884642,4.2579486e-06,0.0015803911,0.8899079125627963,-0.010697747744638242,0.45601476440058225,-0.022018842969311204,0.997552012820641,0.06637132115439998,-0.45560846975491937,-0.0691052813515709,0.887493877374318,0.057627648,-0.01193763,0.11234795,-0.040355578,0.07628124,-0.107417434,0.5235896,-0.057598058,-6.410328e-05,0.004338866,0.8889598564973809,0.0017025751715723722,-0.45798195900487293,0.03322207606968819,0.9971189137117458,0.06819212256505855,0.4567785756772923,-0.07583517097029097,0.8863421233621535,-0.03220387,0.013675959,0.09024583,0.023855006,-0.0061358633,0.1415268,2.4887896e-07,-0.0016792687,-0.011095448,0.002919606,0.9937383424239783,0.023597260072747143,-0.10921206944977797,-0.050103298643426074,0.9677720591034508,-0.24679323549018628,0.09986874516830406,0.25071978568857706,0.9628945024262949,left_images/camera_left_25.png,right_images/camera_right_25.png
2025-06-03 16:17:12,1.5141332149505615,26,-0.034104366,-0.012259925,0.11399868,0.027608296,0.07657586,0.085224025,0.5235884,0.05884608,4.2965985e-06,0.0015802868,0.8899106678533376,-0.010677961751904844,0.45600985118048865,-0.022034211057085556,0.9975525005954085,0.06635888862043507,-0.4556023450158244,-0.06910130019523769,0.8874973315607261,0.057627648,-0.011936136,0.11234795,-0.040367812,0.07627165,-0.10742129,0.5235896,-0.05759812,-6.4018415e-05,0.004338911,0.8889610684240155,0.0016879435819338526,-0.45797966076333274,0.03323469236922703,0.9971189676659336,0.06818518566335408,0.4567752992988522,-0.07583478863481741,0.8863438445564773,-0.034858245,0.0125904195,0.09032526,0.004050102,0.002981787,0.15416276,1.6197534e-07,-0.0018143376,-0.01111954,0.0028501023,0.992886506108055,0.0035050134256759437,-0.11901302814996711,-0.03236924546699227,0.9698650932121882,-0.2414827797512916,0.11458018125503483,0.24361735539447724,0.9630794184355536,left_images/camera_left_26.png,right_images/camera_right_26.png
2025-06-03 16:17:12,1.5775976181030273,27,-0.03410555,-0.012261004,0.11399861,0.027587228,0.076587506,0.08522066,0.5235884,0.058846056,4.3412438e-06,0.0015803706,0.889909161802208,-0.01070180782015209,0.4560122312502946,-0.02201206616684941,0.9975524221687748,0.06636741646528718,-0.4556063571588503,-0.0690987433647759,0.8874954709641346,0.05762776,-0.011934785,0.11234795,-0.04037691,0.076264344,-0.10742428,0.5235896,-0.05759804,-6.410782e-05,0.0043388326,0.888962143759286,0.001677240552568321,-0.4579776128011322,0.03324413499930704,0.9971189668385927,0.06818059444508859,0.4567725193693714,-0.07583503698730962,0.8863452559325237,-0.038296103,0.0115550775,0.09038803,-0.01918132,0.012919833,0.16636632,3.0072038e-06,-0.002019258,-0.01115766,0.0027982006,0.9915776292344638,-0.02010106901847232,-0.1279443325281532,-0.010805815257624623,0.9715977922505223,-0.23639154902518972,0.12906215385765926,0.23578311457401946,0.9631974269709178,left_images/camera_left_27.png,right_images/camera_right_27.png
2025-06-03 16:17:12,1.6430697441101074,28,-0.03410661,-0.0122623965,0.11399869,0.02757158,0.07659617,0.08521854,0.52358854,0.05884596,4.2419415e-06,0.001580542,0.8899079840840249,-0.010718871771861888,0.45601412878489306,-0.021996178260543505,0.9975523741626793,0.06637340539954334,-0.4556094248426354,-0.06909679146197831,0.8874940480950971,0.057627775,-0.011933829,0.11234795,-0.040383704,0.07625896,-0.10742636,0.5235896,-0.057598237,-6.402633e-05,0.0043389117,0.8889630155692619,0.0016687565732916992,-0.4579759515536853,0.03325141766679045,0.9971189991972691,0.06817656975079722,0.45677029256854373,-0.07583479868329418,0.8863464238860059,-0.041777838,0.009464897,0.09038712,-0.04294994,0.02214608,0.17552873,1.1365956e-08,-0.0022469899,-0.011098254,0.0028354526,0.9899752413142067,-0.044208041103977705,-0.13414421600138843,0.011762316038644454,0.9722594914672057,-0.23360892357385976,0.1407503801283861,0.2296892038248194,0.9630328136361893,left_images/camera_left_28.png,right_images/camera_right_28.png
2025-06-03 16:17:12,1.704463005065918,29,-0.034107294,-0.012262085,0.11399857,0.027560089,0.07660267,0.08521689,0.52358854,0.058845993,4.0941522e-06,0.0015807608,0.8899073012772986,-0.010732183342626805,0.4560151481848553,-0.02198436546374496,0.99755224313525,0.06637928811750943,-0.45561132866568604,-0.06909661682406074,0.8874930843307778,0.05762791,-0.011933076,0.11234795,-0.040388692,0.07625494,-0.107427925,0.5235896,-0.057598107,-6.409321e-05,0.0043388437,0.8889635883383897,0.0016631112573844559,-0.45797486030292056,0.03325643905833575,0.9971189917439341,0.06817422947653703,0.4567688122778232,-0.07583502069958109,0.8863471677428665,-0.045505457,0.0069587296,0.09030949,-0.068700776,0.031495042,0.18237044,4.373695e-09,-0.0025073667,-0.011016712,0.0029573664,0.9879120825447012,-0.07028952405957332,-0.13816330905732627,0.03673945877888728,0.9720622127318789,-0.23183025416765157,0.15059857014867717,0.22395186399376577,0.9628944040147351,left_images/camera_left_29.png,right_images/camera_right_29.png
2025-06-03 16:17:12,1.770221471786499,30,-0.034107592,-0.012263071,0.11399878,0.027551487,0.07660757,0.085216,0.52358854,0.058845695,4.2016036e-06,0.0015803799,0.8899068538321226,-0.01074135596841206,0.4560158053999587,-0.021975700290786243,0.9975522319010744,0.06638232615624898,-0.4556126206541503,-0.06909535368709635,0.8874925194048187,0.057628017,-0.011932476,0.11234795,-0.040392403,0.076251864,-0.1074292,0.5235896,-0.05759821,-6.406853e-05,0.004338959,0.888963890584521,0.0016587763729773233,-0.45797428934141765,0.033260190776437625,0.99711900667765,0.06817218077553192,0.4567679508747818,-0.07583491928604713,0.8863476203333158,-0.05104477,0.004763027,0.089976266,-0.1173139,0.04707421,0.1901065,3.779712e-09,-0.0028804527,-0.011094774,0.0033143284,0.982525522698605,-0.11940475718738555,-0.1427799047725353,0.08464504403000336,0.9698372830605332,-0.22858447214743602,0.1657673483138086,0.21250446665137337,0.9629969044011635,left_images/camera_left_30.png,right_images/camera_right_30.png
2025-06-03 16:17:12,1.827531337738037,31,-0.03410779,-0.012262923,0.11399872,0.027545039,0.07661114,0.08521526,0.5235884,0.058845755,4.153524e-06,0.0015804758,0.8899066221681258,-0.010748635985041013,0.4560160859506797,-0.02196922390115593,0.9975521594035004,0.06638555920224032,-0.4556133854733611,-0.06909526824518708,0.8874921334207014,0.057628103,-0.011932054,0.11234795,-0.040395208,0.07624969,-0.10742987,0.5235896,-0.057598066,-6.4171734e-05,0.0043388437,0.8889640079904106,0.0016553010638457495,-0.45797407402167806,0.03326345059826791,0.9971189798781366,0.06817098225110996,0.4567674849985734,-0.07583534759709742,0.8863478237706153,-0.058088113,0.00081844,0.08953002,-0.18090715,0.06554623,0.19776452,5.1018274e-09,-0.0033385502,-0.011059755,0.0038286848,0.9719421205366978,-0.18308182065835463,-0.1476806056022561,0.1466267914237119,0.9625042118297209,-0.22822407026173805,0.18392688319931466,0.20016665345274057,0.962343084602428,left_images/camera_left_31.png,right_images/camera_right_31.png
2025-06-03 16:17:13,1.8926336765289307,32,-0.03410793,-0.0122633735,0.11399894,0.02754017,0.07661365,0.0852149,0.5235883,0.05884563,4.0720333e-06,0.0015803063,0.8899063488096348,-0.010753892680114407,0.456016495469768,-0.02196405946299317,0.997552183372728,0.06638690789763567,-0.45561416839274266,-0.06909410423855021,0.887491822114019,0.057628103,-0.011931908,0.11234795,-0.0403972,0.076248124,-0.10743049,0.5235896,-0.05759804,-6.41534e-05,0.004338925,0.8889643409633894,0.0016529592959496908,-0.45797343615224306,0.0332652161255511,0.9971190271027625,0.06816942999439544,0.45676670838804256,-0.07583477774218329,0.8863482727422368,-0.06602063,-0.0035444417,0.08898117,-0.25809503,0.086788766,0.20111902,3.1007927e-09,-0.0038438407,-0.011027883,0.0044544814,0.9541071362331519,-0.2592175419913815,-0.14995278761303524,0.2215221417774703,0.9478701578058054,-0.22906353844189162,0.20151305985294357,0.18533329400068402,0.961792106873185,left_images/camera_left_32.png,right_images/camera_right_32.png
2025-06-03 16:17:13,1.9600698947906494,33,-0.034108117,-0.012263036,0.113998786,0.027536694,0.07661564,0.08521462,0.5235884,0.058845755,4.0142913e-06,0.0015804814,0.8899065625830936,-0.010758531908560146,0.4560159688681034,-0.02195997521529007,0.9975521226409897,0.06638917157940628,-0.45561394772338387,-0.06909425884708868,0.8874919233628469,0.057627983,-0.011931709,0.11234795,-0.040398773,0.07624683,-0.107430935,0.5235896,-0.057598192,-6.410823e-05,0.0043389164,0.8889646156401395,0.0016510817497998667,-0.4579729097543153,0.03326692483046006,0.9971190160979934,0.06816875712592947,0.45676604936455517,-0.0758349633403018,0.8863485964805673,-0.07243493,-0.0072902255,0.088525206,-0.32963157,0.107004665,0.20142306,2.8557199e-09,-0.0042048106,-0.011009383,0.0049773417,0.9322778206253242,-0.32823140515129345,-0.15205988899937795,0.2897138313737939,0.9291928723271611,-0.22949183411859508,0.2166193922085753,0.16989629392310868,0.9613590839173363,left_images/camera_left_33.png,right_images/camera_right_33.png
2025-06-03 16:17:13,2.0219249725341797,34,-0.034108263,-0.012263045,0.113998875,0.027534146,0.07661705,0.085214354,0.5235884,0.05884566,4.0415907e-06,0.0015804265,0.8899062614339927,-0.01076101757371312,0.4560164979047939,-0.02195785344871354,0.9975520891785066,0.06639037616644537,-0.4556146381894457,-0.06909435488066688,0.8874915614196708,0.057627983,-0.011931491,0.11234795,-0.0403999,0.07624592,-0.10743138,0.5235896,-0.05759818,-6.408786e-05,0.0043389155,0.8889647684820801,0.001649845760671835,-0.45797261752922297,0.03326795298612182,0.9971190255953045,0.06816811644738142,0.4567656770180036,-0.07583486536439925,0.8863487967462067,-0.079505354,-0.013250961,0.08798566,-0.41774908,0.13125424,0.19011177,0.00035027333,-0.00461925,-0.010865368,0.005618875,0.9000206334974836,-0.41038370403542146,-0.14679262495424053,0.37269423746145314,0.8992630257290067,-0.2289650976016608,0.22596872491965495,0.15136454676997416,0.9623029197395725,left_images/camera_left_34.png,right_images/camera_right_34.png
2025-06-03 16:17:13,2.0800418853759766,35,-0.034108266,-0.012263231,0.113998935,0.027532142,0.07661804,0.08521428,0.52358836,0.058845676,4.055444e-06,0.0015804013,0.8899062354484996,-0.010763385003809923,0.4560164927424654,-0.02195548327434132,0.9975521045195714,0.066390929521763,-0.4556148031660839,-0.06909376463786977,0.8874915226773137,0.057628088,-0.011931325,0.11234795,-0.040400684,0.07624525,-0.10743183,0.5235896,-0.05759815,-6.407086e-05,0.0043387394,0.8889647808361331,0.001648922468062572,-0.45797259687415814,0.03326890214818961,0.9971190051340506,0.06816795251681892,0.456765583842325,-0.07583515448112052,0.8863488200262944,-0.08426472,-0.017443376,0.08755769,-0.47908646,0.14700472,0.18458582,0.0008704968,-0.004839412,-0.010738772,0.006131812,0.8728765891378969,-0.4654157325871471,-0.14654233516414522,0.4273823561180333,0.8741607767850182,-0.23062362847204634,0.23543742653620314,0.13867635772179446,0.9619449495657365,left_images/camera_left_35.png,right_images/camera_right_35.png
2025-06-03 16:17:13,2.145026683807373,36,-0.034108005,-0.0122661125,0.11399885,0.02749849,0.07664207,0.08520389,0.5235884,0.058845636,4.004396e-06,0.0015804106,0.8899023777808894,-0.010803096082035276,0.4560230818006491,-0.021920638992319757,0.997551691535926,0.06640864627426882,-0.45562401561604227,-0.06909352957299894,0.8874868114879554,0.05762831,-0.011931084,0.11234795,-0.04040135,0.076244555,-0.10743226,0.5235896,-0.05759816,-6.406312e-05,0.0043387366,0.888965148290308,0.0016478814817888904,-0.4579718873597079,0.03326963679728402,0.9971190290295746,0.06816724443965519,0.45676481518673023,-0.07583486291766389,0.8863492410859795,-0.08959072,-0.02334322,0.08709198,-0.56764823,0.16515878,0.16821918,0.0026817818,-0.0050939745,-0.010472993,0.0067190444,0.8291194963477733,-0.5411760625714999,-0.14031867329625997,0.5035666850254357,0.8319279387540561,-0.2330590020851393,0.24286097773934007,0.1225739532691806,0.9622859094216523,left_images/camera_left_36.png,right_images/camera_right_36.png
2025-06-03 16:17:13,2.2077438831329346,37,-0.034103055,-0.0122692585,0.11399824,0.027473351,0.07667114,0.08518941,0.5235884,0.058846295,3.8013095e-06,0.0015807571,0.8898983920432915,-0.010837699770592131,0.45603003859663355,-0.02189454559224993,0.997550696710996,0.06643219373703813,-0.455633054894038,-0.06910247285798812,0.887481474473038,0.057628438,-0.011930886,0.11234795,-0.040401798,0.07624411,-0.10743226,0.5235896,-0.057598114,-6.409531e-05,0.0043388624,0.8889648663977258,0.0016476562475981164,-0.45797243534885745,0.03326993328193564,0.9971190202967608,0.06816722747657813,0.45676534221620757,-0.07583498263544172,0.8863489592473119,-0.09333423,-0.02950649,0.08676161,-0.6338615,0.17910469,0.150737,0.003750314,-0.0052688234,-0.010142264,0.0071761813,0.7928024268026728,-0.5946656533125231,-0.13355550466447536,0.5581040023652094,0.7963872500991848,-0.2329962884326543,0.24491679117554782,0.11018216121427477,0.963263025736182,left_images/camera_left_37.png,right_images/camera_right_37.png
2025-06-03 16:17:13,2.2757949829101562,38,-0.034098886,-0.012272153,0.113998145,0.027454743,0.07669282,0.08517774,0.52358854,0.058846813,3.7588761e-06,0.0015806509,0.8898954239585548,-0.01086288428508981,0.45603523127345397,-0.0218754917338624,0.9975499829616047,0.06644918626065925,-0.45563976700791337,-0.06910882171120282,0.8874775340720821,0.057628438,-0.011930718,0.11234795,-0.04040221,0.07624366,-0.10743226,0.5235896,-0.057598174,-6.409269e-05,0.0043389173,0.8889649042954357,0.0016467247143739407,-0.4579723651365026,0.03327079862734893,0.9971190143445418,0.06816689219311813,0.4567652054280244,-0.07583508113191982,0.8863490213115881,-0.097218186,-0.034397546,0.08669754,-0.69917905,0.18996279,0.13135149,0.0073019164,-0.0055046766,-0.009808996,0.007357816,0.7540237406490762,-0.6448359714978226,-0.12503906749506152,0.6096705391047349,0.7579109831842799,-0.23210509541235988,0.2444381972714514,0.0987801165776708,0.9646203689968325,left_images/camera_left_38.png,right_images/camera_right_38.png
2025-06-03 16:17:13,2.341242551803589,39,-0.03409597,-0.012272226,0.11399791,0.027441246,0.076708935,0.08516838,0.52358836,0.058847193,3.4729019e-06,0.0015806314,0.8898928041233711,-0.010882923580710618,0.45603986573958627,-0.0218607800497083,0.9975493520968317,0.06646349694990128,-0.455645589757063,-0.06911477487142437,0.887474080990206,0.057628438,-0.011930647,0.11234795,-0.040402435,0.07624344,-0.10743226,0.5235896,-0.057598144,-6.416062e-05,0.0043388875,0.8889648903514554,0.0016466823937691562,-0.4579723923551712,0.03327084289976932,0.9971190136379465,0.06816688092048374,0.45676522934124886,-0.07583509134155896,0.8863490081147797,-0.098671235,-0.040679004,0.08674265,-0.74679786,0.19605958,0.108267225,0.010268156,-0.0056316513,-0.009331057,0.0074496632,0.7249922839774431,-0.679328382952056,-0.11357436457632075,0.6462370167390714,0.7279640443093138,-0.22901106608417943,0.238251770967931,0.09263529731464121,0.9667754627223802,left_images/camera_left_39.png,right_images/camera_right_39.png
2025-06-03 16:17:13,2.4053304195404053,40,-0.034093875,-0.012274956,0.113997735,0.02743105,0.07672085,0.08516124,0.5235885,0.05884745,3.5780831e-06,0.001580609,0.8898908477111405,-0.010896173782116745,0.4560433669694773,-0.021850559502685326,0.9975490144748371,0.06647192467275459,-0.4556499009210548,-0.0691175601218002,0.887471650630848,0.057628438,-0.011930611,0.11234795,-0.04040266,0.07624344,-0.10743226,0.5235896,-0.057598144,-6.416108e-05,0.0043388586,0.8889648846158923,0.0016463156216416919,-0.45797240480702284,0.03327129703409084,0.9971189929734664,0.0681669615374624,0.45676520742447424,-0.07583537101151758,0.8863489954809126,-0.09919876,-0.04654004,0.0867706,-0.78671265,0.20016219,0.088199146,0.012771752,-0.0056821597,-0.008876362,0.007551782,0.6994813077848199,-0.7069687178213463,-0.10450422040128288,0.6754728550766044,0.701780251724168,-0.22636452978464622,0.2333716394815335,0.08774799320785087,0.9684203465302121,left_images/camera_left_40.png,right_images/camera_right_40.png
2025-06-03 16:17:13,2.4740636348724365,41,-0.034092385,-0.012274328,0.11399775,0.027423743,0.07672975,0.08515527,0.5235884,0.058847457,3.4469995e-06,0.0015807124,0.8898889489877599,-0.010907413546928289,0.45604680329893355,-0.02184284218913241,0.9975485887426301,0.06648084944318697,-0.45565397914926686,-0.06912193159412808,0.8874692162876052,0.057628438,-0.011930652,0.11234795,-0.04040266,0.07624344,-0.10743226,0.5235896,-0.057598144,-6.416108e-05,0.0043388586,0.8889648846158923,0.0016463156216416919,-0.45797240480702284,0.03327129703409084,0.9971189929734664,0.0681669615374624,0.45676520742447424,-0.07583537101151758,0.8863489954809126,-0.09937337,-0.051649734,0.086779244,-0.8131805,0.202198,0.068152025,0.015784085,-0.005745481,-0.008510437,0.0076482017,0.6826980080121996,-0.7246139933832334,-0.09411689778874992,0.6953276931454679,0.6838276090388452,-0.22113163559567423,0.2245948107173817,0.0855240417041871,0.970691922954654,left_images/camera_left_41.png,right_images/camera_right_41.png
2025-06-03 16:17:13,2.5333023071289062,42,-0.034091234,-0.012274759,0.11399755,0.027418252,0.0767361,0.08515073,0.5235884,0.05884769,3.3677788e-06,0.0015809909,0.889887562131445,-0.010915088536704101,0.456049325847533,-0.02183701192474726,0.9975483849913511,0.06648582188215385,-0.4556569671078803,-0.0691236605178209,0.887467547509578,0.057628438,-0.011930605,0.11234795,-0.04040266,0.076243214,-0.10743226,0.5235896,-0.057598144,-6.415171e-05,0.0043388605,0.8889648704434573,0.0016462465149479598,-0.45797243256538867,0.033271121749017724,0.9971190327118135,0.0681664658128889,0.45676524777505734,-0.07583485001151999,0.8863490192631349,-0.09978596,-0.055413723,0.086772636,-0.8367096,0.20367424,0.051941145,0.01713008,-0.005812851,-0.0082451925,0.007735462,0.6671073597381175,-0.7399789023718116,-0.08601740886498978,0.7124415616428591,0.6674617623613739,-0.21661444326113893,0.2177034492770436,0.08322271222483502,0.9724603788035893,left_images/camera_left_42.png,right_images/camera_right_42.png
2025-06-03 16:17:13,2.594278573989868,43,-0.03409027,-0.012276695,0.11399744,0.027414048,0.07674094,0.08514745,0.5235884,0.0588478,3.3561955e-06,0.0015809676,0.8898864459467302,-0.010920102155785684,0.45605138382555577,-0.021832947240410516,0.9975482953641012,0.06648850149441882,-0.45565934176212675,-0.06912416209317179,0.8874662892075519,0.057628438,-0.011930638,0.11234795,-0.04040266,0.076243214,-0.10743226,0.5235896,-0.057598144,-6.415171e-05,0.0043388605,0.8889648704434573,0.0016462465149479598,-0.45797243256538867,0.033271121749017724,0.9971190327118135,0.0681664658128889,0.45676524777505734,-0.07583485001151999,0.8863490192631349,-0.09966207,-0.05969669,0.086858384,-0.84897757,0.2054111,0.0357482,0.016260553,-0.005858404,-0.007945352,0.007739315,0.6595638656081956,-0.7475976038450175,-0.07793157196645298,0.7221726255265167,0.6590339435964072,-0.2100975014794439,0.20842793988357597,0.08229267229198357,0.9745694998115488,left_images/camera_left_43.png,right_images/camera_right_43.png
2025-06-03 16:17:13,2.666914463043213,44,-0.03408958,-0.012277288,0.11399758,0.027411066,0.07674486,0.08514473,0.5235883,0.058847785,3.3626566e-06,0.0015807012,0.8898856038376128,-0.010924338234199575,0.456052925565347,-0.021829917200422592,0.997548156055976,0.06649158641771657,-0.4556611315414008,-0.06912550313355253,0.8874652658098475,0.057628438,-0.011930694,0.11234795,-0.04040266,0.076243214,-0.10743226,0.5235896,-0.05759816,-6.406236e-05,0.0043388903,0.8889648817470667,0.0016461303128355344,-0.4579724110417754,0.033271078507707275,0.9971190569075916,0.06816613298881724,0.4567652289254926,-0.07583453439369364,0.8863490559807315,-0.09816099,-0.06470048,0.08700177,-0.8543382,0.20536047,0.019087374,0.017769177,-0.005827555,-0.00756629,0.0076996265,0.6571375277941983,-0.7506054364223577,-0.06900542281394394,0.7272586020554218,0.6554281110713951,-0.20373737250140544,0.1981544733305881,0.08369868595494706,0.9765906689440015,left_images/camera_left_44.png,right_images/camera_right_44.png
2025-06-03 16:17:13,2.737478733062744,45,-0.034089096,-0.012277585,0.113997445,0.027408902,0.07674775,0.085142545,0.5235884,0.05884786,3.4493278e-06,0.0015807953,0.8898849530081636,-0.010927398606791369,0.45605412219313035,-0.021827763364712618,0.9975480509951465,0.0664938696593788,-0.45566250576073564,-0.06912653553790064,0.8874644798122203,0.057628438,-0.011930614,0.11234795,-0.04040277,0.076243214,-0.10743226,0.5235896,-0.057598144,-6.415171e-05,0.0043388605,0.8889648704434573,0.0016462465149479598,-0.45797243256538867,0.033271121749017724,0.9971190327118135,0.0681664658128889,0.45676524777505734,-0.07583485001151999,0.8863490192631349,-0.09691238,-0.06904869,0.08716639,-0.8574395,0.20646876,0.0057714484,0.01786927,-0.005788994,-0.0072345603,0.0076296385,0.6560024801638275,-0.7521496931530194,-0.06270235329496066,0.7304811770142698,0.653607857274946,-0.1979747936892498,0.18988943110861745,0.08406906683360248,0.978199568572269,left_images/camera_left_45.png,right_images/camera_right_45.png
2025-06-03 16:17:13,2.795358180999756,46,-0.034088705,-0.012277745,0.113997474,0.027407281,0.0767498,0.08514088,0.5235884,0.058847867,3.410445e-06,0.0015807385,0.8898844941338815,-0.010929770352321531,0.4560549607450082,-0.021826044787161922,0.9975479760532975,0.06649555805404019,-0.4556634842392292,-0.06912724203969763,0.887463922387243,0.057628438,-0.01193067,0.11234795,-0.04040277,0.076243214,-0.10743226,0.5235896,-0.057598144,-6.415171e-05,0.0043388605,0.8889648704434573,0.0016462465149479598,-0.45797243256538867,0.033271121749017724,0.9971190327118135,0.0681664658128889,0.45676524777505734,-0.07583485001151999,0.8863490192631349,-0.09543252,-0.07324192,0.08734498,-0.8559216,0.20672892,-0.006372073,0.017317986,-0.0057464,-0.0069053276,0.0075441943,0.6581769878169352,-0.7507655424936814,-0.05616184569968012,0.730660026034812,0.654969535865177,-0.19274551471658968,0.18149098893067545,0.08582544665029836,0.9796402470520711,left_images/camera_left_46.png,right_images/camera_right_46.png
2025-06-03 16:17:14,2.85858154296875,47,-0.034088466,-0.0122773675,0.11399745,0.027406093,0.076751314,0.08513951,0.5235883,0.058847897,3.2305834e-06,0.001580717,0.8898838349877343,-0.01093167314356249,0.45605620130616054,-0.021824849245055872,0.9975478945650044,0.06649717290499957,-0.4556648287754427,-0.06912811708132327,0.8874631638810916,0.057628438,-0.011930613,0.11234795,-0.04040288,0.076243214,-0.10743226,0.5235896,-0.057598144,-6.415171e-05,0.0043388605,0.8889648704434573,0.0016462465149479598,-0.45797243256538867,0.033271121749017724,0.9971190327118135,0.0681664658128889,0.45676524777505734,-0.07583485001151999,0.8863490192631349,-0.094831444,-0.07606431,0.08755739,-0.85712713,0.20648463,-0.01630272,0.015518459,-0.0057727345,-0.006654122,0.0074026706,0.6580162937364255,-0.7513287849242152,-0.05019575800484295,0.7325070354231391,0.6541286839006857,-0.18854471075572732,0.1744935535570934,0.08729674588814523,0.9807809530799211,left_images/camera_left_47.png,right_images/camera_right_47.png
2025-06-03 16:17:14,2.9265682697296143,48,-0.034088332,-0.012278615,0.113997445,0.027405074,0.07675249,0.085138686,0.52358836,0.058847927,3.5302364e-06,0.0015808316,0.8898837574738421,-0.010932351647959634,0.4560563362915612,-0.021823836645082886,0.997547950966587,0.06649665913752847,-0.4556650286540816,-0.06912719587694316,0.8874631330099667,0.057628438,-0.011930645,0.11234795,-0.04040288,0.076243214,-0.10743226,0.5235896,-0.057598144,-6.415171e-05,0.0043388605,0.8889648704434573,0.0016462465149479598,-0.45797243256538867,0.033271121749017724,0.9971190327118135,0.0681664658128889,0.45676524777505734,-0.07583485001151999,0.8863490192631349,-0.09415938,-0.079837635,0.08773224,-0.8552173,0.20740359,-0.02672099,0.016557224,-0.005783352,-0.006358448,0.0073193517,0.6602289192581583,-0.74975249786288,-0.04437303374321521,0.7323000236059847,0.6557331706533251,-0.18371359321403438,0.1668365955115328,0.0887986534431092,0.9819777744658031,left_images/camera_left_48.png,right_images/camera_right_48.png
2025-06-03 16:17:14,2.9854533672332764,49,-0.034088127,-0.012278303,0.113997474,0.02740446,0.07675327,0.08513788,0.5235885,0.05884789,3.3787219e-06,0.001580717,0.8898833969118677,-0.010933537873001293,0.45605701140337124,-0.021823192564952142,0.9975478836911654,0.06649787973725009,-0.4556657636545322,-0.06912797908847333,0.8874626946189205,0.057628874,-0.011927657,0.11234795,-0.040434707,0.076219104,-0.10744232,0.5235896,-0.057598177,-6.4152235e-05,0.0043388475,0.8889681220770218,0.0016083418482943056,-0.4579662554898039,0.033304363881993926,0.9971190744738495,0.06814961971155443,0.45675649669957524,-0.07583511427375035,0.8863535063200337,-0.09378893,-0.082683094,0.08783561,-0.8506287,0.20806456,-0.035660647,0.014244029,-0.005817013,-0.006159671,0.007281892,0.6642233925828217,-0.7465387865599624,-0.03856325851566148,0.7304329129098395,0.6591351569775731,-0.178909487099474,0.15898127085859382,0.09066799323757538,0.9831094906054245,left_images/camera_left_49.png,right_images/camera_right_49.png
2025-06-03 16:17:14,3.0472054481506348,50,-0.034088027,-0.012277948,0.11399753,0.027404062,0.07675402,0.08513731,0.5235884,0.05884793,3.4524128e-06,0.0015807226,0.8898831149436861,-0.010934485506722588,0.45605753887511363,-0.02182271705578144,0.9975478238913191,0.06649893284856014,-0.4556663370915453,-0.06912869213573535,0.8874623446463389,0.05762932,-0.011925162,0.11234795,-0.040458303,0.07620117,-0.10744992,0.5235896,-0.057598077,-6.419723e-05,0.004338667,0.8889708080114498,0.0015799350143806748,-0.45796114061000887,0.03332892801757051,0.9971191565398951,0.06813640890425418,0.4567494773512823,-0.07583463236884885,0.8863571647325992,-0.09351579,-0.087156296,0.088008344,-0.8390804,0.21020858,-0.04635493,0.009740493,-0.005876424,-0.0058439435,0.007217598,0.673449029720548,-0.738571140480405,-0.03129017126713555,0.7241856318727231,0.6676459139598668,-0.1726386519925331,0.14839668108673237,0.09360344022613847,0.9844881010049205,left_images/camera_left_50.png,right_images/camera_right_50.png
2025-06-03 16:17:14,3.1074793338775635,51,-0.03408798,-0.012278151,0.113997474,0.02740363,0.0767543,0.08513695,0.5235884,0.058848,3.430061e-06,0.001580718,0.8898829854161996,-0.010934934172436787,0.45605778085829923,-0.021822410554941225,0.997547807834336,0.06649927430041845,-0.4556666047279783,-0.06912885287313235,0.8874621947081022,0.057629734,-0.011923313,0.11234795,-0.040475775,0.076187916,-0.107455574,0.5235896,-0.057598032,-6.415014e-05,0.0043387963,0.8889726223212469,0.0015591204315204693,-0.45795769008366477,0.033347267558376255,0.9971191634089718,0.06812733452133896,0.45674460753212626,-0.07583497284282742,0.8863596450562558,-0.09361652,-0.090403624,0.08817427,-0.83549446,0.21125366,-0.055753693,0.008157441,-0.005954737,-0.0055930642,0.007138363,0.6765744021974663,-0.7359515075112747,-0.024949085815385054,0.7228883090371819,0.6702568227317542,-0.16789366944259,0.1402838941165556,0.09555715657875208,0.9854893499567,left_images/camera_left_51.png,right_images/camera_right_51.png
2025-06-03 16:17:14,3.1870310306549072,52,-0.034087986,-0.012277931,0.113997556,0.02740336,0.07675456,0.085136615,0.5235884,0.058847897,3.4449622e-06,0.0015807189,0.8898828704498026,-0.010935484931161685,0.45605799198056,-0.02182197959088817,0.9975477954507055,0.06649960148882572,-0.45566684988789236,-0.06912894444990542,0.8874620616975619,0.057629958,-0.011921825,0.11234795,-0.04048872,0.0761779,-0.10745966,0.5235896,-0.057598133,-6.4105785e-05,0.0043387804,0.888973948017799,0.0015434374380795743,-0.4579551697999733,0.03336104637288149,0.9971191758507887,0.0681204061610799,0.4567410210727235,-0.07583513006198891,0.8863614797123842,-0.09385622,-0.09399864,0.08837847,-0.82719284,0.2132067,-0.0658582,0.0061923973,-0.0060562575,-0.005325249,0.0070306333,0.6830847859461099,-0.7301248749506339,-0.017687345399415813,0.7186463072002736,0.6762676428684888,-0.1618936699087029,0.13016397487925468,0.09787615740015058,0.9866496832494366,left_images/camera_left_52.png,right_images/camera_right_52.png
2025-06-03 16:17:14,3.2537503242492676,53,-0.03408796,-0.012278259,0.113997474,0.027403153,0.07675472,0.0851364,0.52358836,0.05884806,3.4073018e-06,0.0015806584,0.8898828822417133,-0.010935412341574937,0.45605797071216814,-0.02182186199415023,0.9975478236148754,0.06649921759189081,-0.45566683249089934,-0.06912854951570377,0.8874621013933865,0.057635404,-0.011918932,0.112347156,-0.040491197,0.07616515,-0.10746687,0.5235896,-0.057598125,-6.4166554e-05,0.0043397835,0.8889748456754825,0.0015368059608184756,-0.4579534495816043,0.03336358177450023,0.997119719097008,0.06811121199244824,0.45673908872290364,-0.07582812153378707,0.8863630750528978,-0.094544806,-0.09740816,0.08852855,-0.81832886,0.21430744,-0.07575337,0.0026946268,-0.0062072496,-0.0050803763,0.0069746803,0.6897698557043144,-0.7239697342052216,-0.009239595038207087,0.7140838506730003,0.68234801393372,-0.15647824797309035,0.11959013491784942,0.10133613292172039,0.9876381866831607,left_images/camera_left_53.png,right_images/camera_right_53.png
2025-06-03 16:17:14,3.311763048171997,54,-0.03407845,-0.01228173,0.113996826,0.027402319,0.07677704,0.08512275,0.52358854,0.05884914,3.527326e-06,0.0015808102,0.889880781082157,-0.01094536659914484,0.45606183178448584,-0.021820543949217345,0.9975466184300105,0.06651772636381528,-0.45567099899200364,-0.06914436353645506,0.8874587301214452,0.057647027,-0.011913737,0.11234664,-0.040519986,0.07613495,-0.10748773,0.5235896,-0.05759731,-6.4315565e-05,0.0043407194,0.8889783160945965,0.0014997257158891539,-0.45794683570955363,0.033393600975334385,0.9971201638400192,0.06808998661736929,0.45673014015665303,-0.07582301554561441,0.8863681229523396,-0.09511906,-0.10119755,0.08867689,-0.81072056,0.21672004,-0.083916575,0.00031255616,-0.0063164895,-0.0048042377,0.0069330027,0.6955283798246606,-0.7184916915953317,-0.003156258380021461,0.7098137963642333,0.6877955206686912,-0.151992421650156,0.11137615251694327,0.1034746870329302,0.988376619408796,left_images/camera_left_54.png,right_images/camera_right_54.png
2025-06-03 16:17:14,3.3764545917510986,55,-0.034073245,-0.01228925,0.11399641,0.027394405,0.07680832,0.08511148,0.52358836,0.05884984,3.6290148e-06,0.0015808502,0.88987804935004,-0.010964540804786035,0.4560667014044195,-0.021811099610698496,0.9975453150952169,0.06654036568397091,-0.4556767859116152,-0.06916012707134485,0.887454530443524,0.0576546,-0.011907629,0.11234532,-0.04053896,0.07610375,-0.107501596,0.5235896,-0.057597447,-6.459281e-05,0.0043421322,0.8889806682680983,0.0014707509909910738,-0.45794236355367673,0.033414232262568774,0.9971209883814524,0.06806778688556558,0.4567240529333971,-0.07581273917171286,0.8863721385802769,-0.09564046,-0.10575819,0.08889788,-0.7965873,0.2185209,-0.092992105,1.21078e-07,-0.006464995,-0.0044464534,0.0068450943,0.7057016764317162,-0.7084877773302877,0.0054966585353490305,0.7013181227370188,0.6974156559126105,-0.1475272639501166,0.10068780761387867,0.10796514373431895,0.9890427155266543,left_images/camera_left_55.png,right_images/camera_right_55.png
2025-06-03 16:17:14,3.438157558441162,56,-0.034075417,-0.01228897,0.11399656,0.027361184,0.07683167,0.085101604,0.5235883,0.058849536,3.257126e-06,0.0015810104,0.8898734729100115,-0.011005367343878908,0.4560746475092664,-0.021776675556081725,0.9975446836950623,0.06656110300651137,-0.4556873693803686,-0.06916274952128891,0.8874488917486207,0.057660703,-0.011913063,0.11234534,-0.040559784,0.07609491,-0.107514195,0.5235896,-0.057597004,-6.370997e-05,0.0043426035,0.888982671545572,0.0014462503896480981,-0.4579385527027708,0.03343541727235226,0.9971210638341034,0.06805627766907274,0.4567186032597333,-0.07581221813241373,0.8863749911963457,-0.096685715,-0.10908354,0.08903439,-0.7905499,0.22045474,-0.101256266,1.1083908e-07,-0.006621049,-0.004203521,0.006809581,0.7100225685795766,-0.7040697948704006,0.012396614812618674,0.698130936127095,0.7015129954809255,-0.14315276173963548,0.09209314920213313,0.11029615189357661,0.9896229639350042,left_images/camera_left_56.png,right_images/camera_right_56.png
2025-06-03 16:17:14,3.505336046218872,57,-0.034072436,-0.012292514,0.11399647,0.027335856,0.07685964,0.08508825,0.52358836,0.058849785,3.182853e-06,0.0015809275,0.8898691030786688,-0.011039206664663556,0.4560823558330015,-0.021750412106122115,0.9975438274681748,0.0665825191274581,-0.4556971570672562,-0.06916970577036827,0.8874433237364859,0.05765846,-0.011917185,0.11234539,-0.040580038,0.07608452,-0.10751801,0.5235896,-0.057596993,-6.3228596e-05,0.004342288,0.8889848119200833,0.0014211903329212766,-0.4579344760917784,0.03345687831021609,0.9971211726201976,0.06804413572275902,0.45671286545175116,-0.07581126123841675,0.8863780295112751,-0.096658565,-0.11215548,0.089112096,-0.78247225,0.22198218,-0.10578783,5.1833997e-08,-0.006663005,-0.0039760415,0.0068187146,0.7157467890824306,-0.6981671812833269,0.016404904665514967,0.6929128413013729,0.7070399559874624,-0.14130214080793532,0.08705359428449175,0.11250372267681333,0.9898305835374102,left_images/camera_left_57.png,right_images/camera_right_57.png
2025-06-03 16:17:14,3.5673773288726807,58,-0.034064032,-0.012299999,0.113995984,0.02731288,0.07690454,0.08506792,0.5235884,0.058850624,3.2014796e-06,0.001581003,0.8898642797811236,-0.011077814929689806,0.4560908304121077,-0.0217257599305347,0.9975420390376354,0.06661735290506424,-0.45570775166225036,-0.06918932265184158,0.8874363541719015,0.057656158,-0.011920342,0.11234539,-0.04059511,0.07607691,-0.1075207,0.5235896,-0.057597477,-6.256916e-05,0.004342189,0.8889865462666833,0.0014022312324244307,-0.45793116764903086,0.033473041063524216,0.9971212638752628,0.06803484878911717,0.4567083052439419,-0.07581041402979691,0.8863804516379166,-0.09722551,-0.1162377,0.08928362,-0.772761,0.22399925,-0.11386489,1.0549737e-07,-0.006791937,-0.0036594304,0.0067722974,0.7224500005091333,-0.6910169782398793,0.023696678007248822,0.6869903987573432,0.7135220199227892,-0.1375882229717692,0.07816769652215459,0.11568000202942964,0.9902060130856061,left_images/camera_left_58.png,right_images/camera_right_58.png
2025-06-03 16:17:14,3.636521339416504,59,-0.034074757,-0.012298433,0.113996625,0.027295856,0.07690694,0.08507412,0.5235884,0.05884937,3.0971714e-06,0.0015809191,0.8898625632024423,-0.011095578625441194,0.4560937477599821,-0.021707803098754377,0.9975422086922123,0.06662066617866104,-0.45571195935086595,-0.0691840300389442,0.8874346060934097,0.057661485,-0.011922971,0.112345725,-0.04060145,0.076074906,-0.10752857,0.5235896,-0.05759673,-6.226089e-05,0.0043423697,0.8889873140896288,0.0013948350201598396,-0.4579296996515669,0.033479383667103804,0.9971212909398467,0.06803133119177256,0.45670634575948094,-0.07581019449731229,0.8863814800374054,-0.09840734,-0.11936225,0.08943452,-0.7639926,0.22520065,-0.12086134,0.009198293,-0.006976615,-0.0034134593,0.0067249537,0.7282225631959176,-0.6846271640741957,0.03126571067627474,0.6818040850263118,0.7190816733283358,-0.13440512164629212,0.06953479771885299,0.11919393145225683,0.9904330964841357,left_images/camera_left_59.png,right_images/camera_right_59.png
2025-06-03 16:17:14,3.6988143920898438,60,-0.034071676,-0.012292938,0.11399641,0.027296798,0.07688823,0.08507157,0.5235884,0.058849744,2.8864597e-06,0.0015810225,0.8898629455184651,-0.011087042980140436,0.45609320941136317,-0.021710372342789264,0.9975430568535587,0.06660712766660254,-0.4557110904135849,-0.06917316821726585,0.8874358990219222,0.057677627,-0.011923706,0.11234576,-0.04059418,0.07607187,-0.10754363,0.5235896,-0.057595227,-6.208662e-05,0.0043432396,0.8889871982369448,0.0014001649018041996,-0.45792990829282465,0.033471277016012574,0.9971218475814738,0.06802716141825657,0.4567071654635434,-0.07580277444761466,0.886381692275004,-0.09989828,-0.12325959,0.08953868,-0.75791234,0.22648749,-0.12735504,0.033787794,-0.0071711643,-0.003110177,0.006749754,0.7321640797634035,-0.680058625734299,0.038157907025739304,0.6782514258549722,0.7227831958786982,-0.13251209409360423,0.06253609861436453,0.12290125027741443,0.9904466260482402,left_images/camera_left_60.png,right_images/camera_right_60.png
2025-06-03 16:17:14,3.7578694820404053,61,-0.034097187,-0.012294928,0.113998145,0.027272172,0.07690276,0.08509359,0.5235884,0.058846537,2.8121867e-06,0.001581002,0.8898616492417912,-0.011116595968735227,0.4560950191602045,-0.021683074846816152,0.9975429128059281,0.06661817601714977,-0.4557149212763027,-0.0691705024178116,0.8874341395965116,0.05766405,-0.011917599,0.11234384,-0.04057185,0.07607375,-0.10752193,0.5235896,-0.057597604,-6.276835e-05,0.0043441104,0.8889841913731156,0.0014217265156106322,-0.45793567908867183,0.03345009818687958,0.9971222336083839,0.06803192026626928,0.4567145699668189,-0.07579729505426111,0.8863783456529618,-0.100755036,-0.12696712,0.08962016,-0.75319403,0.22763237,-0.13244377,0.053197853,-0.0072932895,-0.002816683,0.0067886654,0.7352536288884775,-0.6764138719003063,0.04320156371198932,0.6753335358969281,0.7256730993383411,-0.13161750715477988,0.05767769498928884,0.12594771453870124,0.9903587515154295,left_images/camera_left_61.png,right_images/camera_right_61.png
2025-06-03 16:17:14,3.822312116622925,62,-0.03410579,-0.012310976,0.11399903,0.027210485,0.07698504,0.08508598,0.52358836,0.058845207,3.2448443e-06,0.001580907,0.8898557104693767,-0.011204537930239053,0.4561044539081056,-0.02161639214700091,0.997540316804836,0.06667869179471773,-0.4557296853789409,-0.06919374739582844,0.8874247456464882,0.05764807,-0.011919491,0.112343766,-0.040532988,0.076113425,-0.107493624,0.5235896,-0.05759903,-6.325799e-05,0.00434334,0.8889796822217827,0.0014738524104518196,-0.457944267740006,0.03340918845645792,0.9971213889332388,0.06806439493986256,0.4567263411754779,-0.07580741052773741,0.8863714152574755,-0.10108661,-0.13036367,0.08983978,-0.7438692,0.22841798,-0.13628669,0.078289,-0.007395747,-0.0024918972,0.0066886013,0.7412969517535439,-0.6694397434180046,0.048262399995647486,0.6691136077922981,0.7314703306380965,-0.13129407931574194,0.0525909610872291,0.1296209293618502,0.9901679683181493,left_images/camera_left_62.png,right_images/camera_right_62.png
2025-06-03 16:17:15,3.8841683864593506,63,-0.034123387,-0.0123057645,0.113999836,0.027172754,0.077013336,0.085098185,0.5235886,0.058843054,2.0807493e-06,0.0015812078,0.8898541827793648,-0.011255289024190106,0.4561061848506886,-0.021575440838723498,0.9975391476563086,0.06670943895536807,-0.45573460889281087,-0.06920236529272089,0.8874215452056645,0.05755354,-0.01186222,0.11234421,-0.040496208,0.07571212,-0.10672048,0.52358985,-0.05760146,-6.227201e-05,0.0043396736,0.8886709442951036,0.0013074944033333695,-0.45854361103828983,0.03346208735407638,0.9971448451029812,0.06769377072124375,0.4573229072280956,-0.07550131351796077,0.8860898996047216,-0.10204153,-0.13224418,0.08990094,-0.7430288,0.22912191,-0.1407589,0.072303005,-0.0075130505,-0.002346422,0.006694681,0.7416772250407081,-0.6687149192426137,0.0522996236913741,0.6690094421187757,0.7318682636104881,-0.12959633897488637,0.04838657057324161,0.13110759513511677,0.9901866179089914,left_images/camera_left_63.png,right_images/camera_right_63.png
2025-06-03 16:17:15,3.951620101928711,64,-0.034112107,-0.012304079,0.1139991,0.027230645,0.07694556,0.08511366,0.5235884,0.058844674,3.1488016e-06,0.0015811436,0.8898649404960793,-0.011170593587662585,0.456087278396151,-0.021637515597238435,0.9975418664875808,0.06664864982317657,-0.45571065995287857,-0.0691768924090438,0.8874358297713357,0.057466596,-0.011690746,0.11234172,-0.040274225,0.07456776,-0.10475792,0.5235901,-0.057595067,-6.0366e-05,0.0043429146,0.887820181666134,0.0009501302617469821,-0.4601895503798394,0.033475318857716096,0.9972153046589173,0.0666411222999523,0.4589713804298556,-0.07457032524073283,0.8853160670290607,-0.102333486,-0.13472496,0.09000098,-0.73657274,0.22951442,-0.14452283,0.098969385,-0.007594848,-0.0021339091,0.0066793337,0.7457040781163008,-0.6638476047241855,0.05684879578917666,0.6648385685653577,0.7357762677340322,-0.1289300647147273,0.043761919846871375,0.13393894706671128,0.9900228547008278,left_images/camera_left_64.png,right_images/camera_right_64.png
2025-06-03 16:17:15,4.012167453765869,65,-0.034069434,-0.012270572,0.1139962,0.02745229,0.0767166,0.08514149,0.5235885,0.058850374,3.1369855e-06,0.0015806248,0.8898923925065056,-0.010876362041837059,0.4560408254836208,-0.02187310685732523,0.9975484475609792,0.06647301681952178,-0.45564580208255556,-0.06912886168175547,0.8874728748120301,0.057408664,-0.011550353,0.11234188,-0.04017544,0.07368893,-0.10332742,0.5235901,-0.05758894,-5.960319e-05,0.0043439753,0.8871934570492165,0.0006208626999170859,-0.46139720881098534,0.03354852972704134,0.9972653699330277,0.06585042206011552,0.4601763422017846,-0.07390126157143312,0.8847464821156039,-0.103108965,-0.13712476,0.09006708,-0.73499286,0.22980575,-0.14785087,0.12563568,-0.007696385,-0.001929259,0.0066987397,0.7465843865005544,-0.6625471070329024,0.06035797209915711,0.6640335599058654,0.7365258146530707,-0.12879889622343038,0.04088013151072581,0.13623896400062052,0.9898321875629744,left_images/camera_left_65.png,right_images/camera_right_65.png
2025-06-03 16:17:15,4.07089900970459,66,-0.034045305,-0.012264589,0.11399438,0.027532678,0.076637775,0.085135534,0.5235883,0.05885373,3.7454301e-06,0.0015807934,0.8898988541696191,-0.010768300104839285,0.4560307808256489,-0.021959742508883565,0.997550905881421,0.06640752882090872,-0.4556290147220022,-0.06911030232901899,0.8874829390221816,0.057342783,-0.011447287,0.11234171,-0.04015329,0.07300466,-0.10225768,0.5235901,-0.057586614,-5.8855978e-05,0.0043436084,0.8867325520457067,0.0003144242388022113,-0.4622826865456961,0.033655998091472836,0.9973021338002546,0.06523593879086813,0.4610560214713338,-0.07340541570522689,0.8843296840037475,-0.10397349,-0.13864847,0.09007559,-0.7332858,0.22888805,-0.15165652,0.15230277,-0.007819451,-0.0018098913,0.0067468667,0.7473053161022069,-0.6612810986662617,0.06513119891513297,0.6634569486608534,0.7371215919486238,-0.12836134915447225,0.03687332096530776,0.13913686510004583,0.989586424205143,left_images/camera_left_66.png,right_images/camera_right_66.png
2025-06-03 16:17:15,4.135725021362305,67,-0.034055814,-0.012269404,0.11399522,0.02749969,0.07666798,0.08512758,0.5235883,0.058852084,3.833091e-06,0.0015806714,0.8898910776086945,-0.01081038824497075,0.45604495995288613,-0.02192532273153725,0.997550168718483,0.06642997149513229,-0.4556458605271801,-0.06911437184637613,0.8874739733585015,0.05727164,-0.011355737,0.112339735,-0.040111024,0.07249782,-0.10143436,0.5235901,-0.057587847,-5.9813436e-05,0.004343746,0.886387558627628,0.00011548333995506366,-0.46294393026991054,0.03370980223471715,0.9973292479769068,0.06479213195376439,0.4617150042433642,-0.0730366879959377,0.8840163443416272,-0.10515228,-0.1403311,0.09008354,-0.7341671,0.2290333,-0.15623862,0.17896947,-0.007953266,-0.0016924917,0.006801204,0.7464153358429151,-0.6618506197764557,0.06941111957049886,0.6646676505592154,0.7362842325852841,-0.12689540238476824,0.03287948780929143,0.14085200015555685,0.9894845392089651,left_images/camera_left_67.png,right_images/camera_right_67.png
2025-06-03 16:17:15,4.201807022094727,68,-0.03407562,-0.012276514,0.113996565,0.02745957,0.07672334,0.08512918,0.5235885,0.058849547,3.5862322e-06,0.0015806956,0.8898838107374151,-0.010871328505356038,0.4560576910918017,-0.02188093201206234,0.9975481838092239,0.06647439953246885,-0.4556621864953686,-0.06913345930479266,0.8874641044024331,0.05717554,-0.011293139,0.11233668,-0.040115565,0.07211327,-0.1007906,0.5235901,-0.057593547,-5.985709e-05,0.0043425597,0.8861348575769136,-7.222718226557179e-05,-0.4634274581532446,0.03378795041428705,0.9973486675241482,0.06445160816153371,0.46219410272519146,-0.07277108059552463,0.8837878598594885,-0.106125034,-0.14119416,0.090139106,-0.7344883,0.22831146,-0.16017571,0.20563617,-0.0080823675,-0.0016120403,0.006786702,0.7457797643717163,-0.6621025395296012,0.07370732800827637,0.6655624521001657,0.7356890513569734,-0.12565127165250137,0.02896835183577886,0.14276500573294867,0.9893325971229237,left_images/camera_left_68.png,right_images/camera_right_68.png
2025-06-03 16:17:15,4.266929626464844,69,-0.034068827,-0.012287326,0.11399619,0.027408184,0.076790266,0.08510205,0.5235883,0.058850247,3.867259e-06,0.0015807906,0.8898756782893379,-0.010944109023422553,0.456071818540429,-0.021826681944253908,0.9975459833610858,0.06652523607976456,-0.45568067014565683,-0.06915372410685826,0.8874530349814335,0.0571299,-0.0112426,0.11233674,-0.040097613,0.07184512,-0.10033515,0.5235901,-0.057594202,-6.0470134e-05,0.0043412726,0.8859462481942411,-0.0001805430936531946,-0.4637878962572651,0.03382138387817529,0.997362557473791,0.0642187117739381,0.46255308809164103,-0.07258027523735609,0.8836157221005952,-0.10721216,-0.142347,0.09025917,-0.7358285,0.22766075,-0.16525292,0.23230302,-0.008231135,-0.0014881475,0.0067236517,0.7444129437175917,-0.6630724165361163,0.07864057257335244,0.6672734365527137,0.7344338236857487,-0.12390770556128484,0.024403485342082858,0.14471326495966264,0.9891726547210417,left_images/camera_left_69.png,right_images/camera_right_69.png
2025-06-03 16:17:15,4.328168153762817,70,-0.03407815,-0.012280871,0.11399674,0.027407853,0.07677082,0.08511387,0.5235884,0.058849107,3.6326237e-06,0.0015809275,0.8898769324529683,-0.010938198231518337,0.4560695132406279,-0.021826556604690163,0.9975468367243887,0.06651247979099935,-0.4556782269484439,-0.0691423485326746,0.8874551758396074,0.05709874,-0.011196002,0.112337366,-0.040079776,0.071639806,-0.09999596,0.5235901,-0.057594124,-6.205024e-05,0.004339952,0.8858046890581053,-0.00025584596210821015,-0.464058172415396,0.03384158635857705,0.997372868191639,0.06404770743686868,0.46282264408238355,-0.072438224288199,0.8834862216167064,-0.10760323,-0.14331025,0.09036568,-0.7353593,0.22690538,-0.16837531,0.2589692,-0.008309915,-0.0013737392,0.0066622384,0.7443776858780317,-0.6627064959820641,0.08198756582580755,0.6674125727915401,0.7344090916214236,-0.12330346233408375,0.021501591723494064,0.14650387819771227,0.9889763875979983,left_images/camera_left_70.png,right_images/camera_right_70.png
2025-06-03 16:17:15,4.389471769332886,71,-0.034062207,-0.012275669,0.113995574,0.027425516,0.076742984,0.08510227,0.52358836,0.05885115,3.236637e-06,0.0015808577,0.8898784393755357,-0.010910179959242726,0.45606724406365606,-0.021847017431016302,0.9975477844644843,0.06649154487126842,-0.4556743036028369,-0.06913310121248699,0.8874579107500333,0.057075728,-0.011170857,0.11233906,-0.040073317,0.07150166,-0.09974594,0.5235901,-0.057593286,-6.227207e-05,0.004338041,0.8856999756158936,-0.0003137898745909709,-0.46425796140714715,0.03386184861595786,0.9973799449654012,0.06392668135546556,0.4630215204526842,-0.07234049292566286,0.8833900184408677,-0.10810459,-0.14409517,0.09053733,-0.7350955,0.225706,-0.17230174,0.28563625,-0.008416379,-0.0012479834,0.006537468,0.7440535695652294,-0.6625264458717751,0.08627278909223948,0.6678855502722253,0.7341451966435928,-0.1223099422888711,0.017696817646314332,0.14862549836974176,0.9887351940128047,left_images/camera_left_71.png,right_images/camera_right_71.png
2025-06-03 16:17:15,4.458040237426758,72,-0.034083154,-0.012289873,0.11399735,0.027331214,0.07684199,0.08509402,0.5235883,0.058848236,3.3217948e-06,0.0015808633,0.8898670637176723,-0.011035783349776045,0.456086417684571,-0.02174686812662167,0.9975449102276827,0.06656745304972898,-0.4557013085752239,-0.069154635164256,0.8874423664656355,0.05692539,-0.011219083,0.112348326,-0.04009847,0.07156337,-0.099421576,0.5235901,-0.0576,-5.765201e-05,0.004322325,0.8856173876507613,-0.0003386324096506417,-0.46441546918543974,0.03390685403177207,0.997378110240997,0.06393145127216796,0.46317617376146314,-0.07236567238814698,0.8833068784513692,-0.1091049,-0.14499661,0.09072464,-0.73848766,0.22427502,-0.1764857,0.31230295,-0.008559899,-0.0010997625,0.0064082313,0.7413302162053763,-0.6650280131969953,0.09037285103473908,0.6709795138618838,0.7314535962708736,-0.12149949991697881,0.01469702413960508,0.15070958219590067,0.9884688256671411,left_images/camera_left_72.png,right_images/camera_right_72.png
2025-06-03 16:17:15,4.522284984588623,73,-0.03386341,-0.012581049,0.113984175,0.028125083,0.07847509,0.0841866,0.52358806,0.058869053,6.7898072e-06,0.001585112,0.8895289540070265,-0.01106160161110065,0.45674487512501216,-0.022484982403116822,0.9974355519424649,0.06794663558677605,-0.45632517523088423,-0.07071040016170119,0.8869990832912259,0.05654885,-0.010897969,0.11236666,-0.04306773,0.06915933,-0.095763095,0.52358997,-0.057593103,-5.16703e-05,0.004298254,0.8839895707382834,-0.003985783275580006,-0.46748962807491856,0.037292629546775244,0.997378317226831,0.0620141282875282,0.4660168436949812,-0.07225376016135857,0.8818206708481677,-0.10911348,-0.14558874,0.09081391,-0.74267113,0.2244039,-0.17885269,0.338969,-0.00856732,-0.0010231641,0.006346561,0.7385800296307201,-0.668011199209837,0.09088771952755774,0.6740150758206758,0.728823033011975,-0.12050171831834736,0.014255433951068847,0.15025985585465282,0.9885437564020146,left_images/camera_left_73.png,right_images/camera_right_73.png
2025-06-03 16:17:15,4.589562892913818,74,-0.033582937,-0.012968829,0.113964595,0.018332593,0.081505895,0.08237268,0.5235898,0.058905333,3.848574e-06,0.0015884787,0.8890234630157898,-0.020721012669877283,0.4573925249075977,-0.012634316100625265,0.99748480221315,0.06974556194097704,-0.457687290913875,-0.06778428274849539,0.8865255973451585,0.056167267,-0.010731216,0.1124047,-0.02247232,0.06930002,-0.09079628,0.5235901,-0.05759083,-5.4717704e-05,0.0042499974,0.8824144760174482,0.013327528030486108,-0.47028403067874736,0.017070694180210462,0.9980334682054606,0.06031407581970844,0.47016303971607354,-0.061250088476478275,0.8804516697392114,-0.109344095,-0.14578743,0.09087838,-0.7450082,0.22382706,-0.18255228,0.36563623,-0.008618009,-0.0009928755,0.006297745,0.7366951619641061,-0.669720069129816,0.09356958556835672,0.6761283852633595,0.7271654876302991,-0.11866237921326045,0.011430003492634122,0.15068305347365385,0.9885160456037193,left_images/camera_left_74.png,right_images/camera_right_74.png
2025-06-03 16:17:15,4.648868083953857,75,-0.033383083,-0.01340958,0.113951094,0.012403211,0.08384402,0.081098564,0.52358985,0.05893065,1.6593083e-05,0.001591308,0.8886094694016037,-0.026725513961317664,0.45788531074200617,-0.006660169994899661,0.9974438667819442,0.07114333949655428,-0.4586162372021287,-0.06626823916920048,0.886160068752804,0.056000434,-0.010637569,0.11239325,-0.011606636,0.06860541,-0.087558344,0.5235901,-0.057598125,-4.3932232e-05,0.004254859,0.881130417995513,0.022053926110374406,-0.4723587734192844,0.006495357373594574,0.9982531425545489,0.05872370656350815,0.47282871826449163,-0.05481138315246082,0.8794479606328462,-0.10961631,-0.14562817,0.09094663,-0.74798906,0.22321975,-0.18625267,0.392303,-0.0086712055,-0.000991448,0.006234062,0.7343587220470553,-0.671922202917012,0.09611358166547146,0.6787073976342908,0.7251121724271868,-0.11648435858266211,0.008575298823029633,0.15077430359671773,0.9885310180388982,left_images/camera_left_75.png,right_images/camera_right_75.png
2025-06-03 16:17:15,4.713019371032715,76,-0.033379443,-0.01379295,0.11394965,0.0001464803,0.08644454,0.07954056,0.5235898,0.058936935,2.2587832e-05,0.0015921025,0.8879724651940031,-0.038260012502772195,0.4583023810766999,0.005621602515812629,0.9973620247858271,0.07236980793306905,-0.4598622605111656,-0.061686002937480146,0.8858450984224939,0.056072243,-0.010403132,0.11236382,-0.007967363,0.067483455,-0.085621245,0.5235901,-0.057594918,-4.7699257e-05,0.0042891074,0.8802154230024163,0.0246084077741334,-0.47393589796036684,0.003059416142489408,0.9983397025479307,0.05751937316571012,0.4745644835863134,-0.05207940651861453,0.8786787162183481,-0.109744996,-0.14512579,0.09116627,-0.75180423,0.22128367,-0.19031124,0.41896987,-0.00874324,-0.00094330544,0.0060239434,0.7312803795752552,-0.6747949241904863,0.09940229743334264,0.6820541387305634,0.7222561270741552,-0.11466576971507797,0.005581961015650512,0.15165057596526882,0.9884184055958398,left_images/camera_left_76.png,right_images/camera_right_76.png
2025-06-03 16:17:15,4.773857831954956,77,-0.033665605,-0.013754132,0.1139666,-0.009651547,0.08686246,0.079371184,0.5235898,0.058911644,1.7995771e-05,0.0015882142,0.8877363387526045,-0.04680226726800593,0.45796696456916586,0.015411298328783431,0.9972823630952001,0.07204429292508226,-0.4600942128976876,-0.056898471313629864,0.8860450774200089,0.056180537,-0.010224738,0.11235835,-0.008295645,0.06653817,-0.084404565,0.5235901,-0.057576578,-5.11845e-05,0.004305179,0.879586441380566,0.023920496532458452,-0.47513735065253804,0.0035207123654299923,0.9983804793163031,0.05678048172205686,0.4757260732017031,-0.051616163803498295,0.8780777157577218,-0.11005935,-0.14504653,0.09135888,-0.7543846,0.22052927,-0.1923302,0.44563612,-0.00880563,-0.00087430805,0.0058504567,0.7293079844418848,-0.6766973135535381,0.10094854956233937,0.684172233950133,0.7203914019522945,-0.11377426020366865,0.004268269087099437,0.1520426710585956,0.9883647140890693,left_images/camera_left_77.png,right_images/camera_right_77.png
2025-06-03 16:17:15,4.8364269733428955,78,-0.03374815,-0.013477747,0.113972105,-0.012552458,0.08433029,0.0762896,0.52358973,0.05887678,3.3868477e-05,0.0015968075,0.8862669129423651,-0.048070581557555156,0.46067361354035546,0.01790913804899258,0.997412535559299,0.06962396630121329,-0.46282850149699345,-0.05345515034015708,0.8848346315013664,0.05601516,-0.010119287,0.11235884,-0.0163221,0.06521251,-0.08377542,0.5235901,-0.05757853,-4.5000896e-05,0.0043012695,0.8792788376563617,0.016544619397650465,-0.47601995884486253,0.011655933941231081,0.9983498569279319,0.056229017205851356,0.47616474549638316,-0.054989442086323795,0.877635058783205,-0.109977745,-0.14420226,0.09157677,-0.7610545,0.2192901,-0.19527566,0.4723031,-0.008830421,-0.00085530453,0.0056271926,0.7246092156788295,-0.681582908872017,0.10191282003198213,0.6891520904976646,0.7159263675038404,-0.11188758856752043,0.003298593034956436,0.1513082107696593,0.988481130137381,left_images/camera_left_78.png,right_images/camera_right_78.png
2025-06-03 16:17:16,4.904919862747192,79,-0.03304074,-0.012688389,0.11392704,-0.015137998,0.078922525,0.06510304,0.52358925,0.05887752,4.0236628e-05,0.0016333815,0.881377627243103,-0.04779088922868446,0.46998883933775404,0.019409501421415717,0.9976931173707257,0.06505163184467612,-0.47201350557996713,-0.04821280387837686,0.8802719898373998,0.055258937,-0.009532168,0.11237055,-0.02709911,0.061102606,-0.07901823,0.52358997,-0.05759501,-4.4206186e-05,0.0042679887,0.8771684108283637,0.005574410006764728,-0.48015050244472285,0.022942628564393254,0.9983040928902808,0.05350302713931558,0.4796344596037691,-0.05794707992289633,0.8755529230657678,-0.11022204,-0.1441835,0.09176268,-0.7640121,0.2180881,-0.19820264,0.49896985,-0.0088959355,-0.00078341656,0.005462314,0.722236261484096,-0.683748320165022,0.10422579944038395,0.6916451666257285,0.7136996373435631,-0.11072394112808084,0.0013213934859310772,0.15205611571777436,0.9883709787281687,left_images/camera_left_79.png,right_images/camera_right_79.png
2025-06-03 16:17:16,4.967354774475098,80,-0.0322191,-0.012056829,0.113876864,-0.012332069,0.07409615,0.05631999,0.5235895,0.058906287,5.1296665e-05,0.0016624155,0.8776409359040874,-0.04316954385880559,0.47737069255288367,0.015800796909103236,0.9980003574026004,0.06120148234576189,-0.47905816185765415,-0.04617008888126589,0.8765680808986037,0.054451607,-0.008866479,0.112457186,-0.033245552,0.057303943,-0.07408053,0.52359,-0.057579793,-5.340611e-05,0.0041668955,0.8750245402239905,-0.0013231856491564744,-0.48407675340335443,0.029565358058499108,0.9982754985973056,0.05071408584578654,0.4831748582124973,-0.05868797219225529,0.8735546796344773,-0.11006159,-0.14332303,0.0918416,-0.7696752,0.21679218,-0.20127553,0.52563655,-0.008903922,-0.00082295237,0.005364557,0.7181141338866273,-0.6878812771870089,0.10550563590552395,0.6959253396945424,0.7098377214406936,-0.10871214647370495,-0.000110830028255203,0.15149177441516123,0.9884585120283254,left_images/camera_left_80.png,right_images/camera_right_80.png
2025-06-03 16:17:16,5.028775453567505,81,-0.031730313,-0.011637562,0.11384709,-0.008833519,0.07020689,0.050033163,0.5235896,0.058912378,7.079553e-05,0.0016850587,0.8748842456733609,-0.03835809982977054,0.48281074226864923,0.01174904632340325,0.9982463903463978,0.058018135706675425,-0.4841895461315178,-0.045086587116758337,0.8738007113061411,0.054056235,-0.008503073,0.11247448,-0.043299355,0.05555546,-0.06995243,0.52359,-0.05756607,-6.8096095e-05,0.0041500637,0.8728815269692822,-0.010505457136135104,-0.48781910094433073,0.0398942425487698,0.9979574636126628,0.04989338865261383,0.4862985598243473,-0.06301219080576137,0.8715177419436876,-0.10992248,-0.14238618,0.09200956,-0.77480215,0.21567127,-0.20292763,0.5523031,-0.008914216,-0.0008284225,0.0051825047,0.7144725463132066,-0.6916159493526114,0.10581284971972502,0.6996633532445095,0.7063443851677329,-0.10746535101448314,-0.00041556151373153133,0.15081441623102046,0.9885620057262593,left_images/camera_left_81.png,right_images/camera_right_81.png
2025-06-03 16:17:16,5.09126877784729,82,-0.03178418,-0.01066808,0.11385083,-0.0077727344,0.063711934,0.047301263,0.5235899,0.05887743,7.6412514e-05,0.0016929945,0.8735453235032051,-0.03455464278148677,0.48551472114439986,0.010270207100426526,0.9985633440701657,0.05259059540946516,-0.48663445277928574,-0.04095393194372861,0.8726452227718624,0.05432427,-0.008553199,0.11246835,-0.052572582,0.05402019,-0.069441825,0.5235901,-0.057531673,-3.960618e-05,0.004177697,0.8721140538994901,-0.019100778240464224,-0.48892968539617826,0.049270961523456856,0.9975870149399833,0.04891339258002722,0.48681562150525864,-0.06674809280977574,0.870950769426554,-0.109505095,-0.14066081,0.09221455,-0.7803451,0.21444336,-0.20417099,0.5789697,-0.008900249,-0.0008844362,0.004938281,0.7105631721529471,-0.6956806004998127,0.10549161325982934,0.7036332175803169,0.7026432730135391,-0.10579568047132987,-0.0005229698957838758,0.14940191758153987,0.9887764123023197,left_images/camera_left_82.png,right_images/camera_right_82.png
2025-06-03 16:17:16,5.157743215560913,83,-0.032057527,-0.009050136,0.11382809,-0.00899298,0.05431094,0.04769574,0.5235901,0.058860824,6.061839e-05,0.0017199861,0.8736044824635527,-0.031502284349421865,0.4856159123220289,0.01113922292012289,0.9989355429384383,0.04476269392053163,-0.4865091221470817,-0.033695506155206514,0.8730254789710438,0.05498757,-0.00866768,0.11242292,-0.05908521,0.054165203,-0.07386714,0.5235901,-0.05752254,-3.564864e-05,0.0042409794,0.8736335304416912,-0.02447327349330619,-0.4859686341447442,0.05553776518991896,0.9972227900230617,0.04962120208469245,0.48340460395583307,-0.07034035785480693,0.8725664576014607,-0.10886367,-0.13881026,0.09243306,-0.7855437,0.21303204,-0.20533071,0.60563636,-0.008869788,-0.0009442425,0.0046758587,0.7068672888097098,-0.6994923872355948,0.10511439582787582,0.7073459212922327,0.6991486580953576,-0.10417726006525405,-0.0006193884508556916,0.1479917365358954,0.9889884035088771,left_images/camera_left_83.png,right_images/camera_right_83.png
2025-06-03 16:17:16,5.223866939544678,84,-0.032342162,-0.00835032,0.113823965,-0.008445223,0.05112339,0.04790309,0.5235901,0.0588343,3.7410267e-05,0.0017383341,0.8735700535924288,-0.029736707822686115,0.4857891411655777,0.010482517022201439,0.9990497566826037,0.04230485207762896,-0.48658553030623575,-0.031863958955205315,0.8730516650326604,0.0556322,-0.008798699,0.11235191,-0.066611625,0.053995002,-0.07736933,0.52358997,-0.05752119,-2.4545676e-05,0.0043290136,0.874611670496937,-0.030867084759281235,-0.4838405201189962,0.06287749931126384,0.996764443445166,0.05007059380325678,0.4807294934897582,-0.0742150076595837,0.8737226600742186,-0.10827317,-0.13729574,0.09278544,-0.7913872,0.21160343,-0.20687036,0.632303,-0.008858277,-0.0009246166,0.004302484,0.7027030659544765,-0.7037095484040854,0.1048869514434328,0.7114829024953029,0.6951686128772193,-0.10262884159544092,-0.0006932207714892905,0.1467428742913301,0.9891744276363401,left_images/camera_left_84.png,right_images/camera_right_84.png
2025-06-03 16:17:16,5.2910497188568115,85,-0.032533552,-0.0075287367,0.11383353,-0.011602522,0.04590039,0.049661186,0.52359,0.05882395,3.9316597e-05,0.0017296346,0.8743122293684035,-0.030100527856495776,0.48442964793622223,0.013491535766780322,0.999196656311898,0.03773619585724281,-0.4851763638508224,-0.02645751760620834,0.874015958505685,0.056029897,-0.009091588,0.11228883,-0.0718754,0.054238833,-0.07980374,0.52358997,-0.05753236,-9.331852e-07,0.004399093,0.8752764370894864,-0.035248034405204354,-0.48233674413888883,0.06799527724772683,0.9964030168546704,0.05057341470492502,0.47881917353834014,-0.07706233887886543,0.8745247823695906,-0.10703904,-0.13473982,0.093169905,-0.7964908,0.20994179,-0.2075714,0.65896964,-0.008790669,-0.0009784722,0.0038601784,0.6990932246392665,-0.7074565263134321,0.10379752713819444,0.715030361118561,0.6917885510217734,-0.10079773486470471,-0.0004959255309284205,0.14468539681573706,0.9894775843879134,left_images/camera_left_85.png,right_images/camera_right_85.png
2025-06-03 16:17:16,5.350571393966675,86,-0.03280605,-0.006842644,0.11382756,-0.011410843,0.041149776,0.05157118,0.5235901,0.058812946,4.676642e-05,0.0017408561,0.8751079297371477,-0.027801021800535848,0.4831285693249881,0.013162903817937083,0.9993465332606529,0.033663695920008646,-0.4837487460182646,-0.02309999235413726,0.8749020179877263,0.056236815,-0.009314009,0.11224408,-0.08185926,0.053957373,-0.08185136,0.52358997,-0.057544928,2.1204876e-05,0.0044456935,0.875501048000354,-0.043818476458516914,-0.48122536931373017,0.07785599188013258,0.9956601316915452,0.05098378848551135,0.47690288264870273,-0.08210263869589715,0.8751130196954725,-0.10542112,-0.13166308,0.09360655,-0.80305856,0.20793293,-0.20782542,0.6856373,-0.008687057,-0.001051134,0.0033501275,0.6945250820780469,-0.7122244075271189,0.10183959783466537,0.7194683072289736,0.6874306411739304,-0.09901751596699349,0.0005150316080197379,0.14204051146712662,0.9898607113349835,left_images/camera_left_86.png,right_images/camera_right_86.png
2025-06-03 16:17:16,5.4130566120147705,87,-0.032985426,-0.0063138795,0.11381169,-0.012641921,0.036477808,0.05457764,0.52359,0.058826346,7.183166e-05,0.0017493498,0.8764627550836835,-0.02666306811939835,0.4807308183896463,0.01426747614257013,0.9994652595402166,0.029421660332625405,-0.48125822390442324,-0.018928173991896693,0.8763744896753284,0.056612857,-0.009095089,0.11219824,-0.08722018,0.051111344,-0.08454603,0.52351654,-0.057553463,4.193117e-05,0.0044939844,0.8762302702523509,-0.049696486937426565,-0.47932324445990565,0.08326400007743495,0.99532132856077,0.049015907653828565,0.4746447300714474,-0.08285959267400442,0.8762686050049386,-0.103785396,-0.12955117,0.09399583,-0.80935735,0.20611729,-0.20837532,0.7123039,-0.008575415,-0.001062019,0.0029146876,0.6901728679976211,-0.7166959314988054,0.10004176154485775,0.7236423611760779,0.6832047955891652,-0.0978414043004177,0.0017735251476045238,0.13992193915546908,0.9901609493165866,left_images/camera_left_87.png,right_images/camera_right_87.png
2025-06-03 16:17:16,5.480443000793457,88,-0.03299487,-0.0062857987,0.113808565,-0.012643295,0.036477473,0.054577906,0.52359,0.05882694,6.8658555e-05,0.0017526094,0.876458056982483,-0.026678914120719276,0.4807385046902631,0.01427002196677828,0.9994644007913175,0.02944958444393692,-0.48126670446183833,-0.01895117653846831,0.8763693354312722,0.056634746,-0.009081407,0.11218929,-0.0872195,0.051111225,-0.084546216,0.5235852,-0.057556286,4.0330924e-05,0.004502964,0.8762208395154595,-0.04968672466285677,-0.47934149600373716,0.08326223062438402,0.9953208074434918,0.049029493383955375,0.47466244990548306,-0.08287170604200747,0.8762578610131905,-0.101927385,-0.12627344,0.09443009,-0.81528974,0.20391333,-0.20786585,0.7389705,-0.008446638,-0.0011521869,0.0023982432,0.6860389338176142,-0.7209794535193026,0.09766887369781158,0.7275575525111286,0.6792222182119604,-0.09652557211040158,0.0032540851875039953,0.13728002728085348,0.990526933020683,left_images/camera_left_88.png,right_images/camera_right_88.png
2025-06-03 16:17:16,5.548146486282349,89,-0.032994874,-0.0062864474,0.11380867,-0.012643295,0.036477584,0.05457813,0.52359,0.05882706,6.857776e-05,0.0017524874,0.8764582885264606,-0.026678972865372606,0.4807380792907047,0.014270389317300718,0.9994644110993667,0.029449056598274924,-0.4812662718932212,-0.01895055019371318,0.8763695865246325,0.056634154,-0.009081555,0.11218965,-0.0872195,0.051111113,-0.08454599,0.5235896,-0.057556037,4.0480372e-05,0.0045027267,0.8762207551757987,-0.049687068483543276,-0.4793416145346287,0.08326224667559988,0.9953208413147047,0.04902877851955897,0.4746626027797897,-0.0828710930910175,0.8762578361716461,-0.099917784,-0.12267166,0.09474106,-0.81673986,0.20186314,-0.20622873,0.765637,-0.0082982415,-0.001320982,0.0019825222,0.6850339581720684,-0.7222177497316324,0.09555102366634183,0.7284990397634508,0.6783490403200572,-0.09556007827847093,0.0041982394927938815,0.13507072765567843,0.9908270652922873,left_images/camera_left_89.png,right_images/camera_right_89.png
2025-06-03 16:17:16,5.607804775238037,90,-0.03299491,-0.0062864535,0.11380867,-0.012643296,0.036477584,0.05457813,0.52359,0.05882706,6.857776e-05,0.0017524874,0.8764582885264606,-0.026678972865372606,0.4807380792907047,0.014270389317300718,0.9994644110993667,0.029449056598274924,-0.4812662718932212,-0.01895055019371318,0.8763695865246325,0.056634143,-0.0090815285,0.11218965,-0.0872195,0.051111113,-0.08454599,0.5235896,-0.057556037,4.0480372e-05,0.0045027267,0.8762207551757987,-0.049687068483543276,-0.4793416145346287,0.08326224667559988,0.9953208413147047,0.04902877851955897,0.4746626027797897,-0.0828710930910175,0.8762578361716461,-0.09767081,-0.11791498,0.095146276,-0.82113814,0.19934198,-0.2041042,0.7923035,-0.008127365,-0.001550026,0.0014422657,0.6819716416815926,-0.7255224895219381,0.09236772780578248,0.7313546986988451,0.6754676427510148,-0.0941475877944272,0.005914780911858798,0.13175955674742235,0.9912640589532579,left_images/camera_left_90.png,right_images/camera_right_90.png
2025-06-03 16:17:16,5.666446924209595,91,-0.03299491,-0.0062864535,0.11380867,-0.012643296,0.036477584,0.05457813,0.52359,0.05882706,6.857776e-05,0.0017524874,0.8764582885264606,-0.026678972865372606,0.4807380792907047,0.014270389317300718,0.9994644110993667,0.029449056598274924,-0.4812662718932212,-0.01895055019371318,0.8763695865246325,0.056634143,-0.0090815285,0.11218965,-0.0872195,0.051111113,-0.08454599,0.5235896,-0.057556037,4.0480372e-05,0.0045027267,0.8762207551757987,-0.049687068483543276,-0.4793416145346287,0.08326224667559988,0.9953208413147047,0.04902877851955897,0.4746626027797897,-0.0828710930910175,0.8762578361716461,-0.095508635,-0.113522954,0.09548842,-0.823247,0.19717827,-0.20229924,0.8189708,-0.007962559,-0.0017827027,0.00097222533,0.6804820504818798,-0.7272293936335241,0.08989765295820018,0.7327337983456299,0.6741855165730746,-0.0926016738784039,0.006734963545709856,0.1288848256332499,0.9916366985885126,left_images/camera_left_91.png,right_images/camera_right_91.png
2025-06-03 16:17:16,5.727528810501099,92,-0.03441182,-0.005973928,0.11381605,-0.01922794,0.034632955,0.07497372,0.5235901,0.058852196,7.3508534e-05,0.0017403932,0.8853418381050631,-0.0314763434714125,0.4638739801955029,0.0213178883125025,0.999404631711202,0.02712802521548913,-0.4644516953770799,-0.01412876200755792,0.8854857428245188,0.057691824,-0.009374223,0.112202086,-0.11476628,0.051182605,-0.103505276,0.52358997,-0.057578616,3.4391764e-05,0.004491483,0.8823254371550264,-0.07257700676300151,-0.4650101085336907,0.10961296354347112,0.9925566501203089,0.053068771656862655,0.457697302998837,-0.0977950632254706,0.8837133610149374,-0.09333688,-0.10852279,0.095798686,-0.82525045,0.19483367,-0.1992178,0.84563726,-0.007787494,-0.0020758412,0.000513372,0.6791079518902094,-0.7288986135664639,0.08671332550635825,0.7339910151555655,0.6729668188378786,-0.09150328089269982,0.00834142376260423,0.1257874074942028,0.9920221513481944,left_images/camera_left_92.png,right_images/camera_right_92.png
2025-06-03 16:17:16,5.789883613586426,93,-0.04138335,-0.011693111,0.113551006,-0.017077198,0.04671093,0.13210462,0.52359015,0.058786094,0.0005247417,0.0021624975,0.9075306409918867,-0.033156590523608385,0.41867502453060795,0.02153691280067531,0.9992412899597197,0.03245005125807354,-0.419433304647916,-0.020432448323322763,0.9075561789815788,0.06367707,-0.014832503,0.11219625,-0.1474223,0.06405695,-0.1493505,0.52358997,-0.057332113,0.00034155598,0.004731508,0.8964904827383636,-0.09464951631396967,-0.4328351688819513,0.1380192024715153,0.9879652056354303,0.06982443843575548,0.4210172373058644,-0.12233650933091614,0.8987648548847824,-0.09107369,-0.10283049,0.096054,-0.8284908,0.19229761,-0.19587582,0.8723038,-0.007593697,-0.0024510352,8.501392e-05,0.6768416383701348,-0.7314260097291965,0.08307459816368173,0.7360589310736183,0.6709008203600898,-0.09005186964700367,0.010131463625462737,0.12209865491390172,0.9924662573171049,left_images/camera_left_93.png,right_images/camera_right_93.png
2025-06-03 16:17:17,5.849063396453857,94,-0.049670056,-0.020525647,0.11306672,-0.020854764,0.05804048,0.18128097,0.52359045,0.058664665,0.0013509966,0.0029043574,0.9238719876342965,-0.0378389224497561,0.38082642557009594,0.027266653114482765,0.9990793548603721,0.03312057245455065,-0.3817290663449522,-0.02021530706232324,0.9240531701519059,0.07128915,-0.023288243,0.11211736,-0.17067188,0.075468905,-0.18744779,0.523564,-0.056916725,0.0010216397,0.005182295,0.9058912589456265,-0.11082036854560641,-0.408754049376057,0.15730874749821644,0.9841550028769425,0.081810074396911,0.393211120044246,-0.13841161883202469,0.9089704279270301,-0.08857081,-0.09759672,0.09635318,-0.828794,0.1895093,-0.19354126,0.8989719,-0.0073991935,-0.0027788763,-0.00036992878,0.6765459309547823,-0.7319456658660073,0.08087734867374255,0.7363257576286477,0.6708209667095939,-0.08845116887528402,0.010487228476817566,0.11939335342795747,0.9927916423883221,left_images/camera_left_94.png,right_images/camera_right_94.png
2025-06-03 16:17:17,5.908069372177124,95,-0.058286387,-0.032099083,0.112468205,-0.026598291,0.06939319,0.2207304,0.5235903,0.05851732,0.0024854457,0.0038190335,0.9351674203788005,-0.04266645782388251,0.35162688924316193,0.03409427274463142,0.9989519644638646,0.03053773501425322,-0.3525613087507969,-0.016569431811287887,0.935642013540102,0.07861458,-0.034968797,0.11198201,-0.19296707,0.09082689,-0.21669286,0.5235882,-0.056482855,0.0020017587,0.005731197,0.9107663937264873,-0.12536220623533884,-0.3934321965806276,0.17553070682294458,0.9799677302262336,0.09408623000992898,0.3737559993106288,-0.15475000795816507,0.9145265922958508,-0.08632618,-0.09275118,0.09640122,-0.828825,0.18704014,-0.19026832,0.9256186,-0.007197589,-0.003159456,-0.0005754018,0.6765412783721907,-0.7322458707426035,0.07815294900979936,0.7363103455745889,0.6709353695711175,-0.08770863616712593,0.011788708934880897,0.11688333772986734,0.9930756827668143,left_images/camera_left_95.png,right_images/camera_right_95.png
2025-06-03 16:17:17,5.974087715148926,96,-0.06750024,-0.046066742,0.11181079,-0.034045372,0.083282,0.2590684,0.52359056,0.05836993,0.003839203,0.0048481952,0.9449955037090203,-0.04891658062358199,0.32340480223681173,0.04238696349588936,0.9987307459098487,0.027207397890191026,-0.3243252122412515,-0.01200272112704575,0.9458694896179987,0.08475587,-0.050304987,0.11184116,-0.21820965,0.11376549,-0.24122451,0.5235895,-0.05610783,0.0032576588,0.0062874276,0.9128774951214655,-0.13953771223176192,-0.38364554704295023,0.19543999566529113,0.9744568643484169,0.11062109933734067,0.35841022166661135,-0.17596319612173683,0.9168309913040208,-0.08455342,-0.08880367,0.09639845,-0.8327387,0.18537584,-0.1882743,0.9522866,-0.0070203436,-0.0034887537,-0.00070194714,0.6738246073824885,-0.7350560675589992,0.07518627554637405,0.7387720731605858,0.6683907523126185,-0.08642699891227426,0.01327487867535744,0.11378215926792776,0.9934170311749656,left_images/camera_left_96.png,right_images/camera_right_96.png
2025-06-03 16:17:17,6.036020517349243,97,-0.07743874,-0.06176864,0.111103095,-0.04645028,0.10141935,0.29484645,0.5235906,0.058207907,0.005308803,0.0059958054,0.9528718302519672,-0.0605541255884842,0.29726835180772304,0.05583213924767303,0.9981430105797214,0.0243578048657622,-0.2981912931983336,-0.006612738091304051,0.9544832237161852,0.09028614,-0.06815257,0.11173553,-0.24824575,0.13468292,-0.27037776,0.52358985,-0.055809706,0.0048110764,0.0068072025,0.91489538473623,-0.15949671605416393,-0.3708466429082013,0.2195679407942454,0.9674807821044109,0.12558206732655663,0.3387570727877431,-0.19632048753651382,0.9201640678757811,-0.08350251,-0.08518004,0.09684701,-0.83357656,0.18349668,-0.1871889,0.97892416,-0.006971281,-0.003643733,-0.0012354413,0.6730337702334637,-0.7358488601648979,0.07451173813131658,0.7395026255089211,0.6677802579553166,-0.08488459195014887,0.01270476252204994,0.11223182293427962,0.9936008287688305,left_images/camera_left_97.png,right_images/camera_right_97.png
