jiaqis7/OS_Teleop_Extension/demo_03/teleop_log.csv
Epoch Time (Seconds),Time (Seconds),Frame Number,PSM1_joint_1,PSM1_joint_2,PSM1_joint_3,PSM1_joint_4,PSM1_joint_5,PSM1_joint_6,PSM1_jaw_angle,PSM1_ee_x,PSM1_ee_y,PSM1_ee_z,"PSM1_Orientation_Matrix_[1,1]","PSM1_Orientation_Matrix_[1,2]","PSM1_Orientation_Matrix_[1,3]","PSM1_Orientation_Matrix_[2,1]","PSM1_Orientation_Matrix_[2,2]","PSM1_Orientation_Matrix_[2,3]","PSM1_Orientation_Matrix_[3,1]","PSM1_Orientation_Matrix_[3,2]","PSM1_Orientation_Matrix_[3,3]",PSM2_joint_1,PSM2_joint_2,PSM2_joint_3,PSM2_joint_4,PSM2_joint_5,PSM2_joint_6,PSM2_jaw_angle,PSM2_ee_x,PSM2_ee_y,PSM2_ee_z,"PSM2_Orientation_Matrix_[1,1]","PSM2_Orientation_Matrix_[1,2]","PSM2_Orientation_Matrix_[1,3]","PSM2_Orientation_Matrix_[2,1]","PSM2_Orientation_Matrix_[2,2]","PSM2_Orientation_Matrix_[2,3]","PSM2_Orientation_Matrix_[3,1]","PSM2_Orientation_Matrix_[3,2]","PSM2_Orientation_Matrix_[3,3]",PSM3_joint_1,PSM3_joint_2,PSM3_joint_3,PSM3_joint_4,PSM3_joint_5,PSM3_joint_6,PSM3_jaw_angle,PSM3_ee_x,PSM3_ee_y,PSM3_ee_z,"PSM3_Orientation_Matrix_[1,1]","PSM3_Orientation_Matrix_[1,2]","PSM3_Orientation_Matrix_[1,3]","PSM3_Orientation_Matrix_[2,1]","PSM3_Orientation_Matrix_[2,2]","PSM3_Orientation_Matrix_[2,3]","PSM3_Orientation_Matrix_[3,1]","PSM3_Orientation_Matrix_[3,2]","PSM3_Orientation_Matrix_[3,3]",Camera Left,Camera Right
2025-05-27 16:04:36,0.0015208721160888672,1,-0.057436846,-1.4275091e-05,0.0967256,-0.00018498507,0.00021766321,-0.027670795,1.0308763,0.045141887,-2.9304629e-06,0.02196231,0.8202746436248207,-0.0002660570894841974,0.5719697878732743,0.00017895226524523074,0.9999999622477717,0.00020851988403710616,-0.5719698217583338,-6.868828437546966e-05,0.820274660269144,0.00054550794,-2.7207618e-06,0.09855149,-0.0010216743,-0.00016083242,0.021505298,1.0340217,-0.04908677,3.0875779e-06,0.017366774,0.8546866516760282,-0.0009660078911330937,-0.5191433272956265,0.0010178753853029234,0.9999994648517244,-0.00018500260763814507,0.5191432281909489,-0.00037030395502489716,0.8546871775675948,-4.4629607e-05,-0.016012708,0.10667065,-0.0006312799,-0.0051071784,-0.0062078405,0.523589,-6.264933e-05,-0.01988746,0.004752758,0.99998023444754,-0.0006301763771232491,0.006255684772797812,0.0023514458258436736,0.9602445593533354,-0.2791502407931019,-0.005831073380692526,0.2791594331382201,0.9602270614147347,left_images/camera_left_1.png,right_images/camera_right_1.png
2025-05-27 16:04:37,0.06335926055908203,2,-0.057436846,-1.4283479e-05,0.096725605,-0.00018499726,0.00021768722,-0.027670795,1.0397315,0.045141887,-2.9341882e-06,0.02196231,0.8202746436248207,-0.0002660570894841974,0.5719697878732743,0.00017895226524523074,0.9999999622477717,0.00020851988403710616,-0.5719698217583338,-6.868828437546966e-05,0.820274660269144,0.00054550794,-2.721209e-06,0.09855149,-0.0010216626,-0.0001608302,0.021505298,1.0346708,-0.04908677,3.0875779e-06,0.017366774,0.8546866516760282,-0.0009660078911330937,-0.5191433272956265,0.0010178753853029234,0.9999994648517244,-0.00018500260763814507,0.5191432281909489,-0.00037030395502489716,0.8546871775675948,-4.462917e-05,-0.016012708,0.10667065,-0.0006312799,-0.0051071784,-0.0062078405,0.523589,-6.264933e-05,-0.01988746,0.004752758,0.99998023444754,-0.0006301763771232491,0.006255684772797812,0.0023514458258436736,0.9602445593533354,-0.2791502407931019,-0.005831073380692526,0.2791594331382201,0.9602270614147347,left_images/camera_left_2.png,right_images/camera_right_2.png
2025-05-27 16:04:37,0.128065824508667,3,-0.057436846,-1.42874205e-05,0.096725605,-0.00018500931,0.00021770506,-0.027670795,1.0341192,0.045141872,-2.9401672e-06,0.02196225,0.8202747085804333,-0.0002664233572161245,0.5719696945484787,0.00017940284314975152,0.9999999621682494,0.00020851407581628508,-0.571969728462884,-6.842583337762964e-05,0.8202747253451128,0.00054550794,-2.721656e-06,0.09855149,-0.0010216587,-0.00016082787,0.021505298,1.0339957,-0.04908677,3.0875779e-06,0.017366774,0.8546866516760282,-0.0009660078911330937,-0.5191433272956265,0.0010178753853029234,0.9999994648517244,-0.00018500260763814507,0.5191432281909489,-0.00037030395502489716,0.8546871775675948,-4.4628734e-05,-0.016012708,0.10667065,-0.0006312799,-0.0051071784,-0.0062078405,0.523589,-6.264933e-05,-0.01988746,0.004752758,0.99998023444754,-0.0006301763771232491,0.006255684772797812,0.0023514458258436736,0.9602445593533354,-0.2791502407931019,-0.005831073380692526,0.2791594331382201,0.9602270614147347,left_images/camera_left_3.png,right_images/camera_right_3.png
2025-05-27 16:04:37,0.1775658130645752,4,-0.057436846,-1.4278128e-05,0.096725605,-0.00018504844,0.00021764466,-0.027670795,1.0268914,0.045141872,-2.9401672e-06,0.02196225,0.8202747085804333,-0.0002664233572161245,0.5719696945484787,0.00017940284314975152,0.9999999621682494,0.00020851407581628508,-0.571969728462884,-6.842583337762964e-05,0.8202747253451128,0.00054550794,-2.7221035e-06,0.09855149,-0.0010216563,-0.00016082541,0.021505298,1.0308939,-0.04908677,3.0875779e-06,0.017366774,0.8546866516760282,-0.0009660078911330937,-0.5191433272956265,0.0010178753853029234,0.9999994648517244,-0.00018500260763814507,0.5191432281909489,-0.00037030395502489716,0.8546871775675948,-4.4628297e-05,-0.016012708,0.10667065,-0.0006312799,-0.0051071784,-0.0062078405,0.523589,-6.264933e-05,-0.01988746,0.004752758,0.99998023444754,-0.0006301763771232491,0.006255684772797812,0.0023514458258436736,0.9602445593533354,-0.2791502407931019,-0.005831073380692526,0.2791594331382201,0.9602270614147347,left_images/camera_left_4.png,right_images/camera_right_4.png
2025-05-27 16:04:37,0.22997069358825684,5,-0.057436846,-1.4267925e-05,0.096725605,-0.00018508775,0.00021758424,-0.027670795,1.0275264,0.045141872,-2.9371072e-06,0.02196225,0.8202746760667574,-0.0002663044090375489,0.5719697412324695,0.00017940391933073116,0.9999999622117207,0.00020830456328600934,-0.5719697750911407,-6.825334485696957e-05,0.8202746928460435,0.000545523,-2.709149e-06,0.09855149,-0.0010217123,-0.00016083862,0.021505298,1.0310775,-0.04908677,3.0875779e-06,0.017366774,0.8546866516760282,-0.0009660078911330937,-0.5191433272956265,0.0010178753853029234,0.9999994648517244,-0.00018500260763814507,0.5191432281909489,-0.00037030395502489716,0.8546871775675948,-4.462786e-05,-0.016012708,0.10667065,-0.0006312799,-0.0051071784,-0.0062078405,0.523589,-6.264933e-05,-0.01988746,0.004752758,0.99998023444754,-0.0006301763771232491,0.006255684772797812,0.0023514458258436736,0.9602445593533354,-0.2791502407931019,-0.005831073380692526,0.2791594331382201,0.9602270614147347,left_images/camera_left_5.png,right_images/camera_right_5.png
2025-05-27 16:04:37,0.2943251132965088,6,-0.057436846,-1.4267969e-05,0.096725605,-0.0001850572,0.0002175639,-0.027670795,1.0282542,0.045141872,-2.9371072e-06,0.02196225,0.8202746760667574,-0.0002663044090375489,0.5719697412324695,0.00017940391933073116,0.9999999622117207,0.00020830456328600934,-0.5719697750911407,-6.825334485696957e-05,0.8202746928460435,0.0005455265,-2.707387e-06,0.09855149,-0.0010217081,-0.0001608363,0.021505298,1.0306114,-0.04908677,3.0875779e-06,0.017366774,0.8546866516760282,-0.0009660078911330937,-0.5191433272956265,0.0010178753853029234,0.9999994648517244,-0.00018500260763814507,0.5191432281909489,-0.00037030395502489716,0.8546871775675948,-4.4627424e-05,-0.016012708,0.10667065,-0.0006312799,-0.0051071784,-0.0062078405,0.523589,-6.264933e-05,-0.01988746,0.004752758,0.99998023444754,-0.0006301763771232491,0.006255684772797812,0.0023514458258436736,0.9602445593533354,-0.2791502407931019,-0.005831073380692526,0.2791594331382201,0.9602270614147347,left_images/camera_left_6.png,right_images/camera_right_6.png
2025-05-27 16:04:37,0.35909438133239746,7,-0.057436846,-1.426992e-05,0.096725605,-0.00018500884,0.00021757715,-0.027670795,1.0285753,0.045141872,-2.9371072e-06,0.02196225,0.8202746760667574,-0.0002663044090375489,0.5719697412324695,0.00017940391933073116,0.9999999622117207,0.00020830456328600934,-0.5719697750911407,-6.825334485696957e-05,0.8202746928460435,0.0005455265,-2.7078331e-06,0.09855149,-0.0010216975,-0.00016083405,0.021505298,1.0309637,-0.04908677,3.0875779e-06,0.017366774,0.8546866516760282,-0.0009660078911330937,-0.5191433272956265,0.0010178753853029234,0.9999994648517244,-0.00018500260763814507,0.5191432281909489,-0.00037030395502489716,0.8546871775675948,-4.4626988e-05,-0.016012708,0.10667065,-0.0006312799,-0.0051071784,-0.0062078405,0.523589,-6.264933e-05,-0.01988746,0.004752758,0.99998023444754,-0.0006301763771232491,0.006255684772797812,0.0023514458258436736,0.9602445593533354,-0.2791502407931019,-0.005831073380692526,0.2791594331382201,0.9602270614147347,left_images/camera_left_7.png,right_images/camera_right_7.png
2025-05-27 16:04:37,0.4235384464263916,8,-0.057436846,-1.42646195e-05,0.096725605,-0.00018502922,0.00021758553,-0.027670795,1.027703,0.045141872,-2.9371072e-06,0.02196225,0.8202746760667574,-0.0002663044090375489,0.5719697412324695,0.00017940391933073116,0.9999999622117207,0.00020830456328600934,-0.5719697750911407,-6.825334485696957e-05,0.8202746928460435,0.0005455265,-2.7082801e-06,0.09855149,-0.0010216867,-0.00016083181,0.021505298,1.0313687,-0.04908677,3.0875779e-06,0.017366774,0.8546866516760282,-0.0009660078911330937,-0.5191433272956265,0.0010178753853029234,0.9999994648517244,-0.00018500260763814507,0.5191432281909489,-0.00037030395502489716,0.8546871775675948,-4.462655e-05,-0.016012708,0.10667065,-0.0006312799,-0.0051071784,-0.0062078405,0.523589,-6.264933e-05,-0.01988746,0.004752758,0.99998023444754,-0.0006301763771232491,0.006255684772797812,0.0023514458258436736,0.9602445593533354,-0.2791502407931019,-0.005831073380692526,0.2791594331382201,0.9602270614147347,left_images/camera_left_8.png,right_images/camera_right_8.png
2025-05-27 16:04:37,0.4959380626678467,9,-0.057436846,-1.4264274e-05,0.09672566,-0.00018499875,0.00021756518,-0.027670795,1.0377386,0.045141853,-2.931285e-06,0.021962252,0.8202746231827631,-0.00026598860908580874,0.5719698172215344,0.0001790166314153305,0.9999999622804432,0.0002083078435046706,-0.5719698510546001,-6.847752788656628e-05,0.8202746398587528,0.0005455273,-2.7087265e-06,0.09855149,-0.0010216772,-0.00016082982,0.021505298,1.0381327,-0.04908677,3.0875779e-06,0.017366774,0.8546866516760282,-0.0009660078911330937,-0.5191433272956265,0.0010178753853029234,0.9999994648517244,-0.00018500260763814507,0.5191432281909489,-0.00037030395502489716,0.8546871775675948,-4.4626115e-05,-0.016012708,0.10667065,-0.0006312799,-0.0051071784,-0.0062078405,0.523589,-6.264933e-05,-0.01988746,0.004752758,0.99998023444754,-0.0006301763771232491,0.006255684772797812,0.0023514458258436736,0.9602445593533354,-0.2791502407931019,-0.005831073380692526,0.2791594331382201,0.9602270614147347,left_images/camera_left_9.png,right_images/camera_right_9.png
2025-05-27 16:04:37,0.5453128814697266,10,-0.057436846,-1.4267013e-05,0.09672566,-0.00018500666,0.0002175827,-0.027670795,1.0386608,0.045141842,-2.9371072e-06,0.02196219,0.8202746760667574,-0.0002663044090375489,0.5719697412324695,0.00017940391933073116,0.9999999622117207,0.00020830456328600934,-0.5719697750911407,-6.825334485696957e-05,0.8202746928460435,0.0005455273,-2.7091744e-06,0.09855149,-0.0010216752,-0.0001608274,0.021505298,1.0360343,-0.04908677,3.0875779e-06,0.017366774,0.8546866516760282,-0.0009660078911330937,-0.5191433272956265,0.0010178753853029234,0.9999994648517244,-0.00018500260763814507,0.5191432281909489,-0.00037030395502489716,0.8546871775675948,-4.4625678e-05,-0.016012708,0.10667065,-0.0006312799,-0.0051071784,-0.0062078405,0.523589,-6.264933e-05,-0.01988746,0.004752758,0.99998023444754,-0.0006301763771232491,0.006255684772797812,0.0023514458258436736,0.9602445593533354,-0.2791502407931019,-0.005831073380692526,0.2791594331382201,0.9602270614147347,left_images/camera_left_10.png,right_images/camera_right_10.png
2025-05-27 16:04:37,0.6069707870483398,11,-0.057436846,-1.4260284e-05,0.09672563,-0.00018504428,0.0002175574,-0.027670795,1.0299299,0.045141872,-2.9371072e-06,0.02196222,0.8202746760667574,-0.0002663044090375489,0.5719697412324695,0.00017940391933073116,0.9999999622117207,0.00020830456328600934,-0.5719697750911407,-6.825334485696957e-05,0.8202746928460435,0.0005455273,-2.7096214e-06,0.09855149,-0.001021674,-0.00016082502,0.021505298,1.0343702,-0.04908677,3.0875779e-06,0.017366774,0.8546866516760282,-0.0009660078911330937,-0.5191433272956265,0.0010178753853029234,0.9999994648517244,-0.00018500260763814507,0.5191432281909489,-0.00037030395502489716,0.8546871775675948,-4.462524e-05,-0.016012708,0.10667065,-0.0006312799,-0.0051071784,-0.0062078405,0.523589,-6.264933e-05,-0.01988746,0.004752758,0.99998023444754,-0.0006301763771232491,0.006255684772797812,0.0023514458258436736,0.9602445593533354,-0.2791502407931019,-0.005831073380692526,0.2791594331382201,0.9602270614147347,left_images/camera_left_11.png,right_images/camera_right_11.png
2025-05-27 16:04:37,0.6575698852539062,12,-0.057436846,-1.425564e-05,0.09672571,-0.00018499645,0.00021756475,-0.027670795,1.0410274,0.045141824,-2.9275598e-06,0.021962222,0.8202746231827631,-0.00026598860908580874,0.5719698172215344,0.0001790166314153305,0.9999999622804432,0.0002083078435046706,-0.5719698510546001,-6.847752788656628e-05,0.8202746398587528,0.00054551574,-2.7100677e-06,0.09855153,-0.0010216649,-0.00016082292,0.021505298,1.0437732,-0.04908674,3.0875779e-06,0.017366745,0.8546866516760282,-0.0009660078911330937,-0.5191433272956265,0.0010178753853029234,0.9999994648517244,-0.00018500260763814507,0.5191432281909489,-0.00037030395502489716,0.8546871775675948,-4.4624805e-05,-0.016012708,0.10667065,-0.0006312799,-0.0051071784,-0.0062078405,0.523589,-6.264933e-05,-0.01988746,0.004752758,0.99998023444754,-0.0006301763771232491,0.006255684772797812,0.0023514458258436736,0.9602445593533354,-0.2791502407931019,-0.005831073380692526,0.2791594331382201,0.9602270614147347,left_images/camera_left_12.png,right_images/camera_right_12.png
2025-05-27 16:04:37,0.7097959518432617,13,-0.057436846,-1.4263036e-05,0.09672569,-0.00018500429,0.00021758839,-0.027670795,1.0345454,0.045141853,-2.931285e-06,0.021962222,0.8202746231827631,-0.00026598860908580874,0.5719698172215344,0.0001790166314153305,0.9999999622804432,0.0002083078435046706,-0.5719698510546001,-6.847752788656628e-05,0.8202746398587528,0.00054551347,-2.7105152e-06,0.098551504,-0.0010216596,-0.00016082036,0.021505298,1.0372561,-0.04908674,3.0875779e-06,0.017366745,0.8546866516760282,-0.0009660078911330937,-0.5191433272956265,0.0010178753853029234,0.9999994648517244,-0.00018500260763814507,0.5191432281909489,-0.00037030395502489716,0.8546871775675948,-4.462437e-05,-0.016012708,0.10667065,-0.0006312799,-0.0051071784,-0.0062078405,0.523589,-6.264933e-05,-0.01988746,0.004752758,0.99998023444754,-0.0006301763771232491,0.006255684772797812,0.0023514458258436736,0.9602445593533354,-0.2791502407931019,-0.005831073380692526,0.2791594331382201,0.9602270614147347,left_images/camera_left_13.png,right_images/camera_right_13.png
2025-05-27 16:04:37,0.762415885925293,14,-0.057436846,-1.4273098e-05,0.09672569,-0.00018496205,0.00021757688,-0.027670795,1.027331,0.045141853,-2.931285e-06,0.021962222,0.8202746231827631,-0.00026598860908580874,0.5719698172215344,0.0001790166314153305,0.9999999622804432,0.0002083078435046706,-0.5719698510546001,-6.847752788656628e-05,0.8202746398587528,0.00054551347,-2.7109622e-06,0.098551504,-0.0010216562,-0.00016081781,0.021505298,1.0324411,-0.04908674,3.0875779e-06,0.017366745,0.8546866516760282,-0.0009660078911330937,-0.5191433272956265,0.0010178753853029234,0.9999994648517244,-0.00018500260763814507,0.5191432281909489,-0.00037030395502489716,0.8546871775675948,-4.4623932e-05,-0.016012708,0.10667065,-0.0006312799,-0.0051071784,-0.0062078405,0.523589,-6.264933e-05,-0.01988746,0.004752758,0.99998023444754,-0.0006301763771232491,0.006255684772797812,0.0023514458258436736,0.9602445593533354,-0.2791502407931019,-0.005831073380692526,0.2791594331382201,0.9602270614147347,left_images/camera_left_14.png,right_images/camera_right_14.png
2025-05-27 16:04:37,0.812274694442749,15,-0.057436846,-1.4277141e-05,0.09672569,-0.00018497063,0.00021759437,-0.027670795,1.0313311,0.045141857,-2.9341882e-06,0.02196222,0.8202746436248207,-0.0002660570894841974,0.5719697878732743,0.00017895226524523074,0.9999999622477717,0.00020851988403710616,-0.5719698217583338,-6.868828437546966e-05,0.820274660269144,0.00054552825,-2.6980076e-06,0.098551504,-0.0010217114,-0.00016083107,0.021505298,1.033375,-0.04908674,3.0875779e-06,0.017366745,0.8546866516760282,-0.0009660078911330937,-0.5191433272956265,0.0010178753853029234,0.9999994648517244,-0.00018500260763814507,0.5191432281909489,-0.00037030395502489716,0.8546871775675948,-4.4623495e-05,-0.016012708,0.10667065,-0.0006312799,-0.0051071784,-0.0062078405,0.523589,-6.264933e-05,-0.01988746,0.004752758,0.99998023444754,-0.0006301763771232491,0.006255684772797812,0.0023514458258436736,0.9602445593533354,-0.2791502407931019,-0.005831073380692526,0.2791594331382201,0.9602270614147347,left_images/camera_left_15.png,right_images/camera_right_15.png
2025-05-27 16:04:37,0.8609960079193115,16,-0.057436846,-1.4280204e-05,0.09672569,-0.00018498296,0.00021761224,-0.027670795,1.0383183,0.045141857,-2.9341882e-06,0.02196222,0.8202746436248207,-0.0002660570894841974,0.5719697878732743,0.00017895226524523074,0.9999999622477717,0.00020851988403710616,-0.5719698217583338,-6.868828437546966e-05,0.820274660269144,0.00054554606,-2.696246e-06,0.09855149,-0.0010217064,-0.00016082854,0.021505298,1.0252627,-0.04908677,3.0875779e-06,0.017366774,0.8546866516760282,-0.0009660078911330937,-0.5191433272956265,0.0010178753853029234,0.9999994648517244,-0.00018500260763814507,0.5191432281909489,-0.00037030395502489716,0.8546871775675948,-4.462306e-05,-0.016012708,0.10667065,-0.0006312799,-0.0051071784,-0.0062078405,0.523589,-6.264933e-05,-0.01988746,0.004752758,0.99998023444754,-0.0006301763771232491,0.006255684772797812,0.0023514458258436736,0.9602445593533354,-0.2791502407931019,-0.005831073380692526,0.2791594331382201,0.9602270614147347,left_images/camera_left_16.png,right_images/camera_right_16.png
2025-05-27 16:04:37,0.9129467010498047,17,-0.057436846,-1.4277939e-05,0.096725695,-0.00018499517,0.00021762379,-0.027670795,1.0466118,0.045141857,-2.9304629e-06,0.02196222,0.8202746436248207,-0.0002660570894841974,0.5719697878732743,0.00017895226524523074,0.9999999622477717,0.00020851988403710616,-0.5719698217583338,-6.868828437546966e-05,0.820274660269144,0.00054554973,-2.6966911e-06,0.09855149,-0.0010216952,-0.00016082638,0.021505298,1.0267019,-0.04908677,3.0875779e-06,0.017366774,0.8546866516760282,-0.0009660078911330937,-0.5191433272956265,0.0010178753853029234,0.9999994648517244,-0.00018500260763814507,0.5191432281909489,-0.00037030395502489716,0.8546871775675948,-4.4622622e-05,-0.016012708,0.10667065,-0.0006312799,-0.0051071784,-0.0062078405,0.523589,-6.264933e-05,-0.01988746,0.004752758,0.99998023444754,-0.0006301763771232491,0.006255684772797812,0.0023514458258436736,0.9602445593533354,-0.2791502407931019,-0.005831073380692526,0.2791594331382201,0.9602270614147347,left_images/camera_left_17.png,right_images/camera_right_17.png
2025-05-27 16:04:37,0.9618074893951416,18,-0.057436846,-1.4290777e-05,0.09672561,-0.00018500125,0.00021765413,-0.027670795,1.019947,0.045141887,-2.9379135e-06,0.02196231,0.8202746436248207,-0.0002660570894841974,0.5719697878732743,0.00017895226524523074,0.9999999622477717,0.00020851988403710616,-0.5719698217583338,-6.868828437546966e-05,0.820274660269144,0.00054556533,-2.6919172e-06,0.09855143,-0.0010216886,-0.00016082995,0.021505298,1.005013,-0.049086798,3.0913031e-06,0.017366804,0.8546866516760282,-0.0009660078911330937,-0.5191433272956265,0.0010178753853029234,0.9999994648517244,-0.00018500260763814507,0.5191432281909489,-0.00037030395502489716,0.8546871775675948,-4.4622062e-05,-0.016012708,0.10667065,-0.0006312715,-0.0051071784,-0.006207841,0.49692392,-6.264933e-05,-0.01988746,0.004752758,0.99998023444754,-0.0006301763771232491,0.006255684772797812,0.0023514458258436736,0.9602445593533354,-0.2791502407931019,-0.005831073380692526,0.2791594331382201,0.9602270614147347,left_images/camera_left_18.png,right_images/camera_right_18.png
2025-05-27 16:04:37,1.014585256576538,19,-0.057436846,-1.4303268e-05,0.09672561,-0.00018494546,0.00021767696,-0.027670795,0.99328226,0.045141887,-2.9379135e-06,0.02196231,0.8202746436248207,-0.0002660570894841974,0.5719697878732743,0.00017895226524523074,0.9999999622477717,0.00020851988403710616,-0.5719698217583338,-6.868828437546966e-05,0.820274660269144,0.0005455733,-2.691502e-06,0.09855143,-0.001021679,-0.00016082771,0.021505298,0.9783483,-0.049086798,3.0913031e-06,0.017366804,0.8546866516760282,-0.0009660078911330937,-0.5191433272956265,0.0010178753853029234,0.9999994648517244,-0.00018500260763814507,0.5191432281909489,-0.00037030395502489716,0.8546871775675948,-4.4621625e-05,-0.016012708,0.10667065,-0.0006312715,-0.0051071784,-0.006207841,0.4702556,-6.264933e-05,-0.01988746,0.004752758,0.99998023444754,-0.0006301763771232491,0.006255684772797812,0.0023514458258436736,0.9602445593533354,-0.2791502407931019,-0.005831073380692526,0.2791594331382201,0.9602270614147347,left_images/camera_left_19.png,right_images/camera_right_19.png
2025-05-27 16:04:38,1.0632686614990234,20,-0.057436846,-1.4307595e-05,0.09672561,-0.00018495794,0.00021769483,-0.027670795,0.9666175,0.045141887,-2.9379135e-06,0.02196231,0.8202746436248207,-0.0002660570894841974,0.5719697878732743,0.00017895226524523074,0.9999999622477717,0.00020851988403710616,-0.5719698217583338,-6.868828437546966e-05,0.820274660269144,0.0005455803,-2.6919486e-06,0.09855143,-0.0010216702,-0.00016082542,0.021505298,0.9516836,-0.049086798,3.0913031e-06,0.017366804,0.8546866516760282,-0.0009660078911330937,-0.5191433272956265,0.0010178753853029234,0.9999994648517244,-0.00018500260763814507,0.5191432281909489,-0.00037030395502489716,0.8546871775675948,-4.462119e-05,-0.016012708,0.10667065,-0.0006312715,-0.0051071784,-0.006207841,0.4435873,-6.264933e-05,-0.01988746,0.004752758,0.99998023444754,-0.0006301763771232491,0.006255684772797812,0.0023514458258436736,0.9602445593533354,-0.2791502407931019,-0.005831073380692526,0.2791594331382201,0.9602270614147347,left_images/camera_left_20.png,right_images/camera_right_20.png
2025-05-27 16:04:38,1.1292695999145508,21,-0.057436846,-1.4310663e-05,0.09672561,-0.00018497043,0.0002177127,-0.027670795,0.9399528,0.045141887,-2.9379135e-06,0.02196231,0.8202746436248207,-0.0002660570894841974,0.5719697878732743,0.00017895226524523074,0.9999999622477717,0.00020851988403710616,-0.5719698217583338,-6.868828437546966e-05,0.820274660269144,0.0005455873,-2.6923956e-06,0.09855143,-0.0010216613,-0.00016082315,0.021505298,0.92501885,-0.049086798,3.0913031e-06,0.017366804,0.8546866516760282,-0.0009660078911330937,-0.5191433272956265,0.0010178753853029234,0.9999994648517244,-0.00018500260763814507,0.5191432281909489,-0.00037030395502489716,0.8546871775675948,-0.0020561772,-0.009768205,0.106676415,-0.012878288,-0.046963356,0.022581745,0.4169209,-2.6142181e-05,-0.019805701,0.004789697,0.9997202888736023,-0.012747195892966294,-0.019921169929181134,0.005863633627644874,0.9496100996627829,-0.3133788065889588,0.022912045198142387,0.3131743406080799,0.9494192280386639,left_images/camera_left_21.png,right_images/camera_right_21.png
2025-05-27 16:04:38,1.1869122982025146,22,-0.0598089,-0.003584088,0.0967211,0.047914293,0.022537112,0.004027588,0.9132863,0.045177035,-5.96014e-05,0.021945158,0.8356438221757535,0.029512748964667906,0.5484782585554748,-0.04781912894050379,0.9986730232969507,0.01911866748232887,-0.5471861962502977,-0.042204148936767806,0.8359462162398092,0.003821698,-0.002785425,0.09854842,-0.07539295,0.017228125,-0.022710573,0.89835083,-0.04913679,-4.9981492e-05,0.017344132,0.8726832053561998,-0.05779295583688639,-0.4848546146473854,0.07497473861401845,0.9970554456309082,0.016100525069412785,0.48249643693916383,-0.05040250582448136,0.8744465539686371,-0.0037587255,-0.0035154736,0.106719226,-0.021663515,-0.08001411,0.04420658,0.39025438,-3.2349693e-05,-0.01987369,0.004765355,0.9990239114369299,-0.021278554840663426,-0.038709785341050316,0.006896604770571847,0.9407179937702964,-0.33911958516049645,0.04363096629569233,0.33852160832165734,0.939946519478328,left_images/camera_left_22.png,right_images/camera_right_22.png
2025-05-27 16:04:38,1.253103494644165,23,-0.061224744,-0.0049778605,0.09660344,0.13425271,0.03254881,0.052170362,0.8866177,0.045452856,-0.00016326335,0.021923156,0.8536808817482792,0.09628300760046755,0.5118188493841241,-0.1322432367887784,0.9906265227984987,0.034217227412260735,-0.5037267895011218,-0.09689517416034496,0.8584117000386986,0.008753405,-0.0044942684,0.09855821,-0.182049,0.030947676,-0.10084649,0.87168324,-0.049269024,-0.0002729821,0.017309416,0.8941458774380092,-0.14243081570040056,-0.4245192723534832,0.17751185106058964,0.983133052134072,0.044033447907097,0.41108720801510634,-0.11472952776187352,0.9043475232817757,-0.005001094,0.0012546884,0.10677346,-0.02895749,-0.10434799,0.061297543,0.3635879,-3.3269578e-05,-0.019938141,0.0047343746,0.9981802498896672,-0.028280590936145978,-0.05325783422655753,0.007357469165088382,0.9337225422906887,-0.3579218932472524,0.059850283020933814,0.356878721969404,0.9322314741671184,left_images/camera_left_23.png,right_images/camera_right_23.png
2025-05-27 16:04:38,1.3029594421386719,24,-0.06000864,-0.0042489823,0.09646572,0.20345701,0.0337809,0.11043689,0.859949,0.046052963,-0.0003925679,0.021745088,0.8730626795533408,0.15216960887057698,0.46325583397008224,-0.19764591882287522,0.9789498624022878,0.05092403828452111,-0.4457551439342032,-0.13602050227343515,0.8847602921794583,0.012714283,-0.002168441,0.09861513,-0.28621626,0.030976571,-0.18102467,0.8450153,-0.049487114,-0.0007953963,0.01723118,0.9040897284905214,-0.22777241410108773,-0.36158192738644723,0.2727514006650581,0.9589237508022426,0.07792248444837852,0.32898090563615445,-0.1690708949580662,0.9290783584848451,-0.005900817,0.0048155915,0.10682373,-0.03524816,-0.12214797,0.075712614,0.3369215,-2.1822576e-05,-0.019991122,0.004707587,0.9972655223444483,-0.03428632781222969,-0.06546698151134546,0.007518225635087599,0.9283375042834818,-0.37166241997815197,0.07351839379607279,0.37015392185666307,0.926056758469899,left_images/camera_left_24.png,right_images/camera_right_24.png
2025-05-27 16:04:38,1.353083610534668,25,-0.056047715,-0.0017063082,0.09649295,0.26591903,0.02529517,0.15367062,0.8332813,0.0467078,-0.0006514213,0.021346241,0.8820814365813519,0.20681496649935763,0.4232728539257485,-0.2562244886228947,0.9645845254500689,0.06265544423432988,-0.39532436133953913,-0.1637200748049386,0.9038331629439974,0.014350342,0.0028990335,0.09871488,-0.38094977,0.020568665,-0.23943466,0.8183472,-0.049747743,-0.0014599839,0.017089413,0.8979771554161864,-0.3072630499568547,-0.3150022959945937,0.35597842949540714,0.928052296267411,0.10953672044921262,0.25868201731979296,-0.2104954952582048,0.9427487790452797,-0.0065555186,0.007452953,0.10686236,-0.04060389,-0.13525139,0.08759736,0.31025505,-5.2092946e-06,-0.020031726,0.0046911966,0.9963690717400893,-0.03938545951411836,-0.07548151070728987,0.007607262250352704,0.9242042133745523,-0.38182286670887,0.08479859928588049,0.3798622876248534,0.9211481096976566,left_images/camera_left_25.png,right_images/camera_right_25.png
2025-05-27 16:04:38,1.4043104648590088,26,-0.049841482,0.0016444457,0.096726745,0.31781963,0.012672214,0.18302713,0.80661416,0.047363393,-0.0009122639,0.020703929,0.8841835363347841,0.25472971540329836,0.39157661595793797,-0.30478608860382794,0.9498206315957027,0.07032928258357268,-0.354012590550245,-0.1815310989491748,0.917453838536964,0.013391555,0.009394086,0.09888051,-0.46345803,0.00586896,-0.27948385,0.7916793,-0.05009175,-0.0021935282,0.016815264,0.8825356320738759,-0.37676796478367264,-0.28138365061377246,0.42563903805124187,0.8944021196826536,0.13739089341724828,0.19990564626037416,-0.24102022533377856,0.9497088941213917,-0.007043299,0.009377944,0.10688852,-0.04474284,-0.14461863,0.096983805,0.2835886,1.032179e-05,-0.020065691,0.004682635,0.9955770209224546,-0.043310263260555676,-0.08337035748677027,0.007491053890279813,0.9211709873479474,-0.3890859753062564,0.09364977054314352,0.38674052433732514,0.9174211068601525,left_images/camera_left_26.png,right_images/camera_right_26.png
2025-05-27 16:04:38,1.4560682773590088,27,-0.042372525,0.0055076666,0.09714336,0.36580694,-0.0040610703,0.20195039,0.77994895,0.04798651,-0.0011478318,0.019866642,0.880485465926275,0.3013040432803754,0.36600712806650115,-0.350083716391422,0.9338360512381002,0.07342765777009869,-0.31966660102388067,-0.19278512108285228,0.9277107099084871,0.009656747,0.016430594,0.0991457,-0.5337659,-0.009340121,-0.3052776,0.7650142,-0.050541673,-0.0029455577,0.016352989,0.8626605147252285,-0.43562382513982906,-0.2569994538993173,0.48266743256078853,0.8608970818292612,0.16089861417376747,0.1511588101275619,-0.2628461479048264,0.9529233529788288,-0.0074182707,0.010792414,0.106907845,-0.04783742,-0.15120217,0.10396603,0.25692204,1.9873783e-05,-0.020095753,0.0046756444,0.9949412272463689,-0.04623385562033053,-0.08918735852108092,0.007372982013921406,0.9190134119725897,-0.3941573134558355,0.10018779098129565,0.3915057843876356,0.914705213349804,left_images/camera_left_27.png,right_images/camera_right_27.png
2025-05-27 16:04:38,1.5130255222320557,28,-0.035040975,0.009886606,0.09768898,0.41338518,-0.023908062,0.21587828,0.75328386,0.048537336,-0.0013937878,0.01893334,0.872300824081917,0.3483776048276086,0.343109773630229,-0.3949401212442598,0.9156961421487532,0.07431605402239565,-0.28829424714617136,-0.20033377076386516,0.9363507928943903,0.003831559,0.02330022,0.09949399,-0.5969278,-0.023061367,-0.3209661,0.7383491,-0.051064372,-0.0036792867,0.015743628,0.8396455239414057,-0.4874380723299252,-0.23958196878823995,0.53192005951827,0.8271594494459027,0.18129615405306154,0.10980184154759248,-0.27966295935578955,0.9537988177582942,-0.0077109328,0.011821519,0.10691541,-0.049862165,-0.15636142,0.10841785,0.2302553,1.8622784e-05,-0.020113284,0.0046796147,0.9945244699640946,-0.0481206103284968,-0.09276575609700667,0.007244515810040937,0.9172875037757663,-0.3981597071622158,0.10425255696295622,0.3953075287398867,0.9126134790195951,left_images/camera_left_28.png,right_images/camera_right_28.png
2025-05-27 16:04:38,1.574986219406128,29,-0.028604122,0.014948096,0.09830417,0.45734075,-0.043856744,0.22523074,0.7266189,0.048972905,-0.0017102163,0.017997883,0.8613183152988062,0.3914995297156887,0.3238192056738159,-0.4358122473091406,0.8969222508704748,0.07482085931608762,-0.26114831959287615,-0.20556895224190808,0.9431558519396365,-0.0031393054,0.029961456,0.0998821,-0.65246665,-0.036018256,-0.329434,0.71168405,-0.0516307,-0.0043747253,0.015058098,0.8155486505462508,-0.5324261847500731,-0.22672175983938944,0.5738086565740317,0.7947958171870564,0.19759360977183363,0.07499349460382296,-0.29124211023552177,0.9537054099629854,-0.007916113,0.0124276895,0.10689217,-0.051479883,-0.16043065,0.11156558,0.20358875,1.7076323e-05,-0.020112962,0.004717078,0.9942171981631351,-0.04962694511918023,-0.0952330257567355,0.007255569046937353,0.9158295789212842,-0.40150160534008833,0.10714252001166624,0.3984888313252967,0.910893589676944,left_images/camera_left_29.png,right_images/camera_right_29.png
2025-05-27 16:04:38,1.629481315612793,30,-0.02457326,0.020308321,0.09886102,0.4989113,-0.062499482,0.23669106,0.699954,0.049266256,-0.0021070696,0.017234296,0.8495128210164322,0.43079253181315263,0.3045418878622725,-0.47313948498803765,0.8774770461001347,0.07856883168684951,-0.233381650251166,-0.2108360218307011,0.9492529574484593,-0.009908189,0.035724208,0.10023652,-0.7020377,-0.04755946,-0.3328613,0.68501914,-0.052165236,-0.004973381,0.014421259,0.7909371147964985,-0.5716947785143494,-0.2181365642363049,0.6101356708049905,0.7638761903245024,0.21030365918516225,0.04639982380068618,-0.29942986837447216,0.9529894072215659,-0.008033553,0.012630791,0.10683201,-0.053513773,-0.16335747,0.11433917,0.17692228,2.1530956e-05,-0.020098172,0.0047939,0.9939094566226053,-0.051567691875006774,-0.09738975916821063,0.00784774600982913,0.9146339196974979,-0.40420688492572276,0.10991999326202179,0.4009807552657305,0.9094679922832918,left_images/camera_left_30.png,right_images/camera_right_30.png
2025-05-27 16:04:38,1.684676170349121,31,-0.023368202,0.025455996,0.09930593,0.53510046,-0.080410846,0.25408694,0.67328596,0.0494301,-0.002531342,0.016701125,0.8393256987221809,0.46449379271987534,0.282449797290117,-0.5043803393269198,0.8592047540586253,0.08583509715447539,-0.20281233878880228,-0.21450572749407526,0.955434167332974,-0.015310912,0.040654782,0.10052515,-0.7462982,-0.058630873,-0.3341518,0.6583544,-0.052605543,-0.0054777814,0.01390729,0.7666855192277868,-0.6060118295155488,-0.21199758747126468,0.6416349349250172,0.7347215320517937,0.22020190876383064,0.022314230665386736,-0.30485067299693275,0.9521387200839642,-0.008061304,0.012297394,0.10670699,-0.055554584,-0.16545245,0.11734606,0.15025589,3.8999075e-05,-0.020056752,0.0049443254,0.9935564447853259,-0.05353572052082316,-0.09989753577471185,0.008338094461093126,0.9135472667599086,-0.40664710447297936,0.11303126649870561,0.4031938963127004,0.9081071604000719,left_images/camera_left_31.png,right_images/camera_right_31.png
2025-05-27 16:04:38,1.7349779605865479,32,-0.024937414,0.030822594,0.099671185,0.5717337,-0.105681986,0.27782857,0.6466181,0.04951936,-0.002923598,0.016342828,0.8275783738212523,0.5006278041783697,0.2539406168121116,-0.5360079851577358,0.8391259751393928,0.09253668296145001,-0.16676173131302136,-0.21269555597122214,0.9627830105686207,-0.019021653,0.045134973,0.10076175,-0.79075927,-0.07140623,-0.33387554,0.6316896,-0.052935205,-0.005915481,0.013510249,0.7399822497334914,-0.639802796035622,-0.20755397434007672,0.6726263212508415,0.7040182045580705,0.22788637434342277,0.0003194368804503439,-0.30823813819161194,0.9513091758856571,-0.008018527,0.011498662,0.106512226,-0.057388533,-0.16723517,0.12029009,0.12358944,6.5058994e-05,-0.01998932,0.0051736003,0.9931986260142974,-0.05531103900698553,-0.1024557379909963,0.008599103013780193,0.912402367073102,-0.40920407620985294,0.11611436048426721,0.4055398988057383,0.9066724026714177,left_images/camera_left_32.png,right_images/camera_right_32.png
2025-05-27 16:04:38,1.7895309925079346,33,-0.02729574,0.0358286,0.09999478,0.6042529,-0.13350984,0.29519722,0.6199499,0.049552,-0.0032280409,0.016066946,0.8136999346222706,0.5340850037736619,0.22944634479503134,-0.5647431827803427,0.8198483110251488,0.09441336988128035,-0.1376864332417726,-0.20640241193672798,0.9687313819877317,-0.021409098,0.048669115,0.100989886,-0.8340699,-0.08445398,-0.33281034,0.6050248,-0.05315601,-0.0062566656,0.013176782,0.7120461208279983,-0.6717235698555022,-0.20439610445010892,0.7018570162001705,0.6727834171059159,0.23400684280140302,-0.019673602222091746,-0.3100805046562381,0.9505067227577823,-0.007940885,0.010436648,0.10627832,-0.058967516,-0.16851594,0.12261921,0.09692255,9.064312e-05,-0.019913273,0.005444549,0.9928986912140347,-0.05684642910781489,-0.10450202143091311,0.008866624496967908,0.911360743464817,-0.4115130353236527,0.11863208653432095,0.4076641740071676,0.9053929253509589,left_images/camera_left_33.png,right_images/camera_right_33.png
2025-05-27 16:04:38,1.8411548137664795,34,-0.029443765,0.04004485,0.100279815,0.6258266,-0.15831257,0.30377224,0.59328395,0.049538467,-0.003434117,0.015840897,0.802146646321731,0.5580891563466192,0.21236113430455822,-0.5848638621253955,0.8060138182558538,0.09097245495415529,-0.12039526807381579,-0.19717560282382418,0.9729474605940938,-0.023135224,0.050557613,0.101218805,-0.8760159,-0.095291905,-0.33195126,0.57835996,-0.053295866,-0.0064637996,0.012876393,0.6837013976509547,-0.7010055488894122,-0.20283889981062564,0.7287609659655383,0.6413066017485698,0.24006935880840147,-0.03820802710304182,-0.3119568287118512,0.9493277008941318,-0.007847561,0.008944455,0.105981134,-0.060413014,-0.16955319,0.1245913,0.07025568,0.00011564733,-0.019812832,0.0057877293,0.9926323851659733,-0.05825371997207799,-0.10624242104322333,0.009110871778967904,0.910244135020804,-0.4139717462287194,0.12082193482616486,0.4099538007747248,0.9040685490023526,left_images/camera_left_34.png,right_images/camera_right_34.png
2025-05-27 16:04:38,1.8905730247497559,35,-0.031010078,0.043872464,0.10054392,0.63387984,-0.18031421,0.30536243,0.5666188,0.049508214,-0.0035613887,0.015627485,0.7957573048410258,0.5713399446283802,0.2008506396907563,-0.5947601782563601,0.7997756275285909,0.08135893295583066,-0.11415183814818516,-0.1841999274790517,0.976237545151846,-0.025244376,0.05017949,0.10142978,-0.9285912,-0.09972084,-0.33105454,0.55169487,-0.053383917,-0.006550158,0.01260557,0.6478116787296904,-0.733057209155966,-0.207285206915223,0.7594766819150294,0.6002307205991078,0.2508351085402782,-0.05945753550861066,-0.31992219390586557,0.9455763276001045,-0.007773097,0.007224412,0.105652325,-0.0612354,-0.1695024,0.12634297,0.043588974,0.0001400222,-0.019716393,0.006159772,0.9924040502886067,-0.05906229041755991,-0.10791592478128777,0.008937602166015246,0.9095110520542182,-0.41558364435905226,0.1226960481771552,0.4114623822925505,0.9031303270956237,left_images/camera_left_35.png,right_images/camera_right_35.png
2025-05-27 16:04:38,1.9433953762054443,36,-0.031796,0.047052648,0.10079931,0.6393782,-0.19797239,0.3022309,0.53995353,0.049474925,-0.003652027,0.015404653,0.7902429270624147,0.5811490895646544,0.1943755435387904,-0.602220437650859,0.7951728941731385,0.070926813321354,-0.11334311052478982,-0.17310633746483023,0.9783596144700972,-0.026734741,0.04899035,0.101618655,-0.9808479,-0.10452867,-0.3303661,0.5250298,-0.053427607,-0.0065504685,0.012377926,0.610281126572608,-0.7631979935460916,-0.21233409805419468,0.7880984531706442,0.5577274085048569,0.2604629837663971,-0.08036028035856034,-0.32629581739531444,0.9418456693593793,-0.007924455,0.0049940017,0.105263636,-0.062837966,-0.16794282,0.1290602,0.01692234,0.0001485201,-0.019607795,0.0065953108,0.9920498029338504,-0.060625643120093095,-0.11028018813542174,0.009270058483606038,0.9091348614364172,-0.4163986908441201,0.12550400198646827,0.4120659354002241,0.9024690633856205,left_images/camera_left_36.png,right_images/camera_right_36.png
2025-05-27 16:04:38,1.9967668056488037,37,-0.031791627,0.049441747,0.10104443,0.646427,-0.20968935,0.2962923,0.5132882,0.049439173,-0.00374019,0.015170931,0.784249655167189,0.5898353530449982,0.19247528326626137,-0.6097289508589672,0.7900893586165034,0.06316179134085388,-0.11481761561088319,-0.16689236561102666,0.9792669980379136,-0.02776328,0.047956627,0.101764515,-1.0223278,-0.109000824,-0.3296219,0.49836487,-0.0534562,-0.0065354565,0.012204732,0.5792364078163361,-0.7859148969195967,-0.21638613324306796,0.8093695789090355,0.5229063929837261,0.2673757448112289,-0.09698488849628875,-0.33001011950637,0.9389820298742431,-0.008351529,0.002568285,0.10485023,-0.06565708,-0.16558225,0.13263439,0.0013095364,0.00013283535,-0.019499253,0.0070560332,0.9915652734643045,-0.06335499785879256,-0.11306835413134766,0.010543465377648154,0.908923252653382,-0.41683012861815427,0.12917872811531234,0.4121221481943298,0.9019247148017409,left_images/camera_left_37.png,right_images/camera_right_37.png
2025-05-27 16:04:39,2.0580015182495117,38,-0.03147091,0.051498786,0.101260304,0.6503779,-0.2179585,0.29070234,0.486622,0.049411125,-0.0038313977,0.014957439,0.7804306167327768,0.5951020376819212,0.19178534149648394,-0.6141693433562341,0.7871266059421059,0.05681306099334043,-0.11714977655749095,-0.16212732948175618,0.9797911302352375,-0.02836504,0.04744688,0.10186444,-1.0528767,-0.112886146,-0.32951224,0.4716981,-0.05347716,-0.006549826,0.0120896865,0.5558813231509542,-0.8019184374639798,-0.21891270914972838,0.8239573980932304,0.49671217740465634,0.2727108706035733,-0.10995526681054528,-0.3319696258293133,0.9368596516167016,-0.009587523,-0.00036413464,0.10438326,-0.07136115,-0.1619076,0.13833751,8.400537e-05,4.431652e-05,-0.019373324,0.0075777154,0.9907702586524841,-0.06881573446107667,-0.11678479892636853,0.01397716427300431,0.9088229721424815,-0.4169477715313894,0.13482927519116608,0.4114671311255479,0.9013966200040557,left_images/camera_left_38.png,right_images/camera_right_38.png
2025-05-27 16:04:39,2.1161410808563232,39,-0.031098757,0.053589966,0.101451226,0.65043616,-0.22403099,0.2862767,0.45995542,0.049381614,-0.003946237,0.014770673,0.7792449564636106,0.5967957684361281,0.191342908420346,-0.6151614752839593,0.7867182614417105,0.05148530315143552,-0.11980674919422704,-0.15782644864173972,0.9801720027406658,-0.028929945,0.047447253,0.10192496,-1.0779204,-0.11483574,-0.3287982,0.4450314,-0.05349126,-0.0066111702,0.0120209325,0.5367525632640227,-0.8139482851739669,-0.22222707956471077,0.8351171958645941,0.4749507797174114,0.27749058725852355,-0.12031606293740967,-0.33452943952391073,0.9346732579308449,-0.013687901,-0.0035872941,0.10393629,-0.084621236,-0.15520327,0.14613739,5.3557806e-06,-0.00034615514,-0.019256927,0.008072684,0.9895830681624849,-0.0813319885203792,-0.11878745240741567,0.024816427283527127,0.9091450223608591,-0.41573967005008616,0.14180795514710925,0.4084610580701592,0.9016928900114505,left_images/camera_left_39.png,right_images/camera_right_39.png
2025-05-27 16:04:39,2.16947340965271,40,-0.031108512,0.05620392,0.101646796,0.6492854,-0.23071933,0.2836196,0.43328893,0.049334284,-0.004112144,0.014599126,0.7790553201749867,0.5976195285594821,0.18953550377539127,-0.6151322633697922,0.7870317435936459,0.046833034681749985,-0.12118212190172897,-0.15307492825504723,0.9807563202300082,-0.029858561,0.047950827,0.10195378,-1.0987675,-0.116041936,-0.32773957,0.4183647,-0.0535483,-0.0067134397,0.011966666,0.5207702197333312,-0.8234813913397792,-0.22511502916509032,0.8438724251471421,0.4566671379066247,0.28166372722175803,-0.1291422019139332,-0.3366504467147984,0.9327318845260666,-0.020548308,-0.006650606,0.10356674,-0.10277481,-0.14753857,0.15296689,3.5536988e-07,-0.0010452088,-0.019150143,0.008486415,0.9883057987888978,-0.0983026861690917,-0.11656856339588252,0.04155428026287335,0.9091538381526872,-0.4143821187793607,0.1467136321957622,0.40469232815087897,0.9026069076091475,left_images/camera_left_40.png,right_images/camera_right_40.png
2025-05-27 16:04:39,2.2210750579833984,41,-0.031283792,0.058734067,0.1018421,0.6464808,-0.23641756,0.28211135,0.40662187,0.049267333,-0.0042829216,0.014439805,0.7800614401224858,0.5969155213742419,0.18760599664336486,-0.6136403179669099,0.788416213845332,0.042958513839065016,-0.12226900588253374,-0.14863288360355625,0.9813045175235812,-0.031485487,0.048769206,0.101961,-1.1164755,-0.11689566,-0.3259764,0.39169788,-0.053677272,-0.006834607,0.01189939,0.5069389868133489,-0.8314618162817671,-0.22734139903255735,0.8510936771604167,0.4410252641871648,0.28484428912337734,-0.13657384942299883,-0.3378875026011863,0.9312247952238587,-0.028134689,-0.009219343,0.103271335,-0.11820295,-0.14139846,0.15932675,1.6919633e-07,-0.001813734,-0.019053645,0.008830046,0.9871352885298278,-0.112485311525819,-0.11362647944063475,0.05591592401582524,0.9086643263669302,-0.41376630050016083,0.14979095960901645,0.4020897868375575,0.9032643421171553,left_images/camera_left_41.png,right_images/camera_right_41.png
2025-05-27 16:04:39,2.272928237915039,42,-0.031637404,0.060697086,0.10203438,0.6460408,-0.24141479,0.27871016,0.379955,0.049166866,-0.0044056885,0.014292889,0.7794139088451942,0.5977296967527753,0.18770500344554064,-0.613949834469247,0.7883929026708885,0.038758634823158014,-0.12481810547288114,-0.1454504748634602,0.9814604423552457,-0.03409871,0.049545504,0.10196198,-1.1321487,-0.116980754,-0.3237783,0.36503106,-0.05389034,-0.006946933,0.011794354,0.49446100967917955,-0.8384717437472009,-0.22907082931830128,0.8573356769927079,0.42707555399510394,0.28737085470734525,-0.1431217903133599,-0.3384842775038497,0.9300239497024769,-0.037605476,-0.011527891,0.10300968,-0.13182051,-0.13579138,0.16658756,2.0319582e-07,-0.0027627721,-0.018969886,0.009149008,0.9860808388157712,-0.12462195315859703,-0.11006338224550999,0.06860433355720189,0.9079551095537886,-0.41341379325361155,0.15145304466255205,0.40010859504152635,0.9038667420789077,left_images/camera_left_42.png,right_images/camera_right_42.png
2025-05-27 16:04:39,2.3283231258392334,43,-0.032755435,0.061902203,0.10221555,0.6471355,-0.2461353,0.27551168,0.3532882,0.049002618,-0.004461941,0.014191251,0.7777271107165485,0.5996674751847992,0.1885191249236477,-0.6155139042282409,0.7873604022870175,0.034730830858674615,-0.12760554438658805,-0.143047251339948,0.981455199652989,-0.03767633,0.05008341,0.10195697,-1.1450418,-0.11582401,-0.3214481,0.3383643,-0.054180574,-0.0070328275,0.011654207,0.4840554897879704,-0.8441548054774413,-0.23041906864552505,0.8623453563026318,0.41551206648038963,0.2893271661501614,-0.14849501429144,-0.3387512169698278,0.9290838733569997,-0.047084294,-0.01341883,0.102773055,-0.14081594,-0.13216527,0.17323284,1.967936e-07,-0.00370473,-0.018896773,0.0094517935,0.9855007714017961,-0.13215072956135832,-0.1064162311062812,0.07693923734362963,0.9070652293763275,-0.41389977459942034,0.1512236202563784,0.39971096348845764,0.9040810596089731,left_images/camera_left_43.png,right_images/camera_right_43.png
2025-05-27 16:04:39,2.377417802810669,44,-0.034973968,0.06215928,0.10237925,0.6439798,-0.24786061,0.27510342,0.32662147,0.04872516,-0.004457206,0.014165762,0.7787831769483772,0.5977892126364185,0.19011791224848665,-0.613524305052373,0.7890157311016108,0.03228162301051745,-0.13070841752616866,-0.14178234491544142,0.9812303889801229,-0.042585943,0.05021958,0.101945415,-1.157362,-0.11304193,-0.31829458,0.31169692,-0.054569557,-0.0070791077,0.011465873,0.47386836852525677,-0.8494375703207062,-0.23217360624943326,0.8672075907776293,0.4043519602498255,0.2906036591988882,-0.15296981339098067,-0.3390505955897718,0.9282483125873969,-0.05714674,-0.015303179,0.102489516,-0.1448238,-0.12952371,0.17924306,2.108506e-07,-0.004695158,-0.018829983,0.009814648,0.9856070036667055,-0.1346415540184141,-0.10222761982284984,0.08082478159777964,0.9064211343720293,-0.41456975509966304,0.1484795911996321,0.4003403290891761,0.9042573925061161,left_images/camera_left_44.png,right_images/camera_right_44.png
2025-05-27 16:04:39,2.432081460952759,45,-0.038303953,0.06229894,0.10253396,0.63773936,-0.24877419,0.27510047,0.29995453,0.04833893,-0.0044390857,0.014209809,0.7814103880208924,0.5933956970349864,0.19307861671713183,-0.6091222217999636,0.7925283477811206,0.02947773520478285,-0.13552831586983788,-0.14064268450114942,0.980740389141691,-0.047821023,0.049863435,0.1019233,-1.1664801,-0.11139529,-0.31914,0.28502977,-0.055032887,-0.007087111,0.011266825,0.4664498285761354,-0.854058775695586,-0.23023502139911467,0.87002569400217,0.3960074147517539,0.29365527279052056,-0.15962408714644716,-0.3372858359299858,0.9277706697690299,-0.06767376,-0.017362835,0.10211607,-0.14604494,-0.12722412,0.18497792,2.210821e-07,-0.0057174084,-0.018772535,0.010281999,0.9861145003149938,-0.13428870878888366,-0.09769715942812696,0.08222963645172725,0.9059638800641496,-0.41529234872331594,0.14427917090670858,0.4014922050437915,0.9044266305961736,left_images/camera_left_45.png,right_images/camera_right_45.png
2025-05-27 16:04:39,2.4910120964050293,46,-0.043381236,0.06269975,0.10273287,0.6308916,-0.250259,0.27783087,0.2732879,0.047795415,-0.0044556167,0.01430577,0.7845777351557537,0.5884613740643149,0.19532278088386587,-0.6042218143192118,0.7963272701952536,0.027908383044806334,-0.1391178514737346,-0.13991458100467669,0.9803418451864727,-0.05304263,0.049152177,0.10186932,-1.1741453,-0.11252946,-0.3246916,0.25836253,-0.05557382,-0.007070274,0.011086524,0.46026352764451806,-0.8591467802097211,-0.22366111681625178,0.8713582963720231,0.3889417763116758,0.2990969976164319,-0.16997707040618593,-0.33255240894449617,0.9276403887505885,-0.07770555,-0.019254964,0.10171885,-0.14669843,-0.12576117,0.1903693,2.0679751e-07,-0.0066816043,-0.018728849,0.010778732,0.9866646933158996,-0.1333784956740227,-0.09328965567294448,0.08300738578710973,0.9053470682288921,-0.41648104393134106,0.14000913137589197,0.4031834110440116,0.9043453876646266,left_images/camera_left_46.png,right_images/camera_right_46.png
2025-05-27 16:04:39,2.5527608394622803,47,-0.051723294,0.0637364,0.10304539,0.62199926,-0.25361228,0.28470293,0.24662119,0.0469419,-0.004531821,0.014476977,0.7889539817703198,0.582172520897389,0.19653694451867554,-0.5979097212479337,0.8011022065260726,0.027188599380546068,-0.14161772447676158,-0.13896190345212178,0.9801193853316988,-0.059217516,0.04830918,0.10169196,-1.180316,-0.11322785,-0.33014888,0.2316961,-0.056254484,-0.0070322077,0.010978174,0.4550111617686502,-0.8638015255029682,-0.2163602717799379,0.8721357989092432,0.38321056091076766,0.3041854931902428,-0.17984435194600826,-0.3271033331306793,0.9277173160655785,-0.08754527,-0.021494878,0.10126383,-0.14452653,-0.12419358,0.19547138,1.9454463e-07,-0.0076071974,-0.018676272,0.011346057,0.987531569089589,-0.1296935105221544,-0.08922439901671907,0.08115561963919313,0.9050962881978453,-0.417390074739999,0.13488945641685074,0.40494481404127547,0.9043365148707885,left_images/camera_left_47.png,right_images/camera_right_47.png
2025-05-27 16:04:39,2.616448163986206,48,-0.06383553,0.06491258,0.10352523,0.61174846,-0.25727254,0.29433975,0.21995407,0.0456754,-0.0046375236,0.0147193335,0.7938897981608486,0.574526287538015,0.19914450357444727,-0.5905465233373401,0.8065392841813219,0.027371277764496063,-0.14489234676237164,-0.13933387240749062,0.9795878111989889,-0.06720441,0.047645487,0.10135437,-1.1873087,-0.10962004,-0.33318812,0.2050296,-0.057097998,-0.0070173224,0.010963589,0.4494296410723672,-0.8677391749235115,-0.2122303513370009,0.8732586837516023,0.37669944459290067,0.3090579228814873,-0.1882346115303516,-0.3242317886118877,0.9270606659089544,-0.09727923,-0.024212116,0.10082621,-0.13997285,-0.119708866,0.20108329,1.6313828e-07,-0.008496597,-0.018626736,0.011896317,0.9885129021621234,-0.12395509572795577,-0.0864718249032011,0.07726553473363312,0.9061962203460557,-0.41573843624669693,0.12989333855645668,0.4042815163640263,0.9053641124570057,left_images/camera_left_48.png,right_images/camera_right_48.png
2025-05-27 16:04:39,2.6764841079711914,49,-0.08086694,0.06570945,0.10428495,0.5998628,-0.2618227,0.30865934,0.1932868,0.04384561,-0.004724799,0.015016628,0.7994008761887168,0.565675221252008,0.20240993851637623,-0.5821857533018797,0.8125584080078362,0.028435580319258635,-0.14838459421730482,-0.14057161035309368,0.9788879581247811,-0.077691175,0.047800135,0.100863114,-1.1957239,-0.102852695,-0.3328898,0.17836282,-0.058176287,-0.0070767617,0.011009436,0.4426488872362841,-0.8717172357327294,-0.21016903567121534,0.8751404335776722,0.3688936467033855,0.31312409511144595,-0.1954256486389734,-0.3225314532698586,0.9261653618580592,-0.107192755,-0.02693476,0.10049025,-0.13626896,-0.11228136,0.2065621,1.6880065e-07,-0.009403325,-0.018601237,0.012337622,0.9893211588591294,-0.11939721412197332,-0.0835939584751248,0.07484382777910159,0.9083027064267707,-0.41156359768713247,0.12506816572174317,0.4009120835765808,0.9075392306480659,left_images/camera_left_49.png,right_images/camera_right_49.png
2025-05-27 16:04:39,2.728560447692871,50,-0.100096315,0.06616775,0.10528245,0.59084684,-0.26834002,0.3243852,0.1666201,0.041709784,-0.0047836634,0.015276158,0.8029085172344634,0.5595584987979241,0.20550474295103063,-0.5765608461267266,0.8165269932143785,0.02934723267907456,-0.15137867639132244,-0.1420491315541922,0.9782159989280034,-0.08926307,0.04883788,0.10030977,-1.204076,-0.09545327,-0.32987505,0.15169613,-0.059358105,-0.007203209,0.011084533,0.43552134733096615,-0.8756391852682683,-0.2087514628493486,0.8774379323305388,0.3611511825828515,0.31570951557803334,-0.20105678532824633,-0.3206646855232595,0.9256080858180422,-0.11750376,-0.029647252,0.10026031,-0.13320717,-0.1041301,0.21232541,1.7152573e-07,-0.010353605,-0.018562809,0.012685606,0.9900277568895801,-0.11557695384546558,-0.08054196625356215,0.07320326936490147,0.9105650912721979,-0.40683226999679367,0.12035913734518248,0.39687930444438324,0.9099453256988941,left_images/camera_left_50.png,right_images/camera_right_50.png
2025-05-27 16:04:39,2.7832562923431396,51,-0.12184998,0.0664923,0.10658259,0.58434325,-0.27801,0.34215665,0.13995326,0.039207455,-0.0048246607,0.015485545,0.8045496814600631,0.5563971011001894,0.2076585561680928,-0.573720971698531,0.8185118171771578,0.02970945598022131,-0.15344072697887168,-0.14304080197151098,0.977750107274626,-0.102547325,0.050856482,0.09969291,-1.2129886,-0.086904265,-0.3240101,0.12502936,-0.06069164,-0.0074082077,0.011174649,0.4275361448351212,-0.8797481106792729,-0.20798102465314514,0.8803225898082488,0.3528615613284101,0.31705024272215043,-0.20553584293942537,-0.31864083274609756,0.9253232067629416,-0.12837064,-0.032348268,0.1001114,-0.12988959,-0.096346445,0.2183906,1.7666339e-07,-0.011363404,-0.018502306,0.012974705,0.9907671687967244,-0.11146785596953797,-0.07717081261770657,0.07134485217169527,0.912697901568168,-0.4023586118646667,0.115283690533925,0.39313796249995614,0.9122237736094478,left_images/camera_left_51.png,right_images/camera_right_51.png
2025-05-27 16:04:39,2.8358588218688965,52,-0.14402723,0.066840455,0.10809321,0.5809361,-0.29019624,0.36079058,0.11328669,0.03655749,-0.0048662378,0.015616874,0.804315324001237,0.5565632379113837,0.2081206904235658,-0.5739860739627144,0.8183196331411946,0.029882518510496947,-0.15367773577735544,-0.14349334556437532,0.9776465687072645,-0.1165585,0.05352091,0.09905217,-1.2217084,-0.07780396,-0.3165962,0.09836279,-0.0620806,-0.0076618497,0.011284016,0.4194386423759536,-0.8837408602656002,-0.20754112165745345,0.8833652373174327,0.3446759556089323,0.3175914720583432,-0.2091341262944261,-0.3165447480563946,0.925236369635879,-0.13891178,-0.034626164,0.100027554,-0.12821992,-0.09014709,0.22470222,1.6162718e-07,-0.012349577,-0.01843841,0.013208117,0.9912955650202451,-0.10892978524820507,-0.07394190055018099,0.07067364958504463,0.9141339911424398,-0.3992045609613248,0.11107807175821541,0.3905039668476797,0.9138754367257624,left_images/camera_left_52.png,right_images/camera_right_52.png
2025-05-27 16:04:39,2.887810707092285,53,-0.16669953,0.06722598,0.10978587,0.5784005,-0.30411974,0.37864834,0.086619735,0.03373807,-0.004901062,0.015716843,0.8029830647404635,0.558230482908206,0.20879876841610828,-0.5756021674304431,0.8172250030408172,0.028730458651269865,-0.15459735634670035,-0.14325509539631492,0.9775365134119565,-0.13190673,0.05673166,0.0983676,-1.2325225,-0.068011865,-0.30834213,0.071696125,-0.063584246,-0.00796301,0.011416409,0.4093253130088664,-0.8885420146942414,-0.2072338684995574,0.8870590312334187,0.3344128560432266,0.3182676810803145,-0.21349253672534355,-0.31410369280877687,0.9250728657389466,-0.14999965,-0.03660898,0.10000281,-0.12479135,-0.084776655,0.23088716,1.7419185e-07,-0.013397098,-0.018380206,0.013397924,0.9920421314116081,-0.10457505440537244,-0.07011752634275398,0.06852029145225495,0.9156273587118432,-0.3961458186547871,0.1056284959829091,0.3881888689471748,0.9155064297217697,left_images/camera_left_53.png,right_images/camera_right_53.png
2025-05-27 16:04:39,2.941127061843872,54,-0.18799204,0.067712836,0.111517966,0.5777016,-0.31855038,0.3915174,0.05995276,0.030962057,-0.0049284208,0.015784327,0.7998038994126112,0.5616429262789003,0.21182763239307512,-0.5789870125263487,0.8149426647405607,0.025347435991992406,-0.15839116708388679,-0.14291842619630324,0.9769782810499814,-0.14862311,0.060081877,0.0976477,-1.243037,-0.052083194,-0.29723987,0.04502961,-0.06510775,-0.008278899,0.011590083,0.3999740836258735,-0.8916859260433992,-0.21193617370276469,0.8909526345850104,0.3240319185723962,0.3181300342192187,-0.21499798918518287,-0.3160688612350443,0.924054294727269,-0.16013299,-0.03854215,0.10001495,-0.12013868,-0.08052691,0.2364027,1.5502692e-07,-0.014358384,-0.018300371,0.0135553265,0.992856440537803,-0.09903617940485575,-0.0665426453599012,0.06507895073743435,0.9169419046683287,-0.3936778805497362,0.10000409318382397,0.38653509366176186,0.9168368462896626,left_images/camera_left_54.png,right_images/camera_right_54.png
2025-05-27 16:04:39,3.007505416870117,55,-0.20774993,0.06820143,0.11322357,0.5780537,-0.3320066,0.40067372,0.03328591,0.028279856,-0.004957894,0.015850935,0.795692135864768,0.5655739519695733,0.2167951331937199,-0.5830474888024806,0.8121623454365989,0.02116484009020704,-0.16410256160122894,-0.1432425548098108,0.9759876637373412,-0.16746363,0.06327503,0.096864395,-1.2570053,-0.027327757,-0.28527588,0.018362898,-0.06668329,-0.008610858,0.011834225,0.3888555715338186,-0.893792972956303,-0.22344007246024747,0.8954812921973747,0.3096624033440311,0.3197224597674031,-0.21657469799500453,-0.32441226464042927,0.9207888372147225,-0.16962592,-0.041026175,0.100049086,-0.11290671,-0.0770662,0.2420074,1.332313e-07,-0.015253753,-0.018152658,0.013712912,0.9938140648948635,-0.09087474233727424,-0.0638387470293901,0.058791144146721264,0.9181743336843874,-0.391790115154978,0.09421892478195604,0.3856133739490443,0.9178371969170604,left_images/camera_left_55.png,right_images/camera_right_55.png
2025-05-27 16:04:40,3.061276435852051,56,-0.22670889,0.068596415,0.114933655,0.5803505,-0.3454539,0.40797347,0.0070629325,0.025634483,-0.0049819765,0.015929196,0.790313217881415,0.5709347677719657,0.22234772000426467,-0.5886308273821491,0.808225190675053,0.016905330924912088,-0.1700551872108872,-0.1442412288752622,0.9748208559500686,-0.18841298,0.06654627,0.095985375,-1.267836,0.0015305639,-0.27320698,0.0015190878,-0.068406284,-0.0089441575,0.012163292,0.38036991578447055,-0.8942450647889624,-0.23589084608500477,0.8989576873003067,0.29758467576040437,0.32143185466947577,-0.21724134875708812,-0.33431889694296313,0.9170807333801325,-0.17955853,-0.04339355,0.10011287,-0.10751289,-0.07445105,0.24883293,1.2809396e-07,-0.016191853,-0.017993847,0.013862694,0.9945309575933029,-0.08433506000855466,-0.06160983721696915,0.05369870473157333,0.9188468190113946,-0.3909436945428237,0.08958026288585703,0.38549723844146383,0.9183502902788815,left_images/camera_left_56.png,right_images/camera_right_56.png
2025-05-27 16:04:40,3.116453170776367,57,-0.2447317,0.0692161,0.11663343,0.58408606,-0.3618693,0.41378444,0.00045354664,0.023082457,-0.004994498,0.016007386,0.7834290600220345,0.5787501796511371,0.22646663654226923,-0.5961444187088983,0.8028065502821656,0.010652458227025582,-0.1756437871238869,-0.14335226673417306,0.9739606704928867,-0.20983268,0.0697661,0.09506782,-1.2721741,0.028634235,-0.2605108,9.754536e-05,-0.070199765,-0.009236013,0.0125445975,0.37624023400018464,-0.8934982619992726,-0.24516146133469996,0.9011356041009149,0.2913722437571639,0.3210246697523339,-0.2154017394107241,-0.341706118429558,0.9147890572621862,-0.19118175,-0.045057207,0.10022171,-0.10426606,-0.07150383,0.25559178,1.7226373e-07,-0.017313171,-0.017902222,0.013984437,0.9951500580821915,-0.07986737587436414,-0.057424421372393356,0.05131788518219395,0.9195497954609294,-0.3896083268209116,0.08392160960943439,0.3847718492024932,0.9191886571873348,left_images/camera_left_57.png,right_images/camera_right_57.png
2025-05-27 16:04:40,3.1824514865875244,58,-0.26106477,0.06996654,0.11823883,0.58778656,-0.37928355,0.4193849,2.9392977e-05,0.02073859,-0.0050053094,0.016083162,0.7764729587317496,0.5872689790472004,0.2284838957283888,-0.6039389608241302,0.7970213423373754,0.0038355517722473698,-0.17985404070254296,-0.14096852878421778,0.9735401367870669,-0.23035474,0.07284201,0.09420974,-1.2755165,0.052372243,-0.2481793,6.321601e-06,-0.07192336,-0.009492716,0.012920752,0.3720194268149814,-0.8933492304713018,-0.2520490001737475,0.9033640711623079,0.28602834356068446,0.31956398672721525,-0.2133890836132753,-0.3465760221023147,0.9134276982325544,-0.20302749,-0.04654968,0.100361355,-0.100738704,-0.06858908,0.26155013,1.8793486e-07,-0.018470949,-0.017822871,0.014087923,0.9958039507662718,-0.0751539055732483,-0.05221476913069786,0.04911476336305435,0.9203504175189331,-0.3879985167400991,0.07721548845973827,0.3838059398313334,0.9201797481427807,left_images/camera_left_58.png,right_images/camera_right_58.png
2025-05-27 16:04:40,3.233712911605835,59,-0.27706963,0.07074102,0.119801655,0.5928548,-0.39627317,0.4238369,2.136635e-06,0.018431596,-0.005030666,0.01621895,0.7687107940470781,0.5963859016492137,0.23110078197523565,-0.6125241596332645,0.7904481762949116,-0.002415462194200982,-0.18411373925124114,-0.13969802040867652,0.9729268184775375,-0.25148433,0.07609826,0.09339407,-1.27868,0.07473529,-0.23527826,4.6546785e-07,-0.07368688,-0.00974913,0.013274929,0.36706219652836714,-0.8938780555079487,-0.2573856362758018,0.9058872399618004,0.2806683300492352,0.3171649365578824,-0.21126678005347269,-0.34958162192641434,0.9127754582903376,-0.21633755,-0.04837637,0.100542456,-0.0961397,-0.065826595,0.26814142,2.0964265e-07,-0.019778362,-0.017709222,0.014205424,0.9965345301703487,-0.06913768616845894,-0.04624835704578355,0.045965309553112246,0.9211170354954055,-0.38656253987918004,0.06932618910519432,0.383097099012023,0.9211028673458374,left_images/camera_left_59.png,right_images/camera_right_59.png
2025-05-27 16:04:40,3.286654233932495,60,-0.29130915,0.071541674,0.12121724,0.5962236,-0.41086593,0.42619357,1.4951861e-06,0.016330747,-0.0050631827,0.016375069,0.7619581905178179,0.6035143530443268,0.2349258214251902,-0.6191701464875772,0.7852059138168721,-0.008944417564212506,-0.18986322867096983,-0.13864378304308628,0.9719721476576046,-0.27218145,0.07916143,0.092653744,-1.2825615,0.095126525,-0.22303975,1.00499236e-07,-0.07539911,-0.009978978,0.013598056,0.3609396311079313,-0.8952140625179609,-0.26137016846947014,0.9087043141988395,0.27457780322759334,0.31442566582759457,-0.20971183097786256,-0.35099688352576264,0.9125908917489343,-0.23092316,-0.050119303,0.10077234,-0.09030488,-0.06361654,0.275309,2.3165516e-07,-0.0212211,-0.017594023,0.014320934,0.9973090679605744,-0.061681611551451646,-0.03962324772183901,0.04171280871567121,0.9218885161496653,-0.38520332991865236,0.06028817921168476,0.38251397698356615,0.9219806900686996,left_images/camera_left_60.png,right_images/camera_right_60.png
2025-05-27 16:04:40,3.3429019451141357,61,-0.30430755,0.07255011,0.12245047,0.5998592,-0.42508802,0.42558116,1.7421079e-06,0.014441232,-0.005102156,0.016598739,0.7547032021886086,0.6106407736086815,0.23987688970147053,-0.6257197979146839,0.7798707079656786,-0.01662568358650287,-0.19722528008312606,-0.13754826230709874,0.9706609420556852,-0.29295832,0.08199922,0.09196518,-1.2856201,0.112477675,-0.21488224,9.640455e-08,-0.07714865,-0.010204177,0.013895558,0.3556822369638225,-0.8974223947840524,-0.2610041985265119,0.910326912023205,0.2694165205975213,0.3141968358774809,-0.21164843385838328,-0.3493533795015887,0.9127744281453726,-0.24601196,-0.052489933,0.10103327,-0.08296409,-0.061453287,0.28249335,2.3968718e-07,-0.022720914,-0.01741923,0.014459093,0.9980842682526252,-0.05257618955919542,-0.03261192662290164,0.03605609228474478,0.9226417375334821,-0.3839689862089792,0.05027675084744377,0.3820575459961926,0.9227698954081627,left_images/camera_left_61.png,right_images/camera_right_61.png
2025-05-27 16:04:40,3.394946813583374,62,-0.31556964,0.07312905,0.123456836,0.6005796,-0.4358059,0.42650196,1.599666e-06,0.012830177,-0.0051109195,0.016869385,0.7499314446854327,0.6148407616049918,0.2440771725111005,-0.6294108064586106,0.7767392544210641,-0.02276328962454948,-0.2035801193268666,-0.13655390331441786,0.9694886108172986,-0.3124211,0.08462462,0.09133987,-1.2860912,0.12802163,-0.20892672,1.0889426e-07,-0.078786805,-0.010422384,0.014188031,0.3530231053302134,-0.8990733928527498,-0.25892416142040203,0.9107155764267659,0.2667878518818979,0.31531156170033803,-0.21441041475795117,-0.3471185335767709,0.9129824191575847,-0.26007515,-0.05479212,0.1012906,-0.07675906,-0.059831895,0.28919268,2.2327109e-07,-0.024125926,-0.017240224,0.01460168,0.9986670093460244,-0.04460230747697451,-0.025977656006601776,0.031256267870708274,0.9230918694239499,-0.38330724793850707,0.04107615077709252,0.3819843383846084,0.9232554982593989,left_images/camera_left_62.png,right_images/camera_right_62.png
2025-05-27 16:04:40,3.4470012187957764,63,-0.32519713,0.07323258,0.124265924,0.5994831,-0.44377163,0.42844045,1.395621e-06,0.0114766555,-0.005077469,0.017159425,0.7468780241564995,0.617149441774239,0.2475879309454101,-0.6312657605717277,0.7750719824935567,-0.02769406946092727,-0.208989847987605,-0.13560969165680442,0.9684695426118805,-0.32838336,0.08741077,0.09078241,-1.2854037,0.14237022,-0.2033236,1.01039134e-07,-0.080100365,-0.010656829,0.01451175,0.3519136029687564,-0.899594570534006,-0.25862409924692964,0.9107121678106416,0.2652353199598039,0.31662844541743634,-0.21624098466107317,-0.346957971102492,0.9126116385633332,-0.27451536,-0.056741297,0.10154755,-0.07074379,-0.058894068,0.2955285,2.3819968e-07,-0.025575614,-0.01709177,0.014766978,0.9991552727176471,-0.0366817672513277,-0.018525359695389966,0.026801836976778237,0.9234080385062287,-0.3828828227496628,0.031151284647576882,0.38206287751284984,0.9236111492892487,left_images/camera_left_63.png,right_images/camera_right_63.png
2025-05-27 16:04:40,3.4962494373321533,64,-0.3333977,0.07282682,0.12495017,0.59879017,-0.44998324,0.43053496,1.1922532e-06,0.0103216665,-0.0049994355,0.017423103,0.7441527177879157,0.6192520127287846,0.2505267996446852,-0.6330533012673303,0.7734683583634763,-0.03146770352352122,-0.21326099119012334,-0.1351800404714343,0.9675981119735341,-0.3408397,0.08982251,0.090317264,-1.2848645,0.15530904,-0.19956334,1.0359697e-07,-0.08109478,-0.010869955,0.014824929,0.3514646524350224,-0.8994541960622591,-0.25972051762370346,0.9103845832442263,0.26365809138117374,0.3188797915209951,-0.2183403505538212,-0.3485205302923089,0.9115157328783757,-0.2880955,-0.05882577,0.101801686,-0.06396718,-0.057521112,0.3006637,2.3403743e-07,-0.02694968,-0.016939644,0.014933814,0.999543164084698,-0.02823908591285318,-0.010771126141540719,0.021988648747853425,0.9239571030448857,-0.38186355031496033,0.020735536110600295,0.3814522588210866,0.9241559455971144,left_images/camera_left_64.png,right_images/camera_right_64.png
2025-05-27 16:04:40,3.557300567626953,65,-0.34020424,0.071722455,0.12556809,0.5970173,-0.45373762,0.4334198,1.0028207e-06,0.009310056,-0.004858413,0.017621752,0.7426138071283236,0.6200984884658371,0.252987347637705,-0.6336857713880966,0.7728346197554634,-0.03419054909914705,-0.21671888843072704,-0.13492410870490218,0.9668652482572418,-0.35020912,0.091534555,0.08997664,-1.2844249,0.16504325,-0.19676943,9.445255e-08,-0.08183458,-0.011020314,0.015059537,0.35108599686097053,-0.8993619210229682,-0.26055087376943253,0.9101635078860739,0.2624510245735999,0.32050249392599783,-0.21986589485560337,-0.3496678348292045,0.9107092804870283,-0.30220047,-0.06171589,0.102051586,-0.057240218,-0.05629317,0.3059085,2.4478365e-07,-0.02837421,-0.016715368,0.01516596,0.9998061119286251,-0.019519307617228088,-0.0025952225934525327,0.017052008138064505,0.9241654275491602,-0.38161170257388255,0.009847211210537065,0.3814934588600728,0.9243190862891196,left_images/camera_left_65.png,right_images/camera_right_65.png
2025-05-27 16:04:40,3.6080820560455322,66,-0.3460376,0.07041673,0.12616038,0.59603196,-0.45645797,0.43619853,8.369863e-07,0.008391179,-0.004708023,0.017757893,0.7410940808827318,0.6210553291907963,0.2550879090907502,-0.6345872104731767,0.772013928510029,-0.0359661853743783,-0.21926840990998087,-0.1352211975624516,0.9662487216784947,-0.35724708,0.09270359,0.089745976,-1.2841738,0.17241223,-0.19476683,7.244906e-08,-0.08238131,-0.011125234,0.015215617,0.3507104301585147,-0.8993127757005464,-0.26122543069121007,0.9100306008376884,0.26144529578782655,0.3216996469525751,-0.2210124424484403,-0.35054655721058575,0.9100937377604464,-0.31773314,-0.065275475,0.102321886,-0.053104766,-0.054420438,0.31241047,2.6458846e-07,-0.02993758,-0.016438775,0.015463777,0.999897242977571,-0.01307141661462672,0.005885707564847515,0.01432848877474422,0.9240363082032652,-0.3820361180981609,-0.0004448542278899319,0.3820811944989792,0.9241286506298508,left_images/camera_left_66.png,right_images/camera_right_66.png
2025-05-27 16:04:40,3.657484769821167,67,-0.3512337,0.06915408,0.1267327,0.5953383,-0.45873514,0.438212,8.009796e-07,0.0075328285,-0.004564079,0.01785779,0.7395220289117093,0.621990386903129,0.2573618607222232,-0.6354960432482127,0.7711827235307828,-0.03770922889041986,-0.22192779855208497,-0.13566563871423112,0.9655790421825057,-0.36231324,0.09364658,0.08958025,-1.283703,0.17702046,-0.19452804,7.964836e-08,-0.0827895,-0.011216888,0.015329381,0.3508959685529185,-0.899420024634082,-0.26060629029349286,0.9094687714759846,0.2610530896410608,0.32360135676294577,-0.2230214630103396,-0.3505636941785092,0.9095969015781904,-0.3330545,-0.06847354,0.10258587,-0.050029714,-0.05367259,0.318675,2.6215068e-07,-0.031482514,-0.016182002,0.015782699,0.9998676592117396,-0.007386255945424311,0.014495077976509018,0.012379726632406505,0.9235185897892064,-0.3833538270087598,-0.010554924487805577,0.3834825387639755,0.923487810440502,left_images/camera_left_67.png,right_images/camera_right_67.png
2025-05-27 16:04:40,3.711479663848877,68,-0.3561596,0.06809924,0.12731919,0.5931929,-0.45974547,0.44119528,6.813382e-07,0.006675133,-0.004457884,0.017935988,0.739247593664607,0.6214255934255798,0.25950573615385547,-0.6350124606339006,0.7715361542187389,-0.03861525052408225,-0.22421456264205358,-0.13624314503498774,0.964969240613507,-0.36619037,0.09461214,0.0894413,-1.2830988,0.179765,-0.19526717,9.168106e-08,-0.08311961,-0.011312972,0.015429551,0.35138834826345394,-0.8996767017652749,-0.25905223605566174,0.9086351233739423,0.26103325812223027,0.32595068756686774,-0.22562899032682465,-0.3499192341881906,0.9092018963185504,-0.35041746,-0.071503356,0.102843575,-0.047969133,-0.05245117,0.3262098,2.909767e-07,-0.033217117,-0.015972309,0.016189102,0.999710638757585,-0.002560072776703869,0.023918293883120972,0.011559384908002998,0.9231186909716911,-0.38434133657370256,-0.021095482346938525,0.38450660385237784,0.9228811690669935,left_images/camera_left_68.png,right_images/camera_right_68.png
2025-05-27 16:04:40,3.765904664993286,69,-0.36203367,0.06748923,0.12801892,0.594676,-0.4625992,0.44270545,7.584278e-07,0.00566848,-0.0044089807,0.018027786,0.7366836861993431,0.6232944398948244,0.262299804963605,-0.6372234521841027,0.7696773640408344,-0.039281385791845175,-0.2263700918282331,-0.1382056311419702,0.9641865924427322,-0.3692118,0.09605003,0.08926712,-1.2819859,0.17977639,-0.19800404,1.4825333e-07,-0.08343137,-0.011453004,0.015572252,0.3526256622015988,-0.9003453419366904,-0.2550164849765367,0.9069887098960835,0.26178256339674427,0.32991115413466693,-0.23027510173251972,-0.34763221190553356,0.9089143099147159,-0.3672499,-0.075020276,0.10309739,-0.043936715,-0.05104751,0.33365744,2.8218957e-07,-0.034892756,-0.015725762,0.016625354,0.9994538739669462,0.004178784440961517,0.032779438266380904,0.008766218434538878,0.922901006045537,-0.38493750980450486,-0.03186074743036405,0.3850146371253063,0.9223603536430037,left_images/camera_left_69.png,right_images/camera_right_69.png
2025-05-27 16:04:40,3.8161118030548096,70,-0.36831585,0.06705969,0.12879504,0.59455425,-0.46445265,0.44546056,7.4893387e-07,0.0045584524,-0.0043966225,0.018124716,0.7353198446295178,0.6236431429491927,0.26528090083244693,-0.6380501314735285,0.768994744296478,-0.03923153031691916,-0.22846609337193685,-0.14041479087634362,0.9633726852482989,-0.37180883,0.09805862,0.08900835,-1.2807515,0.17765363,-0.20166545,1.826677e-07,-0.08375632,-0.011634382,0.015801316,0.35396865197513294,-0.9014763971494615,-0.2490913462995723,0.9049259798875584,0.26284069942944566,0.3346994736296756,-0.2362523319322994,-0.3438823521291345,0.9088067800972242,-0.3853459,-0.07894363,0.10334835,-0.037344776,-0.050713263,0.34344965,2.7615363e-07,-0.036663517,-0.0154480655,0.017154947,0.9990847508562557,0.014024756139433077,0.040409984183649356,0.0026597182650949184,0.9225239063222653,-0.3859307815692583,-0.04269176156173082,0.38568503792490794,0.9216422652068527,left_images/camera_left_70.png,right_images/camera_right_70.png
2025-05-27 16:04:40,3.865799903869629,71,-0.37507007,0.066700056,0.12963772,0.5930156,-0.4655405,0.44938496,7.4972536e-07,0.0033484143,-0.0044032075,0.018240344,0.7349329904611156,0.6227577456063257,0.2684143994259781,-0.637739165670672,0.7692809814352154,-0.03867205931608407,-0.230569417099399,-0.1427570029434585,0.9625269772889716,-0.37447727,0.10059472,0.08864497,-1.2799361,0.17508072,-0.20532477,1.9577782e-07,-0.08410924,-0.01184794,0.016137583,0.35484906739378635,-0.9028533848749483,-0.24277130141268471,0.9028379479061448,0.26347224714018097,0.33980290582560474,-0.24282870339064427,-0.33976188780784683,0.9086231784424534,-0.40229955,-0.08271516,0.10358319,-0.02978546,-0.04933647,0.353383,2.531352e-07,-0.038310032,-0.015208023,0.017675199,0.9986130162962219,0.024168214966277836,0.046775432324087145,-0.0042779591795548706,0.9227272509725859,-0.38542978527590765,-0.052476115986413614,0.38469509705469085,0.9215508339495235,left_images/camera_left_71.png,right_images/camera_right_71.png
2025-05-27 16:04:40,3.9138541221618652,72,-0.38246983,0.066446096,0.13056739,0.5930777,-0.46717358,0.45319077,7.600873e-07,0.0020218848,-0.0044331206,0.018372495,0.7336542451655942,0.6227926103252863,0.2718102519676512,-0.638581221079553,0.7686381540037698,-0.03754214024564754,-0.23230469783249982,-0.14602997203962226,0.9616183102619551,-0.37771395,0.10354136,0.088191174,-1.2799675,0.17325138,-0.20742865,1.7488401e-07,-0.08450466,-0.012075808,0.016561612,0.3545823072879354,-0.9044047398076223,-0.23732562856099468,0.9013571609566928,0.26312380251511946,0.3439783902254255,-0.2486496646900109,-0.3358838060453219,0.908490733626961,-0.41895714,-0.08680683,0.10381806,-0.02021665,-0.046740077,0.36372074,2.3501691e-07,-0.03991727,-0.014966594,0.018213093,0.9979851605106167,0.03571232448382861,0.05244281915153053,-0.012904894053387066,0.9235256511666243,-0.38331949513001967,-0.06212151889699138,0.3818703988491698,0.9221257589790595,left_images/camera_left_72.png,right_images/camera_right_72.png
2025-05-27 16:04:40,3.9688546657562256,73,-0.3903049,0.06640076,0.13156335,0.59281915,-0.46900988,0.45671025,8.9787926e-07,0.00060202996,-0.0044875853,0.0185242,0.7323600061666449,0.6225817861635732,0.2757548565392215,-0.6391880918903883,0.7681718647683061,-0.03675009338637925,-0.23470706114882064,-0.14934492196173932,0.9605252155623639,-0.38112056,0.10669865,0.087701425,-1.2802223,0.17017089,-0.21037868,1.98629e-07,-0.08494056,-0.012316314,0.01701795,0.35401151584959617,-0.9064265474127271,-0.23036223820607893,0.8996342348653357,0.2627232777563973,0.3487616991345194,-0.25560534052349765,-0.330707413691284,0.9084594192507933,-0.43346637,-0.090439625,0.10404272,-0.010685691,-0.044247426,0.37332362,2.1107833e-07,-0.041315727,-0.014757074,0.018685993,0.9972903003635162,0.04671007479356699,0.05683507467776634,-0.02159827369009904,0.9244241608355384,-0.38075383837476756,-0.0703247564834424,0.378494570339246,0.9229281060024417,left_images/camera_left_73.png,right_images/camera_right_73.png
2025-05-27 16:04:40,4.020068645477295,74,-0.39869565,0.06654588,0.13261716,0.5952079,-0.4723958,0.4588427,1.0124795e-06,-0.00089918263,-0.00456287,0.018705657,0.7292244142700846,0.6242951135937636,0.28015596508980906,-0.6418548270030451,0.7659721182792055,-0.036181418874307626,-0.23717954103451558,-0.153435084520513,0.9592724014339409,-0.38545775,0.11003018,0.08724886,-1.2809795,0.16901392,-0.21073648,1.6292203e-07,-0.08540838,-0.012559418,0.01743422,0.35248245700430114,-0.908294899039094,-0.22529201913022337,0.8987919498868286,0.26153067940289176,0.35181633638831267,-0.26063220891294986,-0.32649973983239833,0.9085531198375429,-0.44561124,-0.09391041,0.104259394,-0.00063357205,-0.041361723,0.38319212,1.7083522e-07,-0.042477287,-0.014554224,0.019080164,0.9966128232297383,0.057554669841968185,0.05873959953415235,-0.03120788962210514,0.9255355512148483,-0.3773725096807684,-0.0760851378350927,0.3742611433435339,0.9241967584793868,left_images/camera_left_74.png,right_images/camera_right_74.png
2025-05-27 16:04:41,4.068479776382446,75,-0.40722016,0.066633195,0.13369583,0.5966013,-0.4753461,0.46108642,1.1223094e-06,-0.002442856,-0.004631242,0.01890887,0.7265355743642918,0.6252705093556078,0.284926041830731,-0.6437726643192275,0.7643760009238991,-0.035862039636794074,-0.24021410420387893,-0.15737254951790813,0.9578784185896255,-0.39041078,0.11350063,0.08687289,-1.282257,0.16854641,-0.21075585,1.480025e-07,-0.08590205,-0.012819807,0.017774308,0.35034884336432004,-0.9102897854567643,-0.2205180138817709,0.8981374120605926,0.2597166915196579,0.35481886816118413,-0.2657157823885968,-0.3223658583646236,0.9085567546116506,-0.4548804,-0.09687709,0.10446041,0.008349659,-0.03845072,0.39103854,1.3207458e-07,-0.04337471,-0.014375314,0.01936664,0.9959648619906941,0.0667690167867868,0.05996575753864565,-0.03961271323428822,0.9266430359100863,-0.37384959134598056,-0.0805284212565719,0.36996565029292167,0.9255488052897372,left_images/camera_left_75.png,right_images/camera_right_75.png
2025-05-27 16:04:41,4.118004322052002,76,-0.41563374,0.06669188,0.13477892,0.5972986,-0.47806153,0.46254206,1.3117686e-06,-0.0039942786,-0.0046892506,0.01912318,0.7239347698612753,0.6257942552794182,0.2903446211748737,-0.6451583865318293,0.7631852667125385,-0.03631673113811487,-0.2443135388666564,-0.16102732293679173,0.9562327624560147,-0.39600998,0.117248625,0.08656161,-1.2822039,0.16984423,-0.20873311,1.21695e-07,-0.086408444,-0.013103466,0.018054422,0.34914170460403043,-0.9115722519509737,-0.21710849725246217,0.8976064011329004,0.25880903991339027,0.3568201640943962,-0.2690777187940961,-0.31945877720316207,0.9085941178086208,-0.46169615,-0.09912574,0.10462654,0.016308302,-0.03561399,0.3972053,9.6817956e-08,-0.044039123,-0.014248965,0.019563453,0.9953855041929047,0.074425839841889,0.06056808075600872,-0.04685034031564535,0.9277981919981563,-0.37012911333379417,-0.08374212592802455,0.36558351889654694,0.9270037470562205,left_images/camera_left_76.png,right_images/camera_right_76.png
2025-05-27 16:04:41,4.171665191650391,77,-0.42379966,0.06663114,0.13586052,0.59920573,-0.48111847,0.46264118,1.4355551e-06,-0.0055290256,-0.0047283038,0.019329961,0.7203730066853007,0.6271605192168032,0.2961965806265994,-0.6474152396743144,0.761226981554534,-0.037242314520225056,-0.24882973832850025,-0.16493382215022806,0.9544006473354296,-0.40188792,0.121297374,0.08627939,-1.2872486,0.16972846,-0.20803878,1.3814801e-07,-0.08694619,-0.013407125,0.0183051,0.3431992089393806,-0.9148022474838307,-0.21295809677473077,0.8981447632121013,0.2532791138633119,0.3594240876670534,-0.2748641251565246,-0.31462126196293166,0.9085500394710193,-0.46672264,-0.10079772,0.104754075,0.022921635,-0.033392716,0.4013813,7.118525e-08,-0.044535253,-0.014158143,0.019706935,0.9948476010358672,0.08064409576943792,0.06143924259550713,-0.052621797877518216,0.9287405553792372,-0.36697673929283825,-0.08665562359891868,0.3618528853158365,0.9281989508113476,left_images/camera_left_77.png,right_images/camera_right_77.png
2025-05-27 16:04:41,4.222668647766113,78,-0.43159986,0.066449314,0.13694504,0.60198814,-0.48432747,0.46095207,1.6480035e-06,-0.0070463223,-0.004745113,0.01951613,0.7159121962674232,0.629113372132352,0.3027971139885841,-0.650242913071459,0.7587250069290812,-0.03899381823839343,-0.2542712748933659,-0.16897552741366662,0.9522569978211637,-0.40814185,0.1255797,0.085979305,-1.294546,0.17004523,-0.2058051,1.0902949e-07,-0.08749774,-0.0137099605,0.01857474,0.3347947387329964,-0.9186138941666081,-0.20990711364973896,0.8997812037449587,0.2455042083420898,0.3607235355138296,-0.2798325719139535,-0.3096388172215873,0.9087450327598159,-0.47062272,-0.10218647,0.10483452,0.028178051,-0.031217191,0.40348104,6.447191e-08,-0.04492272,-0.014092624,0.019836862,0.9943336197648976,0.08539177277533405,0.06331585699903308,-0.056640614552258606,0.9295943013881188,-0.36420636404362594,-0.08995828693555008,0.3585563832495824,0.929163509099771,left_images/camera_left_78.png,right_images/camera_right_78.png
2025-05-27 16:04:41,4.273298978805542,79,-0.43877786,0.06597416,0.13801429,0.6043508,-0.48637146,0.4598396,1.528459e-06,-0.008512637,-0.004735677,0.019664548,0.7120617880026904,0.6304419365290489,0.30904849899637804,-0.6525572829948757,0.7566795534153863,-0.04006302351841666,-0.2591080903344342,-0.17314450065940346,0.9502020729374613,-0.4141302,0.12974752,0.08563031,-1.3017838,0.16896218,-0.20507027,1.2918456e-07,-0.08805627,-0.013999891,0.018894799,0.32648329516595087,-0.9226366104775633,-0.20530548697990514,0.9009042234531889,0.23803615320692062,0.36291923334353376,-0.2859724429762237,-0.3034476474994077,0.9089220467593939,-0.47388247,-0.10345769,0.104866356,0.032382887,-0.029763548,0.40478712,5.7458784e-08,-0.045233816,-0.0140318135,0.019983456,0.9938527453801859,0.08938677260860155,0.0653201759250957,-0.05983670525118902,0.9301087543725167,-0.36237725334834076,-0.09314660060866214,0.35624108398979387,0.9297397490012067,left_images/camera_left_79.png,right_images/camera_right_79.png
2025-05-27 16:04:41,4.3221330642700195,80,-0.4454341,0.06529942,0.1390669,0.60834396,-0.488294,0.45906585,1.311431e-06,-0.009919335,-0.0047135768,0.01977529,0.7077693769792376,0.6325922548811336,0.3144670858370154,-0.6559271606899351,0.7537634180897598,-0.04000336759426751,-0.2623396060065311,-0.17795434418424547,0.9484251064297555,-0.42043284,0.13386753,0.08523507,-1.3081139,0.1693689,-0.20336239,1.12712925e-07,-0.08861681,-0.014277115,0.019266,0.3189236878738291,-0.9260367948753873,-0.20185028077730496,0.9020040973764082,0.23116942299189513,0.3646221416614269,-0.2909919064667054,-0.2983564184168235,0.9090143882031559,-0.47745678,-0.10518873,0.104833856,0.034758214,-0.02881714,0.40633824,5.9853285e-08,-0.04554039,-0.013935949,0.020221189,0.9934597810300124,0.09221679892892398,0.06733294491630365,-0.06180106320132592,0.930119831306391,-0.36201896082630297,-0.09601193708589206,0.35549002996690776,0.9297357401601498,left_images/camera_left_80.png,right_images/camera_right_80.png
2025-05-27 16:04:41,4.3758790493011475,81,-0.4515837,0.06462039,0.14008728,0.61364233,-0.4904091,0.45758736,1.1949702e-06,-0.011258123,-0.004690948,0.019859347,0.7028469915050669,0.6354674838767264,0.3196673012174669,-0.66011971065133,0.7501080383969007,-0.039747935065335,-0.2650435325411292,-0.18308196980515637,0.9466957896760623,-0.4267322,0.13784003,0.084832534,-1.3137301,0.17039166,-0.20198053,1.1846873e-07,-0.08916532,-0.014544065,0.019651335,0.3121285512161778,-0.9290333771096508,-0.19867750685955052,0.9027604102412286,0.22488698356490533,0.3666735418927393,-0.2959719737015286,-0.29380746899851756,0.9088882010147928,-0.48145467,-0.10695709,0.10477469,0.035322785,-0.027721602,0.40875274,5.692317e-08,-0.04586685,-0.013847419,0.02050284,0.9932379242941913,0.09343491961149998,0.06890821098359011,-0.06236229838068426,0.930025080825785,-0.36216611213042904,-0.09792532606248976,0.3554198430478869,0.9295629971569278,left_images/camera_left_81.png,right_images/camera_right_81.png
2025-05-27 16:04:41,4.424700021743774,82,-0.4573928,0.0639792,0.1410819,0.6183142,-0.49204367,0.45629984,1.1440745e-06,-0.012555138,-0.0046735653,0.01993588,0.6984304146128151,0.6377698590454666,0.3247222857102622,-0.6637399183660975,0.7469255848307167,-0.03938897679120747,-0.2676644853377782,-0.18802068401752442,0.9449888600774322,-0.43241292,0.14145273,0.0844877,-1.318336,0.17306948,-0.20072433,1.11538384e-07,-0.08962523,-0.014794522,0.019993857,0.30669964629221647,-0.9311309467325481,-0.19730810171196225,0.9032033030986564,0.21932011116092465,0.36894780404826427,-0.30026508327793633,-0.2913654901962626,0.9082659472240417,-0.48699024,-0.10868079,0.10470423,0.03478263,-0.026450047,0.41313285,6.729964e-08,-0.046315756,-0.013786384,0.020860761,0.9931287985685484,0.09373555415684226,0.07006308115335155,-0.06220721723524172,0.9299508989594237,-0.3623832055275285,-0.0991234158896821,0.3555347682174969,0.9293920469914145,left_images/camera_left_82.png,right_images/camera_right_82.png
2025-05-27 16:04:41,4.476089000701904,83,-0.4625934,0.06352358,0.14199355,0.62331855,-0.49391016,0.45443577,1.09375e-06,-0.013733679,-0.0046719583,0.020001013,0.6938899079024852,0.640304446154187,0.32943438185207746,-0.6675182302949748,0.7435598072601763,-0.03922021482697827,-0.2700670434076426,-0.1926889443180101,0.9433635369266002,-0.43698496,0.14444087,0.08422646,-1.3217264,0.17492698,-0.20008709,1.0490028e-07,-0.089998126,-0.015005813,0.020256877,0.3026124108132403,-0.9327963199205452,-0.19574665862917337,0.9033064804229919,0.21516272117018687,0.37113664039605043,-0.30407750861848604,-0.289129778752255,0.9077118704693943,-0.49300742,-0.11012014,0.1046557,0.034517907,-0.024869308,0.41767767,7.4796894e-08,-0.04681898,-0.013759234,0.021211552,0.9929909996803636,0.09405372164803354,0.07157354258345966,-0.062008650569397625,0.9301242884248982,-0.3619720090513065,-0.10061710494918064,0.35499676833209487,0.9294371913504509,left_images/camera_left_83.png,right_images/camera_right_83.png
2025-05-27 16:04:41,4.526220083236694,84,-0.46771523,0.06316158,0.14286256,0.6277928,-0.49572402,0.4519419,1.207415e-06,-0.014877849,-0.0046728607,0.02009412,0.6893934296670199,0.6424977050864292,0.33456449018181206,-0.6708751765721753,0.7405076126760309,-0.03968592985049112,-0.2732456707638686,-0.1970917921363482,0.9415368441443417,-0.44108617,0.14694197,0.08403243,-1.324397,0.17691848,-0.19913243,8.687864e-08,-0.09032137,-0.01518365,0.020452792,0.2992361982377883,-0.9341073180533502,-0.194682346460516,0.9034760179420781,0.21175072588299776,0.37268312960415784,-0.30690191049864946,-0.2874111139938761,0.9073070422327153,-0.49990168,-0.111679375,0.104682796,0.03591101,-0.023104902,0.42314503,8.2968995e-08,-0.047430202,-0.013715784,0.021543907,0.9927071353847075,0.09587867558044222,0.07307409202466045,-0.06331117416143806,0.9304927564008688,-0.3607976240384818,-0.102587711654897,0.35353996924598774,0.9297769902309683,left_images/camera_left_84.png,right_images/camera_right_84.png
2025-05-27 16:04:41,4.579515695571899,85,-0.47252825,0.062740944,0.14367045,0.6324748,-0.49740764,0.45008665,1.0578048e-06,-0.015943617,-0.0046683233,0.02019184,0.6851051818645095,0.6447557118347687,0.33899994371509545,-0.6743494301844981,0.7373518134714206,-0.03956196633447166,-0.27547002703060064,-0.20150031073635583,0.9399541951504403,-0.44476312,0.14897664,0.08388888,-1.3265601,0.17854796,-0.19874407,7.639038e-08,-0.09061145,-0.015332635,0.020597093,0.2964516929922488,-0.9352604856671051,-0.1934017002814618,0.9034612681437261,0.20897468956574727,0.37428240151659575,-0.3096354803412555,-0.28568759698424173,0.9069225249398152,-0.5066843,-0.11344142,0.10478856,0.038155004,-0.021240411,0.4282983,8.6335156e-08,-0.048068494,-0.013630499,0.02181761,0.9923252852885652,0.09846632643532546,0.07479913592615697,-0.06528178741510388,0.9309026230411965,-0.35938641411009004,-0.10501817180305972,0.35174520462026465,0.9301862687751261,left_images/camera_left_85.png,right_images/camera_right_85.png
2025-05-27 16:04:41,4.629856109619141,86,-0.47686952,0.062150992,0.14438404,0.6376064,-0.49903703,0.448446,8.983894e-07,-0.016890407,-0.004638938,0.020291233,0.6807671751680355,0.6473257007314128,0.34281990955357095,-0.6781393968077396,0.7338913122608542,-0.03912160893005941,-0.2769169762058085,-0.20584697947899727,0.938586175760332,-0.44786966,0.15069608,0.08378135,-1.3281517,0.1807067,-0.19855374,6.811367e-08,-0.09084237,-0.015464573,0.02071112,0.2944770613500252,-0.9359784692199986,-0.19294446220413142,0.903297578598377,0.2066984494195207,0.37593780802929955,-0.3119883729195082,-0.28499132647179604,0.9063350368373077,-0.51406264,-0.115656324,0.10495339,0.04017241,-0.019954475,0.43261856,1.1004969e-07,-0.048794504,-0.013478082,0.0220984,0.9917936782991976,0.10139573358745534,0.07787300492474666,-0.06699060246104448,0.9309464796243617,-0.35895809122641936,-0.10889241877951897,0.35079560613734867,0.9300993946063378,left_images/camera_left_86.png,right_images/camera_right_86.png
2025-05-27 16:04:41,4.678105115890503,87,-0.4804658,0.06143509,0.14498006,0.6412897,-0.5014862,0.44775316,7.635385e-07,-0.0176654,-0.004566757,0.020371545,0.6771511620110522,0.6499985441220429,0.34491766615571645,-0.681394718594761,0.7308467030654143,-0.039551663550103824,-0.277790462864095,-0.20824262113611314,0.9377992692917355,-0.45029444,0.15205862,0.08370293,-1.329322,0.18240146,-0.19831039,5.855098e-08,-0.09102142,-0.015569354,0.020795189,0.29297909478648015,-0.9365170767576041,-0.1926110457878421,0.9031772586187785,0.20497818053265165,0.37716678673948933,-0.3137420748512422,-0.2844639000768203,0.9058952478190412,-0.5212652,-0.11788335,0.10513229,0.04165713,-0.01874581,0.43667328,1.1184993e-07,-0.04951225,-0.01331502,0.022367686,0.9912837532931565,0.10388342048121996,0.08102317820324377,-0.06822853118295313,0.9309113259464132,-0.3588160681425899,-0.11270043473584891,0.3501604463296975,0.9298850863609642,left_images/camera_left_87.png,right_images/camera_right_87.png
2025-05-27 16:04:41,4.731173515319824,88,-0.48301935,0.060483586,0.14542605,0.643763,-0.5026848,0.44746524,6.213426e-07,-0.018242521,-0.004459391,0.020420223,0.6745939264695899,0.6517720895015946,0.34657780903725904,-0.683637426495975,0.7287360337797769,-0.039795253044552684,-0.2785011731829899,-0.2100879254446696,0.9371766963161499,-0.4520649,0.1530564,0.08364724,-1.3301287,0.18364863,-0.19815281,4.5264166e-08,-0.0911517,-0.015646234,0.020855855,0.29193089336677946,-0.9368958177067473,-0.19236054757064702,0.9030668789826645,0.20376194759645883,0.3780889852881296,-0.31503422922372026,-0.2840902945813234,0.9055639894243329,-0.5283411,-0.120013766,0.10533008,0.042911142,-0.017573725,0.44072002,1.09512655e-07,-0.05022728,-0.013153415,0.02261858,0.9907935334399789,0.10612618348897751,0.08405597701285324,-0.06927747741708787,0.930878474611129,-0.3587002880238353,-0.11631339224803956,0.3495747397677947,0.9296605273431976,left_images/camera_left_88.png,right_images/camera_right_88.png
2025-05-27 16:04:41,4.796122789382935,89,-0.4848178,0.05972524,0.14573902,0.645692,-0.5036001,0.44716063,4.8490534e-07,-0.018647723,-0.0043704836,0.020455286,0.6726186981041602,0.6531853514914135,0.3477541999138227,-0.6853783515336599,0.7270856045464825,-0.04003796835852949,-0.27899928711318833,-0.21141291412379296,0.9367304721914507,-0.45307603,0.15372212,0.08361119,-1.3319831,0.18404533,-0.19848564,3.558163e-08,-0.09122938,-0.015696285,0.020895299,0.29005086184089557,-0.9375268218678734,-0.19213004924706203,0.9031924565288092,0.2017906467152668,0.37884551121491367,-0.3164077812172271,-0.28341487818489547,0.9052967042956868,-0.5359569,-0.12227566,0.105582215,0.04491535,-0.016207509,0.44534892,1.1549341e-07,-0.05101423,-0.012974305,0.022861267,0.9902164787733821,0.1090285896436811,0.08708669132510452,-0.07100420627291747,0.9309553295181473,-0.3581627802177538,-0.12012380220920926,0.3484751656604353,0.9295887967594786,left_images/camera_left_89.png,right_images/camera_right_89.png
2025-05-27 16:04:41,4.855935335159302,90,-0.48617092,0.059422415,0.14595908,0.6472575,-0.5045967,0.44675955,3.5484868e-07,-0.018936057,-0.004337357,0.02049053,0.6710990645540842,0.6543111968457632,0.3485726656479218,-0.6867306079015537,0.7257964266887545,-0.04025691464826585,-0.2793333451734602,-0.2123591408159775,0.9364168289742043,-0.45366877,0.15407205,0.083588585,-1.3332435,0.1842665,-0.19891214,2.6366212e-08,-0.09127529,-0.015723167,0.020920018,0.28882496663266505,-0.9379399665356747,-0.19196030273131318,0.9032359958879104,0.20048244251819675,0.3794357995423111,-0.3174033307670462,-0.282975987350509,0.9050854745276768,-0.5438113,-0.12432648,0.105852194,0.046563864,-0.015474413,0.44972384,1.2537926e-07,-0.051834967,-0.012802887,0.023105338,0.9895903565198166,0.11185529465858034,0.09055009298628383,-0.07244899630783543,0.9308632188261496,-0.35811284641940355,-0.12434656897948462,0.34782475601006646,0.9292770684190848,left_images/camera_left_90.png,right_images/camera_right_90.png
2025-05-27 16:04:41,4.911224365234375,91,-0.487184,0.059391133,0.14611518,0.6485084,-0.5055289,0.446346,2.4605504e-07,-0.019142278,-0.004337586,0.020521488,0.6699543116438916,0.6551755368376493,0.34915073569914984,-0.6877598932186524,0.7248122595323614,-0.04041679986664902,-0.2795488322093787,-0.21305446336815143,0.9361945556609919,-0.45411512,0.15434964,0.08357005,-1.3341997,0.18442857,-0.19917172,1.7075225e-08,-0.09130993,-0.015744,0.020940222,0.2878826336011525,-0.9382526138642073,-0.19184791332679946,0.9032882959228052,0.19948833701571633,0.3798350403051023,-0.3181097982139803,-0.28264188644234356,0.9049418325553164,-0.5516946,-0.12647524,0.106143266,0.048551895,-0.0143930325,0.45475033,1.2005883e-07,-0.052663278,-0.012623437,0.023342708,0.9889791752144448,0.11483964706679015,0.09344541965089388,-0.07430261814294611,0.9308973901261457,-0.3576439150795578,-0.12805979825558106,0.34675914482231823,0.9291710195399092,left_images/camera_left_91.png,right_images/camera_right_91.png
2025-05-27 16:04:41,4.975858926773071,92,-0.48785412,0.059374508,0.14622915,0.6494948,-0.5061505,0.44601622,1.6474802e-07,-0.019287523,-0.0043403925,0.020536162,0.6691234612276835,0.6558091419000719,0.3495542347547463,-0.6885306777698851,0.7240774289549171,-0.04046458510574269,-0.2796413764170597,-0.21360301092992223,0.9360419084192994,-0.45443597,0.15455192,0.08355596,-1.3349047,0.18454145,-0.19937171,1.284529e-08,-0.09133476,-0.015758976,0.020955388,0.28719001210875994,-0.9384818856658024,-0.19176456195587904,0.9033241146161899,0.19875670831579073,0.3801332856411661,-0.3186337096068886,-0.28239603604978514,0.9048342599203025,-0.5594445,-0.12847842,0.10645989,0.05139931,-0.013367948,0.46033934,1.1305722e-07,-0.05348886,-0.012451942,0.023553777,0.9883344819134461,0.11847825480329527,0.09569668228128816,-0.07707430247739536,0.9310420409324349,-0.35667950587886216,-0.1313563997622626,0.34514289961569794,0.9293125820122986,left_images/camera_left_92.png,right_images/camera_right_92.png
2025-05-27 16:04:42,5.033052921295166,93,-0.48823506,0.059213214,0.14630888,0.6502132,-0.5063747,0.44581342,1.0790643e-07,-0.019384632,-0.004323397,0.02053639,0.6685381265471226,0.6562465329579951,0.34985319969020484,-0.6890845853465756,0.7235515541991642,-0.040442337391793606,-0.27967697007548037,-0.21404120256760123,0.9359311705530562,-0.45466125,0.15469666,0.08354583,-1.3354234,0.18461674,-0.1995266,9.293667e-09,-0.091352284,-0.015769886,0.020966224,0.2866838777509184,-0.9386489631597502,-0.19170414235697236,0.9033485084771243,0.19822087227779983,0.38035504206672865,-0.3190201035512515,-0.2822173094488608,0.9047538691697288,-0.5672589,-0.13044627,0.106795035,0.053676933,-0.012465442,0.4656912,1.18393196e-07,-0.054332826,-0.012275383,0.02376215,0.9876982373011869,0.12167182231168928,0.09822504613122231,-0.07929675773099075,0.931112482568614,-0.35600782156894367,-0.13477468696116715,0.3438393701428983,0.9293063387786904,left_images/camera_left_93.png,right_images/camera_right_93.png
2025-05-27 16:04:42,5.08293080329895,94,-0.48847786,0.05905409,0.14636618,0.6507491,-0.50648326,0.4456734,7.444533e-08,-0.019452455,-0.004305613,0.020532804,0.6681108779792646,0.6565693731017903,0.35006358426791306,-0.6894956631754243,0.7231616195509462,-0.040410425272871336,-0.279684796133179,-0.21436867847979726,0.9358538798865812,-0.45476148,0.15477641,0.08353825,-1.3357877,0.18461496,-0.19968061,7.0797403e-09,-0.091360845,-0.015775591,0.020974673,0.2863433695690443,-0.9387637387535974,-0.19165103053522362,0.903358094178677,0.19785967944102162,0.38052030291873357,-0.319298650773401,-0.28208897541886263,0.9046956292374924,-0.5751071,-0.13228698,0.10714616,0.056403708,-0.01254038,0.47146216,1.1713225e-07,-0.05518424,-0.012094238,0.023968033,0.9869864753480833,0.1256870057659948,0.10030191454576577,-0.08239160228063322,0.930928007332139,-0.35578739302881834,-0.13809171355876956,0.3428933095675558,0.929168906550478,left_images/camera_left_94.png,right_images/camera_right_94.png
2025-05-27 16:04:42,5.132335424423218,95,-0.4886796,0.058910914,0.14641167,0.6527434,-0.5072357,0.44485804,4.7992156e-08,-0.01949931,-0.004289194,0.02052505,0.6667770395199399,0.6578552354459428,0.35019261666315554,-0.6909326720804114,0.7217912285135397,-0.040366633408522104,-0.27932136012279346,-0.21504397605438413,0.9358074941684718,-0.4548356,0.1547172,0.08353619,-1.3361471,0.18529885,-0.20033967,1.561053e-08,-0.09135634,-0.015777223,0.020980561,0.2862323181104108,-0.9387036317156702,-0.192110780210149,0.9031937758704619,0.19740047590742799,0.3811483377116828,-0.31986256939191665,-0.2826102332105695,0.9043336733676729,-0.5819409,-0.13384478,0.107471064,0.059139527,-0.012815891,0.47665924,1.0685832e-07,-0.055935327,-0.011933688,0.024137866,0.9863165161278374,0.12956618274781379,0.10194279916504911,-0.08551945668376656,0.9307442346139947,-0.355530015978008,-0.14094733960582154,0.3419470339408858,0.9290888404437284,left_images/camera_left_95.png,right_images/camera_right_95.png
2025-05-27 16:04:42,5.182552337646484,96,-0.48878947,0.058814656,0.14644068,0.6542962,-0.5078281,0.44419104,3.5802387e-08,-0.019526612,-0.0042780186,0.020516805,0.6657463815977045,0.6588593889043123,0.3502657006362451,-0.6920436687200099,0.7207271687343197,-0.04034735223977437,-0.2790292385649085,-0.215538056734414,0.9357809733719957,-0.45465025,0.1545773,0.0835341,-1.3364086,0.18557516,-0.20095837,1.2004435e-08,-0.09133689,-0.01577066,0.020985108,0.2862079270612823,-0.9386475311192763,-0.1924209832917689,0.9030625636431544,0.19713051079438015,0.38159870002425406,-0.32025463093222806,-0.2829847593734232,0.9040777606648824,-0.5881442,-0.13541307,0.10775957,0.062472202,-0.012967093,0.48157784,9.21669e-08,-0.056611203,-0.011780486,0.024306687,0.9856097315456368,0.13381264817094374,0.10328423050987426,-0.08915501866857108,0.9306330295763782,-0.3549275234575344,-0.14361350816947674,0.34061171361386144,0.9291710395940482,left_images/camera_left_96.png,right_images/camera_right_96.png
2025-05-27 16:04:42,5.236623287200928,97,-0.4888615,0.058728494,0.14645205,0.6570972,-0.50897884,0.4429015,2.0201925e-08,-0.01952979,-0.004266804,0.0205088,0.663917541108607,0.6606902539687982,0.3502882911530815,-0.6940286870278982,0.718815357277188,-0.04035670606975217,-0.2784558855377866,-0.21631659772914663,0.9357721140086691,-0.45425835,0.15432216,0.08352938,-1.3366109,0.18620993,-0.20200545,1.7610517e-08,-0.09129555,-0.015758958,0.020995663,0.2864487416915236,-0.9384317561226113,-0.19311384591472117,0.9027768426143593,0.19687223616115407,0.3824072372068227,-0.3208443404870829,-0.28387877999163424,0.9035882621237785,-0.5936258,-0.13679288,0.1080092,0.065136954,-0.012584536,0.4860823,8.116279e-08,-0.05720604,-0.011655707,0.024461105,0.9850522611921826,0.1370354820780955,0.10437106577874877,-0.091961308817421,0.930696985130501,-0.35404270865191223,-0.1456542495114882,0.3391524709044884,0.9293871319738751,left_images/camera_left_97.png,right_images/camera_right_97.png
