jiaqis7/OS_Teleop_Extension/rollout_11/teleop_log.csv
Epoch Time (Seconds),Time (Seconds),Frame Number,PSM1_joint_1,PSM1_joint_2,PSM1_joint_3,PSM1_joint_4,PSM1_joint_5,PSM1_joint_6,PSM1_jaw_angle,PSM1_ee_x,PSM1_ee_y,PSM1_ee_z,"PSM1_Orientation_Matrix_[1,1]","PSM1_Orientation_Matrix_[1,2]","PSM1_Orientation_Matrix_[1,3]","PSM1_Orientation_Matrix_[2,1]","PSM1_Orientation_Matrix_[2,2]","PSM1_Orientation_Matrix_[2,3]","PSM1_Orientation_Matrix_[3,1]","PSM1_Orientation_Matrix_[3,2]","PSM1_Orientation_Matrix_[3,3]",PSM2_joint_1,PSM2_joint_2,PSM2_joint_3,PSM2_joint_4,PSM2_joint_5,PSM2_joint_6,PSM2_jaw_angle,PSM2_ee_x,PSM2_ee_y,PSM2_ee_z,"PSM2_Orientation_Matrix_[1,1]","PSM2_Orientation_Matrix_[1,2]","PSM2_Orientation_Matrix_[1,3]","PSM2_Orientation_Matrix_[2,1]","PSM2_Orientation_Matrix_[2,2]","PSM2_Orientation_Matrix_[2,3]","PSM2_Orientation_Matrix_[3,1]","PSM2_Orientation_Matrix_[3,2]","PSM2_Orientation_Matrix_[3,3]",Camera Left,Camera Right
2025-06-02 14:29:07,0.002599477767944336,1,-0.102643,0.00016673899,0.11000524,-7.088497e-06,-0.00019725662,0.012501839,0.5235896,0.03396095,-1.534164e-05,0.008546792,0.817385115032464,1.2285095079876123e-05,0.5760916364368102,6.340506111921673e-06,0.9999999995202145,-3.0321097004078855e-05,-0.5760916365329073,2.843672590444405e-05,0.8173851145624008,-0.00090619846,1.9074663e-05,0.10708662,0.00070371124,0.00011565552,-0.014005205,0.005959476,-0.045237146,-4.344097e-06,0.0047324775,0.8732870267041586,0.00067667784036986,-0.4872056148047869,-0.0007055760580121622,0.9999997433693004,0.00012419242935595936,0.4872055738111341,0.00023530497976392153,0.8732872800395812,left_images/camera_left_1.png,right_images/camera_right_1.png
2025-06-02 14:29:07,0.04806327819824219,2,-0.102643,0.00016673462,0.11000524,-7.1101113e-06,-0.00019722644,0.012501839,0.5235896,0.03396095,-1.534164e-05,0.008546792,0.817385115032464,1.2285095079876123e-05,0.5760916364368102,6.340506111921673e-06,0.9999999995202145,-3.0321097004078855e-05,-0.5760916365329073,2.843672590444405e-05,0.8173851145624008,-0.00090619846,1.9074663e-05,0.10708662,0.00070371124,0.00011565552,-0.014005205,0.005959476,-0.045237146,-4.344097e-06,0.0047324775,0.8732870267041586,0.00067667784036986,-0.4872056148047869,-0.0007055760580121622,0.9999997433693004,0.00012419242935595936,0.4872055738111341,0.00023530497976392153,0.8732872800395812,left_images/camera_left_2.png,right_images/camera_right_2.png
2025-06-02 14:29:07,0.09084725379943848,3,-0.102643,0.0001667464,0.11000524,-7.0455244e-06,-0.000197224,0.012501867,0.5235896,0.03396095,-1.534164e-05,0.008546792,0.817385115032464,1.2285095079876123e-05,0.5760916364368102,6.340506111921673e-06,0.9999999995202145,-3.0321097004078855e-05,-0.5760916365329073,2.843672590444405e-05,0.8173851145624008,-0.00090619846,1.9074663e-05,0.10708662,0.00070371124,0.00011565552,-0.014005205,0.005959476,-0.045237146,-4.344097e-06,0.0047324775,0.8732870267041586,0.00067667784036986,-0.4872056148047869,-0.0007055760580121622,0.9999997433693004,0.00012419242935595936,0.4872055738111341,0.00023530497976392153,0.8732872800395812,left_images/camera_left_3.png,right_images/camera_right_3.png
2025-06-02 14:29:07,0.132704496383667,4,-0.102643,0.00016674446,0.11000524,-7.0671235e-06,-0.0001971938,0.012501867,0.5235896,0.03396095,-1.534164e-05,0.008546792,0.817385115032464,1.2285095079876123e-05,0.5760916364368102,6.340506111921673e-06,0.9999999995202145,-3.0321097004078855e-05,-0.5760916365329073,2.843672590444405e-05,0.8173851145624008,-0.00090619846,1.9074663e-05,0.10708662,0.00070371124,0.00011565552,-0.014005205,0.005959476,-0.045237146,-4.344097e-06,0.0047324775,0.8732870267041586,0.00067667784036986,-0.4872056148047869,-0.0007055760580121622,0.9999997433693004,0.00012419242935595936,0.4872055738111341,0.00023530497976392153,0.8732872800395812,left_images/camera_left_4.png,right_images/camera_right_4.png
2025-06-02 14:29:07,0.17549777030944824,5,-0.102643,0.0001667401,0.11000524,-7.0887377e-06,-0.00019716362,0.012501867,0.5235896,0.03396095,-1.534164e-05,0.008546792,0.817385115032464,1.2285095079876123e-05,0.5760916364368102,6.340506111921673e-06,0.9999999995202145,-3.0321097004078855e-05,-0.5760916365329073,2.843672590444405e-05,0.8173851145624008,-0.00090619846,1.9074663e-05,0.10708662,0.00070371124,0.00011565552,-0.014005205,0.005959476,-0.045237146,-4.344097e-06,0.0047324775,0.8732870267041586,0.00067667784036986,-0.4872056148047869,-0.0007055760580121622,0.9999997433693004,0.00012419242935595936,0.4872055738111341,0.00023530497976392153,0.8732872800395812,left_images/camera_left_5.png,right_images/camera_right_5.png
2025-06-02 14:29:07,0.2158210277557373,6,-0.102643,0.00016673573,0.11000524,-7.110352e-06,-0.00019713344,0.012501867,0.5235896,0.03396095,-1.534164e-05,0.008546792,0.817385115032464,1.2285095079876123e-05,0.5760916364368102,6.340506111921673e-06,0.9999999995202145,-3.0321097004078855e-05,-0.5760916365329073,2.843672590444405e-05,0.8173851145624008,-0.00090619846,1.9074663e-05,0.10708662,0.00070371124,0.00011565552,-0.014005205,0.005959476,-0.045237146,-4.344097e-06,0.0047324775,0.8732870267041586,0.00067667784036986,-0.4872056148047869,-0.0007055760580121622,0.9999997433693004,0.00012419242935595936,0.4872055738111341,0.00023530497976392153,0.8732872800395812,left_images/camera_left_6.png,right_images/camera_right_6.png
2025-06-02 14:29:07,0.26180171966552734,7,-0.102643,0.0001667475,0.11000524,-7.045765e-06,-0.000197131,0.0125018945,0.5235896,0.03396095,-1.534164e-05,0.008546792,0.817385115032464,1.2285095079876123e-05,0.5760916364368102,6.340506111921673e-06,0.9999999995202145,-3.0321097004078855e-05,-0.5760916365329073,2.843672590444405e-05,0.8173851145624008,-0.00090619846,1.9074663e-05,0.10708662,0.00070371124,0.00011565552,-0.014005205,0.005959476,-0.045237146,-4.344097e-06,0.0047324775,0.8732870267041586,0.00067667784036986,-0.4872056148047869,-0.0007055760580121622,0.9999997433693004,0.00012419242935595936,0.4872055738111341,0.00023530497976392153,0.8732872800395812,left_images/camera_left_7.png,right_images/camera_right_7.png
2025-06-02 14:29:07,0.3077375888824463,8,-0.102643,0.00016674557,0.11000524,-7.067364e-06,-0.0001971008,0.0125018945,0.5235896,0.03396095,-1.534164e-05,0.008546792,0.817385115032464,1.2285095079876123e-05,0.5760916364368102,6.340506111921673e-06,0.9999999995202145,-3.0321097004078855e-05,-0.5760916365329073,2.843672590444405e-05,0.8173851145624008,-0.00090619846,1.9074663e-05,0.10708662,0.00070371124,0.00011565552,-0.014005205,0.005959476,-0.045237146,-4.344097e-06,0.0047324775,0.8732870267041586,0.00067667784036986,-0.4872056148047869,-0.0007055760580121622,0.9999997433693004,0.00012419242935595936,0.4872055738111341,0.00023530497976392153,0.8732872800395812,left_images/camera_left_8.png,right_images/camera_right_8.png
2025-06-02 14:29:07,0.3485260009765625,9,-0.102643,0.0001667412,0.11000524,-7.0889782e-06,-0.00019707062,0.0125018945,0.5235896,0.03396095,-1.534164e-05,0.008546792,0.817385115032464,1.2285095079876123e-05,0.5760916364368102,6.340506111921673e-06,0.9999999995202145,-3.0321097004078855e-05,-0.5760916365329073,2.843672590444405e-05,0.8173851145624008,-0.00090619846,1.9074663e-05,0.10708662,0.00070371124,0.00011565552,-0.014005205,0.005959476,-0.045237146,-4.344097e-06,0.0047324775,0.8732870267041586,0.00067667784036986,-0.4872056148047869,-0.0007055760580121622,0.9999997433693004,0.00012419242935595936,0.4872055738111341,0.00023530497976392153,0.8732872800395812,left_images/camera_left_9.png,right_images/camera_right_9.png
2025-06-02 14:29:07,0.39338231086730957,10,-0.102643,0.00016673683,0.11000524,-7.1105924e-06,-0.00019704044,0.0125018945,0.5235896,0.03396095,-1.534164e-05,0.008546792,0.817385115032464,1.2285095079876123e-05,0.5760916364368102,6.340506111921673e-06,0.9999999995202145,-3.0321097004078855e-05,-0.5760916365329073,2.843672590444405e-05,0.8173851145624008,-0.00090619846,1.9074663e-05,0.10708662,0.00070371124,0.00011565552,-0.014005205,0.005959476,-0.045237146,-4.344097e-06,0.0047324775,0.8732870267041586,0.00067667784036986,-0.4872056148047869,-0.0007055760580121622,0.9999997433693004,0.00012419242935595936,0.4872055738111341,0.00023530497976392153,0.8732872800395812,left_images/camera_left_10.png,right_images/camera_right_10.png
2025-06-02 14:29:07,0.4432225227355957,11,-0.102643,0.0001667486,0.11000524,-7.0460055e-06,-0.000197038,0.012501922,0.5235896,0.03396095,-1.534164e-05,0.008546792,0.817385115032464,1.2285095079876123e-05,0.5760916364368102,6.340506111921673e-06,0.9999999995202145,-3.0321097004078855e-05,-0.5760916365329073,2.843672590444405e-05,0.8173851145624008,-0.00090619846,1.9074663e-05,0.10708662,0.00070371124,0.00011565552,-0.014005205,0.005959476,-0.045237146,-4.344097e-06,0.0047324775,0.8732870267041586,0.00067667784036986,-0.4872056148047869,-0.0007055760580121622,0.9999997433693004,0.00012419242935595936,0.4872055738111341,0.00023530497976392153,0.8732872800395812,left_images/camera_left_11.png,right_images/camera_right_11.png
2025-06-02 14:29:07,0.49182581901550293,12,-0.102643,0.00016674667,0.11000524,-7.0676047e-06,-0.0001970078,0.012501922,0.5235896,0.03396095,-1.534164e-05,0.008546792,0.817385115032464,1.2285095079876123e-05,0.5760916364368102,6.340506111921673e-06,0.9999999995202145,-3.0321097004078855e-05,-0.5760916365329073,2.843672590444405e-05,0.8173851145624008,-0.00090619846,1.9074663e-05,0.10708662,0.00070371124,0.00011565552,-0.014005205,0.005959476,-0.045237146,-4.344097e-06,0.0047324775,0.8732870267041586,0.00067667784036986,-0.4872056148047869,-0.0007055760580121622,0.9999997433693004,0.00012419242935595936,0.4872055738111341,0.00023530497976392153,0.8732872800395812,left_images/camera_left_12.png,right_images/camera_right_12.png
2025-06-02 14:29:07,0.5404856204986572,13,-0.102643,0.0001667423,0.11000524,-7.089219e-06,-0.00019697762,0.012501922,0.5235896,0.03396095,-1.5348016e-05,0.00854679,0.8173851357838551,1.2079933318266402e-05,0.5760916069981262,6.38865602276161e-06,0.999999999528593,-3.00332891037405e-05,-0.5760916070893528,2.8229215206807707e-05,0.8173851353213597,-0.00090619846,1.9074663e-05,0.10708662,0.00070371124,0.00011565552,-0.014005205,0.005959476,-0.045237146,-4.344097e-06,0.0047324775,0.8732870267041586,0.00067667784036986,-0.4872056148047869,-0.0007055760580121622,0.9999997433693004,0.00012419242935595936,0.4872055738111341,0.00023530497976392153,0.8732872800395812,left_images/camera_left_13.png,right_images/camera_right_13.png
2025-06-02 14:29:07,0.5854418277740479,14,-0.102643,0.00016675371,0.11000524,-7.0431133e-06,-0.00019697302,0.01250195,0.5235896,0.03396095,-1.5348016e-05,0.00854679,0.8173851357838551,1.2079933318266402e-05,0.5760916069981262,6.38865602276161e-06,0.999999999528593,-3.00332891037405e-05,-0.5760916070893528,2.8229215206807707e-05,0.8173851353213597,-0.00090619846,1.9074663e-05,0.10708662,0.00070371124,0.00011565552,-0.014005205,0.005959476,-0.045237146,-4.344097e-06,0.0047324775,0.8732870267041586,0.00067667784036986,-0.4872056148047869,-0.0007055760580121622,0.9999997433693004,0.00012419242935595936,0.4872055738111341,0.00023530497976392153,0.8732872800395812,left_images/camera_left_14.png,right_images/camera_right_14.png
2025-06-02 14:29:07,0.6455168724060059,15,-0.102643,0.00016675127,0.11000524,-7.099957e-06,-0.00019693853,0.01250195,0.5235896,0.03396095,-1.5348016e-05,0.00854679,0.8173851357838551,1.2079933318266402e-05,0.5760916069981262,6.38865602276161e-06,0.999999999528593,-3.00332891037405e-05,-0.5760916070893528,2.8229215206807707e-05,0.8173851353213597,-0.00090619846,1.9074663e-05,0.10708662,0.00070371124,0.00011565552,-0.014005205,0.005959476,-0.045237146,-4.344097e-06,0.0047324775,0.8732870267041586,0.00067667784036986,-0.4872056148047869,-0.0007055760580121622,0.9999997433693004,0.00012419242935595936,0.4872055738111341,0.00023530497976392153,0.8732872800395812,left_images/camera_left_15.png,right_images/camera_right_15.png
2025-06-02 14:29:07,0.692925214767456,16,-0.102643,0.00016676265,0.11000524,-7.0538554e-06,-0.00019693394,0.012501978,0.5235896,0.03396095,-1.5348016e-05,0.00854679,0.8173851357838551,1.2079933318266402e-05,0.5760916069981262,6.38865602276161e-06,0.999999999528593,-3.00332891037405e-05,-0.5760916070893528,2.8229215206807707e-05,0.8173851353213597,-0.00090619846,1.9074663e-05,0.10708662,0.00070371124,0.00011565552,-0.014005205,0.005959476,-0.045237146,-4.344097e-06,0.0047324775,0.8732870267041586,0.00067667784036986,-0.4872056148047869,-0.0007055760580121622,0.9999997433693004,0.00012419242935595936,0.4872055738111341,0.00023530497976392153,0.8732872800395812,left_images/camera_left_16.png,right_images/camera_right_16.png
2025-06-02 14:29:07,0.7316703796386719,17,-0.102643,0.0001667602,0.11000524,-7.1106992e-06,-0.00019689945,0.012501978,0.5235896,0.03396095,-1.5348016e-05,0.00854679,0.8173851357838551,1.2079933318266402e-05,0.5760916069981262,6.38865602276161e-06,0.999999999528593,-3.00332891037405e-05,-0.5760916070893528,2.8229215206807707e-05,0.8173851353213597,-0.00090619846,1.9074663e-05,0.10708662,0.00070371124,0.00011565552,-0.014005205,0.005959476,-0.045237146,-4.344097e-06,0.0047324775,0.8732870267041586,0.00067667784036986,-0.4872056148047869,-0.0007055760580121622,0.9999997433693004,0.00012419242935595936,0.4872055738111341,0.00023530497976392153,0.8732872800395812,left_images/camera_left_17.png,right_images/camera_right_17.png
2025-06-02 14:29:07,0.7740023136138916,18,-0.102643,0.00016677158,0.11000524,-7.0645974e-06,-0.00019689485,0.012502006,0.5235896,0.03396095,-1.5348016e-05,0.00854679,0.8173851357838551,1.2079933318266402e-05,0.5760916069981262,6.38865602276161e-06,0.999999999528593,-3.00332891037405e-05,-0.5760916070893528,2.8229215206807707e-05,0.8173851353213597,-0.00090619846,1.9074663e-05,0.10708662,0.00070371124,0.00011565552,-0.014005205,0.005959476,-0.045237146,-4.344097e-06,0.0047324775,0.8732870267041586,0.00067667784036986,-0.4872056148047869,-0.0007055760580121622,0.9999997433693004,0.00012419242935595936,0.4872055738111341,0.00023530497976392153,0.8732872800395812,left_images/camera_left_18.png,right_images/camera_right_18.png
2025-06-02 14:29:07,0.8254494667053223,19,-0.102643,0.00016676914,0.11000524,-7.1214413e-06,-0.00019686036,0.012502006,0.5235896,0.033960965,-1.5335865e-05,0.008546762,0.8173851477661763,1.1703676517991878e-05,0.5760915900048275,6.84987994350014e-06,0.9999999995255018,-3.003457599874343e-05,-0.576091590082988,2.849597456882052e-05,0.8173851472981597,-0.00090619846,1.9074663e-05,0.10708662,0.00070371124,0.00011565552,-0.014005205,0.005959476,-0.045237146,-4.344097e-06,0.0047324775,0.8732870267041586,0.00067667784036986,-0.4872056148047869,-0.0007055760580121622,0.9999997433693004,0.00012419242935595936,0.4872055738111341,0.00023530497976392153,0.8732872800395812,left_images/camera_left_19.png,right_images/camera_right_19.png
2025-06-02 14:29:08,0.8672511577606201,20,-0.102643,0.00016675469,0.11000524,-7.167152e-06,-0.00019684904,0.012501978,0.5235896,0.033960965,-1.5335865e-05,0.008546762,0.8173851477661763,1.1703676517991878e-05,0.5760915900048275,6.84987994350014e-06,0.9999999995255018,-3.003457599874343e-05,-0.576091590082988,2.849597456882052e-05,0.8173851472981597,-0.00090619846,1.9074663e-05,0.10708662,0.00070371124,0.00011565552,-0.014005205,0.005959476,-0.045237146,-4.344097e-06,0.0047324775,0.8732870267041586,0.00067667784036986,-0.4872056148047869,-0.0007055760580121622,0.9999997433693004,0.00012419242935595936,0.4872055738111341,0.00023530497976392153,0.8732872800395812,left_images/camera_left_20.png,right_images/camera_right_20.png
2025-06-02 14:29:08,0.9194810390472412,21,-0.102643,0.00016675475,0.11000524,-7.1099057e-06,-0.00019686761,0.012501978,0.5235896,0.03396095,-1.5348016e-05,0.00854679,0.8173851357838551,1.2079933318266402e-05,0.5760916069981262,6.38865602276161e-06,0.999999999528593,-3.00332891037405e-05,-0.5760916070893528,2.8229215206807707e-05,0.8173851353213597,-0.00090619846,1.9074663e-05,0.10708662,0.00070371124,0.00011565552,-0.014005205,0.005959476,-0.045237146,-4.344097e-06,0.0047324775,0.8732870267041586,0.00067667784036986,-0.4872056148047869,-0.0007055760580121622,0.9999997433693004,0.00012419242935595936,0.4872055738111341,0.00023530497976392153,0.8732872800395812,left_images/camera_left_21.png,right_images/camera_right_21.png
2025-06-02 14:29:08,0.9743795394897461,22,-0.102643,0.00016676665,0.11000524,-7.063793e-06,-0.00019686301,0.012502006,0.5235896,0.03396095,-1.5348016e-05,0.00854679,0.8173851357838551,1.2079933318266402e-05,0.5760916069981262,6.38865602276161e-06,0.999999999528593,-3.00332891037405e-05,-0.5760916070893528,2.8229215206807707e-05,0.8173851353213597,-0.00090619846,1.9074663e-05,0.10708662,0.00070371124,0.00011565552,-0.014005205,0.005959476,-0.045237146,-4.344097e-06,0.0047324775,0.8732870267041586,0.00067667784036986,-0.4872056148047869,-0.0007055760580121622,0.9999997433693004,0.00012419242935595936,0.4872055738111341,0.00023530497976392153,0.8732872800395812,left_images/camera_left_22.png,right_images/camera_right_22.png
2025-06-02 14:29:08,1.0241308212280273,23,-0.102643,0.0001667642,0.11000524,-7.120637e-06,-0.00019682852,0.012502006,0.5235896,0.033960965,-1.5335865e-05,0.008546762,0.8173851477661763,1.1703676517991878e-05,0.5760915900048275,6.84987994350014e-06,0.9999999995255018,-3.003457599874343e-05,-0.576091590082988,2.849597456882052e-05,0.8173851472981597,-0.00090619846,1.9074663e-05,0.10708662,0.00070371124,0.00011565552,-0.014005205,0.005959476,-0.045237146,-4.344097e-06,0.0047324775,0.8732870267041586,0.00067667784036986,-0.4872056148047869,-0.0007055760580121622,0.9999997433693004,0.00012419242935595936,0.4872055738111341,0.00023530497976392153,0.8732872800395812,left_images/camera_left_23.png,right_images/camera_right_23.png
2025-06-02 14:29:08,1.0716354846954346,24,-0.102643,0.00016674976,0.11000524,-7.1663476e-06,-0.0001968172,0.012501978,0.5235896,0.033960965,-1.5335865e-05,0.008546762,0.8173851477661763,1.1703676517991878e-05,0.5760915900048275,6.84987994350014e-06,0.9999999995255018,-3.003457599874343e-05,-0.576091590082988,2.849597456882052e-05,0.8173851472981597,-0.00090619846,1.9074663e-05,0.10708662,0.00070371124,0.00011565552,-0.014005205,0.005959476,-0.045237146,-4.344097e-06,0.0047324775,0.8732870267041586,0.00067667784036986,-0.4872056148047869,-0.0007055760580121622,0.9999997433693004,0.00012419242935595936,0.4872055738111341,0.00023530497976392153,0.8732872800395812,left_images/camera_left_24.png,right_images/camera_right_24.png
2025-06-02 14:29:08,1.1194908618927002,25,-0.102643,0.00016674981,0.11000524,-7.1091013e-06,-0.00019683577,0.012501978,0.5235896,0.03396095,-1.5348016e-05,0.00854679,0.8173851357838551,1.2079933318266402e-05,0.5760916069981262,6.38865602276161e-06,0.999999999528593,-3.00332891037405e-05,-0.5760916070893528,2.8229215206807707e-05,0.8173851353213597,-0.00090619846,1.9074663e-05,0.10708662,0.00070371124,0.00011565552,-0.014005205,0.005959476,-0.045237146,-4.344097e-06,0.0047324775,0.8732870267041586,0.00067667784036986,-0.4872056148047869,-0.0007055760580121622,0.9999997433693004,0.00012419242935595936,0.4872055738111341,0.00023530497976392153,0.8732872800395812,left_images/camera_left_25.png,right_images/camera_right_25.png
2025-06-02 14:29:08,1.1616201400756836,26,-0.102643,0.00016676172,0.11000524,-7.062988e-06,-0.00019683117,0.012502006,0.5235896,0.03396095,-1.5348016e-05,0.00854679,0.8173851357838551,1.2079933318266402e-05,0.5760916069981262,6.38865602276161e-06,0.999999999528593,-3.00332891037405e-05,-0.5760916070893528,2.8229215206807707e-05,0.8173851353213597,-0.00090619846,1.9074663e-05,0.10708662,0.00070371124,0.00011565552,-0.014005205,0.005959476,-0.045237146,-4.344097e-06,0.0047324775,0.8732870267041586,0.00067667784036986,-0.4872056148047869,-0.0007055760580121622,0.9999997433693004,0.00012419242935595936,0.4872055738111341,0.00023530497976392153,0.8732872800395812,left_images/camera_left_26.png,right_images/camera_right_26.png
2025-06-02 14:29:08,1.2056620121002197,27,-0.102643,0.00016675927,0.11000524,-7.119832e-06,-0.00019679668,0.012502006,0.5235896,0.033960965,-1.5335865e-05,0.008546762,0.8173851477661763,1.1703676517991878e-05,0.5760915900048275,6.84987994350014e-06,0.9999999995255018,-3.003457599874343e-05,-0.576091590082988,2.849597456882052e-05,0.8173851472981597,-0.00090619846,1.9074663e-05,0.10708662,0.00070371124,0.00011565552,-0.014005205,0.005959476,-0.045237146,-4.344097e-06,0.0047324775,0.8732870267041586,0.00067667784036986,-0.4872056148047869,-0.0007055760580121622,0.9999997433693004,0.00012419242935595936,0.4872055738111341,0.00023530497976392153,0.8732872800395812,left_images/camera_left_27.png,right_images/camera_right_27.png
2025-06-02 14:29:08,1.2452504634857178,28,-0.102643,0.00016674482,0.11000524,-7.1655427e-06,-0.00019678536,0.012501978,0.5235896,0.033960965,-1.5335865e-05,0.008546762,0.8173851477661763,1.1703676517991878e-05,0.5760915900048275,6.84987994350014e-06,0.9999999995255018,-3.003457599874343e-05,-0.576091590082988,2.849597456882052e-05,0.8173851472981597,-0.00090619846,1.9074663e-05,0.10708662,0.00070371124,0.00011565552,-0.014005205,0.005959476,-0.045237146,-4.344097e-06,0.0047324775,0.8732870267041586,0.00067667784036986,-0.4872056148047869,-0.0007055760580121622,0.9999997433693004,0.00012419242935595936,0.4872055738111341,0.00023530497976392153,0.8732872800395812,left_images/camera_left_28.png,right_images/camera_right_28.png
2025-06-02 14:29:08,1.2894628047943115,29,-0.102643,0.00016674488,0.11000524,-7.1082964e-06,-0.00019680393,0.012501978,0.5235896,0.03396095,-1.5348016e-05,0.00854679,0.8173851357838551,1.2079933318266402e-05,0.5760916069981262,6.38865602276161e-06,0.999999999528593,-3.00332891037405e-05,-0.5760916070893528,2.8229215206807707e-05,0.8173851353213597,-0.00090619846,1.9074663e-05,0.10708662,0.00070371124,0.00011565552,-0.014005205,0.005959476,-0.045237146,-4.344097e-06,0.0047324775,0.8732870267041586,0.00067667784036986,-0.4872056148047869,-0.0007055760580121622,0.9999997433693004,0.00012419242935595936,0.4872055738111341,0.00023530497976392153,0.8732872800395812,left_images/camera_left_29.png,right_images/camera_right_29.png
2025-06-02 14:29:08,1.3342187404632568,30,-0.102643,0.00016675678,0.11000524,-7.0621836e-06,-0.00019679933,0.012502006,0.5235896,0.03396095,-1.5348016e-05,0.00854679,0.8173851357838551,1.2079933318266402e-05,0.5760916069981262,6.38865602276161e-06,0.999999999528593,-3.00332891037405e-05,-0.5760916070893528,2.8229215206807707e-05,0.8173851353213597,-0.00090619846,1.9074663e-05,0.10708662,0.00070371124,0.00011565552,-0.014005205,0.005959476,-0.045237146,-4.344097e-06,0.0047324775,0.8732870267041586,0.00067667784036986,-0.4872056148047869,-0.0007055760580121622,0.9999997433693004,0.00012419242935595936,0.4872055738111341,0.00023530497976392153,0.8732872800395812,left_images/camera_left_30.png,right_images/camera_right_30.png
2025-06-02 14:29:08,1.3833985328674316,31,-0.102643,0.00016675434,0.11000524,-7.1190275e-06,-0.00019676484,0.012502006,0.5235896,0.033960965,-1.5335865e-05,0.008546762,0.8173851477661763,1.1703676517991878e-05,0.5760915900048275,6.84987994350014e-06,0.9999999995255018,-3.003457599874343e-05,-0.576091590082988,2.849597456882052e-05,0.8173851472981597,-0.00090619846,1.9074663e-05,0.10708662,0.00070371124,0.00011565552,-0.014005205,0.005959476,-0.045237146,-4.344097e-06,0.0047324775,0.8732870267041586,0.00067667784036986,-0.4872056148047869,-0.0007055760580121622,0.9999997433693004,0.00012419242935595936,0.4872055738111341,0.00023530497976392153,0.8732872800395812,left_images/camera_left_31.png,right_images/camera_right_31.png
2025-06-02 14:29:08,1.4247679710388184,32,-0.102643,0.00016673989,0.11000524,-7.1647382e-06,-0.00019675352,0.012501978,0.5235896,0.033960965,-1.5335865e-05,0.008546762,0.8173851477661763,1.1703676517991878e-05,0.5760915900048275,6.84987994350014e-06,0.9999999995255018,-3.003457599874343e-05,-0.576091590082988,2.849597456882052e-05,0.8173851472981597,-0.00090619846,1.9074663e-05,0.10708662,0.00070371124,0.00011565552,-0.014005205,0.005959476,-0.045237146,-4.344097e-06,0.0047324775,0.8732870267041586,0.00067667784036986,-0.4872056148047869,-0.0007055760580121622,0.9999997433693004,0.00012419242935595936,0.4872055738111341,0.00023530497976392153,0.8732872800395812,left_images/camera_left_32.png,right_images/camera_right_32.png
2025-06-02 14:29:08,1.4749388694763184,33,-0.102643,0.00016673995,0.11000524,-7.107492e-06,-0.00019677209,0.012501978,0.5235896,0.03396095,-1.5348016e-05,0.00854679,0.8173851357838551,1.2079933318266402e-05,0.5760916069981262,6.38865602276161e-06,0.999999999528593,-3.00332891037405e-05,-0.5760916070893528,2.8229215206807707e-05,0.8173851353213597,-0.00090619846,1.9074663e-05,0.10708662,0.00070371124,0.00011565552,-0.014005205,0.005959476,-0.045237146,-4.344097e-06,0.0047324775,0.8732870267041586,0.00067667784036986,-0.4872056148047869,-0.0007055760580121622,0.9999997433693004,0.00012419242935595936,0.4872055738111341,0.00023530497976392153,0.8732872800395812,left_images/camera_left_33.png,right_images/camera_right_33.png
2025-06-02 14:29:08,1.5261642932891846,34,-0.102643,0.00016675185,0.11000524,-7.0613787e-06,-0.00019676749,0.012502006,0.5235896,0.03396095,-1.5348016e-05,0.00854679,0.8173851357838551,1.2079933318266402e-05,0.5760916069981262,6.38865602276161e-06,0.999999999528593,-3.00332891037405e-05,-0.5760916070893528,2.8229215206807707e-05,0.8173851353213597,-0.00090619846,1.9074663e-05,0.10708662,0.00070371124,0.00011565552,-0.014005205,0.005959476,-0.045237146,-4.344097e-06,0.0047324775,0.8732870267041586,0.00067667784036986,-0.4872056148047869,-0.0007055760580121622,0.9999997433693004,0.00012419242935595936,0.4872055738111341,0.00023530497976392153,0.8732872800395812,left_images/camera_left_34.png,right_images/camera_right_34.png
2025-06-02 14:29:08,1.5845987796783447,35,-0.102643,0.0001667494,0.11000524,-7.1182226e-06,-0.000196733,0.012502006,0.5235896,0.033960965,-1.5335865e-05,0.008546762,0.8173851477661763,1.1703676517991878e-05,0.5760915900048275,6.84987994350014e-06,0.9999999995255018,-3.003457599874343e-05,-0.576091590082988,2.849597456882052e-05,0.8173851472981597,-0.00090619846,1.9074663e-05,0.10708662,0.00070371124,0.00011565552,-0.014005205,0.005959476,-0.045237146,-4.344097e-06,0.0047324775,0.8732870267041586,0.00067667784036986,-0.4872056148047869,-0.0007055760580121622,0.9999997433693004,0.00012419242935595936,0.4872055738111341,0.00023530497976392153,0.8732872800395812,left_images/camera_left_35.png,right_images/camera_right_35.png
2025-06-02 14:29:08,1.6360595226287842,36,-0.102643,0.00016673496,0.11000524,-7.1639333e-06,-0.00019672168,0.012501978,0.5235896,0.033960965,-1.5335865e-05,0.008546762,0.8173851477661763,1.1703676517991878e-05,0.5760915900048275,6.84987994350014e-06,0.9999999995255018,-3.003457599874343e-05,-0.576091590082988,2.849597456882052e-05,0.8173851472981597,-0.00090619846,1.9074663e-05,0.10708662,0.00070371124,0.00011565552,-0.014005205,0.005959476,-0.045237146,-4.344097e-06,0.0047324775,0.8732870267041586,0.00067667784036986,-0.4872056148047869,-0.0007055760580121622,0.9999997433693004,0.00012419242935595936,0.4872055738111341,0.00023530497976392153,0.8732872800395812,left_images/camera_left_36.png,right_images/camera_right_36.png
2025-06-02 14:29:08,1.6769542694091797,37,-0.102643,0.00016673502,0.11000524,-7.106687e-06,-0.00019674025,0.012501978,0.5235896,0.03396095,-1.5348016e-05,0.00854679,0.8173851357838551,1.2079933318266402e-05,0.5760916069981262,6.38865602276161e-06,0.999999999528593,-3.00332891037405e-05,-0.5760916070893528,2.8229215206807707e-05,0.8173851353213597,-0.00090619846,1.9074663e-05,0.10708662,0.00070371124,0.00011565552,-0.014005205,0.005959476,-0.045237146,-4.344097e-06,0.0047324775,0.8732870267041586,0.00067667784036986,-0.4872056148047869,-0.0007055760580121622,0.9999997433693004,0.00012419242935595936,0.4872055738111341,0.00023530497976392153,0.8732872800395812,left_images/camera_left_37.png,right_images/camera_right_37.png
2025-06-02 14:29:08,1.7216553688049316,38,-0.102643,0.00016674692,0.11000524,-7.060574e-06,-0.00019673565,0.012502006,0.5235896,0.03396095,-1.5348016e-05,0.00854679,0.8173851357838551,1.2079933318266402e-05,0.5760916069981262,6.38865602276161e-06,0.999999999528593,-3.00332891037405e-05,-0.5760916070893528,2.8229215206807707e-05,0.8173851353213597,-0.00090619846,1.9074663e-05,0.10708662,0.00070371124,0.00011565552,-0.014005205,0.005959476,-0.045237146,-4.344097e-06,0.0047324775,0.8732870267041586,0.00067667784036986,-0.4872056148047869,-0.0007055760580121622,0.9999997433693004,0.00012419242935595936,0.4872055738111341,0.00023530497976392153,0.8732872800395812,left_images/camera_left_38.png,right_images/camera_right_38.png
2025-06-02 14:29:08,1.7819230556488037,39,-0.102643,0.00016674447,0.11000524,-7.1174177e-06,-0.00019670116,0.012502006,0.5235896,0.033960965,-1.5335865e-05,0.008546762,0.8173851477661763,1.1703676517991878e-05,0.5760915900048275,6.84987994350014e-06,0.9999999995255018,-3.003457599874343e-05,-0.576091590082988,2.849597456882052e-05,0.8173851472981597,-0.00090619846,1.9074663e-05,0.10708662,0.00070371124,0.00011565552,-0.014005205,0.005959476,-0.045237146,-4.344097e-06,0.0047324775,0.8732870267041586,0.00067667784036986,-0.4872056148047869,-0.0007055760580121622,0.9999997433693004,0.00012419242935595936,0.4872055738111341,0.00023530497976392153,0.8732872800395812,left_images/camera_left_39.png,right_images/camera_right_39.png
2025-06-02 14:29:08,1.8350660800933838,40,-0.102643,0.00016673002,0.11000524,-7.1631284e-06,-0.00019668984,0.012501978,0.5235896,0.033960965,-1.5335865e-05,0.008546762,0.8173851477661763,1.1703676517991878e-05,0.5760915900048275,6.84987994350014e-06,0.9999999995255018,-3.003457599874343e-05,-0.576091590082988,2.849597456882052e-05,0.8173851472981597,-0.00090619846,1.9074663e-05,0.10708662,0.00070371124,0.00011565552,-0.014005205,0.005959476,-0.045237146,-4.344097e-06,0.0047324775,0.8732870267041586,0.00067667784036986,-0.4872056148047869,-0.0007055760580121622,0.9999997433693004,0.00012419242935595936,0.4872055738111341,0.00023530497976392153,0.8732872800395812,left_images/camera_left_40.png,right_images/camera_right_40.png
2025-06-02 14:29:09,1.8857231140136719,41,-0.102643,0.00016673008,0.11000524,-7.105882e-06,-0.00019670841,0.012501978,0.5235896,0.03396095,-1.5348016e-05,0.00854679,0.8173851357838551,1.2079933318266402e-05,0.5760916069981262,6.38865602276161e-06,0.999999999528593,-3.00332891037405e-05,-0.5760916070893528,2.8229215206807707e-05,0.8173851353213597,-0.00090619846,1.9074663e-05,0.10708662,0.00070371124,0.00011565552,-0.014005205,0.005959476,-0.045237146,-4.344097e-06,0.0047324775,0.8732870267041586,0.00067667784036986,-0.4872056148047869,-0.0007055760580121622,0.9999997433693004,0.00012419242935595936,0.4872055738111341,0.00023530497976392153,0.8732872800395812,left_images/camera_left_41.png,right_images/camera_right_41.png
2025-06-02 14:29:09,2.0151991844177246,42,-0.102643,0.00016674199,0.11000524,-7.0597694e-06,-0.00019670381,0.012502006,0.5235896,0.03396095,-1.5348016e-05,0.00854679,0.8173851357838551,1.2079933318266402e-05,0.5760916069981262,6.38865602276161e-06,0.999999999528593,-3.00332891037405e-05,-0.5760916070893528,2.8229215206807707e-05,0.8173851353213597,0.0043412973,-0.0065563037,0.10782567,0.043986432,-0.0078078024,-0.008336586,0.03262688,-0.04431618,0.00087193836,0.0044153295,0.8672289036607445,0.030744743215067722,-0.4969595450537429,-0.043850135797033174,0.9989296403856683,-0.014722063358834012,0.49597499356919733,0.03455914240254408,0.8676488180309103,left_images/camera_left_42.png,right_images/camera_right_42.png
2025-06-02 14:29:09,2.0715949535369873,43,-0.102643,0.00016673954,0.11000524,-7.1166132e-06,-0.00019666932,0.012502006,0.5235896,0.033960965,-1.5335865e-05,0.008546762,0.8173851477661763,1.1703676517991878e-05,0.5760915900048275,6.84987994350014e-06,0.9999999995255018,-3.003457599874343e-05,-0.576091590082988,2.849597456882052e-05,0.8173851472981597,0.008567156,-0.012125414,0.10861146,0.07359989,-0.013275582,-0.0048956447,0.059293292,-0.043480765,0.0015975307,0.004004118,0.8622067760174484,0.05047669639517658,-0.5040352949056512,-0.07340299987748478,0.9969706012657538,-0.025721971557158593,0.5012100108722726,0.05917536085931774,0.8632999488408336,left_images/camera_left_43.png,right_images/camera_right_43.png
2025-06-02 14:29:09,2.1187946796417236,44,-0.102643,0.00016672509,0.11000524,-7.162324e-06,-0.000196658,0.012501978,0.5235896,0.033960965,-1.5335865e-05,0.008546762,0.8173851477661763,1.1703676517991878e-05,0.5760915900048275,6.84987994350014e-06,0.9999999995255018,-3.003457599874343e-05,-0.576091590082988,2.849597456882052e-05,0.8173851472981597,0.01085199,-0.01611618,0.10923503,0.095034875,-0.017145365,-0.0014902184,0.08595969,-0.04291114,0.0021206061,0.0036271662,0.8581036549427473,0.06472917835273219,-0.5093802615371725,-0.09482953046019275,0.9949357691079029,-0.03331929624654137,0.5046439116115418,0.07689570091653758,0.8598962574950286,left_images/camera_left_44.png,right_images/camera_right_44.png
2025-06-02 14:29:09,2.167311429977417,45,-0.102643,0.00016672515,0.11000524,-7.1050777e-06,-0.00019667657,0.012501978,0.5235896,0.03396095,-1.5348016e-05,0.00854679,0.8173851357838551,1.2079933318266402e-05,0.5760916069981262,6.38865602276161e-06,0.999999999528593,-3.00332891037405e-05,-0.5760916070893528,2.8229215206807707e-05,0.8173851353213597,0.012809158,-0.01945309,0.10979409,0.10750058,-0.022645902,-0.0019737182,0.11262619,-0.042433914,0.0026059726,0.003274152,0.8565644310580678,0.07073138178998996,-0.5111696852085883,-0.10719000029293678,0.9933439678019763,-0.04216711359135639,0.5047847851147742,0.09091112836999007,0.8584448074600524,left_images/camera_left_45.png,right_images/camera_right_45.png
2025-06-02 14:29:09,2.2216241359710693,46,-0.102643,0.00016673705,0.11000524,-7.058965e-06,-0.00019667197,0.012502006,0.5235896,0.03396095,-1.5348016e-05,0.00854679,0.8173851357838551,1.2079933318266402e-05,0.5760916069981262,6.38865602276161e-06,0.999999999528593,-3.00332891037405e-05,-0.5760916070893528,2.8229215206807707e-05,0.8173851353213597,0.014250802,-0.022409186,0.11032408,0.11022373,-0.024255572,-0.0026927101,0.1392928,-0.04202984,0.0029804558,0.0029092012,0.8561436498993169,0.07059559131016199,-0.5118928728011791,-0.10984730970679346,0.9928462663915091,-0.046795938526973044,0.5049273406018489,0.09629410054623815,0.8577737620799177,left_images/camera_left_46.png,right_images/camera_right_46.png
2025-06-02 14:29:09,2.279930830001831,47,-0.102643,0.00016673461,0.11000524,-7.115809e-06,-0.00019663748,0.012502006,0.5235896,0.033960965,-1.5335865e-05,0.008546762,0.8173851477661763,1.1703676517991878e-05,0.5760915900048275,6.84987994350014e-06,0.9999999995255018,-3.003457599874343e-05,-0.576091590082988,2.849597456882052e-05,0.8173851472981597,0.015312249,-0.025225092,0.11072895,0.11235091,-0.025750397,-0.0029238483,0.16595939,-0.04172269,0.0033368312,0.002633364,0.8557096197362096,0.07010457741942161,-0.5126854736734365,-0.11192988612734711,0.9924004274793146,-0.0511184128313184,0.5052056485060621,0.1011273442928188,0.8570533897919377,left_images/camera_left_47.png,right_images/camera_right_47.png
2025-06-02 14:29:09,2.328383684158325,48,-0.102643,0.00016672016,0.11000524,-7.1615195e-06,-0.00019662616,0.012501978,0.5235896,0.033960965,-1.5335865e-05,0.008546762,0.8173851477661763,1.1703676517991878e-05,0.5760915900048275,6.84987994350014e-06,0.9999999995255018,-3.003457599874343e-05,-0.576091590082988,2.849597456882052e-05,0.8173851472981597,0.01607268,-0.02778273,0.11116857,0.11509641,-0.031125652,-0.0044439575,0.19262582,-0.041431557,0.0037387821,0.0023125103,0.8560252855992235,0.06829310339223699,-0.5124029297767773,-0.11453609577221346,0.9916549475161975,-0.05917725772546174,0.5040855018546219,0.10934585998429298,0.856703735094151,left_images/camera_left_48.png,right_images/camera_right_48.png
2025-06-02 14:29:09,2.3816113471984863,49,-0.102643,0.00016672022,0.11000524,-7.104273e-06,-0.00019664473,0.012501978,0.5235896,0.03396095,-1.5348016e-05,0.00854679,0.8173851357838551,1.2079933318266402e-05,0.5760916069981262,6.38865602276161e-06,0.999999999528593,-3.00332891037405e-05,-0.5760916070893528,2.8229215206807707e-05,0.8173851353213597,0.016831597,-0.029806072,0.11156408,0.10232138,-0.034904767,-0.010551924,0.21929216,-0.041209072,0.004056155,0.0019997759,0.8598710140227245,0.05432125470962343,-0.5076130815200726,-0.10141163131562905,0.9926822592436931,-0.06555618366515967,0.5003374064343327,0.10784773279772475,0.8590875079134582,left_images/camera_left_49.png,right_images/camera_right_49.png
2025-06-02 14:29:09,2.4310927391052246,50,-0.102643,0.00016673212,0.11000524,-7.05816e-06,-0.00019664013,0.012502006,0.5235896,0.03396095,-1.5348016e-05,0.00854679,0.8173851357838551,1.2079933318266402e-05,0.5760916069981262,6.38865602276161e-06,0.999999999528593,-3.00332891037405e-05,-0.5760916070893528,2.8229215206807707e-05,0.8173851353213597,0.017612195,-0.03175198,0.11194964,0.08901033,-0.036375444,-0.01439668,0.24595913,-0.04097524,0.0043202983,0.0017027222,0.8623974097145704,0.0411122993075812,-0.5045596957380198,-0.08786083373358591,0.9937260905955971,-0.06920210087295174,0.4985490764340443,0.10401074807554685,0.8605989673892983,left_images/camera_left_50.png,right_images/camera_right_50.png
2025-06-02 14:29:09,2.4921393394470215,51,-0.102643,0.00016672967,0.11000524,-7.115004e-06,-0.00019660564,0.012502006,0.5235896,0.03396095,-1.5355365e-05,0.008546792,0.8173851477638675,1.1824047523307518e-05,0.5760915900056454,6.389634101370875e-06,0.9999999995417874,-2.9590502322432137e-05,-0.5760915900915524,2.7867851582241297e-05,0.81738514731378,0.018063683,-0.03316943,0.111998565,0.06237731,-0.03329962,-0.02119636,0.27240986,-0.040980056,0.004429664,0.0016470412,0.8669019356743526,0.01915610398897257,-0.49811050742182106,-0.060882034006412046,0.9958491354327781,-0.06766001325029511,0.4947468159162851,0.08898057730623965,0.864469805720793,left_images/camera_left_51.png,right_images/camera_right_51.png
2025-06-02 14:29:09,2.552119731903076,52,-0.102643,0.00016674113,0.11000524,-7.0636247e-06,-0.00019661814,0.012502075,0.5235896,0.03396095,-1.5348016e-05,0.00854679,0.8173851357838551,1.2079933318266402e-05,0.5760916069981262,6.38865602276161e-06,0.999999999528593,-3.00332891037405e-05,-0.5760916070893528,2.8229215206807707e-05,0.8173851353213597,0.019364296,-0.034947917,0.11205735,0.025841638,-0.029644743,-0.030181052,0.2857353,-0.040916994,0.0045645405,0.0016225073,0.8714528345097511,-0.011244743236912071,-0.490350398158762,-0.023863531912046553,0.997581146984091,-0.06528695908516856,0.4898984477109549,0.06859599792583863,0.8690765789036977,left_images/camera_left_52.png,right_images/camera_right_52.png
2025-06-02 14:29:09,2.614365816116333,53,-0.102643,0.00016674005,0.11000524,-7.1075174e-06,-0.0001966531,0.012502084,0.5235896,0.03396095,-1.5348016e-05,0.00854679,0.8173851357838551,1.2079933318266402e-05,0.5760916069981262,6.38865602276161e-06,0.999999999528593,-3.00332891037405e-05,-0.5760916070893528,2.8229215206807707e-05,0.8173851353213597,0.020077419,-0.035839085,0.11210496,0.0062203677,-0.030005982,-0.03440633,0.28196305,-0.04086789,0.004669838,0.0016027745,0.8730688558225261,-0.028726192255245885,-0.48675001681690727,-0.003949242964516661,0.9978137302125257,-0.06597092753154149,0.48758094350861586,0.05951945629690627,0.8710466450479953,left_images/camera_left_53.png,right_images/camera_right_53.png
2025-06-02 14:29:09,2.6667399406433105,54,-0.102643,0.0001667516,0.11000524,-7.0614137e-06,-0.00019664851,0.0125021115,0.5235896,0.03396095,-1.5348016e-05,0.00854679,0.8173851357838551,1.2079933318266402e-05,0.5760916069981262,6.38865602276161e-06,0.999999999528593,-3.00332891037405e-05,-0.5760916070893528,2.8229215206807707e-05,0.8173851353213597,0.01990398,-0.036832575,0.11211825,-0.03648471,-0.020395383,-0.040097885,0.27692455,-0.04093545,0.004592215,0.0015410399,0.8745259478012379,-0.06078540778988028,-0.48115434199658264,0.03871461189631243,0.9976980544423086,-0.05567558699960034,0.48343101415617135,0.03006204187759249,0.8748661201521554,left_images/camera_left_54.png,right_images/camera_right_54.png
2025-06-02 14:29:09,2.7318971157073975,55,-0.102643,0.00016674916,0.11000524,-7.1182576e-06,-0.00019661403,0.0125021115,0.5235896,0.033960965,-1.5345398e-05,0.00854676,0.8173851685168684,1.1438363768222485e-05,0.5760915605681223,6.8242650745523495e-06,0.9999999995404769,-2.9537695022214913e-05,-0.5760915606412578,2.8075075339862395e-05,0.8173851680632026,0.021119725,-0.038623147,0.11220697,-0.09184764,-0.015184502,-0.052681804,0.2658168,-0.04088224,0.0046729427,0.0014774585,0.8757432191259173,-0.10621868799194371,-0.4709473478811041,0.09435116913285228,0.9943413684027735,-0.04881700488726981,0.47346770854857617,-0.0016832718645349784,0.8808095682709122,left_images/camera_left_55.png,right_images/camera_right_55.png
2025-06-02 14:29:09,2.7820653915405273,56,-0.102643,0.00016673318,0.11000524,-7.18886e-06,-0.00019651529,0.012502084,0.5235896,0.033960965,-1.5345398e-05,0.00854676,0.8173851685168684,1.1438363768222485e-05,0.5760915605681223,6.8242650745523495e-06,0.9999999995404769,-2.9537695022214913e-05,-0.5760915606412578,2.8075075339862395e-05,0.8173851680632026,0.022284234,-0.04039331,0.1122249,-0.12948988,-0.020955881,-0.061232954,0.2804885,-0.04085379,0.0049520587,0.0014937911,0.8747001460382882,-0.1419892029012052,-0.463399094496394,0.1325216056732776,0.9897554220041522,-0.05312465193447373,0.46619489331220026,-0.014942251264887619,0.884555849325956,left_images/camera_left_56.png,right_images/camera_right_56.png
2025-06-02 14:29:09,2.846789836883545,57,-0.102643,0.00016673234,0.11000524,-7.177741e-06,-0.00019652826,0.012502084,0.5235896,0.033960965,-1.5345398e-05,0.00854676,0.8173851685168684,1.1438363768222485e-05,0.5760915605681223,6.8242650745523495e-06,0.9999999995404769,-2.9537695022214913e-05,-0.5760915606412578,2.8075075339862395e-05,0.8173851680632026,0.023701709,-0.042509444,0.112282276,-0.1894744,-0.014280646,-0.07378226,0.27386183,-0.04078162,0.005017718,0.0014798902,0.8702535847053652,-0.18994629092744797,-0.45450974122714594,0.19182569978426595,0.9805092756229836,-0.042478951488573155,0.45371973641196006,-0.050219189362206804,0.8897282921263459,left_images/camera_left_57.png,right_images/camera_right_57.png
2025-06-02 14:29:10,2.902618885040283,58,-0.102643,0.00016673408,0.11000524,-7.166605e-06,-0.00019654124,0.012502084,0.5235896,0.033960965,-1.5345398e-05,0.00854676,0.8173851685168684,1.1438363768222485e-05,0.5760915605681223,6.8242650745523495e-06,0.9999999995404769,-2.9537695022214913e-05,-0.5760915606412578,2.8075075339862395e-05,0.8173851680632026,0.024444139,-0.04352285,0.112302504,-0.24993615,-0.0077432035,-0.08541764,0.26010227,-0.040769406,0.004947811,0.0014678463,0.8625880057397839,-0.23708833097497958,-0.446912805443479,0.25055790915555237,0.9676448472012587,-0.029735229012918387,0.43950274915347265,-0.0863282862122912,0.8940831955059821,left_images/camera_left_58.png,right_images/camera_right_58.png
2025-06-02 14:29:10,2.9619266986846924,59,-0.102643,0.00016673583,0.11000524,-7.155469e-06,-0.00019655422,0.012502084,0.5235896,0.033960965,-1.5345398e-05,0.00854676,0.8173851685168684,1.1438363768222485e-05,0.5760915605681223,6.8242650745523495e-06,0.9999999995404769,-2.9537695022214913e-05,-0.5760915606412578,2.8075075339862395e-05,0.8173851680632026,0.025762744,-0.043705653,0.11238122,-0.33346295,0.006611853,-0.1005398,0.25607395,-0.040630296,0.0046103112,0.0014572386,0.8468519348648111,-0.2972278454891877,-0.44101860310148105,0.3291120014888137,0.9442804632029663,-0.004438162820235861,0.4177643963907805,-0.14138604838896734,0.8974869884456264,left_images/camera_left_59.png,right_images/camera_right_59.png
2025-06-02 14:29:10,3.0182340145111084,60,-0.102643,0.00016673758,0.11000524,-7.1443333e-06,-0.0001965672,0.012502084,0.5235896,0.033960965,-1.5345398e-05,0.00854676,0.8173851685168684,1.1438363768222485e-05,0.5760915605681223,6.8242650745523495e-06,0.9999999995404769,-2.9537695022214913e-05,-0.5760915606412578,2.8075075339862395e-05,0.8173851680632026,0.028221462,-0.044822793,0.11231069,-0.3999975,0.010288915,-0.111221544,0.27517495,-0.040459722,0.004579779,0.0016531562,0.8288617354260668,-0.34780882656299567,-0.43819772216587444,0.3905435624479538,0.9205491711031258,0.008059119791216512,0.4005795169213599,-0.17781519548739358,0.8988424816823191,left_images/camera_left_60.png,right_images/camera_right_60.png
2025-06-02 14:29:10,3.073599100112915,61,-0.102643,0.00016673932,0.11000524,-7.1331974e-06,-0.00019658018,0.012502084,0.5235896,0.033960965,-1.5345398e-05,0.00854676,0.8173851685168684,1.1438363768222485e-05,0.5760915605681223,6.8242650745523495e-06,0.9999999995404769,-2.9537695022214913e-05,-0.5760915606412578,2.8075075339862395e-05,0.8173851680632026,0.029668048,-0.045952246,0.11217433,-0.4748869,0.020241156,-0.121712826,0.25477934,-0.04035638,0.004432447,0.001883639,0.8047640406471256,-0.3997376175580103,-0.4388219183112414,0.45676863984374616,0.8891536302321497,0.02771698937987556,0.37910057839128397,-0.22274572712857132,0.8981464760880368,left_images/camera_left_61.png,right_images/camera_right_61.png
2025-06-02 14:29:10,3.1285195350646973,62,-0.102643,0.00016674107,0.11000524,-7.1220616e-06,-0.00019659316,0.012502084,0.5235896,0.033960965,-1.5345398e-05,0.00854676,0.8173851685168684,1.1438363768222485e-05,0.5760915605681223,6.8242650745523495e-06,0.9999999995404769,-2.9537695022214913e-05,-0.5760915606412578,2.8075075339862395e-05,0.8173851680632026,0.031736914,-0.04767916,0.11208989,-0.5511673,0.027674066,-0.1344082,0.24120826,-0.04017334,0.004387986,0.0021117423,0.7765239683682297,-0.45158854519848757,-0.43940677326956423,0.5215979996695129,0.8519387413095156,0.046215882515875134,0.35347709019174,-0.2650814344715071,0.8970985340574962,left_images/camera_left_62.png,right_images/camera_right_62.png
2025-06-02 14:29:10,3.1842830181121826,63,-0.102643,0.00016674282,0.11000524,-7.1109257e-06,-0.00019660614,0.012502084,0.5235896,0.03396095,-1.5355365e-05,0.008546792,0.8173851477638675,1.1824047523307518e-05,0.5760915900056454,6.389634101370875e-06,0.9999999995417874,-2.9590502322432137e-05,-0.5760915900915524,2.7867851582241297e-05,0.81738514731378,0.034079302,-0.04906324,0.111851335,-0.6225623,0.032900088,-0.1466281,0.24680871,-0.040041603,0.0043375045,0.0024901954,0.7465301252357799,-0.4981266861947651,-0.4410924807974779,0.5794288806997951,0.812583795770857,0.06300592878141846,0.327039667817887,-0.30261754633736737,0.8952472710499139,left_images/camera_left_63.png,right_images/camera_right_63.png
2025-06-02 14:29:10,3.235046625137329,64,-0.102643,0.00016675475,0.11000524,-7.05954e-06,-0.00019661865,0.0125021525,0.5235896,0.03396095,-1.5348016e-05,0.00854679,0.8173851357838551,1.2079933318266402e-05,0.5760916069981262,6.38865602276161e-06,0.999999999528593,-3.00332891037405e-05,-0.5760916070893528,2.8229215206807707e-05,0.8173851353213597,0.03654179,-0.050469786,0.11151723,-0.697245,0.037767168,-0.15807837,0.2470269,-0.0399251,0.0042929472,0.0029736385,0.7111355035137927,-0.544023454554953,-0.44533670019018107,0.6366795669501647,0.7669969000084026,0.079717528848121,0.29820366307330143,-0.3402267424403837,0.8918073441377737,left_images/camera_left_64.png,right_images/camera_right_64.png
2025-06-02 14:29:10,3.2933459281921387,65,-0.102643,0.00016675367,0.11000524,-7.103433e-06,-0.00019665361,0.012502161,0.5235896,0.03396095,-1.5348016e-05,0.00854679,0.8173851357838551,1.2079933318266402e-05,0.5760916069981262,6.38865602276161e-06,0.999999999528593,-3.00332891037405e-05,-0.5760916070893528,2.8229215206807707e-05,0.8173851353213597,0.03971833,-0.05091742,0.1108795,-0.78051424,0.043596,-0.17196791,0.24333087,-0.039874464,0.0040943706,0.0037749019,0.6687625052667358,-0.5903323938725705,-0.45195616634142705,0.6957758605313155,0.7111751729778084,0.10062715956386675,0.2620165327823169,-0.3817558618864478,0.8863463197103425,left_images/camera_left_65.png,right_images/camera_right_65.png
2025-06-02 14:29:10,3.352454900741577,66,-0.102643,0.00016676523,0.11000524,-7.057329e-06,-0.00019664902,0.012502189,0.5235896,0.033960957,-1.5347861e-05,0.00854679,0.8173853649117349,1.2079086123893564e-05,0.5760912819008855,6.376565123752529e-06,0.999999999529229,-3.001468286712222e-05,-0.5760912819922285,2.820704608431977e-05,0.8173853644499105,0.040981773,-0.05023423,0.11011602,-0.87367684,0.052748684,-0.18635257,0.22140479,-0.03999933,0.0037242628,0.004617028,0.6180713928427076,-0.635777511784118,-0.4623577714920245,0.7554965805711185,0.6429579413762584,0.12581733730512443,0.21728476728667148,-0.427073812274646,0.8777216465226191,left_images/camera_left_66.png,right_images/camera_right_66.png
2025-06-02 14:29:10,3.4142115116119385,67,-0.102643,0.0001667685,0.11000524,-7.1006284e-06,-0.00019665544,0.012502245,0.5235896,0.033960957,-1.5347861e-05,0.00854679,0.8173853649117349,1.2079086123893564e-05,0.5760912819008855,6.376565123752529e-06,0.999999999529229,-3.001468286712222e-05,-0.5760912819922285,2.820704608431977e-05,0.8173853644499105,0.043993164,-0.050568122,0.10933049,-0.94954103,0.05528345,-0.19993892,0.2125465,-0.040050667,0.0035715818,0.0055371793,0.5734918708607191,-0.6706312782576812,-0.47048991772315457,0.7995747102226715,0.5832175039770786,0.14330954548486052,0.17829009178583993,-0.4583786989784918,0.8706903074536789,left_images/camera_left_67.png,right_images/camera_right_67.png
2025-06-02 14:29:10,3.4754621982574463,68,-0.102643,0.00016678331,0.11000524,-7.057746e-06,-0.00019668683,0.012502301,0.5235896,0.033960957,-1.5347861e-05,0.00854679,0.8173853649117349,1.2079086123893564e-05,0.5760912819008855,6.376565123752529e-06,0.999999999529229,-3.001468286712222e-05,-0.5760912819922285,2.820704608431977e-05,0.8173853644499105,0.045282435,-0.050183028,0.1084468,-1.023396,0.062179327,-0.21078444,0.2045281,-0.04023804,0.003320924,0.0064863153,0.5280871649952683,-0.6985150148450827,-0.4829086043996668,0.8376469199347554,0.5219267692225531,0.16105925956841247,0.13954061663572243,-0.48956023286709216,0.8607317786070412,left_images/camera_left_68.png,right_images/camera_right_68.png
2025-06-02 14:29:10,3.5211362838745117,69,-0.102643,0.00016678654,0.11000524,-7.1010472e-06,-0.00019669325,0.012502356,0.5235896,0.033960957,-1.5347861e-05,0.00854679,0.8173853649117349,1.2079086123893564e-05,0.5760912819008855,6.376565123752529e-06,0.999999999529229,-3.001468286712222e-05,-0.5760912819922285,2.820704608431977e-05,0.8173853644499105,0.046857886,-0.049901098,0.107486956,-1.0943873,0.06857343,-0.22202712,0.20803592,-0.04043987,0.0030993368,0.0075215306,0.4830917016830389,-0.721441201665889,-0.4961300235864221,0.8698021563347399,0.4603614351807154,0.17751495101480463,0.10033253012070542,-0.5172909640977986,0.849907901988414,left_images/camera_left_69.png,right_images/camera_right_69.png
2025-06-02 14:29:10,3.5770604610443115,70,-0.102643,0.00016680136,0.11000524,-7.058165e-06,-0.00019672464,0.012502412,0.5235896,0.033960957,-1.5347861e-05,0.00854679,0.8173853649117349,1.2079086123893564e-05,0.5760912819008855,6.376565123752529e-06,0.999999999529229,-3.001468286712222e-05,-0.5760912819922285,2.820704608431977e-05,0.8173853644499105,0.048583757,-0.04983668,0.10681315,-1.1418422,0.07290433,-0.22779748,0.19668137,-0.040516138,0.0029888577,0.00828974,0.45129431677053294,-0.7342127845456552,-0.507212999301411,0.889194790726775,0.4179289071638359,0.18619358931286692,0.07527326082337996,-0.5350392654437215,0.8414671239201554,left_images/camera_left_70.png,right_images/camera_right_70.png
2025-06-02 14:29:10,3.6401562690734863,71,-0.102643,0.00016680459,0.11000524,-7.101466e-06,-0.00019673105,0.012502468,0.5235896,0.033960957,-1.5347861e-05,0.00854679,0.8173853649117349,1.2079086123893564e-05,0.5760912819008855,6.376565123752529e-06,0.999999999529229,-3.001468286712222e-05,-0.5760912819922285,2.820704608431977e-05,0.8173853644499105,0.049262125,-0.049024425,0.105910726,-1.2084774,0.07885176,-0.2365107,0.18387473,-0.040756583,0.0027705864,0.0092315255,0.4065487762834028,-0.7499838201211851,-0.5217684946975062,0.9128666035441649,0.3567780780252275,0.19845394219910348,0.037318315023699894,-0.5569862409405267,0.8296828736130049,left_images/camera_left_71.png,right_images/camera_right_71.png
2025-06-02 14:29:10,3.693422555923462,72,-0.102643,0.0001668194,0.11000524,-7.058584e-06,-0.00019676244,0.012502524,0.5235896,0.033960957,-1.5347861e-05,0.00854679,0.8173853649117349,1.2079086123893564e-05,0.5760912819008855,6.376565123752529e-06,0.999999999529229,-3.001468286712222e-05,-0.5760912819922285,2.820704608431977e-05,0.8173853644499105,0.049374193,-0.047681436,0.10498749,-1.2633599,0.084464625,-0.24560985,0.18104345,-0.041082487,0.0025058954,0.010144183,0.37055388083686613,-0.7600314051422986,-0.5338933269803626,0.9288053515566571,0.3052162381861987,0.21015153310689869,0.00323114785361589,-0.5737554454163275,0.8190202980016181,left_images/camera_left_72.png,right_images/camera_right_72.png
2025-06-02 14:29:10,3.7486953735351562,73,-0.102643,0.00016682109,0.11000524,-7.1009304e-06,-0.00019675055,0.012502504,0.5235896,0.033960957,-1.5347861e-05,0.00854679,0.8173853649117349,1.2079086123893564e-05,0.5760912819008855,6.376565123752529e-06,0.999999999529229,-3.001468286712222e-05,-0.5760912819922285,2.820704608431977e-05,0.8173853644499105,0.05046268,-0.04796411,0.10456493,-1.2897664,0.08503095,-0.24726981,0.19917047,-0.041154627,0.0025201272,0.010607632,0.35075440060953045,-0.7648589645209524,-0.5403351874947488,0.9364105332001104,0.28009755739734343,0.21137803020164295,-0.010327815109392458,-0.5801173353141399,0.8144674416470482,left_images/camera_left_73.png,right_images/camera_right_73.png
2025-06-02 14:29:10,3.796780824661255,74,-0.102643,0.00016683571,0.11000524,-7.058048e-06,-0.00019678194,0.012502559,0.5235896,0.033960957,-1.5347032e-05,0.008546787,0.8173856475239253,1.219707255121749e-05,0.5760908809147428,6.330607827645548e-06,0.9999999995253205,-3.0154305682229237e-05,-0.5760908810090787,2.8294702115857418e-05,0.8173856470587143,0.050396375,-0.045208227,0.10415426,-1.3473868,0.09719453,-0.25317252,0.17966476,-0.041103195,0.002158061,0.011159262,0.31222292908939653,-0.7676571016257933,-0.5596600904784295,0.9489844905469701,0.22467032964713674,0.22125026480787385,-0.04410531999821654,-0.6001881515822627,0.7986419119030265,left_images/camera_left_74.png,right_images/camera_right_74.png
2025-06-02 14:29:10,3.8496687412261963,75,-0.102643,0.00016683909,0.11000524,-7.0865085e-06,-0.00019679015,0.012502615,0.5235896,0.033960957,-1.5347032e-05,0.008546787,0.8173856475239253,1.219707255121749e-05,0.5760908809147428,6.330607827645548e-06,0.9999999995253205,-3.0154305682229237e-05,-0.5760908810090787,2.8294702115857418e-05,0.8173856470587143,0.051052384,-0.044436526,0.10378769,-1.3823965,0.10563563,-0.25456068,0.17379375,-0.041052613,0.0020614285,0.011649569,0.28718901494340654,-0.7670542090786663,-0.5737162277908283,0.9558669160291617,0.1907434332887622,0.22346225967289182,-0.06197506383002144,-0.6125722675667886,0.7879811599723356,left_images/camera_left_75.png,right_images/camera_right_75.png
2025-06-02 14:29:11,3.8986923694610596,76,-0.102643,0.00016684017,0.11000524,-7.114982e-06,-0.00019679836,0.012502671,0.5235896,0.033960957,-1.5347032e-05,0.008546787,0.8173856475239253,1.219707255121749e-05,0.5760908809147428,6.330607827645548e-06,0.9999999995253205,-3.0154305682229237e-05,-0.5760908810090787,2.8294702115857418e-05,0.8173856470587143,0.051944733,-0.043118633,0.1036283,-1.4151511,0.112645134,-0.25540036,0.16504934,-0.04089233,0.0019352806,0.011961639,0.2635607800167358,-0.7658679081834109,-0.5864998401122851,0.9614001365097057,0.158737693705014,0.22474902027891486,-0.07902843004949989,-0.6230960534395795,0.7781425418468852,left_images/camera_left_76.png,right_images/camera_right_76.png
2025-06-02 14:29:11,3.949669361114502,77,-0.102643,0.00016685597,0.11000524,-7.0916853e-06,-0.00019682884,0.012502766,0.5235896,0.033960957,-1.5347032e-05,0.008546787,0.8173856475239253,1.219707255121749e-05,0.5760908809147428,6.330607827645548e-06,0.9999999995253205,-3.0154305682229237e-05,-0.5760908810090787,2.8294702115857418e-05,0.8173856470587143,0.052296575,-0.041882325,0.10339624,-1.4444449,0.12149681,-0.25602946,0.16332178,-0.040802337,0.0018175305,0.012319946,0.24278060241767785,-0.7626674546694714,-0.5994963992199613,0.9655103368054645,0.13005136853103083,0.2255580436717001,-0.09406045189933981,-0.6335810880472963,0.7679372606256947,left_images/camera_left_77.png,right_images/camera_right_77.png
2025-06-02 14:29:11,3.9963717460632324,78,-0.102643,0.00016685948,0.11000524,-7.1201493e-06,-0.00019683705,0.012502822,0.5235896,0.033960972,-1.5335865e-05,0.0085467575,0.8173856802575983,1.1863814246304236e-05,0.5760908344775789,6.699886201578952e-06,0.9999999995245574,-3.009977636064031e-05,-0.576090834560779,2.846286920891599e-05,0.8173856797894921,0.054206334,-0.040422365,0.10341445,-1.4733282,0.12926017,-0.2554193,0.1756777,-0.040454045,0.0017102715,0.012547933,0.22159160993531163,-0.7583884789266522,-0.612979668045846,0.969136484229111,0.10163282999884476,0.22460018433310347,-0.1080353337677763,-0.6438304768320189,0.7575029265685647,left_images/camera_left_78.png,right_images/camera_right_78.png
2025-06-02 14:29:11,4.049228191375732,79,-0.102643,0.00016686122,0.11000524,-7.131486e-06,-0.00019684724,0.012502934,0.5235896,0.033960976,-1.5335829e-05,0.008546754,0.8173858199586952,1.180876830058685e-05,0.5760906362639516,6.754925637213491e-06,0.9999999995247123,-3.0082330166129914e-05,-0.576090636345378,2.8480319517368288e-05,0.8173858194904344,0.05519267,-0.03868607,0.10361158,-1.5014398,0.13660285,-0.2566062,0.15834567,-0.04010187,0.0015734336,0.0125679355,0.20207350265467894,-0.7542195218643327,-0.6247553219970252,0.9715405315326525,0.07387122148823899,0.2250600769241103,-0.12359326484125416,-0.6524537956626298,0.747682251635885,left_images/camera_left_79.png,right_images/camera_right_79.png
2025-06-02 14:29:11,4.101459741592407,80,-0.102643,0.00016686297,0.11000524,-7.124007e-06,-0.00019685981,0.01250299,0.5235896,0.033960976,-1.5335829e-05,0.008546754,0.8173858199586952,1.180876830058685e-05,0.5760906362639516,6.754925637213491e-06,0.9999999995247123,-3.0082330166129914e-05,-0.576090636345378,2.8480319517368288e-05,0.8173858194904344,0.056315873,-0.038054608,0.10360542,-1.5195161,0.14246263,-0.25603607,0.14652744,-0.039888732,0.0015473547,0.012734808,0.18870487265979508,-0.7501306606224941,-0.6337937069966147,0.9731257469151303,0.05610362874887287,0.2233353163565453,-0.13197254155815907,-0.658905436944687,0.7405584875210134,left_images/camera_left_80.png,right_images/camera_right_80.png
2025-06-02 14:29:11,4.149357795715332,81,-0.102643,0.00016686472,0.11000524,-7.1165264e-06,-0.00019687238,0.012503046,0.5235896,0.033960976,-1.5335829e-05,0.008546754,0.8173858199586952,1.180876830058685e-05,0.5760906362639516,6.754925637213491e-06,0.9999999995247123,-3.0082330166129914e-05,-0.576090636345378,2.8480319517368288e-05,0.8173858194904344,0.057305645,-0.03665948,0.10375579,-1.5404769,0.15194634,-0.2537276,0.13277885,-0.03954492,0.0014718533,0.012807868,0.17294180601091008,-0.7434161411349208,-0.6460832553423346,0.9748313672379291,0.035493064730079904,0.2201000858816196,-0.14069448170669213,-0.6678867295104236,0.7308436080045824,left_images/camera_left_81.png,right_images/camera_right_81.png
2025-06-02 14:29:11,4.197572469711304,82,-0.102643,0.0001668529,0.11000524,-7.1786967e-06,-0.00019687867,0.012503074,0.5235896,0.033960976,-1.5335829e-05,0.008546754,0.8173858199586952,1.180876830058685e-05,0.5760906362639516,6.754925637213491e-06,0.9999999995247123,-3.0082330166129914e-05,-0.576090636345378,2.8480319517368288e-05,0.8173858194904344,0.05781934,-0.035723682,0.10364242,-1.5561234,0.15975264,-0.25266236,0.13246855,-0.039424915,0.0014173475,0.013047802,0.1616092491488536,-0.7377954409739087,-0.6553932696234066,0.9757598149160782,0.020158104856723036,0.21791382334199486,-0.1475643391354584,-0.6747233048344343,0.7231688791207864,left_images/camera_left_82.png,right_images/camera_right_82.png
2025-06-02 14:29:11,4.2512171268463135,83,-0.102643,0.00016685257,0.11000524,-7.17123e-06,-0.00019689124,0.012503129,0.5235896,0.033960976,-1.5335829e-05,0.008546754,0.8173858199586952,1.180876830058685e-05,0.5760906362639516,6.754925637213491e-06,0.9999999995247123,-3.0082330166129914e-05,-0.576090636345378,2.8480319517368288e-05,0.8173858194904344,0.058243945,-0.03461205,0.10373791,-1.5734297,0.17132999,-0.25179473,0.12916419,-0.039146904,0.0013598199,0.013157591,0.1498021002356419,-0.729390452103014,-0.667494493719575,0.9764904952051151,0.003306645011080578,0.21553509893481376,-0.15500207591855003,-0.6840896392138474,0.7127381861393485,left_images/camera_left_83.png,right_images/camera_right_83.png
2025-06-02 14:29:11,4.3016581535339355,84,-0.102643,0.00016685431,0.11000524,-7.1637496e-06,-0.00019690381,0.012503185,0.5235896,0.033960976,-1.5335829e-05,0.008546754,0.8173858199586952,1.180876830058685e-05,0.5760906362639516,6.754925637213491e-06,0.9999999995247123,-3.0082330166129914e-05,-0.576090636345378,2.8480319517368288e-05,0.8173858194904344,0.058745764,-0.033705603,0.10404023,-1.5817287,0.18056838,-0.24790932,0.12526608,-0.03879438,0.0013355277,0.013055234,0.14269056268438463,-0.7224964760614219,-0.6764896491444945,0.9774349716545325,-0.004696580062502287,0.21118432309814103,-0.15575711703648482,-0.6913586509291281,0.7055231649477847,left_images/camera_left_84.png,right_images/camera_right_84.png
2025-06-02 14:29:11,4.349133014678955,85,-0.102643,0.00016685606,0.11000524,-7.156269e-06,-0.00019691639,0.012503241,0.5235896,0.033960976,-1.5335829e-05,0.008546754,0.8173858199586952,1.180876830058685e-05,0.5760906362639516,6.754925637213491e-06,0.9999999995247123,-3.0082330166129914e-05,-0.576090636345378,2.8480319517368288e-05,0.8173858194904344,0.05855663,-0.032838408,0.10428554,-1.59512,0.18575402,-0.24806073,0.123863,-0.038583796,0.0012959775,0.012921093,0.13329181616009134,-0.7186064196336913,-0.6825233368947845,0.9776058538880082,-0.017826216568642805,0.20968791201866122,-0.16284988851283383,-0.6951884921833034,0.7001377536937018,left_images/camera_left_85.png,right_images/camera_right_85.png
2025-06-02 14:29:11,4.407656192779541,86,-0.102643,0.0001668578,0.11000524,-7.1487884e-06,-0.00019692896,0.012503297,0.5235896,0.03396098,-1.5335365e-05,0.008546751,0.8173860698380957,1.1808176424546133e-05,0.5760902817225776,6.778601002246397e-06,0.9999999995235712,-3.011491601502434e-05,-0.5760902818037138,2.852059900609414e-05,0.8173860693686265,0.059042662,-0.031763677,0.10446299,-1.6045414,0.19882943,-0.24452677,0.11258139,-0.03825331,0.0012576594,0.012974428,0.12615238823455444,-0.7087489665601112,-0.6940896752889304,0.9783599570906589,-0.026784331119329985,0.20516918376806592,-0.16400417465504513,-0.7049521274572229,0.6900327011738306,left_images/camera_left_86.png,right_images/camera_right_86.png
2025-06-02 14:29:11,4.470935106277466,87,-0.102643,0.00016685955,0.11000524,-7.1588015e-06,-0.00019693938,0.012503353,0.5235896,0.03396098,-1.5335365e-05,0.008546751,0.8173860698380957,1.1808176424546133e-05,0.5760902817225776,6.778601002246397e-06,0.9999999995235712,-3.011491601502434e-05,-0.5760902818037138,2.852059900609414e-05,0.8173860693686265,0.059878845,-0.031172104,0.10473073,-1.6115631,0.21256483,-0.23929992,0.11768672,-0.037839837,0.0012847336,0.012979841,0.11956481056758589,-0.6980924893353405,-0.7059540582839119,0.9794832924348852,-0.033243346153551345,0.1987645838106788,-0.16222433823213617,-0.7152354551265636,0.6797951954927622,left_images/camera_left_87.png,right_images/camera_right_87.png
2025-06-02 14:29:11,4.5248353481292725,88,-0.102643,0.0001668613,0.11000524,-7.168816e-06,-0.0001969498,0.012503409,0.5235896,0.03396098,-1.5335365e-05,0.008546751,0.8173860698380957,1.1808176424546133e-05,0.5760902817225776,6.778601002246397e-06,0.9999999995235712,-3.011491601502434e-05,-0.5760902818037138,2.852059900609414e-05,0.8173860693686265,0.060667872,-0.0302288,0.104877375,-1.6227998,0.22525527,-0.23552883,0.11398387,-0.037508227,0.0012768417,0.013079338,0.11046291878464304,-0.6878133450099829,-0.7174334436027887,0.9802157333455291,-0.0438927635996596,0.19300399323711226,-0.16424085872724914,-0.7245593334777787,0.669356939603059,left_images/camera_left_88.png,right_images/camera_right_88.png
2025-06-02 14:29:11,4.574641704559326,89,-0.102643,0.00016686304,0.11000524,-7.1788304e-06,-0.00019696022,0.012503465,0.5235896,0.03396098,-1.5335365e-05,0.008546751,0.8173860698380957,1.1808176424546133e-05,0.5760902817225776,6.778601002246397e-06,0.9999999995235712,-3.011491601502434e-05,-0.5760902818037138,2.852059900609414e-05,0.8173860693686265,0.061443724,-0.029966434,0.10520274,-1.6272305,0.23887429,-0.2297614,0.09824632,-0.037079785,0.0013414262,0.013033273,0.10510406846232373,-0.6770685844035411,-0.7283757730776417,0.9814020844987139,-0.0476890929415808,0.1859454192928352,-0.16063338175561825,-0.7343731220763694,0.6594642023927906,left_images/camera_left_89.png,right_images/camera_right_89.png
2025-06-02 14:29:11,4.6293511390686035,90,-0.102643,0.00016686479,0.11000524,-7.188845e-06,-0.00019697064,0.012503521,0.5235896,0.03396098,-1.5335365e-05,0.008546751,0.8173860698380957,1.1808176424546133e-05,0.5760902817225776,6.778601002246397e-06,0.9999999995235712,-3.011491601502434e-05,-0.5760902818037138,2.852059900609414e-05,0.8173860693686265,0.06173888,-0.029305724,0.10544035,-1.6297827,0.2503075,-0.22363752,0.08893152,-0.03677318,0.0013550395,0.013000287,0.10067505188469833,-0.6682812820701376,-0.7370648967103959,0.9825163723453176,-0.049832476417833005,0.17938311617168212,-0.15660814794068145,-0.7422377330267974,0.6515804138169212,left_images/camera_left_90.png,right_images/camera_right_90.png
2025-06-02 14:29:11,4.689362049102783,91,-0.102643,0.00016686654,0.11000524,-7.1988593e-06,-0.00019698105,0.012503576,0.5235896,0.03396098,-1.5335365e-05,0.008546751,0.8173860698380957,1.1808176424546133e-05,0.5760902817225776,6.778601002246397e-06,0.9999999995235712,-3.011491601502434e-05,-0.5760902818037138,2.852059900609414e-05,0.8173860693686265,0.06128503,-0.027948005,0.10562102,-1.6355351,0.26515558,-0.21918947,0.085303575,-0.036520947,0.0012964382,0.013020849,0.09551544661825806,-0.6572117166556937,-0.7476292924623746,0.9831976609959869,-0.05508523296565748,0.17403441188782082,-0.1555607883411984,-0.7516903462195026,0.6409075319662497,left_images/camera_left_91.png,right_images/camera_right_91.png
2025-06-02 14:29:11,4.746274709701538,92,-0.102643,0.00016686828,0.11000524,-7.2088737e-06,-0.00019699147,0.012503632,0.5235896,0.03396098,-1.5328453e-05,0.008546753,0.8173860698385796,1.209463018701238e-05,0.576090281715948,6.698105740454452e-06,0.9999999995125054,-3.0497942883772872e-05,-0.5760902818039685,2.87873072949102e-05,0.8173860693590973,0.0615782,-0.02717396,0.10589205,-1.6464245,0.28106675,-0.21548355,0.07516784,-0.03613975,0.0013265795,0.013037685,0.08654418477385328,-0.6442194326923619,-0.7599285667899058,0.9837822508248183,-0.06502784472334,0.16716417789912835,-0.15710692869470594,-0.7620713234023233,0.6281438617099971,left_images/camera_left_92.png,right_images/camera_right_92.png
2025-06-02 14:29:11,4.803683042526245,93,-0.102643,0.00016686611,0.11000524,-7.2162975e-06,-0.0001970315,0.01250366,0.5235896,0.03396098,-1.5328453e-05,0.008546753,0.8173860698385796,1.209463018701238e-05,0.576090281715948,6.698105740454452e-06,0.9999999995125054,-3.0497942883772872e-05,-0.5760902818039685,2.87873072949102e-05,0.8173860693590973,0.06197532,-0.026920833,0.106116794,-1.6506962,0.28838134,-0.21159208,0.089226544,-0.03588714,0.0013722237,0.012975717,0.08128520505102826,-0.6380153315989576,-0.7657213279545534,0.9844106321684396,-0.068836024853763,0.16185582768644968,-0.15597571193472992,-0.7669407006587957,0.6224737255173506,left_images/camera_left_93.png,right_images/camera_right_93.png
2025-06-02 14:29:12,4.863521337509155,94,-0.102643,0.00016686197,0.11000524,-7.2377043e-06,-0.00019700137,0.01250366,0.5235896,0.03396098,-1.5328453e-05,0.008546753,0.8173860698385796,1.209463018701238e-05,0.576090281715948,6.698105740454452e-06,0.9999999995125054,-3.0497942883772872e-05,-0.5760902818039685,2.87873072949102e-05,0.8173860693590973,0.06265662,-0.026425853,0.10633435,-1.6540364,0.2969667,-0.20698269,0.09032573,-0.035600837,0.0013958707,0.012954837,0.07652174028262176,-0.6306470037041595,-0.7722880162109761,0.9851169325142718,-0.07174489812252777,0.1561963471629848,-0.15391248337217667,-0.7727464178579891,0.6157709973276231,left_images/camera_left_94.png,right_images/camera_right_94.png
2025-06-02 14:29:12,4.9155433177948,95,-0.102643,0.00016685948,0.11000524,-7.245129e-06,-0.0001970414,0.012503688,0.5235896,0.03396098,-1.5328222e-05,0.008546751,0.8173862662336757,1.2028087588675967e-05,0.5760900030619309,6.75171160939191e-06,0.9999999995133467,-3.045851140038538e-05,-0.5760900031479326,2.878596247032471e-05,0.8173862657546819,0.06281669,-0.025787998,0.10652262,-1.6585493,0.3101728,-0.20254129,0.07890609,-0.03532391,0.0014155359,0.0129920645,0.07143869139738762,-0.6199366916911918,-0.7813929943801705,0.9857834554086177,-0.07555987156568128,0.15007226543110447,-0.15207725804365008,-0.7810052522896105,0.605725435723123,left_images/camera_left_95.png,right_images/camera_right_95.png
2025-06-02 14:29:12,4.96599555015564,96,-0.102643,0.00016686108,0.11000524,-7.253519e-06,-0.00019705198,0.012503688,0.5235896,0.03396098,-1.5328222e-05,0.008546751,0.8173862662336757,1.2028087588675967e-05,0.5760900030619309,6.75171160939191e-06,0.9999999995133467,-3.045851140038538e-05,-0.5760900031479326,2.878596247032471e-05,0.8173862657546819,0.06199715,-0.024837725,0.10674869,-1.6685202,0.3241869,-0.1995975,0.077018864,-0.03510065,0.0014237186,0.012954319,0.06308803098979365,-0.608775972898739,-0.7908297637083623,0.9859971253752728,-0.08454686726489857,0.14374107272241227,-0.15436829045347694,-0.7888242149280695,0.5949174638935939,left_images/camera_left_96.png,right_images/camera_right_96.png
2025-06-02 14:29:12,5.0223329067230225,97,-0.102643,0.00016686282,0.11000524,-7.26191e-06,-0.00019706255,0.012503688,0.5235896,0.03396098,-1.5328222e-05,0.008546751,0.8173862662336757,1.2028087588675967e-05,0.5760900030619309,6.75171160939191e-06,0.9999999995133467,-3.045851140038538e-05,-0.5760900031479326,2.878596247032471e-05,0.8173862657546819,0.062336758,-0.023954384,0.107007176,-1.6765984,0.33581734,-0.19620714,0.07205598,-0.03479012,0.0014329348,0.012929446,0.055703145019424694,-0.5985991683516166,-0.7991096265742877,0.9862398187547522,-0.09178439370433816,0.13750143626493605,-0.15565403797376465,-0.7957729957224483,0.5852496559088112,left_images/camera_left_97.png,right_images/camera_right_97.png
2025-06-02 14:29:12,5.080852270126343,98,-0.102643,0.00016686457,0.11000524,-7.270301e-06,-0.00019707311,0.012503688,0.5235896,0.03396098,-1.5328222e-05,0.008546751,0.8173862662336757,1.2028087588675967e-05,0.5760900030619309,6.75171160939191e-06,0.9999999995133467,-3.045851140038538e-05,-0.5760900031479326,2.878596247032471e-05,0.8173862657546819,0.062841654,-0.023698747,0.107220925,-1.6829506,0.34714466,-0.19181749,0.06606208,-0.03449764,0.001509588,0.01294748,0.04849794103921984,-0.5885486804901747,-0.8070058242715665,0.9867229981900301,-0.09715173611521061,0.13015093166273667,-0.15500217597773985,-0.8026032586920357,0.5760228594240779,left_images/camera_left_98.png,right_images/camera_right_98.png
2025-06-02 14:29:12,5.142677545547485,99,-0.102643,0.00016686632,0.11000524,-7.278692e-06,-0.00019708367,0.012503688,0.5235896,0.03396098,-1.5328222e-05,0.008546751,0.8173862662336757,1.2028087588675967e-05,0.5760900030619309,6.75171160939191e-06,0.9999999995133467,-3.045851140038538e-05,-0.5760900031479326,2.878596247032471e-05,0.8173862657546819,0.06357852,-0.02321957,0.107372016,-1.6885271,0.35568333,-0.18963024,0.06282695,-0.03425322,0.0015324393,0.012995511,0.04348882904716661,-0.5805487639747485,-0.8130632536251394,0.9868232871027381,-0.10199226761334784,0.12560803070995802,-0.1558477519242829,-0.8078122987393042,0.5684635152986233,left_images/camera_left_99.png,right_images/camera_right_99.png
2025-06-02 14:29:12,5.196671485900879,100,-0.102643,0.00016686806,0.11000524,-7.287083e-06,-0.00019709424,0.012503688,0.5235896,0.03396098,-1.5328222e-05,0.008546751,0.8173862662336757,1.2028087588675967e-05,0.5760900030619309,6.75171160939191e-06,0.9999999995133467,-3.045851140038538e-05,-0.5760900031479326,2.878596247032471e-05,0.8173862657546819,0.06343137,-0.022088936,0.10766844,-1.6942033,0.3678712,-0.18555434,0.06470161,-0.0339674,0.0015141931,0.012915783,0.0374201566587104,-0.5702627861588009,-0.8206095823216052,0.9870891295815581,-0.10688715754731987,0.11929034249836112,-0.1557394687854028,-0.8144786616442792,0.55890046304202,left_images/camera_left_100.png,right_images/camera_right_100.png
2025-06-02 14:29:12,5.248515844345093,101,-0.102643,0.00016686981,0.11000524,-7.295474e-06,-0.0001971048,0.012503688,0.5235896,0.03396098,-1.5328222e-05,0.008546751,0.8173862662336757,1.2028087588675967e-05,0.5760900030619309,6.75171160939191e-06,0.9999999995133467,-3.045851140038538e-05,-0.5760900031479326,2.878596247032471e-05,0.8173862657546819,0.06348171,-0.021136835,0.107860275,-1.6992095,0.37752855,-0.18267135,0.06942274,-0.033752244,0.0014942152,0.0129011385,0.03247947809633245,-0.5618552033820476,-0.8265977340491004,0.9871898564532577,-0.11122439403198092,0.1143910900726739,-0.1562090612556961,-0.8197242613249508,0.5510452473045,left_images/camera_left_101.png,right_images/camera_right_101.png
2025-06-02 14:29:12,5.297353267669678,102,-0.102643,0.00016687156,0.11000524,-7.303865e-06,-0.00019711537,0.012503688,0.5235896,0.03396098,-1.5328222e-05,0.008546751,0.8173862662336757,1.2028087588675967e-05,0.5760900030619309,6.75171160939191e-06,0.9999999995133467,-3.045851140038538e-05,-0.5760900031479326,2.878596247032471e-05,0.8173862657546819,0.06336584,-0.020734303,0.10806263,-1.7004654,0.383441,-0.17953384,0.06464738,-0.033587914,0.0015039679,0.012809221,0.02965073930828427,-0.556986484531584,-0.8299921021959302,0.9875269511440932,-0.11213365743585707,0.11052856478806511,-0.15463296680373118,-0.8229168238158733,0.5467143190536267,left_images/camera_left_102.png,right_images/camera_right_102.png
2025-06-02 14:29:12,5.3550262451171875,103,-0.102643,0.0001668733,0.11000524,-7.312256e-06,-0.00019712593,0.012503688,0.5235896,0.03396098,-1.5328222e-05,0.008546751,0.8173862662336757,1.2028087588675967e-05,0.5760900030619309,6.75171160939191e-06,0.9999999995133467,-3.045851140038538e-05,-0.5760900031479326,2.878596247032471e-05,0.8173862657546819,0.062746845,-0.019932384,0.108266495,-1.7051721,0.39175862,-0.17620438,0.06394743,-0.033440847,0.0015013999,0.012720244,0.02418223577916656,-0.5501675835621794,-0.834704049031795,0.987641038636134,-0.11618706630483688,0.10519384214493743,-0.1548560566282745,-0.8269317962328138,0.5405584206214097,left_images/camera_left_103.png,right_images/camera_right_103.png
2025-06-02 14:29:12,5.413262128829956,104,-0.102643,0.00016687505,0.11000524,-7.320647e-06,-0.0001971365,0.012503688,0.5235896,0.03396098,-1.5328222e-05,0.008546751,0.8173862662336757,1.2028087588675967e-05,0.5760900030619309,6.75171160939191e-06,0.9999999995133467,-3.045851140038538e-05,-0.5760900031479326,2.878596247032471e-05,0.8173862657546819,0.06255302,-0.019226318,0.108380586,-1.708844,0.40020445,-0.17313902,0.059187707,-0.033307496,0.0014990425,0.012736595,0.01976476151183071,-0.5429600499790216,-0.8395259009281123,0.9877821828335464,-0.11922212822810752,0.10036156344614555,-0.1545823841159608,-0.831252349330538,0.533969866428328,left_images/camera_left_104.png,right_images/camera_right_104.png
2025-06-02 14:29:12,5.467877626419067,105,-0.102643,0.0001668768,0.11000524,-7.329038e-06,-0.00019714706,0.012503688,0.5235896,0.03396098,-1.5328222e-05,0.008546751,0.8173862662336757,1.2028087588675967e-05,0.5760900030619309,6.75171160939191e-06,0.9999999995133467,-3.045851140038538e-05,-0.5760900031479326,2.878596247032471e-05,0.8173862657546819,0.06326979,-0.018833505,0.10854608,-1.7103559,0.4092618,-0.17045605,0.062258344,-0.033063013,0.0015147172,0.012780936,0.01742562668312858,-0.534668858195545,-0.8448819796933609,0.9880717700666974,-0.12010181658145597,0.09638324984714791,-0.1530049827030599,-0.8364835717034176,0.526198355697098,left_images/camera_left_105.png,right_images/camera_right_105.png
2025-06-02 14:29:12,5.527365684509277,106,-0.102643,0.00016687854,0.11000524,-7.337429e-06,-0.00019715763,0.012503688,0.5235896,0.03396098,-1.5328222e-05,0.008546751,0.8173862662336757,1.2028087588675967e-05,0.5760900030619309,6.75171160939191e-06,0.9999999995133467,-3.045851140038538e-05,-0.5760900031479326,2.878596247032471e-05,0.8173862657546819,0.0629749,-0.01835611,0.10865902,-1.7124288,0.41516453,-0.16758022,0.07539593,-0.03296726,0.0015193584,0.012753636,0.014036399164866487,-0.5297664008992392,-0.8480274405800505,0.9882504823118207,-0.12174267787407994,0.09241052209841766,-0.15219712122421586,-0.8393606381421008,0.5218330723792299,left_images/camera_left_106.png,right_images/camera_right_106.png
2025-06-02 14:29:12,5.58358359336853,107,-0.102643,0.00016688029,0.11000524,-7.34582e-06,-0.00019716819,0.012503688,0.5235896,0.03396098,-1.5328222e-05,0.008546751,0.8173862662336757,1.2028087588675967e-05,0.5760900030619309,6.75171160939191e-06,0.9999999995133467,-3.045851140038538e-05,-0.5760900031479326,2.878596247032471e-05,0.8173862657546819,0.06283284,-0.018174823,0.1087356,-1.7142857,0.42088595,-0.16479217,0.073875785,-0.032880947,0.0015532583,0.012764741,0.010722092214269063,-0.5248748285197458,-0.8511118910724467,0.9884573496506284,-0.1230709588587528,0.08834934638831649,-0.15111950456577167,-0.8422350939446508,0.5174968037271739,left_images/camera_left_107.png,right_images/camera_right_107.png
2025-06-02 14:29:12,5.632853746414185,108,-0.102643,0.00016688203,0.11000524,-7.354211e-06,-0.00019717876,0.012503688,0.5235896,0.03396098,-1.5328222e-05,0.008546751,0.8173862662336757,1.2028087588675967e-05,0.5760900030619309,6.75171160939191e-06,0.9999999995133467,-3.045851140038538e-05,-0.5760900031479326,2.878596247032471e-05,0.8173862657546819,0.062218644,-0.017352397,0.108707555,-1.7159011,0.4262494,-0.16264421,0.06789604,-0.032897554,0.001506777,0.012826143,0.008379325504299429,-0.5207393819056931,-0.8536745767776909,0.9885225643983733,-0.12446427386734948,0.08562583842472637,-0.1508407324941009,-0.8445940685697183,0.5137197025202489,left_images/camera_left_108.png,right_images/camera_right_108.png
2025-06-02 14:29:12,5.684689998626709,109,-0.102643,0.00016688378,0.11000524,-7.362602e-06,-0.00019718932,0.012503688,0.5235896,0.03396098,-1.5328222e-05,0.008546751,0.8173862662336757,1.2028087588675967e-05,0.5760900030619309,6.75171160939191e-06,0.9999999995133467,-3.045851140038538e-05,-0.5760900031479326,2.878596247032471e-05,0.8173862657546819,0.062473502,-0.017323209,0.10885748,-1.7162781,0.43145972,-0.15926082,0.07578947,-0.032742657,0.0015520506,0.012794249,0.00566370108887726,-0.5160776771489839,-0.8565230607744807,0.988876509373944,-0.12441946627357525,0.08150488096183356,-0.1486309917156574,-0.8474571538200073,0.5096324172782892,left_images/camera_left_109.png,right_images/camera_right_109.png
2025-06-02 14:29:12,5.734695672988892,110,-0.102643,0.00016688553,0.11000524,-7.370993e-06,-0.00019719989,0.012503688,0.5235896,0.03396098,-1.5328222e-05,0.008546751,0.8173862662336757,1.2028087588675967e-05,0.5760900030619309,6.75171160939191e-06,0.9999999995133467,-3.045851140038538e-05,-0.5760900031479326,2.878596247032471e-05,0.8173862657546819,0.06259616,-0.017686348,0.109042294,-1.7175305,0.4354921,-0.15673709,0.07482286,-0.032591652,0.0016371476,0.012708405,0.0026165728437226865,-0.5123820739969348,-0.8587536106434448,0.9891038293138964,-0.1250801852504681,0.07764381555729477,-0.14719635995207248,-0.8495996454238364,0.5064717900461502,left_images/camera_left_110.png,right_images/camera_right_110.png
2025-06-02 14:29:12,5.790022611618042,111,-0.102643,0.00016688727,0.11000524,-7.379384e-06,-0.00019721045,0.012503688,0.5235896,0.03396098,-1.5328222e-05,0.008546751,0.8173862662336757,1.2028087588675967e-05,0.5760900030619309,6.75171160939191e-06,0.9999999995133467,-3.045851140038538e-05,-0.5760900031479326,2.878596247032471e-05,0.8173862657546819,0.062192872,-0.016664006,0.10928181,-1.7182957,0.44021133,-0.15398441,0.087274194,-0.03244943,0.0015711561,0.012550378,0.000494262925168687,-0.5086943423502575,-0.8609470493386917,0.9892183908876211,-0.12583444597744647,0.0749177371204891,-0.14644702398432824,-0.8517016838461622,0.5031476034920026,left_images/camera_left_111.png,right_images/camera_right_111.png
2025-06-02 14:29:12,5.8465940952301025,112,-0.102643,0.00016688902,0.11000524,-7.387775e-06,-0.00019722102,0.012503688,0.5235896,0.03396098,-1.5328222e-05,0.008546751,0.8173862662336757,1.2028087588675967e-05,0.5760900030619309,6.75171160939191e-06,0.9999999995133467,-3.045851140038538e-05,-0.5760900031479326,2.878596247032471e-05,0.8173862657546819,0.061702378,-0.015881272,0.10950861,-1.7195656,0.44559032,-0.15126537,0.08398287,-0.03231629,0.0015359481,0.012407796,-0.0021231314496003018,-0.5044329116256575,-0.8634482786952031,0.9893227125297365,-0.12688696536294186,0.07169566579499725,-0.14572598527940045,-0.8540767738850208,0.4993163341254749,left_images/camera_left_112.png,right_images/camera_right_112.png
2025-06-02 14:29:13,5.901085138320923,113,-0.102643,0.00016689076,0.11000524,-7.396166e-06,-0.00019723158,0.012503688,0.5235896,0.03396098,-1.5328222e-05,0.008546751,0.8173862662336757,1.2028087588675967e-05,0.5760900030619309,6.75171160939191e-06,0.9999999995133467,-3.045851140038538e-05,-0.5760900031479326,2.878596247032471e-05,0.8173862657546819,0.061698705,-0.01556465,0.10971345,-1.7190603,0.44907466,-0.14925058,0.07667001,-0.03217121,0.0015268852,0.01228803,-0.0030142537138446723,-0.5015421488529054,-0.8651279600143316,0.9895350550480803,-0.12630148569302613,0.06977327240947884,-0.1442611836411361,-0.8558641291909275,0.4966742425964064,left_images/camera_left_113.png,right_images/camera_right_113.png
2025-06-02 14:29:13,5.956531524658203,114,-0.102643,0.00016689251,0.11000524,-7.404557e-06,-0.00019724215,0.012503688,0.5235896,0.03396098,-1.5328222e-05,0.008546751,0.8173862662336757,1.2028087588675967e-05,0.5760900030619309,6.75171160939191e-06,0.9999999995133467,-3.045851140038538e-05,-0.5760900031479326,2.878596247032471e-05,0.8173862657546819,0.062013388,-0.015920565,0.10970562,-1.7212945,0.452157,-0.14881995,0.07860997,-0.032119878,0.0015951693,0.012364628,-0.005144570748203403,-0.4983425674575499,-0.8669649467260103,0.9894788668873831,-0.1278911455305487,0.06764190179278345,-0.14458597917874777,-0.8574955045682171,0.4937573840158964,left_images/camera_left_114.png,right_images/camera_right_114.png
2025-06-02 14:29:13,6.012344121932983,115,-0.102643,0.00016689426,0.11000524,-7.412948e-06,-0.00019725271,0.012503688,0.5235896,0.03396098,-1.5328222e-05,0.008546751,0.8173862662336757,1.2028087588675967e-05,0.5760900030619309,6.75171160939191e-06,0.9999999995133467,-3.045851140038538e-05,-0.5760900031479326,2.878596247032471e-05,0.8173862657546819,0.062845714,-0.01638711,0.10967874,-1.7195637,0.455559,-0.14610259,0.092763156,-0.032031607,0.0016650794,0.0124936765,-0.0059686055752274925,-0.49488407226191683,-0.8689385080481524,0.9899214722903602,-0.12587592566772943,0.06489013820125233,-0.14149153489157135,-0.8597935835761709,0.49064767317829316,left_images/camera_left_115.png,right_images/camera_right_115.png
2025-06-02 14:29:13,6.067098140716553,116,-0.102643,0.000166896,0.11000524,-7.421339e-06,-0.00019726327,0.012503688,0.5235896,0.03396098,-1.5328222e-05,0.008546751,0.8173862662336757,1.2028087588675967e-05,0.5760900030619309,6.75171160939191e-06,0.9999999995133467,-3.045851140038538e-05,-0.5760900031479326,2.878596247032471e-05,0.8173862657546819,0.062522024,-0.015610077,0.109751485,-1.7189835,0.46034932,-0.14266478,0.10726232,-0.031975985,0.001618513,0.012480935,-0.0077621291982725715,-0.4911662235552745,-0.8710312796844668,0.9901863409695733,-0.1253243015398824,0.06184520677327471,-0.13953766340167012,-0.862003225215539,0.4873188691302764,left_images/camera_left_116.png,right_images/camera_right_116.png
2025-06-02 14:29:13,6.12303352355957,117,-0.102643,0.00016689775,0.11000524,-7.42973e-06,-0.00019727384,0.012503688,0.5235896,0.03396098,-1.5328222e-05,0.008546751,0.8173862662336757,1.2028087588675967e-05,0.5760900030619309,6.75171160939191e-06,0.9999999995133467,-3.045851140038538e-05,-0.5760900031479326,2.878596247032471e-05,0.8173862657546819,0.062194422,-0.01478824,0.10995484,-1.7171501,0.4622473,-0.14136113,0.096571445,-0.031874646,0.0015317498,0.0123162465,-0.006853535832631041,-0.49008437297127133,-0.8716480576562693,0.9903607290154233,-0.12391825201879081,0.061886131246401965,-0.13834252950784975,-0.8628218670073003,0.48620959507542266,left_images/camera_left_117.png,right_images/camera_right_117.png
2025-06-02 14:29:13,6.173387765884399,118,-0.102643,0.0001668995,0.11000524,-7.438121e-06,-0.0001972844,0.012503688,0.5235896,0.03396098,-1.5328222e-05,0.008546751,0.8173862662336757,1.2028087588675967e-05,0.5760900030619309,6.75171160939191e-06,0.9999999995133467,-3.045851140038538e-05,-0.5760900031479326,2.878596247032471e-05,0.8173862657546819,0.062245023,-0.014771621,0.109962896,-1.7175648,0.46345043,-0.14070937,0.10347201,-0.031854793,0.0015422441,0.01233101,-0.007664336179985409,-0.4889564858130526,-0.8722745054925487,0.9903856636284227,-0.12419848664985889,0.06091775761773893,-0.13812130621380952,-0.8634212708146789,0.4852073926421115,left_images/camera_left_118.png,right_images/camera_right_118.png
2025-06-02 14:29:13,6.228634595870972,119,-0.102643,0.00016690124,0.11000524,-7.446512e-06,-0.00019729497,0.012503688,0.5235896,0.03396098,-1.5328222e-05,0.008546751,0.8173862662336757,1.2028087588675967e-05,0.5760900030619309,6.75171160939191e-06,0.9999999995133467,-3.045851140038538e-05,-0.5760900031479326,2.878596247032471e-05,0.8173862657546819,0.062151052,-0.014510084,0.10980227,-1.719612,0.46638498,-0.14001833,0.10962927,-0.031925518,0.0015408266,0.012503939,-0.009621662518485619,-0.4862834457554568,-0.8737481524985218,0.990278150177103,-0.12589346723884398,0.05916096845384733,-0.13876818400553992,-0.8646844773041678,0.48276717557951554,left_images/camera_left_119.png,right_images/camera_right_119.png
2025-06-02 14:29:13,6.286039352416992,120,-0.102643,0.00016690299,0.11000524,-7.454903e-06,-0.00019730553,0.012503688,0.5235896,0.03396098,-1.5328222e-05,0.008546751,0.8173862662336757,1.2028087588675967e-05,0.5760900030619309,6.75171160939191e-06,0.9999999995133467,-3.045851140038538e-05,-0.5760900031479326,2.878596247032471e-05,0.8173862657546819,0.06252255,-0.014197562,0.10971147,-1.7205505,0.4671957,-0.1406723,0.10229038,-0.031935852,0.0015088384,0.012618279,-0.009544946663822718,-0.4851729230552262,-0.8743661296775123,0.9901391888551072,-0.12679957068866837,0.0595504455610496,-0.13976151360991668,-0.8651757645745844,0.481599019627582,left_images/camera_left_120.png,right_images/camera_right_120.png
2025-06-02 14:29:13,6.339226961135864,121,-0.102643,0.00016690473,0.11000524,-7.463294e-06,-0.0001973161,0.012503688,0.5235896,0.03396098,-1.5328222e-05,0.008546751,0.8173862662336757,1.2028087588675967e-05,0.5760900030619309,6.75171160939191e-06,0.9999999995133467,-3.045851140038538e-05,-0.5760900031479326,2.878596247032471e-05,0.8173862657546819,0.06224106,-0.013596195,0.10979029,-1.7188474,0.46830484,-0.13898872,0.115261674,-0.031906515,0.001447273,0.012547778,-0.009249879194434318,-0.48469915199525637,-0.8746320207892964,0.9903364082585233,-0.12547991332468,0.05906428556783244,-0.13837715928756472,-0.8656335965101576,0.48117589131251554,left_images/camera_left_121.png,right_images/camera_right_121.png
2025-06-02 14:29:13,6.390100002288818,122,-0.102643,0.00016690648,0.11000524,-7.471685e-06,-0.00019732666,0.012503688,0.5235896,0.03396098,-1.5328222e-05,0.008546751,0.8173862662336757,1.2028087588675967e-05,0.5760900030619309,6.75171160939191e-06,0.9999999995133467,-3.045851140038538e-05,-0.5760900031479326,2.878596247032471e-05,0.8173862657546819,0.061688837,-0.013125649,0.109926715,-1.718803,0.47098833,-0.13885623,0.107739896,-0.031855438,0.0014041101,0.012438515,-0.008967834968039046,-0.4828926117406834,-0.8756336582511248,0.9903427437747216,-0.12544301868679658,0.05903642024631989,-0.13835038051534992,-0.8666480107800429,0.47935414634928564,left_images/camera_left_122.png,right_images/camera_right_122.png
2025-06-02 14:29:13,6.451523303985596,123,-0.102643,0.00016690823,0.11000524,-7.480076e-06,-0.00019733723,0.012503688,0.5235896,0.03396098,-1.5328222e-05,0.008546751,0.8173862662336757,1.2028087588675967e-05,0.5760900030619309,6.75171160939191e-06,0.9999999995133467,-3.045851140038538e-05,-0.5760900031479326,2.878596247032471e-05,0.8173862657546819,0.061835703,-0.012917758,0.109854735,-1.7164222,0.47097626,-0.13735734,0.11493923,-0.03188218,0.0013740545,0.012505808,-0.008187017009689157,-0.4830640074988073,-0.8755467648342237,0.9906057912595791,-0.12344095918430686,0.05884297679962752,-0.13650325664784074,-0.8668399473114115,0.4795366166099135,left_images/camera_left_123.png,right_images/camera_right_123.png
2025-06-02 14:29:13,6.504712820053101,124,-0.102643,0.00016690997,0.11000524,-7.488467e-06,-0.00019734779,0.012503688,0.5235896,0.03396098,-1.5328222e-05,0.008546751,0.8173862662336757,1.2028087588675967e-05,0.5760900030619309,6.75171160939191e-06,0.9999999995133467,-3.045851140038538e-05,-0.5760900031479326,2.878596247032471e-05,0.8173862657546819,0.061702482,-0.012235154,0.109831095,-1.7163205,0.47267652,-0.13599016,0.12208401,-0.031891666,0.0013137774,0.012540972,-0.008833890497621788,-0.48176448681745365,-0.8762562077498748,0.9906483128054847,-0.12353138978173578,0.057930269067556994,-0.13615389349674395,-0.8675499841393051,0.4783504388056615,left_images/camera_left_124.png,right_images/camera_right_124.png
2025-06-02 14:29:13,6.5548412799835205,125,-0.102643,0.000166886,0.11000524,-7.4623017e-06,-0.0001973321,0.0125036985,0.5235896,0.03396098,-1.5328222e-05,0.008546751,0.8173862662336757,1.2028087588675967e-05,0.5760900030619309,6.75171160939191e-06,0.9999999995133467,-3.045851140038538e-05,-0.5760900031479326,2.878596247032471e-05,0.8173862657546819,0.06184787,-0.012259118,0.10973332,-1.71583,0.4718424,-0.13629508,0.122318566,-0.03194027,0.0013065094,0.012619399,-0.008210242783771748,-0.48241542825213546,-0.875904073799032,0.9906595973436753,-0.12315207206597495,0.0585416888783018,-0.1361108155302087,-0.8672421355827711,0.4789205823156234,left_images/camera_left_125.png,right_images/camera_right_125.png
2025-06-02 14:29:13,6.6074981689453125,126,-0.102643,0.00016688349,0.11000524,-7.470685e-06,-0.00019734268,0.0125036985,0.5235896,0.03396098,-1.5328222e-05,0.008546751,0.8173862662336757,1.2028087588675967e-05,0.5760900030619309,6.75171160939191e-06,0.9999999995133467,-3.045851140038538e-05,-0.5760900031479326,2.878596247032471e-05,0.8173862657546819,0.062024336,-0.011694687,0.10950993,-1.715264,0.4711633,-0.13610837,0.12137732,-0.03205386,0.0012368651,0.0128058065,-0.007618209585454672,-0.48295308170291634,-0.8756130902152893,0.9906439788808645,-0.12296197030754685,0.05920186623051005,-0.13625883453854037,-0.8669698234262495,0.4793713125317957,left_images/camera_left_126.png,right_images/camera_right_126.png
2025-06-02 14:29:13,6.662219524383545,127,-0.102643,0.00016688523,0.11000524,-7.479076e-06,-0.00019735325,0.0125036985,0.5235896,0.03396098,-1.5328222e-05,0.008546751,0.8173862662336757,1.2028087588675967e-05,0.5760900030619309,6.75171160939191e-06,0.9999999995133467,-3.045851140038538e-05,-0.5760900031479326,2.878596247032471e-05,0.8173862657546819,0.061751675,-0.011877769,0.10932165,-1.7118596,0.47229615,-0.13376728,0.12855439,-0.03217194,0.001250075,0.012959031,-0.006926429759897379,-0.48257449597804664,-0.8758275403310378,0.9910936242647161,-0.11979187756823712,0.05816643370971064,-0.13298666291253003,-0.867624205460066,0.4791062362223835,left_images/camera_left_127.png,right_images/camera_right_127.png
2025-06-02 14:29:13,6.713621377944946,128,-0.102643,0.00016688698,0.11000524,-7.487467e-06,-0.00019736381,0.0125036985,0.5235896,0.03396098,-1.5328222e-05,0.008546751,0.8173862662336757,1.2028087588675967e-05,0.5760900030619309,6.75171160939191e-06,0.9999999995133467,-3.045851140038538e-05,-0.5760900031479326,2.878596247032471e-05,0.8173862657546819,0.06172007,-0.011234858,0.10910222,-1.7132802,0.4735425,-0.13389176,0.13161373,-0.032284584,0.0011906599,0.013159314,-0.007560583273521437,-0.4814065451206425,-0.8764648172605509,0.9909240266457203,-0.12124423780305565,0.05804660382647442,-0.13421032373403957,-0.8680711797511554,0.47795398930089644,left_images/camera_left_128.png,right_images/camera_right_128.png
2025-06-02 14:29:13,6.773798704147339,129,-0.102643,0.00016686486,0.11000524,-7.4593954e-06,-0.00019731723,0.0125036705,0.5235896,0.03396098,-1.5328222e-05,0.008546751,0.8173862662336757,1.2028087588675967e-05,0.5760900030619309,6.75171160939191e-06,0.9999999995133467,-3.045851140038538e-05,-0.5760900031479326,2.878596247032471e-05,0.8173862657546819,0.061969586,-0.011207659,0.10900396,-1.7129894,0.4729184,-0.1352579,0.12655279,-0.032322627,0.0011700669,0.01324971,-0.006115487510572282,-0.4817657649360993,-0.8762786934235267,0.9908537872020629,-0.12104726358348233,0.05963499280019985,-0.13480123589877419,-0.8678993649695141,0.47809969575986655,left_images/camera_left_129.png,right_images/camera_right_129.png
2025-06-02 14:29:13,6.832832336425781,130,-0.102643,0.00016686264,0.11000524,-7.4677782e-06,-0.0001973278,0.0125036705,0.5235896,0.03396098,-1.5328222e-05,0.008546751,0.8173862662336757,1.2028087588675967e-05,0.5760900030619309,6.75171160939191e-06,0.9999999995133467,-3.045851140038538e-05,-0.5760900031479326,2.878596247032471e-05,0.8173862657546819,0.061901998,-0.010977954,0.10877388,-1.7110605,0.47327617,-0.13431832,0.14343598,-0.032452457,0.001135584,0.013441093,-0.005209298934673701,-0.4817405589869182,-0.8762984063842527,0.9910427942692674,-0.11942621045198809,0.05976253160668554,-0.13344303328226564,-0.8681379003845237,0.47804763652211396,left_images/camera_left_130.png,right_images/camera_right_130.png
2025-06-02 14:29:14,6.894104719161987,131,-0.102643,0.00016686438,0.11000524,-7.4761692e-06,-0.00019733836,0.0125036705,0.5235896,0.03396098,-1.5328222e-05,0.008546751,0.8173862662336757,1.2028087588675967e-05,0.5760900030619309,6.75171160939191e-06,0.9999999995133467,-3.045851140038538e-05,-0.5760900031479326,2.878596247032471e-05,0.8173862657546819,0.06265953,-0.011406722,0.10866076,-1.6993659,0.47025433,-0.13105462,0.13870034,-0.03247696,0.0011067048,0.0135333,0.001247205179318478,-0.4849042748084461,-0.8745663432534638,0.9920980411091024,-0.10912225514749369,0.061917770139167994,-0.1254588430790043,-0.8677327801253217,0.4809364833210905,left_images/camera_left_131.png,right_images/camera_right_131.png
2025-06-02 14:29:14,6.948398113250732,132,-0.102643,0.00016686613,0.11000524,-7.4845602e-06,-0.00019734893,0.0125036705,0.5235896,0.03396098,-1.5328222e-05,0.008546751,0.8173862662336757,1.2028087588675967e-05,0.5760900030619309,6.75171160939191e-06,0.9999999995133467,-3.045851140038538e-05,-0.5760900031479326,2.878596247032471e-05,0.8173862657546819,0.06351108,-0.011406628,0.108448185,-1.6991869,0.47023672,-0.13054922,0.14421937,-0.03252124,0.0011072941,0.013766915,0.0010578284026273588,-0.4841988848523562,-0.8749573251918095,0.9921412362753783,-0.10896532824847704,0.06150060586421985,-0.12511853692013447,-0.8681462993916618,0.48027841360145324,left_images/camera_left_132.png,right_images/camera_right_132.png
2025-06-02 14:29:14,7.000488042831421,133,-0.102643,0.00016686787,0.11000524,-7.492951e-06,-0.00019735949,0.0125036705,0.5235896,0.03396089,-1.534935e-05,0.008546662,0.8173862335020754,1.1664095640784342e-05,0.5760900495106988,7.1157050712607114e-06,0.9999999995143305,-3.0343129545243467e-05,-0.5760900495848346,2.8901343258458217e-05,0.8173862330220978,0.06369792,-0.011662237,0.10825617,-1.7019268,0.4696169,-0.13163973,0.1384853,-0.03261707,0.0011447009,0.013931429,-0.00040231767776882643,-0.4842800154811293,-0.874912969812474,0.9919016582129454,-0.11131389905564743,0.06115812547354876,-0.12700763195530945,-0.8678030205539886,0.48040293394449446,left_images/camera_left_133.png,right_images/camera_right_133.png
2025-06-02 14:29:14,7.053133010864258,134,-0.102643,0.00016685818,0.11000524,-7.5097605e-06,-0.00019729044,0.012503726,0.5235896,0.03396089,-1.534935e-05,0.008546662,0.8173862335020754,1.1664095640784342e-05,0.5760900495106988,7.1157050712607114e-06,0.9999999995143305,-3.0343129545243467e-05,-0.5760900495848346,2.8901343258458217e-05,0.8173862330220978,0.06452151,-0.011628477,0.1081418,-1.6977358,0.46937907,-0.13023292,0.14329797,-0.032611914,0.0011170674,0.014075823,0.0019269487561339727,-0.4841973346127036,-0.8749567006557781,0.9922703343305781,-0.10763930049040582,0.06175244608449937,-0.12408009701791062,-0.8683125716836592,0.480247235681931,left_images/camera_left_134.png,right_images/camera_right_134.png
2025-06-02 14:29:14,7.115013122558594,135,-0.102643,0.00016684773,0.11000524,-7.52657e-06,-0.00019722138,0.012503782,0.5235896,0.03396089,-1.534935e-05,0.008546662,0.8173862335020754,1.1664095640784342e-05,0.5760900495106988,7.1157050712607114e-06,0.9999999995143305,-3.0343129545243467e-05,-0.5760900495848346,2.8901343258458217e-05,0.8173862330220978,0.065271236,-0.01151488,0.10801784,-1.7019924,0.4704934,-0.13116367,0.14375854,-0.032606266,0.0011324643,0.014248788,-0.0005365295697080108,-0.4821557716458772,-0.8760853405945049,0.9919232390096896,-0.11137796659527172,0.060689673500760044,-0.12683848015703736,-0.8689768468869993,0.478321272290687,left_images/camera_left_135.png,right_images/camera_right_135.png
2025-06-02 14:29:14,7.165382385253906,136,-0.102643,0.00016683729,0.11000524,-7.543379e-06,-0.00019715232,0.012503838,0.5235896,0.03396089,-1.534935e-05,0.008546662,0.8173862335020754,1.1664095640784342e-05,0.5760900495106988,7.1157050712607114e-06,0.9999999995143305,-3.0343129545243467e-05,-0.5760900495848346,2.8901343258458217e-05,0.8173862330220978,0.06561144,-0.011180998,0.10790466,-1.7008871,0.4704187,-0.13192464,0.15215594,-0.03264069,0.0010784634,0.014365166,0.0012621818152141473,-0.48205795301979903,-0.8761384233255762,0.9919176666829921,-0.11055838187559092,0.062259029218417694,-0.12687690656393746,-0.8691357627709335,0.4780222551862556,left_images/camera_left_136.png,right_images/camera_right_136.png
2025-06-02 14:29:14,7.21903133392334,137,-0.104587875,-0.0038535246,0.11001027,0.10220344,0.026045447,0.043270968,0.52358997,0.03397806,-8.310011e-05,0.008543665,0.8292867946556299,0.06945278780089462,0.5544905071112355,-0.10097582222200918,0.9945373031783536,0.026446850725876724,-0.5496246860689397,-0.07792215893705405,0.8317697046720373,0.06610954,-0.011390463,0.10783111,-1.6993495,0.4700316,-0.12917088,0.15562534,-0.032642487,0.0011122769,0.014450349,3.806881828560815e-05,-0.4821041486891223,-0.8761139128946083,0.9922092356422426,-0.10913036390623565,0.06009489479089719,-0.1245826282312325,-0.8692906035903234,0.4783440344067952,left_images/camera_left_137.png,right_images/camera_right_137.png
