jiaqis7/OS_Teleop_Extension/rollout_9/teleop_log.csv
Epoch Time (Seconds),Time (Seconds),Frame Number,PSM1_joint_1,PSM1_joint_2,PSM1_joint_3,PSM1_joint_4,PSM1_joint_5,PSM1_joint_6,PSM1_jaw_angle,PSM1_ee_x,PSM1_ee_y,PSM1_ee_z,"PSM1_Orientation_Matrix_[1,1]","PSM1_Orientation_Matrix_[1,2]","PSM1_Orientation_Matrix_[1,3]","PSM1_Orientation_Matrix_[2,1]","PSM1_Orientation_Matrix_[2,2]","PSM1_Orientation_Matrix_[2,3]","PSM1_Orientation_Matrix_[3,1]","PSM1_Orientation_Matrix_[3,2]","PSM1_Orientation_Matrix_[3,3]",PSM2_joint_1,PSM2_joint_2,PSM2_joint_3,PSM2_joint_4,PSM2_joint_5,PSM2_joint_6,PSM2_jaw_angle,PSM2_ee_x,PSM2_ee_y,PSM2_ee_z,"PSM2_Orientation_Matrix_[1,1]","PSM2_Orientation_Matrix_[1,2]","PSM2_Orientation_Matrix_[1,3]","PSM2_Orientation_Matrix_[2,1]","PSM2_Orientation_Matrix_[2,2]","PSM2_Orientation_Matrix_[2,3]","PSM2_Orientation_Matrix_[3,1]","PSM2_Orientation_Matrix_[3,2]","PSM2_Orientation_Matrix_[3,3]",Camera Left,Camera Right
2025-06-02 14:22:00,0.0010552406311035156,1,-0.07672277,0.06401493,0.11569941,0.12913539,-0.12963277,0.096962556,0.00072348013,0.034195952,-0.0053355303,0.0018008305,0.872215881874004,0.1427046881248367,0.4678406004120918,-0.13415286846030441,0.9896083976702601,-0.05175159074243612,-0.47036418155576615,-0.017623599169676728,0.882296404538566,0.037262835,-0.02056073,0.10685923,-0.0457164,0.042342305,-0.012353358,0.19262731,-0.04173197,0.0014707248,0.0071308725,0.8518337031028356,-0.027059061801603806,-0.523112941373588,0.0454186010285165,0.998719141007506,0.02229861129850008,0.5218395279573236,-0.04275376661355279,0.85197160897628,left_images/camera_left_1.png,right_images/camera_right_1.png
2025-06-02 14:22:00,0.05559587478637695,2,-0.08238152,0.069439374,0.11596293,0.14241976,-0.14864346,0.11070982,0.0004546721,0.033699654,-0.0056853658,0.0019004801,0.8749395953552271,0.160836569455397,0.45674095766139855,-0.14930585220920764,0.9868762867671435,-0.06150574861570093,-0.46063919392048525,-0.014380283116643057,0.8874709800786567,0.038022347,-0.021853395,0.10695847,-0.048002385,0.042442143,-0.012810315,0.21929389,-0.041611608,0.0016124588,0.007091568,0.8515289019300917,-0.02959049785805331,-0.5234719969723736,0.04770524719611401,0.9986374835539635,0.02115149713293945,0.5221328744368523,-0.04298347214359994,0.8517803018119111,left_images/camera_left_2.png,right_images/camera_right_2.png
2025-06-02 14:22:00,0.1120152473449707,3,-0.08896995,0.07455256,0.11620278,0.15834086,-0.16838032,0.12458231,0.0007014256,0.03314528,-0.005996421,0.0020805607,0.8767213899542238,0.1815803553347387,0.44540787931203407,-0.16740585109593686,0.9833027785499902,-0.07135073030259453,-0.45092669627732007,-0.012009173675927753,0.8924801926833125,0.038766112,-0.022706034,0.10708273,-0.04873623,0.04206462,-0.013207451,0.24596049,-0.041479852,0.0017157029,0.0070293657,0.8512880369879252,-0.03083419581855145,-0.5237918770365457,0.048445312637355166,0.9986266036148842,0.019948890597467323,0.5224573951670255,-0.0423575131567474,0.8516126533315849,left_images/camera_left_3.png,right_images/camera_right_3.png
2025-06-02 14:22:00,0.16130638122558594,4,-0.09613034,0.07876372,0.11636231,0.17598298,-0.18860233,0.14044616,0.0015361232,0.032613534,-0.0062014894,0.0023542196,0.8784623124140601,0.20434963307984705,0.43190877871174865,-0.1877552431195324,0.9788497077276116,-0.08124788220436774,-0.439376756723962,-0.00971993527249062,0.8982502927965185,0.038848877,-0.02319266,0.107184194,-0.051061478,0.042554658,-0.013681229,0.27262706,-0.04142041,0.001761995,0.006948094,0.8513549055887882,-0.03278837256940952,-0.523564463417978,0.05075632851586546,0.998510757415202,0.020001560981813646,0.5221289302897275,-0.043602636965776057,0.8517512490182422,left_images/camera_left_4.png,right_images/camera_right_4.png
2025-06-02 14:22:00,0.21688175201416016,5,-0.103980035,0.08310679,0.11662652,0.19307685,-0.20654958,0.15725058,0.0030897488,0.031965286,-0.0064830044,0.0025928859,0.8799994356144714,0.22520003524433424,0.4181936602151715,-0.20754547754278962,0.9742669136431807,-0.08791391091133621,-0.4272304624786804,-0.0094300109300881,0.9040935830012904,0.039089352,-0.023681428,0.10723707,-0.054293137,0.042873442,-0.01390877,0.2992261,-0.041369684,0.0018106744,0.0069186995,0.8511523053046527,-0.0355921813450114,-0.5237107501299544,0.05397969729716285,0.9983441054332937,0.019880629424236455,0.522135945376568,-0.045191191328631385,0.8516641420020084,left_images/camera_left_5.png,right_images/camera_right_5.png
2025-06-02 14:22:00,0.2697148323059082,6,-0.11148435,0.08719388,0.11691463,0.21006396,-0.22342423,0.17443275,0.0014484837,0.03134504,-0.0067670494,0.0027933,0.8814100241338064,0.24536591367717606,0.4036235099220652,-0.22730504467193594,0.9693805307531814,-0.09291826119428667,-0.4140637463279442,-0.009846573111751064,0.9101946269753646,0.038712647,-0.024203984,0.10725418,-0.058321718,0.04444654,-0.014216073,0.31270227,-0.041394923,0.0018391617,0.0068848375,0.8512539076001444,-0.038441791497055885,-0.5233440679533705,0.057979020510063387,0.9980970663679833,0.020992362618807936,0.5215411948985227,-0.04821280715870792,0.8518628453276377,left_images/camera_left_6.png,right_images/camera_right_6.png
2025-06-02 14:22:00,0.3309447765350342,7,-0.120736405,0.09122181,0.11708037,0.23138858,-0.24721226,0.19181521,0.0018244104,0.030687816,-0.0069357273,0.0032073539,0.8806580218653772,0.2725054657625415,0.3875335077818447,-0.25256654186683564,0.9621248020564378,-0.10259633130520968,-0.4008136605126985,-0.007525715740094106,0.9161286880940966,0.038339667,-0.02491298,0.10716695,-0.062422138,0.045034725,-0.014728974,0.32364434,-0.04147756,0.001903627,0.006937758,0.8514335054233624,-0.04197870431407312,-0.5227798525446412,0.06206043616247772,0.99785251241461,0.020949122443998797,0.5207777722846936,-0.05028073042391336,0.8522102792399477,left_images/camera_left_7.png,right_images/camera_right_7.png
2025-06-02 14:22:00,0.3884847164154053,8,-0.13161302,0.09616969,0.11736876,0.2533351,-0.2679961,0.21247062,0.0005535281,0.02983639,-0.0073042186,0.0036376212,0.8800055731364405,0.2976211606943387,0.3701510988174418,-0.2781476956078008,0.9546376997427618,-0.10630485246647417,-0.3849987671108508,-0.009407812540822444,0.9228691361110315,0.03801924,-0.025519961,0.10708447,-0.07227654,0.050534062,-0.014202242,0.33589816,-0.041535676,0.0018668243,0.00700231,0.8506192953565884,-0.04767587315870449,-0.5236161050670771,0.07182948042379392,0.9970805368945272,0.025902291176058353,0.5208525128182728,-0.05964406143679876,0.851560476904732,left_images/camera_left_8.png,right_images/camera_right_8.png
2025-06-02 14:22:01,0.439455509185791,9,-0.14041293,0.09988202,0.117769845,0.26950896,-0.2843974,0.23151657,0.0011001694,0.029066695,-0.0076060994,0.003856958,0.8800623909751049,0.3164585817092569,0.3540397633794085,-0.2976479824508602,0.9485498279874525,-0.10797639727230718,-0.3699944141931259,-0.010353254924916469,0.9289762879526827,0.037536044,-0.026266512,0.10699883,-0.08426513,0.056307394,-0.014482826,0.35027212,-0.041613728,0.0018400074,0.007059506,0.8500408122735973,-0.05509827204407304,-0.5238270686848863,0.08369507404520525,0.9960074803055969,0.031052113549062486,0.5200247609968307,-0.07023730912452142,0.85125846154804,left_images/camera_left_9.png,right_images/camera_right_9.png
2025-06-02 14:22:01,0.4915952682495117,10,-0.15019336,0.10474547,0.1180148,0.28446364,-0.30320555,0.25230408,3.3307964e-07,0.028337402,-0.008002423,0.0042825444,0.8801292258694502,0.3348256251353462,0.3365476883343087,-0.3165065682808613,0.9422272531718094,-0.10968771861689589,-0.3538306628961301,-0.009980187023874272,0.9352562525112856,0.037031945,-0.027017126,0.10700475,-0.1007079,0.06322837,-0.0149401855,0.34467298,-0.04163879,0.0017947339,0.0070435023,0.8490063810853836,-0.06563739581147303,-0.5242898980024204,0.09995335199148885,0.994289692690082,0.037380936798424066,0.5188424542208991,-0.08414118659342917,0.8507189714686536,left_images/camera_left_10.png,right_images/camera_right_10.png
2025-06-02 14:22:01,0.5454506874084473,11,-0.16091213,0.10793717,0.11834596,0.302009,-0.31763786,0.2717868,3.1074055e-07,0.027439587,-0.008301494,0.004708778,0.8784064898171099,0.35345557100375996,0.3216693923480908,-0.33696364451552324,0.9353484760216055,-0.10760451049503642,-0.3389063896151857,-0.013870390422273123,0.9407178489576639,0.036354065,-0.028487006,0.10708748,-0.1211787,0.073774286,-0.0153098395,0.36016542,-0.041626204,0.0017655115,0.00696632,0.8472753871526354,-0.07796502076866706,-0.5254006793504298,0.1201339422829411,0.9916644865879385,0.04657662452174194,0.517389847442826,-0.10258168246242441,0.8495791571044263,left_images/camera_left_11.png,right_images/camera_right_11.png
2025-06-02 14:22:01,0.59342360496521,12,-0.172215,0.111175746,0.118662275,0.31667286,-0.33464485,0.2881189,2.1467824e-07,0.026484588,-0.008552169,0.0052190823,0.8754495873689209,0.3711493348831908,0.3095742095061402,-0.35508654974693243,0.9284596476267996,-0.10897809375071137,-0.3278743084848304,-0.014520810737857492,0.9446097521681162,0.03527332,-0.029164633,0.10722519,-0.13988057,0.0848615,-0.015112438,0.36559916,-0.04161256,0.0016428737,0.00682592,0.8453697777458244,-0.0880943261663038,-0.5268674677480858,0.13852030887606157,0.9887213428031333,0.05694058582811983,0.515908967651131,-0.12111769475544795,0.8480379950888228,left_images/camera_left_12.png,right_images/camera_right_12.png
2025-06-02 14:22:01,0.6428914070129395,13,-0.18148439,0.11539323,0.11902076,0.32693225,-0.3466808,0.30544275,3.3090964e-07,0.025665835,-0.009001956,0.0055770706,0.8749393111576353,0.38229308661683004,0.297209013517389,-0.36779477026978924,0.923886886739724,-0.1056410311979843,-0.3149733460996273,-0.016882429782392114,0.948950354239592,0.034811612,-0.029834813,0.107491836,-0.16423298,0.09845749,-0.01518684,0.38783097,-0.04145706,0.0014806113,0.0066285636,0.8421376510825458,-0.10141813674948158,-0.5296400080879803,0.1623829538250759,0.9842615569061276,0.06972061319128592,0.514233364277558,-0.14471886240220758,0.8453522922005922,left_images/camera_left_13.png,right_images/camera_right_13.png
2025-06-02 14:22:01,0.7025923728942871,14,-0.19186883,0.120897435,0.11942068,0.32816765,-0.36185864,0.322037,1.9448407e-07,0.024707075,-0.009522328,0.006036088,0.8757882061664048,0.3880041364537003,0.2871372634031487,-0.3731006694710826,0.921563843680207,-0.1073124990930368,-0.30625301366690405,-0.013148084125884724,0.9518593485929305,0.03374649,-0.03137168,0.10773442,-0.19017227,0.11385627,-0.014326117,0.4138649,-0.041349158,0.0013861768,0.006437854,0.8378510690423641,-0.11547116584886943,-0.5335466202330128,0.18776437837343737,0.978697303835912,0.08304291467881744,0.5125915765193616,-0.1697586443213411,0.8416839539634672,left_images/camera_left_14.png,right_images/camera_right_14.png
2025-06-02 14:22:01,0.7627801895141602,15,-0.20382382,0.1260584,0.11962344,0.31378344,-0.38039982,0.33485132,0.009964572,0.023659375,-0.009836306,0.006833451,0.8781375042179645,0.38515167154596797,0.2837828634558316,-0.3659781444344016,0.9228520133885659,-0.120017328669749,-0.3081144616570223,0.0015333916711141593,0.9513480578777602,0.032991234,-0.03343599,0.10752643,-0.22519273,0.13010347,-0.013132141,0.4401663,-0.04141866,0.0013299168,0.00667458,0.8307349679251672,-0.13651674117811385,-0.5396689656117716,0.221925347719505,0.9703099060072682,0.09616561934362669,0.5105179263316307,-0.19965436554774954,0.8363668938999065,left_images/camera_left_15.png,right_images/camera_right_15.png
2025-06-02 14:22:01,0.8143937587738037,16,-0.21638016,0.13079497,0.119738854,0.30199018,-0.39534947,0.3467643,0.019233204,0.022596952,-0.010156019,0.0077541918,0.8795467162962343,0.38268082836270617,0.2827595399913944,-0.36032109985776956,0.9238030548042747,-0.12944736741849117,-0.3107511526121814,0.011970778501149831,0.9504159203276624,0.032749355,-0.035925403,0.1075111,-0.2633438,0.14717823,-0.011441855,0.4501238,-0.041311167,0.0013235061,0.0068029216,0.8211960481393654,-0.15933995824761954,-0.5479487459844543,0.25891300540606094,0.959737476749817,0.10894049455319932,0.5085283730057648,-0.23133256024075266,0.8293878106293632,left_images/camera_left_16.png,right_images/camera_right_16.png
2025-06-02 14:22:01,0.8687052726745605,17,-0.22492743,0.13400581,0.11993721,0.29333386,-0.40488333,0.35431182,0.022769103,0.021786254,-0.010393116,0.008308818,0.8804475199575831,0.3804017630729785,0.28303120543768734,-0.35580310439418766,0.9246271833722456,-0.13589967870663347,-0.31339482367135496,0.01894915354512957,0.9494338387038472,0.03228293,-0.038189605,0.10750802,-0.29473627,0.16138671,-0.011413272,0.46442443,-0.041240755,0.0013443219,0.006890827,0.8132293292196424,-0.1777884902815204,-0.5541203035626725,0.28893272665421543,0.9498910470619949,0.11926809372010375,0.5051494210282053,-0.2570958020561299,0.8238481722987461,left_images/camera_left_17.png,right_images/camera_right_17.png
2025-06-02 14:22:01,0.9283950328826904,18,-0.23388933,0.13742335,0.12030002,0.28874692,-0.41663596,0.36113504,0.010324544,0.020859271,-0.010659632,0.008778708,0.8798048675050164,0.3821236191986844,0.282709983490112,-0.3553875476922942,0.9237725288669763,-0.1426324151655891,-0.31566293108272603,0.02501708538600174,0.9485415433069084,0.031351566,-0.040828113,0.107488886,-0.3312975,0.17908475,-0.01126368,0.46977454,-0.04118442,0.0013585745,0.0070035253,0.802993746895305,-0.1982102146846016,-0.562062054618281,0.32353463148246114,0.9369933373973012,0.1317908490927035,0.5005261078890365,-0.2876737674306641,0.8165276595766375,left_images/camera_left_18.png,right_images/camera_right_18.png
2025-06-02 14:22:01,0.9824035167694092,19,-0.24275234,0.14030989,0.12061803,0.27506477,-0.42512685,0.3666856,0.03075334,0.019893108,-0.01086029,0.009317143,0.8809448012988305,0.37645340080884343,0.286738720936013,-0.3462950943532466,0.925803694887441,-0.15154941820950177,-0.3225150611854282,0.03421045969025702,0.9459459179870386,0.031646177,-0.043703713,0.10735243,-0.373848,0.19846976,-0.012063762,0.49091247,-0.041044712,0.0013814389,0.0073203053,0.7895284467189196,-0.2213610325372825,-0.5724020659428458,0.3631292727568865,0.9203972646118935,0.1449344905879846,0.4947544472651707,-0.32228584916029435,0.8070624934553478,left_images/camera_left_19.png,right_images/camera_right_19.png
2025-06-02 14:22:01,1.0312085151672363,20,-0.25247976,0.14096409,0.12109321,0.26746312,-0.4352111,0.36570767,0.04989142,0.018712033,-0.010797814,0.009808927,0.8777688725527524,0.3773650211278077,0.29515664858965895,-0.34276648575035373,0.9250996981235106,-0.1634065016397525,-0.3347132244531469,0.04226333352918553,0.941371801157852,0.03170615,-0.047149535,0.10692305,-0.41801035,0.21602978,-0.013511602,0.49751326,-0.04107177,0.0014997829,0.007880216,0.7743365906225104,-0.24615611469023346,-0.5829322530309295,0.40343279310526403,0.9017669066195378,0.15510779339902703,0.487488282803179,-0.3552796269509957,0.7975785608974011,left_images/camera_left_20.png,right_images/camera_right_20.png
2025-06-02 14:22:01,1.0857758522033691,21,-0.2605973,0.14103946,0.121520184,0.25956407,-0.44400963,0.3621782,0.06509202,0.01767468,-0.010670833,0.010223377,0.8742877044917633,0.3778144032741189,0.3047577504398279,-0.33828939201250824,0.9245049000399146,-0.17564446206469192,-0.3481110412301376,0.05046747943784102,0.9360938716244543,0.031501707,-0.05032618,0.10647549,-0.4596664,0.2330454,-0.014934482,0.5099973,-0.04112671,0.0016069982,0.0084472485,0.7587232117523696,-0.26832364640104645,-0.5935836156180653,0.4406815309246662,0.8824877988661841,0.1643626269996002,0.4797279189812297,-0.386287076711561,0.7878092523673323,left_images/camera_left_21.png,right_images/camera_right_21.png
2025-06-02 14:22:01,1.1389429569244385,22,-0.26756132,0.14102918,0.12183156,0.25278452,-0.4508325,0.36101192,0.068221435,0.016833551,-0.010562774,0.010620637,0.8718117260478061,0.37794483416680336,0.3116119648732584,-0.3345011044152866,0.9240724439443371,-0.18493006647836874,-0.3578453932503517,0.056989654055519784,0.932040156785175,0.03128188,-0.053192873,0.10605726,-0.5066437,0.25175887,-0.018015506,0.5296744,-0.041137833,0.0016735562,0.009021171,0.7405248946407489,-0.29202017466132313,-0.6052661381640952,0.48148950175765537,0.8588607722811641,0.17471700985813243,0.46881845112417675,-0.4208115866125507,0.7766124313054454,left_images/camera_left_22.png,right_images/camera_right_22.png
2025-06-02 14:22:01,1.196427583694458,23,-0.27260223,0.14134274,0.12222729,0.25087696,-0.45659783,0.35801983,0.080312595,0.016111296,-0.010542968,0.010793791,0.8686985343915183,0.38028883375831213,0.3174007864904727,-0.33405615538205835,0.9228996574754531,-0.191475082668866,-0.36574491301641615,0.06030443723668985,0.928759405579389,0.031066375,-0.055467557,0.1057857,-0.5489338,0.26798323,-0.02317888,0.53635037,-0.041099943,0.0017213594,0.009447666,0.7242959306903657,-0.3124106627525439,-0.6146502929177644,0.5168472232003186,0.8360467442128777,0.1841053756987215,0.4563598937850448,-0.45102707157061384,0.7670138382421399,left_images/camera_left_23.png,right_images/camera_right_23.png
2025-06-02 14:22:01,1.249147891998291,24,-0.27654374,0.14180264,0.12257537,0.25431412,-0.46385697,0.35565087,0.09146488,0.015565217,-0.010539563,0.010889216,0.8650115477907423,0.3867496602954512,0.3196556310312982,-0.3387211837828372,0.9201106230319163,-0.19663265507176636,-0.37016615437586636,0.06181538356406062,0.9269066169304275,0.03074331,-0.05734603,0.10562419,-0.5832752,0.28214493,-0.026198396,0.54559684,-0.041028313,0.0017701569,0.00975921,0.7095479105712377,-0.32754472256830974,-0.6239040129071458,0.545030682039471,0.8163010705493888,0.1912958908484728,0.44663555415974215,-0.47578042933434206,0.7577266425452185,left_images/camera_left_24.png,right_images/camera_right_24.png
2025-06-02 14:22:01,1.303955078125,25,-0.27913225,0.14218688,0.12281149,0.2592248,-0.46985608,0.3520413,0.095615685,0.015208533,-0.0105354,0.010945511,0.8612788939728229,0.3933181330741067,0.32171340194659287,-0.3439930512360191,0.9173054823914981,-0.20054783139150195,-0.3739885659993956,0.062060439650392665,0.9253545560119729,0.029828224,-0.05893245,0.10549424,-0.61300665,0.29675636,-0.028742658,0.5662933,-0.040996715,0.0017846456,0.010012401,0.6963972855199335,-0.33873921539495755,-0.6326820407393248,0.5688501245765535,0.7980359895339612,0.19886702888561217,0.4375389771091344,-0.49839171678726757,0.7484419417350502,left_images/camera_left_25.png,right_images/camera_right_25.png
2025-06-02 14:22:01,1.3599565029144287,26,-0.28234532,0.1405651,0.122918665,0.27301377,-0.4744429,0.34491175,0.09899366,0.014883954,-0.010324004,0.011100633,0.8541446396631323,0.40586016441161243,0.32513760391335367,-0.356390209645038,0.912157164537786,-0.20237422180592168,-0.37871222980503794,0.05698099793936036,0.9237587417014957,0.028715491,-0.06120412,0.10542161,-0.64308834,0.30854297,-0.032168582,0.581111,-0.040969223,0.0019248633,0.010185773,0.6828734644481809,-0.3517384821328289,-0.6402842116899591,0.5923103203671104,0.7796041900591535,0.2034349803470926,0.42761234306220597,-0.5181672963716492,0.7407093472015494,left_images/camera_left_26.png,right_images/camera_right_26.png
2025-06-02 14:22:01,1.4128973484039307,27,-0.28413108,0.13933313,0.123324156,0.3003523,-0.47650263,0.33225185,0.09138024,0.01448776,-0.01029502,0.010889291,0.8432848813683123,0.42478994659869673,0.3292781652711095,-0.3782363984464583,0.9042997690582063,-0.19793724907537472,-0.38184792227519554,0.04237250228569531,0.923253342969396,0.027117679,-0.06269702,0.10540883,-0.65478677,0.31503373,-0.034167588,0.58962595,-0.0410459,0.0020176219,0.010189973,0.6782033157400746,-0.3562086435527285,-0.6427718605986841,0.6010947175408948,0.7720745791840399,0.20636371949114468,0.42275927318463485,-0.5263233287971503,0.7377386735831912,left_images/camera_left_27.png,right_images/camera_right_27.png
2025-06-02 14:22:02,1.46333909034729,28,-0.2862512,0.13849768,0.12377347,0.31859818,-0.48185307,0.32790068,0.11224718,0.014075053,-0.010249464,0.01069494,0.8362068313994131,0.43967444372535885,0.3277873070388022,-0.39468727691140565,0.8974631977581669,-0.19693085617532177,-0.3807625094008247,0.035301447625871674,0.9239987658164404,0.026485305,-0.06471285,0.1052098,-0.6834428,0.32621416,-0.03731526,0.6055682,-0.041041147,0.0021417453,0.010500003,0.6643261747132914,-0.3674730479938816,-0.650871947919782,0.6227400188424301,0.7536966254383691,0.21008632924334747,0.4133589269907387,-0.5448898565773644,0.7295405689035833,left_images/camera_left_28.png,right_images/camera_right_28.png
2025-06-02 14:22:02,1.511936902999878,29,-0.28784916,0.1373557,0.124251224,0.3382661,-0.4878433,0.32094568,0.11884643,0.013679824,-0.010158443,0.010437782,0.8277485788056963,0.4558195184729092,0.3272015538842614,-0.4119566487458706,0.8896189828442504,-0.19715421607775138,-0.38095145338903935,0.028401266561308147,0.9241587299909535,0.025042951,-0.06640705,0.10498517,-0.71127665,0.34063655,-0.04087823,0.6158163,-0.041100442,0.002189509,0.010818937,0.6511633162134484,-0.3757339398383694,-0.6594015029338661,0.6430543279912604,0.7345989892138881,0.21643811193420284,0.40307253301312074,-0.5649675490676175,0.7199612500898338,left_images/camera_left_29.png,right_images/camera_right_29.png
2025-06-02 14:22:02,1.5622758865356445,30,-0.29050705,0.13524225,0.12477864,0.35759923,-0.4939577,0.31431982,0.12594424,0.013149852,-0.009951441,0.010232884,0.818500051045963,0.4723085622581199,0.3270814706696536,-0.4291904898662945,0.8811588365074794,-0.1983800097114506,-0.3819073053059943,0.02199379145242432,0.9239388958645811,0.024860822,-0.0686665,0.104693405,-0.7437489,0.35482976,-0.044738434,0.6247159,-0.041062392,0.002323725,0.01128806,0.6342925485628172,-0.3856125868716961,-0.6700566361762301,0.666249443017135,0.7123026485633586,0.22076371198406217,0.3921538505702111,-0.5864536381469069,0.7087224335289616,left_images/camera_left_30.png,right_images/camera_right_30.png
2025-06-02 14:22:02,1.616811990737915,31,-0.29232326,0.1334329,0.12505214,0.3721535,-0.49439025,0.30630478,0.1349549,0.012796672,-0.009805046,0.010155565,0.8109777237742641,0.4823946095218006,0.331074874078693,-0.4404020697733728,0.8758380315280061,-0.1973670678418169,-0.3851767756254811,0.014254235632142273,0.9227327176844337,0.024327453,-0.07067681,0.10451747,-0.77514094,0.36982712,-0.04830995,0.65105206,-0.040987004,0.0024399469,0.011652242,0.617532112463686,-0.3935419075999407,-0.6810131107686088,0.6879971815020747,0.6898896011881326,0.2251937308578572,0.3812006929706963,-0.6075994611049943,0.6967847060201463,left_images/camera_left_31.png,right_images/camera_right_31.png
2025-06-02 14:22:02,1.6664314270019531,32,-0.29266584,0.13295627,0.12528135,0.3951074,-0.4996079,0.3006429,0.121083505,0.012722023,-0.009801847,0.00994426,0.8022147542810544,0.4991437345948737,0.32757750262872104,-0.45972543274760225,0.8665022085826593,-0.19449022856278314,-0.38092520853681683,0.00542722176219157,0.9245899257320116,0.02256231,-0.07207502,0.10441159,-0.7969031,0.3809477,-0.053428885,0.6687594,-0.04105659,0.0025046116,0.011812684,0.6079460601361346,-0.3988693554832208,-0.6865164420619158,0.7020489413776698,0.6739107744749541,0.23015549517024547,0.3708488531402582,-0.6218902678953642,0.689727208990328,left_images/camera_left_32.png,right_images/camera_right_32.png
2025-06-02 14:22:02,1.7246239185333252,33,-0.29309028,0.13030651,0.12567243,0.4091301,-0.50079805,0.29787692,0.14769185,0.012446504,-0.009572423,0.009645386,0.796339480765608,0.509677514181089,0.32568736989964425,-0.47180237788151297,0.860365513405929,-0.19280482246848002,-0.3784784638513952,-0.00012198335097342305,0.9256100893576896,0.02229653,-0.07382729,0.10441623,-0.82847583,0.39353576,-0.059728418,0.68412465,-0.040888425,0.002642847,0.0120155,0.592034442052123,-0.40689893919325304,-0.6956496767105098,0.722218996861213,0.6509089953474072,0.23391708007029355,0.35762402044160096,-0.6408983796665696,0.6792306875752532,left_images/camera_left_33.png,right_images/camera_right_33.png
2025-06-02 14:22:02,1.774606466293335,34,-0.29174468,0.13019899,0.12638554,0.4357272,-0.50630033,0.29354236,0.14734748,0.01221149,-0.009706275,0.008939204,0.7871458041814334,0.5281739365415118,0.3184866962964195,-0.4938718789621873,0.8490806895456061,-0.18749013257000174,-0.3694483050846536,-0.009709551946474618,0.9292005566459135,0.021818733,-0.07603158,0.10465706,-0.85430175,0.40911752,-0.064598255,0.7107908,-0.040608212,0.00280573,0.012035316,0.5784209404125746,-0.4093327546147262,-0.705603225397782,0.7380478733114327,0.6310211308943771,0.23895118552803407,0.34743999826258376,-0.6589833293523455,0.6671030049722412,left_images/camera_left_34.png,right_images/camera_right_34.png
2025-06-02 14:22:02,1.8230080604553223,35,-0.29075974,0.12957518,0.12695764,0.44830295,-0.5075969,0.29049557,0.16674525,0.011939886,-0.0097443815,0.008414749,0.7824484506879574,0.5365157855219415,0.3161095283312244,-0.5038681915836302,0.8437636286119362,-0.1848777556707698,-0.3659115569727982,-0.014620222891347803,0.93053478256127,0.021096671,-0.07708487,0.10463377,-0.88438773,0.4201202,-0.07309186,0.7173306,-0.04051782,0.002888649,0.012215438,0.5646572829151559,-0.4162960414082758,-0.7126427988541472,0.7554842804471616,0.6083425120863,0.2432342286475409,0.332273463954177,-0.675734410768261,0.6580101452527637,left_images/camera_left_35.png,right_images/camera_right_35.png
2025-06-02 14:22:02,1.8767693042755127,36,-0.29195896,0.12761608,0.12761688,0.46547475,-0.51074266,0.28567776,0.17463547,0.011425214,-0.009615617,0.0080000665,0.7741140388524914,0.5491833217653438,0.3148732029663156,-0.5179628077963253,0.8354411888293939,-0.18371867011024323,-0.36395327253815246,-0.02087340657660619,0.9311832882449391,0.020687947,-0.07885564,0.10438043,-0.9099405,0.43013707,-0.078169376,0.7231771,-0.040526796,0.003049476,0.01260106,0.5507728591404972,-0.4212306982233313,-0.7205650258710081,0.7702765331250776,0.5889966196796503,0.24445254043015438,0.32143945020954257,-0.6896721546359762,0.6488674741183725,left_images/camera_left_36.png,right_images/camera_right_36.png
2025-06-02 14:22:02,1.9232831001281738,37,-0.29275832,0.12610056,0.1281237,0.47799206,-0.51234907,0.2852866,0.18136838,0.011052327,-0.009538689,0.007663319,0.7689958988591794,0.5580334339706247,0.3118396929653367,-0.528579491822767,0.829416288803315,-0.1807549188601012,-0.3595122089194586,-0.025832275135743724,0.9327827534850561,0.020382715,-0.07993556,0.10420511,-0.94026077,0.4421601,-0.08453636,0.74984384,-0.04045475,0.0031495537,0.012965506,0.5345726485031024,-0.4257908113191025,-0.7300234711765089,0.7871181515523451,0.5653434132529346,0.24664111698648575,0.30769643964335736,-0.7064623203595095,0.6373648020898703,left_images/camera_left_37.png,right_images/camera_right_37.png
2025-06-02 14:22:02,1.9735352993011475,38,-0.29257232,0.12497235,0.12851089,0.49090013,-0.5146757,0.28448296,0.20344716,0.010865734,-0.009486412,0.007322834,0.7639004761326543,0.5672017730175618,0.3077957297462689,-0.5393823062177101,0.8230308658567149,-0.17800820651422355,-0.35429195630661503,-0.0300390168427703,0.9346522707208019,0.020658074,-0.080361895,0.10433159,-0.9672191,0.45119154,-0.093260266,0.7440081,-0.04022333,0.00320916,0.013053723,0.5221531492645526,-0.42990956941030056,-0.7365689722236202,0.8008411063659089,0.5441464209791349,0.2501163626998949,0.2932739522489803,-0.7204737570967095,0.6284170225791268,left_images/camera_left_38.png,right_images/camera_right_38.png
2025-06-02 14:22:02,2.030688762664795,39,-0.29185838,0.12489165,0.12883767,0.5003346,-0.5196025,0.2859016,0.18588476,0.010804324,-0.009512098,0.0069890907,0.7606846929760683,0.5750641693925568,0.3010979889550145,-0.5480791600058194,0.817536949836436,-0.17675567888883426,-0.34780458915779233,-0.030570193538576415,0.9370685305930372,0.020720817,-0.08128626,0.10443909,-0.9795521,0.45562285,-0.09913835,0.77053314,-0.04010484,0.0033028042,0.013050079,0.5175303113235242,-0.4315986639666184,-0.7388402872905661,0.8064646191655483,0.5346086167692309,0.2526033351130915,0.2859671220534684,-0.7265784335763895,0.6247452160410171,left_images/camera_left_39.png,right_images/camera_right_39.png
2025-06-02 14:22:02,2.0880486965179443,40,-0.29238516,0.12376999,0.12932545,0.50907123,-0.52060527,0.2862627,0.2105433,0.01045251,-0.00947264,0.0066585997,0.7570934767495957,0.58109490024197,0.2985601855170651,-0.5554196659396339,0.8131267027035881,-0.17416647219799813,-0.34397450799545426,-0.03396589853316921,0.9383644577594143,0.021879546,-0.08142475,0.10444068,-1.0109357,0.4634045,-0.108297266,0.76549494,-0.039852835,0.0033708496,0.013298809,0.5018165050937611,-0.43672342790677,-0.7466276466437896,0.8218648470955487,0.5098424003044966,0.2541631365095255,0.26966343527459097,-0.7411702735330861,0.6147749647690582,left_images/camera_left_40.png,right_images/camera_right_40.png
2025-06-02 14:22:02,2.1444976329803467,41,-0.29192436,0.12263155,0.1298335,0.5266305,-0.5238214,0.28279433,0.21215671,0.010219334,-0.009439982,0.006199939,0.7492480404653471,0.5931121098085087,0.294695434401921,-0.5692333019954844,0.8041517858711633,-0.17121142829710922,-0.3385274313230097,-0.03947062805071681,0.9401283145204843,0.022506788,-0.081554815,0.10471311,-1.0298004,0.4689474,-0.115293644,0.7747328,-0.039567087,0.0034238638,0.01322317,0.4934234788053925,-0.4387832256846824,-0.7510010329029712,0.8303490832169851,0.494684330584824,0.25653033558344934,0.2589472350968377,-0.7501711097686912,0.6084321124859482,left_images/camera_left_41.png,right_images/camera_right_41.png
2025-06-02 14:22:02,2.1994378566741943,42,-0.29254815,0.12154912,0.13052535,0.5414453,-0.5311393,0.28300008,0.23247938,0.009808328,-0.009379776,0.0057109958,0.7422246684707141,0.6054129828859848,0.2873632921349437,-0.5823433644522577,0.7948648677892092,-0.17048767648386914,-0.3316304379757139,-0.040803947205357974,0.942526546310765,0.024330746,-0.0818671,0.104764946,-1.0543189,0.47336903,-0.1237677,0.79279494,-0.039284226,0.0035177649,0.013408717,0.48149923781191517,-0.44252885841344936,-0.7565227646659644,0.8413083270438452,0.47532692720893605,0.25741913510226333,0.24568024510169983,-0.7604160188616492,0.6011727667030241,left_images/camera_left_42.png,right_images/camera_right_42.png
2025-06-02 14:22:02,2.2546534538269043,43,-0.2927884,0.121176966,0.13093771,0.55255586,-0.53609043,0.28467482,0.22937094,0.009606897,-0.009396921,0.0053951787,0.737623179172037,0.6140280748471982,0.2808586278674391,-0.5920671719386679,0.7881520579167415,-0.16814516797741602,-0.3246051593254259,-0.04225940015013159,0.9449050923972556,0.025038743,-0.08191892,0.10476661,-1.0741433,0.47779202,-0.13206305,0.8037276,-0.039142445,0.0035537211,0.013556175,0.47320683499221494,-0.44504289964272525,-0.7602710758632383,0.849418332548563,0.4593319143638922,0.25981279563797594,0.23358892877674953,-0.7687333802589797,0.5953865991341538,left_images/camera_left_43.png,right_images/camera_right_43.png
2025-06-02 14:22:02,2.3071470260620117,44,-0.2936105,0.12019702,0.13149296,0.57353187,-0.5419116,0.28515413,0.25603795,0.009294257,-0.00940478,0.0049939826,0.7282949434016055,0.6285583493261617,0.2729484876456049,-0.6090310470239355,0.7762929720649917,-0.16263580566231645,-0.3141140862434874,-0.04778726833449126,0.9481817957588862,0.027271787,-0.08236227,0.104766935,-1.1044931,0.4814611,-0.14432053,0.81582826,-0.038851853,0.0036818155,0.013814811,0.4594635771772497,-0.45001580676236996,-0.7657538735856964,0.8615996088556029,0.4352240523485869,0.2612013366679931,0.21572977371553798,-0.7797857384700542,0.5877030430509569,left_images/camera_left_44.png,right_images/camera_right_44.png
2025-06-02 14:22:02,2.360008955001831,45,-0.29329777,0.119905606,0.1320032,0.58079547,-0.54645175,0.28763765,0.27527326,0.009057422,-0.009431259,0.0045765396,0.7253706469627617,0.634703797703871,0.26643669736939063,-0.6157394512492105,0.7713114508128174,-0.16107009039653508,-0.3077374736689468,-0.047220070153595375,0.950298854189851,0.028374514,-0.082300276,0.10496657,-1.123501,0.48384553,-0.1527028,0.8202357,-0.038593225,0.0037382026,0.013789286,0.4515647345445271,-0.45284204705013453,-0.7687804439104668,0.8686794979358813,0.419825633679029,0.2629493623720489,0.20367920949767077,-0.7865624690572552,0.5829530529030261,left_images/camera_left_45.png,right_images/camera_right_45.png
2025-06-02 14:22:02,2.410266160964966,46,-0.29323623,0.118789904,0.13242207,0.5905293,-0.54668605,0.29359457,0.29231238,0.008843642,-0.009436511,0.0042230077,0.7226598228012775,0.64058128920953,0.25965051978280884,-0.6240065015933745,0.76618964810799,-0.15352299209353826,-0.2972854965820302,-0.05107871422433352,0.9534213645997055,0.029761877,-0.08210842,0.10501382,-1.1461127,0.48377615,-0.16164039,0.8324184,-0.038398746,0.0038099145,0.013886242,0.4411519136739747,-0.45817375156542955,-0.7716617150268957,0.877207386492068,0.4016687537439314,0.2630007858344773,0.1894523426763195,-0.792930656263369,0.5791103385471523,left_images/camera_left_46.png,right_images/camera_right_46.png
2025-06-02 14:22:03,2.4716567993164062,47,-0.29316616,0.118391484,0.13282533,0.5947951,-0.54971504,0.29621682,0.31886,0.008629296,-0.009436935,0.003913301,0.7209409382829461,0.6444305514718562,0.25485962378804616,-0.6282135813362093,0.7630029203241606,-0.15223087663656332,-0.2925608650049407,-0.05035680595988806,0.9549200659537315,0.032578815,-0.08216519,0.10512078,-1.1745697,0.48529217,-0.17390676,0.83614576,-0.038029555,0.0039170003,0.014057941,0.42854109593801787,-0.4622140706070399,-0.7763444351736624,0.8870594603912278,0.37851125692945015,0.2643004769350812,0.17169170866022104,-0.801927291785582,0.5722189929273369,left_images/camera_left_47.png,right_images/camera_right_47.png
2025-06-02 14:22:03,2.5296335220336914,48,-0.2933994,0.11774227,0.13317293,0.61019254,-0.55274534,0.29935545,0.311651,0.008482615,-0.009484806,0.003622545,0.7146687675567771,0.6541775102476208,0.2475890501720572,-0.6402783479695751,0.7543432837069134,-0.14494774040192207,-0.2815886890488132,-0.05493628502633973,0.9579612804217484,0.033938717,-0.08186519,0.10493921,-1.1956601,0.48606524,-0.18264751,0.83097434,-0.03795777,0.0039455765,0.0143561065,0.41914695627234144,-0.4656174338872596,-0.7794332776497778,0.8940637599644818,0.36107803551946877,0.2650898817072708,0.1580057662422657,-0.8079746639131977,0.5676364332110385,left_images/camera_left_48.png,right_images/camera_right_48.png
2025-06-02 14:22:03,2.5816125869750977,49,-0.2943178,0.1164843,0.13346544,0.62120193,-0.5570217,0.3026256,0.33831692,0.008299166,-0.009398306,0.0034446334,0.7093204906515458,0.6624007861260504,0.24101792481357331,-0.6496507444133377,0.7470182194290844,-0.14113004685111138,-0.2735294350249109,-0.05647104019398975,0.9602044937378507,0.035695296,-0.08081626,0.10480138,-1.2291445,0.48722804,-0.19447812,0.83025205,-0.037792757,0.0039635347,0.014678294,0.40288383339158784,-0.4706244888682015,-0.7849822974241161,0.9049940673464284,0.3328851896759672,0.2649022245323046,0.13663950694973787,-0.8171291458343285,0.5600264316696072,left_images/camera_left_49.png,right_images/camera_right_49.png
2025-06-02 14:22:03,2.62951922416687,50,-0.29474264,0.11584994,0.13357404,0.6308409,-0.5608925,0.30704114,0.3534404,0.008296965,-0.009376649,0.0033539422,0.7052007311640165,0.6693507884483219,0.23379788444155458,-0.6578467603883325,0.7407065248055357,-0.13635059206722344,-0.2644419947971816,-0.05764864364506987,0.962677030614926,0.037683383,-0.07978997,0.10476239,-1.2588944,0.48916465,-0.20511141,0.8319828,-0.037560686,0.003973618,0.014934247,0.38853849513984723,-0.4732511479674445,-0.7906144374737656,0.9138912231235988,0.30747257579669895,0.26507253239556056,0.11764637730128025,-0.8255264781219553,0.5519650023574372,left_images/camera_left_50.png,right_images/camera_right_50.png
2025-06-02 14:22:03,2.691206216812134,51,-0.29421058,0.115726724,0.13382292,0.6359487,-0.56617457,0.31398037,0.36645228,0.008300799,-0.009402053,0.0030938657,0.7036451740494367,0.6743298414233265,0.22397038644188946,-0.6634181898984264,0.7363688242121437,-0.13280534642973074,-0.2544794183206838,-0.05513818726088572,0.965505052268889,0.039675258,-0.07874846,0.10472822,-1.2853014,0.48833138,-0.21940687,0.84167814,-0.037376158,0.0039436687,0.015132317,0.3794208815006689,-0.4770121988477161,-0.7927793872394276,0.9200691934227276,0.28485022841980906,0.26894799996213803,0.09753191270403228,-0.8314563786030207,0.5469623538093308,left_images/camera_left_51.png,right_images/camera_right_51.png
2025-06-02 14:22:03,2.7399866580963135,52,-0.29497665,0.11514675,0.1341343,0.63556695,-0.57003886,0.32392076,0.3929745,0.008106825,-0.00936792,0.0029238341,0.7046985785738503,0.6760660077168706,0.21525488743758447,-0.6655607095091057,0.7350077318432583,-0.12958617244275986,-0.24582281284236146,-0.05194600408502268,0.9679218756417628,0.041317303,-0.07741371,0.104720585,-1.3112342,0.48700383,-0.23123376,0.8368441,-0.037205126,0.003905063,0.015280202,0.36884050865429197,-0.4808756363446429,-0.7954340334344372,0.9261796093910799,0.2623309095840256,0.27087603257764237,0.07840924896866014,-0.8366248360208727,0.5421354751620836,left_images/camera_left_52.png,right_images/camera_right_52.png
2025-06-02 14:22:03,2.7897186279296875,53,-0.29555437,0.11449193,0.13416715,0.63445485,-0.5732291,0.3307975,0.41704625,0.008100906,-0.009276136,0.0029361648,0.7054761933973683,0.6771916327641582,0.20908092467696004,-0.6667013017324496,0.7341850213590243,-0.1283811850712805,-0.24044274748433647,-0.0488246549016235,0.9694345972039171,0.043415852,-0.075181,0.104847685,-1.3411688,0.48628238,-0.24323045,0.8432493,-0.036905527,0.0038093026,0.015361436,0.35572704553355927,-0.4837940410925532,-0.7996259093346725,0.9328649196784111,0.2357626213814198,0.27235827138670254,0.05675659177008885,-0.8428281628912848,0.5351816300359582,left_images/camera_left_53.png,right_images/camera_right_53.png
2025-06-02 14:22:03,2.8412821292877197,54,-0.29570958,0.11365117,0.13422565,0.62602586,-0.5764394,0.33787763,0.4437136,0.008082405,-0.00910345,0.00291901,0.70935120572218,0.6747596125274857,0.20376538528966773,-0.6631824302236502,0.7368434862526143,-0.13134207631123637,-0.23876752539477128,-0.04196596321843016,0.9701695350545732,0.04546405,-0.074200206,0.10491537,-1.3675475,0.48134097,-0.2552144,0.8363754,-0.03669456,0.003830279,0.015420498,0.34428900659095457,-0.48951595210046955,-0.8011486831916933,0.9381453893026863,0.21274572947100967,0.27317116085333554,0.0367193201288446,-0.8456437708816984,0.5324831493092121,left_images/camera_left_54.png,right_images/camera_right_54.png
2025-06-02 14:22:03,2.8941891193389893,55,-0.29518592,0.11305632,0.13432068,0.6202189,-0.5787551,0.34524626,0.46547735,0.008108922,-0.0090022385,0.0028070193,0.712596380157889,0.6731584394485218,0.19764643782548735,-0.6611386115321157,0.7385864436572696,-0.13185522965393967,-0.23473844024202684,-0.036712132121926803,0.9713650621819804,0.04678586,-0.073153295,0.105079554,-1.3888046,0.47789502,-0.26544875,0.8401162,-0.036491048,0.0038191641,0.015362922,0.3357299007506222,-0.4935571616411815,-0.8023009173213488,0.9417473788402808,0.1938961879445396,0.2748020064483446,0.019932591137070133,-0.8478240362795079,0.5299029112179758,left_images/camera_left_55.png,right_images/camera_right_55.png
2025-06-02 14:22:03,2.9444165229797363,56,-0.29587293,0.11171371,0.134464,0.6222505,-0.580577,0.3509492,0.4610427,0.007998807,-0.008866906,0.0027435925,0.7116203256136577,0.675657972016407,0.19256899289394483,-0.6641506677193442,0.7363399752918428,-0.1292568425854427,-0.22912966360002654,-0.03591302880410905,0.9727331862441284,0.048930053,-0.071555465,0.10516074,-1.4157563,0.47501996,-0.27627432,0.8583007,-0.03624257,0.0037789783,0.015449727,0.3234846902289043,-0.4965135044325373,-0.8055010832417488,0.9462334008845028,0.16966985243787652,0.2754169425149025,-7.898137599171573e-05,-0.8512851937452162,0.5247032615413327,left_images/camera_left_56.png,right_images/camera_right_56.png
2025-06-02 14:22:03,3.001343011856079,57,-0.29539534,0.1102722,0.13452023,0.61934996,-0.58201456,0.36034834,0.48666072,0.008060717,-0.008695826,0.0026433207,0.71369886962546,0.6756010500528473,0.1849246999803726,-0.6643742301356412,0.7365581244819926,-0.12684246761729082,-0.22190269450147437,-0.03233187942356,0.9745326283639382,0.051222082,-0.07012928,0.10551867,-1.4394112,0.47122428,-0.28607643,0.84885776,-0.03584802,0.0037612747,0.01529338,0.3128523466774104,-0.4994364776149959,-0.8078902239821715,0.9496289668089731,0.14825317662335097,0.2760902407156173,-0.018117245258576775,-0.8535714383978713,0.5206607004332373,left_images/camera_left_57.png,right_images/camera_right_57.png
2025-06-02 14:22:03,3.0528297424316406,58,-0.29593995,0.10927461,0.13460319,0.61353195,-0.5829086,0.36860704,0.5055438,0.007978754,-0.008562287,0.0026360694,0.7168656658999986,0.6735715428441431,0.18001387092197194,-0.6622729086764203,0.7385620391857844,-0.1261772907737742,-0.21794084400824335,-0.02876614232559664,0.9755379529104329,0.05386454,-0.06831147,0.10571592,-1.4649584,0.4706934,-0.2956066,0.85724664,-0.035475366,0.0036977464,0.015348665,0.3012332984384939,-0.49890605500427954,-0.8126199900272768,0.9528523706959172,0.12488889316406077,0.2765413604208703,-0.03648094805559626,-0.8576103501266307,0.5130045104915183,left_images/camera_left_58.png,right_images/camera_right_58.png
2025-06-02 14:22:03,3.109550952911377,59,-0.2960615,0.10794051,0.13484693,0.61272985,-0.5829719,0.37599942,0.5101106,0.007827825,-0.008448311,0.0024623135,0.7178313486693073,0.673910745543708,0.1748212284258611,-0.6631984804900998,0.7382913882724963,-0.1228560193002079,-0.21186299899516745,-0.02775127102303304,0.9769052853851186,0.057064697,-0.06718598,0.105988495,-1.4880565,0.46640888,-0.30526483,0.8627193,-0.035057213,0.0036999998,0.015317345,0.2908643112210415,-0.5006577567536061,-0.8153157443962162,0.9552377016070057,0.10384139591084762,0.2770160607687789,-0.05402671456302255,-0.8593944234737236,0.5084509209508741,left_images/camera_left_59.png,right_images/camera_right_59.png
2025-06-02 14:22:03,3.1600728034973145,60,-0.29637247,0.10679224,0.13519688,0.61162704,-0.58380157,0.38230184,0.5363095,0.0075827194,-0.008350664,0.0022385623,0.7185609845063008,0.6743202672451576,0.17018310353191615,-0.6639267727235112,0.7379747383729842,-0.12080780597406987,-0.20705398331420424,-0.02618134270324246,0.9779791333602045,0.06064539,-0.06635028,0.10616518,-1.512969,0.45918533,-0.31488812,0.87601125,-0.034682613,0.003742927,0.015352303,0.27853249629323545,-0.504271464409907,-0.8173921572235368,0.9576441145096882,0.08108047540149205,0.2763036490052628,-0.0730575010085493,-0.8597303337038633,0.5054961472215489,left_images/camera_left_60.png,right_images/camera_right_60.png
2025-06-02 14:22:03,3.2139625549316406,61,-0.2964293,0.105198786,0.1354201,0.6144426,-0.58319145,0.38827902,0.5505135,0.007451117,-0.008228829,0.0020619044,0.7177224177647316,0.6763336546515516,0.16567232304650015,-0.666869667326374,0.7360918034390425,-0.11599010177540776,-0.20039804848840087,-0.02723315067218414,0.979335988140182,0.06442248,-0.065704115,0.10637974,-1.5440874,0.45188284,-0.32540494,0.8727567,-0.034260232,0.0038439152,0.015384371,0.26201492698445783,-0.5072621266441183,-0.8209953184457364,0.9603027335804141,0.05264306637921312,0.27394774582058196,-0.09574360508834862,-0.8601824471788997,0.5009184760517484,left_images/camera_left_61.png,right_images/camera_right_61.png
2025-06-02 14:22:03,3.267277479171753,62,-0.29714006,0.10378084,0.13573948,0.6165836,-0.5825396,0.39312178,0.55720156,0.007175141,-0.008127899,0.0018866779,0.7169266113522981,0.6778732578028221,0.16280073799187544,-0.6691419041521669,0.7346246307134997,-0.11214171416857506,-0.19561530114621162,-0.02853941668714703,0.980265349613376,0.06722018,-0.06441209,0.10663229,-1.5727677,0.4452536,-0.3335811,0.86788654,-0.033894047,0.0038746786,0.0153225735,0.24596935940638182,-0.5098648026572703,-0.8243403164012282,0.9622127742742352,0.02594701290666751,0.27105964204340893,-0.11681460206966393,-0.8598631493048671,0.49698059641279957,left_images/camera_left_62.png,right_images/camera_right_62.png
2025-06-02 14:22:03,3.326896905899048,63,-0.29774627,0.101681836,0.13607576,0.6178491,-0.5804532,0.39782238,0.5836148,0.0068706083,-0.007946118,0.001691658,0.7165366203246277,0.678729259205809,0.16094056179749794,-0.6706877553039248,0.7337664797029941,-0.10846514716561445,-0.19171125845693876,-0.030221614156253712,0.9809859567897227,0.070162065,-0.06351593,0.10681833,-1.6039085,0.4389712,-0.342243,0.8794651,-0.033548325,0.00395363,0.015338622,0.22835150636303475,-0.5113078084772207,-0.8285046255344353,0.9635838598006126,-0.00293023740483328,0.26739027439401153,-0.13914645045234314,-0.85939265687983,0.4920188275132776,left_images/camera_left_63.png,right_images/camera_right_63.png
2025-06-02 14:22:03,3.378119707107544,64,-0.29850096,0.09960248,0.1363109,0.6196039,-0.5795909,0.40171677,0.5764607,0.006636546,-0.00773888,0.0015788916,0.7154561197288368,0.6803318429729641,0.15896894092736003,-0.6727745216007905,0.7322385504166932,-0.1058354778346436,-0.18840643255309442,-0.03122961288056754,0.9815944821829156,0.07292521,-0.06287654,0.10690137,-1.6286561,0.4335777,-0.3504704,0.8813334,-0.033281848,0.0040045804,0.015429518,0.2155242963945726,-0.5119183750766768,-0.8315580887241006,0.963689045113178,-0.0259748920269538,0.26576066171094476,-0.1576473976711178,-0.8586413001032753,0.4877319097254981,left_images/camera_left_64.png,right_images/camera_right_64.png
2025-06-02 14:22:04,3.42506742477417,65,-0.2988885,0.0985562,0.13642241,0.624512,-0.57715803,0.40337798,0.59791386,0.0065152682,-0.0076920334,0.0015148781,0.7136302659549416,0.6822888990253978,0.1587882293489971,-0.6757066387279739,0.7302309103311388,-0.1009126155438432,-0.18480363062456984,-0.03527996405421586,0.9821420173499913,0.074830696,-0.061820496,0.10695635,-1.6510032,0.42971236,-0.35630864,0.8867265,-0.033090465,0.0040105935,0.015500459,0.20305560718057608,-0.5117392099587674,-0.8348002164490042,0.9636052974739691,-0.0469591664492624,0.26317231496966786,-0.17387711486170676,-0.8578565251119601,0.48357929158536317,left_images/camera_left_65.png,right_images/camera_right_65.png
2025-06-02 14:22:04,3.4773831367492676,66,-0.2999658,0.09699394,0.13662083,0.6264607,-0.5752431,0.40566102,0.61935544,0.0062561478,-0.0075550163,0.0014637299,0.712677509345344,0.683237575749384,0.1589879956393624,-0.6772074233017318,0.7292202762036682,-0.09812183548260252,-0.18297779509641665,-0.037738625538704815,0.9823924483851163,0.07663092,-0.060452346,0.10709498,-1.6739199,0.4268078,-0.36255276,0.8923318,-0.032852214,0.0039882455,0.015510841,0.19089189383089472,-0.5104245749097192,-0.8384670763947069,0.96291948110014,-0.06852551764888476,0.26094123159974075,-0.19064720765721055,-0.8571878480001831,0.4784168009730882,left_images/camera_left_66.png,right_images/camera_right_66.png
2025-06-02 14:22:04,3.534999370574951,67,-0.30034778,0.09595885,0.13680996,0.6290227,-0.57626164,0.40964976,0.6377784,0.006124712,-0.007466963,0.0013500024,0.7113129112891363,0.685481469146368,0.15539979951824312,-0.6798726482722228,0.7271063156833104,-0.09533932989462696,-0.17834551960923395,-0.03783597693173793,0.9832402119954886,0.079276904,-0.06013172,0.107144356,-1.6919044,0.42256513,-0.3671785,0.9007877,-0.032614622,0.0040468555,0.015622979,0.18066962767593842,-0.5097153484248588,-0.8411591699646163,0.9622624329663193,-0.08534103264853155,0.25839488820064105,-0.20349323265695418,-0.8560999776466571,0.4750613987014896,left_images/camera_left_67.png,right_images/camera_right_67.png
2025-06-02 14:22:04,3.5864291191101074,68,-0.3006193,0.0946762,0.13705483,0.632764,-0.5749628,0.41075832,0.65158224,0.00591998,-0.0073716263,0.0011892226,0.7094913323343562,0.6874522679268724,0.15502073624073584,-0.682396379097538,0.7251155394480185,-0.09242638284374297,-0.17594667128703864,-0.04020987158906014,0.9835781286150085,0.08160635,-0.059852302,0.107141905,-1.7068776,0.41860983,-0.37085968,0.9026895,-0.032435335,0.0040914016,0.01575437,0.1720386620230016,-0.5091911477818818,-0.8432835073626813,0.9615029581347343,-0.09941059519408929,0.25618273763333954,-0.2142772976017081,-0.8548929222912814,0.47248632906019855,left_images/camera_left_68.png,right_images/camera_right_68.png
2025-06-02 14:22:04,3.642629861831665,69,-0.30105412,0.093150884,0.1373252,0.6359752,-0.5730063,0.41063976,0.6548983,0.005660568,-0.0072409897,0.0010302952,0.7077382990728988,0.68899736459343,0.15617020077053237,-0.6843819058273255,0.7234942668431976,-0.09042926971496512,-0.1752937734249507,-0.04287980210229917,0.9835819312950548,0.08379344,-0.059755147,0.10726105,-1.7194115,0.41864732,-0.37191176,0.91116774,-0.03216368,0.0041739,0.01582827,0.16374356160427714,-0.5055737337605257,-0.8471028543008148,0.9613833765378785,-0.11076248877037231,0.25193982296973383,-0.2212013773686185,-0.8556441262656072,0.46791353884814213,left_images/camera_left_69.png,right_images/camera_right_69.png
2025-06-02 14:22:04,3.70208740234375,70,-0.3020233,0.09168208,0.1374791,0.6379684,-0.572367,0.41154966,0.6554641,0.005451146,-0.007085665,0.0010029534,0.7062574965819273,0.6904438345385717,0.15648533435917433,-0.6860745416473246,0.7220290744808827,-0.08930699249047346,-0.17464842348341603,-0.04428687110141609,0.9836343839165058,0.08613959,-0.058148853,0.10731906,-1.7341777,0.4179598,-0.37298536,0.92433107,-0.03191408,0.004105894,0.015950717,0.15451698137203518,-0.5020891505691306,-0.8509001042122646,0.960660876425162,-0.12481360349332182,0.2480972488542576,-0.23077084515534824,-0.8557616778424824,0.463051582183352,left_images/camera_left_70.png,right_images/camera_right_70.png
2025-06-02 14:22:04,3.760131597518921,71,-0.3021131,0.09036353,0.13769127,0.64175695,-0.5717735,0.41248536,0.68212855,0.005295173,-0.006971146,0.00084778946,0.7041869561627645,0.692745809481101,0.1556405288367874,-0.6887994954517378,0.7197158738829847,-0.08697307598494584,-0.17226719314963093,-0.045959812088668936,0.9839774945785711,0.088751055,-0.05822053,0.10725139,-1.7457253,0.41532677,-0.37310913,0.9227593,-0.031740144,0.0041906945,0.016162988,0.14580230186327547,-0.5002799103374901,-0.8534996778465024,0.9603942858148754,-0.13549443548361445,0.24348321035979453,-0.23745421568274094,-0.8551966260841359,0.46071056661292764,left_images/camera_left_71.png,right_images/camera_right_71.png
2025-06-02 14:22:04,3.810455083847046,72,-0.3028016,0.08932016,0.13786234,0.6451611,-0.57076436,0.41280118,0.70246476,0.0051003247,-0.006887841,0.00078159664,0.7023371198025691,0.6945016599404954,0.15617302740015088,-0.6909973899333461,0.7178647284915582,-0.08481060483833813,-0.17101221375309722,-0.04834951838062096,0.9840818801398729,0.090816624,-0.05743565,0.10721315,-1.7591047,0.4155867,-0.37476146,0.92867124,-0.031568334,0.004192172,0.016360972,0.13789927360183063,-0.4961486501029327,-0.8572166046811769,0.9594801699350195,-0.14780544581282562,0.23989863211268647,-0.2457266648973075,-0.8555641806370283,0.4556625275018089,left_images/camera_left_72.png,right_images/camera_right_72.png
2025-06-02 14:22:04,3.867891550064087,73,-0.30274734,0.08778757,0.1378747,0.64723414,-0.5718543,0.41518566,0.7218889,0.0051266775,-0.0066985516,0.000748937,0.7006929611213057,0.6967857629841284,0.15335897345014476,-0.6933663536792972,0.7156967605494156,-0.08379287872216831,-0.16814420543251501,-0.04762087191241244,0.9846114861902484,0.093525305,-0.05768507,0.10708891,-1.772817,0.4125471,-0.37823042,0.9276682,-0.031426866,0.0042776167,0.016631126,0.13034878694070112,-0.4939899532252553,-0.8596412739367496,0.9580680082510892,-0.1603942597516746,0.2374434101096578,-0.2551761848387864,-0.8545452636058679,0.4523687733916865,left_images/camera_left_73.png,right_images/camera_right_73.png
2025-06-02 14:22:04,3.9192988872528076,74,-0.30286914,0.086384304,0.13788912,0.6487365,-0.5704715,0.41566026,0.73207,0.005089569,-0.006541089,0.0007399097,0.6997365238796971,0.6976645766121259,0.1537300741214331,-0.6944646766820877,0.7147554955616406,-0.08272481130396782,-0.1675935857650934,-0.048874534320612104,0.9846439305176983,0.09537446,-0.057687584,0.10707508,-1.7839288,0.4117344,-0.38059354,0.9305271,-0.031276144,0.00433881,0.016778968,0.1242218136498561,-0.49105518199787357,-0.8622260430110978,0.9569476774021585,-0.17044940926394758,0.2349428475101673,-0.2623358224264366,-0.8542902358768982,0.4487405811348452,left_images/camera_left_74.png,right_images/camera_right_74.png
2025-06-02 14:22:04,3.972745895385742,75,-0.30354324,0.085330166,0.13798696,0.6549765,-0.56962276,0.41476938,0.73498076,0.004955259,-0.006464217,0.00071432255,0.6963440553664281,0.700853340903689,0.15462713571677644,-0.6982716084239602,0.7113757160210028,-0.07975808124962112,-0.16589670709466348,-0.05243267301733724,0.9847482406053866,0.09694797,-0.057125624,0.10699676,-1.7945795,0.41207752,-0.38203657,0.9338244,-0.031174911,0.0043436177,0.016972782,0.11814627894782226,-0.48743836693572684,-0.865127328900096,0.9558797023412874,-0.180144535760364,0.23203866248454064,-0.26895250774572643,-0.854372158180915,0.44464903452337595,left_images/camera_left_75.png,right_images/camera_right_75.png
2025-06-02 14:22:04,4.02620530128479,76,-0.3040212,0.08413002,0.13804151,0.66079706,-0.57051224,0.41536507,0.761433,0.0049008075,-0.0063478164,0.0006965641,0.692818552602866,0.7046396327567114,0.15324960397259377,-0.7024810004145629,0.7074974008373415,-0.07725200233625716,-0.16285851904590284,-0.05413331466752432,0.9851632793691014,0.09929103,-0.056827057,0.1067093,-1.8068931,0.41167015,-0.3822568,0.93765515,-0.031136587,0.0043865116,0.017377688,0.10971313956581463,-0.483359278273112,-0.8685199106030375,0.9549021445529395,-0.19129443461257617,0.22708662139027813,-0.2759074506692574,-0.8542659114078889,0.4405732984097426,left_images/camera_left_76.png,right_images/camera_right_76.png
2025-06-02 14:22:04,4.084632158279419,77,-0.30395028,0.083008245,0.13809577,0.66598195,-0.5722446,0.41598052,0.78794837,0.004909429,-0.006226273,0.0006286837,0.6894546274714846,0.708440745238097,0.150877523656263,-0.7064997102410593,0.7036646445205631,-0.07559250942420612,-0.1597199927606296,-0.05447732132033764,0.9856580265864551,0.10114484,-0.05726782,0.106442116,-1.814845,0.41110685,-0.38274866,0.9362375,-0.03113712,0.0044734897,0.01772682,0.10428464804929061,-0.48056034690399063,-0.8707390339043907,0.9542770849790684,-0.1982637381598108,0.22371127645863026,-0.28014274444484066,-0.8542559587819181,0.43791186284513756,left_images/camera_left_77.png,right_images/camera_right_77.png
2025-06-02 14:22:04,4.135110139846802,78,-0.3039079,0.0818281,0.13815877,0.6728914,-0.5721626,0.41611505,0.8060738,0.0048894677,-0.006132745,0.0005542869,0.6856774365953275,0.7123188383677295,0.14982765248948143,-0.710961625337563,0.6995286984514804,-0.07206363396435368,-0.15614102677205333,-0.057109303526011276,0.9860824038635629,0.10386585,-0.057974894,0.10610267,-1.822884,0.41024423,-0.38328004,0.94319403,-0.03111365,0.0045835814,0.018190244,0.09889366156448251,-0.4771747479651899,-0.8732263759224909,0.9536308437186815,-0.20523603818119296,0.2201508177138659,-0.28426793278659745,-0.8545071260885105,0.43475201420256704,left_images/camera_left_78.png,right_images/camera_right_78.png
2025-06-02 14:22:04,4.189154624938965,79,-0.30377796,0.08065541,0.13820177,0.67594045,-0.5733512,0.41807303,0.8214888,0.0049052564,-0.0060005053,0.000494184,0.6836030796667856,0.7148700423209692,0.1471314108615226,-0.7136594942981346,0.696942459293975,-0.07043674205552604,-0.1528952440994069,-0.05685095447995271,0.9866058044155737,0.10639783,-0.05825184,0.10586985,-1.8292449,0.41107967,-0.38247895,0.94464356,-0.031030249,0.0046587354,0.018572593,0.09411753076201818,-0.4728840148023382,-0.8760836712025184,0.9533791917933817,-0.2106272496115652,0.21611172660562722,-0.28672287501812366,-0.8555798444712739,0.4310140631996271,left_images/camera_left_79.png,right_images/camera_right_79.png
2025-06-02 14:22:04,4.240599870681763,80,-0.3037237,0.079374604,0.13834505,0.6811177,-0.5710839,0.41707793,0.84265375,0.0047854357,-0.0059031337,0.00037425105,0.6810142927691354,0.7170490294753651,0.14852684057971274,-0.7164237383735013,0.6943954907602174,-0.06746798875625179,-0.15151422421373942,-0.06046148972952806,0.9866042003359782,0.10885489,-0.057956118,0.105850264,-1.8392398,0.41718397,-0.38053107,0.95399106,-0.03077979,0.0047444776,0.018857025,0.08683310080786455,-0.46340408887507706,-0.8818824541955412,0.953227903120377,-0.21860613476832919,0.2087293044935961,-0.2895109278020789,-0.8587595753501156,0.4227474593982426,left_images/camera_left_80.png,right_images/camera_right_80.png
2025-06-02 14:22:04,4.289829969406128,81,-0.30359498,0.07809708,0.1384314,0.68769544,-0.5706095,0.41792378,0.8396336,0.004754315,-0.0058042947,0.0002768403,0.6775098399475789,0.7206182558610549,0.1472743904892416,-0.7205915454698039,0.6904510257503049,-0.06344450833438174,-0.14740502491993215,-0.06314040196358618,0.9870587866324028,0.111461915,-0.0575527,0.105645664,-1.8437922,0.4216051,-0.37767997,0.9564537,-0.030646484,0.004768242,0.019265875,0.0826332635638081,-0.4564121182834223,-0.8859230903621567,0.9535923179328553,-0.22206193773746485,0.20334745385110398,-0.28954004029190644,-0.8616127169977947,0.4168813871779832,left_images/camera_left_81.png,right_images/camera_right_81.png
2025-06-02 14:22:04,4.339897632598877,82,-0.30318573,0.07768292,0.13842826,0.6908185,-0.5704623,0.41772562,0.8663031,0.0048045265,-0.0057753944,0.00022909604,0.675878631458153,0.7222632309057821,0.1467102614672711,-0.722465339904591,0.6886339249508493,-0.061863964012433534,-0.14571172970903154,-0.06418054758514345,0.9872431053883706,0.11283287,-0.057761677,0.10547661,-1.8477165,0.42418143,-0.37739587,0.9521073,-0.030612648,0.004824345,0.019540671,0.08015184303232936,-0.4521011800341243,-0.8883581513501597,0.9535025003241118,-0.2249897776124562,0.2005307503740129,-0.2905316917897048,-0.8631246277228161,0.41304626022294666,left_images/camera_left_82.png,right_images/camera_right_82.png
2025-06-02 14:22:04,4.400563716888428,83,-0.3033604,0.07712108,0.13857834,0.7001613,-0.5681352,0.41621572,0.8702592,0.004671003,-0.0058109877,0.00011786912,0.6715458976935262,0.7259642076913934,0.14833096926132208,-0.7271893170600464,0.6841409742995764,-0.056096563514794105,-0.14220339111546884,-0.07019327913293122,0.9873454811360749,0.115266345,-0.05759583,0.10535518,-1.84854,0.4291007,-0.3740548,0.9628597,-0.030446798,0.0048557287,0.019873917,0.07816983341109573,-0.4456131752900742,-0.8918062430552834,0.9544356117129773,-0.22496563601374153,0.196069186021179,-0.28799677122939504,-0.8664983327282463,0.40772355725492876,left_images/camera_left_83.png,right_images/camera_right_83.png
2025-06-02 14:22:05,4.451200008392334,84,-0.30302566,0.07660162,0.13859874,0.6985896,-0.56672484,0.41487288,0.8969297,0.004654901,-0.005734831,7.871445e-05,0.6722828489320605,0.7249390793418555,0.14999700755273465,-0.7260509833089563,0.6852264541872655,-0.057573223967786365,-0.14451899760201037,-0.07019998379579694,0.9870087241798727,0.117341936,-0.058260042,0.10520341,-1.8463488,0.43191183,-0.37050268,0.958241,-0.030350085,0.0049422407,0.020174012,0.07730620638535077,-0.4418085215048463,-0.8937723316259054,0.9557746819340801,-0.22229937127759553,0.19255582801721194,-0.2837578330691752,-0.8691307265626316,0.405084278041741,left_images/camera_left_84.png,right_images/camera_right_84.png
2025-06-02 14:22:05,4.507009029388428,85,-0.3013639,0.07672983,0.13855866,0.7015528,-0.56462353,0.41396523,0.9228013,0.0048295897,-0.005795245,-5.7434663e-05,0.671645188059665,0.7255231248269182,0.1500297860349118,-0.7270269263377119,0.6844048236292726,-0.054971681554446004,-0.14256433542873326,-0.0721542288044746,0.9871520539052709,0.119383775,-0.058176342,0.105136,-1.8437163,0.43718633,-0.3654354,0.9631207,-0.030184403,0.0049739955,0.020435322,0.0761946043577777,-0.43608759431794947,-0.8966727342507663,0.9574156982064193,-0.2191627562336647,0.18794378709597714,-0.2784772218596639,-0.8728088544246367,0.40081808909189315,left_images/camera_left_85.png,right_images/camera_right_85.png
2025-06-02 14:22:05,4.563909530639648,86,-0.30004087,0.07645362,0.13866566,0.70702696,-0.5647427,0.4135244,0.94859326,0.0049020625,-0.0058096508,-0.000272925,0.6689417766241221,0.7283673641626348,0.1483168308376983,-0.7301939887361929,0.6812445219389789,-0.052178924305320354,-0.13904545408064006,-0.07339539597895352,0.9875623917244929,0.12092467,-0.057944935,0.10507643,-1.8391018,0.44002277,-0.35921884,0.9625087,-0.030073617,0.0049747787,0.020613028,0.075067859077528,-0.43334767581093325,-0.8980949885189085,0.9592113192560922,-0.21477416865068533,0.1838088721781242,-0.2725407520803144,-0.8752610172683741,0.3995493587854038,left_images/camera_left_86.png,right_images/camera_right_86.png
2025-06-02 14:22:05,4.627820014953613,87,-0.2991228,0.07683246,0.13863999,0.709539,-0.56502014,0.41097543,0.9527159,0.0050114836,-0.005861777,-0.00034585968,0.6675957646234898,0.7295307089809894,0.14866351169830747,-0.731379974152354,0.6799573856027128,-0.052357302959813744,-0.13928111309750482,-0.07377600164022573,0.9875008218306967,0.12217777,-0.057302333,0.10502436,-1.8326483,0.445818,-0.3526287,0.9635402,-0.029958349,0.0049319677,0.020807054,0.07556306055324735,-0.42870934912971426,-0.9002769117602666,0.9613237989149634,-0.20848920899384593,0.17996889557038254,-0.2648523692918926,-0.8790566214424967,0.39637441741183765,left_images/camera_left_87.png,right_images/camera_right_87.png
2025-06-02 14:22:05,4.691272735595703,88,-0.29795426,0.07694481,0.13879077,0.7138147,-0.56405634,0.41028312,0.94423735,0.0050184415,-0.0059338785,-0.00056945346,0.6659160778012633,0.7311687895069245,0.14814850177022032,-0.7334043386506233,0.6779863958121312,-0.0495229557086265,-0.13665230833844022,-0.07567462153625487,0.9877244040121318,0.123608515,-0.056732774,0.10495486,-1.8291154,0.44949916,-0.34719253,0.96694076,-0.02985571,0.0049008345,0.021001242,0.07456349655686781,-0.42506890317649393,-0.9020846482085516,0.9627541803645047,-0.205072019640836,0.1762096902871676,-0.25989358047455674,-0.8816245767404406,0.39394597664572495,left_images/camera_left_88.png,right_images/camera_right_88.png
2025-06-02 14:22:05,4.7588536739349365,89,-0.29692772,0.07629611,0.13858877,0.7191842,-0.56248546,0.40921074,0.9697132,0.005259004,-0.005888397,-0.000544603,0.6633812649951275,0.7334390612192521,0.14829848526295436,-0.7361402013281049,0.6752290033570166,-0.04651233184981508,-0.13424939941050656,-0.0783130672577207,0.9878482485962133,0.12538348,-0.05661632,0.104826674,-1.8218585,0.45189232,-0.3423566,0.9667503,-0.02977522,0.0048731603,0.021246094,0.07652490278903118,-0.4229500624430116,-0.9029159340340505,0.9644223743097129,-0.19842861896759628,0.1746870547734677,-0.2530482625586378,-0.8841602387882329,0.3927177726586736,left_images/camera_left_89.png,right_images/camera_right_89.png
2025-06-02 14:22:05,4.815726280212402,90,-0.29614046,0.07583186,0.13882847,0.7251754,-0.56239486,0.40999398,0.97149205,0.005186984,-0.0059027555,-0.00080220774,0.6604303443258835,0.7364739333716894,0.14641689027440494,-0.739607047998345,0.6716941816012983,-0.042524592345322215,-0.1296656270750606,-0.08020643282801124,0.9883085314254031,0.12617542,-0.05636149,0.104550295,-1.8163954,0.454989,-0.3351416,0.9660145,-0.029853724,0.0048607136,0.021547155,0.07490281934351117,-0.4206862129874356,-0.904108775456075,0.9662999692464393,-0.19329991065485974,0.16999857050914796,-0.24628020035870501,-0.8863736541341429,0.3920303663852622,left_images/camera_left_90.png,right_images/camera_right_90.png
2025-06-02 14:22:05,4.872233152389526,91,-0.29522178,0.07552599,0.13888535,0.72913,-0.5612842,0.40975225,0.9835536,0.005235269,-0.0059116073,-0.00093867164,0.6587185900715632,0.7380871925417009,0.14600381947073246,-0.7415663568557166,0.6696976160629323,-0.039805042637402845,-0.12715800200487562,-0.08205119892808233,0.9884828998422747,0.12790604,-0.056555994,0.10443628,-1.8104101,0.45731285,-0.33037418,0.9686145,-0.029770415,0.004875337,0.021780005,0.0757307664993129,-0.41828907014698075,-0.9051514264480839,0.9678180625892208,-0.1876414721777589,0.16768683801959705,-0.23998551775362154,-0.8887209526699242,0.3906174849568164,left_images/camera_left_91.png,right_images/camera_right_91.png
2025-06-02 14:22:05,4.928952693939209,92,-0.29434246,0.07551199,0.13894118,0.7348509,-0.5589627,0.40899366,0.9883933,0.0052688634,-0.0059875883,-0.0010717753,0.656552423576069,0.7398901349328684,0.14663390919365155,-0.7440120242165638,0.6672273699265382,-0.03540825669368479,-0.12403637739615503,-0.08585001485111417,0.9885569037908248,0.12935258,-0.05593908,0.10442655,-1.8046122,0.4601209,-0.3251584,0.9717599,-0.029639825,0.004817874,0.021914318,0.076467236164913,-0.41573591147078515,-0.9062650901953881,0.969192569884619,-0.1824430580835545,0.1654699158081872,-0.23413356075912578,-0.8909984188934772,0.3889772400225706,left_images/camera_left_92.png,right_images/camera_right_92.png
2025-06-02 14:22:05,4.986734628677368,93,-0.2930528,0.07522911,0.13896435,0.7377313,-0.55700994,0.40830523,0.984349,0.0053617116,-0.0059943316,-0.0012153303,0.6555951634135722,0.7406960361536575,0.14684809748509328,-0.7451296133021891,0.6660945441770048,-0.0331650056197609,-0.12237990475916423,-0.08767804881433053,0.9886029125322513,0.13085388,-0.05561353,0.10444888,-1.7982956,0.46132296,-0.32002038,0.9735112,-0.029499032,0.0047819456,0.022002779,0.07728046917364956,-0.4145833926745626,-0.9067239599805168,0.9705335363990837,-0.17690990090012776,0.16360789005483622,-0.22823756003118545,-0.8926497059216209,0.3886954060817476,left_images/camera_left_93.png,right_images/camera_right_93.png
2025-06-02 14:22:05,5.041070938110352,94,-0.2925175,0.07409315,0.13885792,0.7434862,-0.5529404,0.40685514,0.990574,0.0054463344,-0.0059184683,-0.0012053289,0.6531425491143111,0.7423373504588564,0.149465944784037,-0.7475396301299557,0.6635793537451165,-0.029102279436204838,-0.12078622405568008,-0.09272378010488355,0.9883384990383772,0.13228078,-0.056036994,0.10440556,-1.7910066,0.46267065,-0.3143222,0.9732928,-0.029405408,0.004818106,0.022141859,0.07786946597343386,-0.4134340247291389,-0.9071982437512089,0.9721752593521874,-0.17016419969561952,0.160995062798387,-0.22093349988745364,-0.8944922874671504,0.3886797348579746,left_images/camera_left_94.png,right_images/camera_right_94.png
2025-06-02 14:22:05,5.123504877090454,95,-0.28492844,0.06651741,0.13922475,0.7310811,-0.5733862,0.41992918,1.0171437,0.0062275426,-0.0046367757,-0.0022061989,0.6518232966066744,0.7487466952790318,0.12043577670084675,-0.7498362122882634,0.6600671078404772,-0.04535491029975096,-0.11345503400906488,-0.06074371947647432,0.9916845041655967,0.13170467,-0.053360764,0.10585831,-1.7618592,0.4448089,-0.30797142,0.97917163,-0.02870876,0.004380203,0.020611538,0.0933888117540026,-0.43509739679335807,-0.8955270990555333,0.9736057584129969,-0.14823049403363542,0.17354984247644156,-0.20825550898890716,-0.8880979540243225,0.40977026128500804,left_images/camera_left_95.png,right_images/camera_right_95.png
2025-06-02 14:22:05,5.17990517616272,96,-0.28189787,0.060277693,0.13897464,0.7258083,-0.5879799,0.43144214,1.0441558,0.006942399,-0.0036218085,-0.0023439974,0.6482055764259054,0.7548387206448505,0.10023989478049987,-0.7540414113347208,0.6546372042627853,-0.05358806571753881,-0.10607111144276134,-0.04084894870434548,0.9935191405841397,0.13134159,-0.05127205,0.10741447,-1.7391732,0.4311542,-0.3032838,0.9819865,-0.027909154,0.0040649874,0.019093676,0.10581253448589928,-0.4511622664150365,-0.8861468935277705,0.9744222237379618,-0.13062800974629057,0.18285965371094948,-0.1982549808484914,-0.8828300699641867,0.4258004581206949,left_images/camera_left_96.png,right_images/camera_right_96.png
2025-06-02 14:22:05,5.236002683639526,97,-0.28410372,0.05609193,0.13952936,0.7273357,-0.59860086,0.44247112,1.0472345,0.006519223,-0.0030462346,-0.002552729,0.6425326509512456,0.7612215458525861,0.08771288725930766,-0.7600084201469391,0.6476931790209406,-0.05367259221894636,-0.09766777240890816,-0.03217613991060821,0.9946987997645994,0.13115883,-0.049851723,0.108505175,-1.7216332,0.4208044,-0.30018917,0.98345137,-0.027356092,0.0038345284,0.018020459,0.11585103934094992,-0.46299002942277767,-0.8787597904653566,0.9748384989032167,-0.11663050896330457,0.18996637974937486,-0.19044274136796308,-0.8786566775675559,0.4378287396073939,left_images/camera_left_97.png,right_images/camera_right_97.png
2025-06-02 14:22:05,5.292752981185913,98,-0.2881563,0.052842636,0.13972022,0.73323715,-0.60616,0.45095083,1.0472212,0.00613238,-0.0026382662,-0.0023404215,0.6355001572340437,0.7678967754739416,0.08046174477494443,-0.7668414952696179,0.6398774302747079,-0.05010983294416861,-0.08996483361937584,-0.029856597960229936,0.9954973190672483,0.13113149,-0.048429634,0.10929782,-1.7074805,0.4138382,-0.29721132,0.98356724,-0.026943669,0.0036229268,0.017252812,0.12392413873036873,-0.4710414282350807,-0.8733629146730423,0.9751366648678215,-0.10514273662955659,0.19507303700027245,-0.18371524887825263,-0.8758224579332863,0.4463000442631601,left_images/camera_left_98.png,right_images/camera_right_98.png
2025-06-02 14:22:05,5.366247653961182,99,-0.28673074,0.049966425,0.14005843,0.7375137,-0.6114966,0.45722502,1.0472324,0.0061524576,-0.0022840062,-0.0027322518,0.6304453481279441,0.7729878979273003,0.0709110194664345,-0.7719166081861394,0.6339388097373375,-0.047606044944040936,-0.08175214388773944,-0.024724384051810967,0.9963459699336455,0.1312143,-0.0476659,0.10981687,-1.6962256,0.4081804,-0.2956704,0.9872545,-0.026678959,0.0034832163,0.0167386,0.13086328682143578,-0.4773088786239135,-0.8689367264358623,0.9752098197879608,-0.09577899421802749,0.19947980262601983,-0.17843936659667742,-0.8735002110207901,0.45294235151419804,left_images/camera_left_99.png,right_images/camera_right_99.png
2025-06-02 14:22:06,5.421385765075684,100,-0.28824133,0.048276275,0.14015685,0.74357545,-0.6155132,0.46270826,1.0472496,0.0060311593,-0.0021089856,-0.0026846593,0.6251647199027379,0.7777274705621107,0.06564338901970623,-0.7769285253316758,0.6281335214779837,-0.04278253991542323,-0.07450596965934195,-0.024254086845900625,0.9969255738300591,0.1310126,-0.04680314,0.11025053,-1.6881618,0.4049397,-0.2948432,0.9876202,-0.026466928,0.0033504134,0.016314402,0.13633262449851175,-0.481271647223927,-0.8659047390306371,0.9751112482918748,-0.08907646161922594,0.20303555708313836,-0.17484698725459807,-0.8720338213416763,0.4571493688984202,left_images/camera_left_100.png,right_images/camera_right_100.png
2025-06-02 14:22:06,5.477464199066162,101,-0.29141074,0.047412176,0.1402828,0.75181377,-0.6176296,0.4681249,1.0473014,0.0057017887,-0.0020926767,-0.0025029448,0.6196816699016541,0.7822947849989167,0.06332059184338096,-0.782021703161122,0.6222802164010713,-0.03477625714210472,-0.06660843619899287,-0.027967867979782252,0.9973871437850952,0.13073456,-0.045977335,0.11047953,-1.6816639,0.4032847,-0.2940603,0.98911166,-0.026370874,0.0032261498,0.016073937,0.14083437851452638,-0.4837006692552004,-0.8638283049255204,0.9750179989847829,-0.08362009446774338,0.20578527998113744,-0.17177188211152766,-0.8712297873484793,0.4598402746091153,left_images/camera_left_101.png,right_images/camera_right_101.png
2025-06-02 14:22:06,5.532464504241943,102,-0.28673714,0.044223625,0.14020453,0.74467325,-0.61860913,0.46642646,1.0473247,0.006213274,-0.001552476,-0.0028707604,0.6215534534998266,0.7811120904405175,0.05945760346737441,-0.7801154813544529,0.6240975774772861,-0.04384118540930472,-0.07135222626904579,-0.01913415675245342,0.9972676390276701,0.13062516,-0.04550299,0.11063407,-1.6767753,0.401853,-0.29351163,0.9905013,-0.026303416,0.0031474577,0.015911926,0.1441619546736545,-0.48557197089449944,-0.8622280393876685,0.974947341461508,-0.07946214196871743,0.20775815115388657,-0.16939602180042185,-0.8705777559043044,0.4619516844030512,left_images/camera_left_102.png,right_images/camera_right_102.png
2025-06-02 14:22:06,5.599170923233032,103,-0.2873676,0.042488407,0.14022778,0.7434739,-0.6197383,0.4671918,1.0473061,0.0061453376,-0.0012937675,-0.0028263773,0.6208152770261118,0.7817444508422234,0.05885580165440726,-0.7805866185078109,0.6233558105550848,-0.04595720241436703,-0.07261489390981658,-0.01741111784475981,0.997208067635768,0.13054839,-0.044711675,0.110715896,-1.6731398,0.40177187,-0.29352698,0.9897121,-0.026264448,0.003036181,0.015832994,0.14740157483800284,-0.4861140770617143,-0.8613744132592485,0.9747189108200098,-0.07645735867798531,0.20994598637230405,-0.16791611186878536,-0.870544298922475,0.46255464865077944,left_images/camera_left_103.png,right_images/camera_right_103.png
2025-06-02 14:22:06,5.658894062042236,104,-0.29223347,0.0413452,0.14014608,0.74816203,-0.6193518,0.4697481,1.0473065,0.0057299575,-0.0012009449,-0.0023294594,0.6176055461300357,0.7840386264946411,0.06202275029227052,-0.7832846032867966,0.6202847671438555,-0.04137677975796118,-0.07091276079286565,-0.023026936697919345,0.9972166968834026,0.13036476,-0.044313747,0.11072192,-1.6704154,0.40194672,-0.29312545,0.9915818,-0.026277054,0.002976038,0.015811851,0.14937082784011124,-0.4864087807039688,-0.8608686623663554,0.9746749240698485,-0.07410791225177993,0.21099007021923455,-0.16642460208693566,-0.8705828595807298,0.4630208811969977,left_images/camera_left_104.png,right_images/camera_right_104.png
2025-06-02 14:22:06,5.715230464935303,105,-0.29292315,0.041206066,0.14076729,0.7557236,-0.6186727,0.4739184,1.0473511,0.005246997,-0.0013203244,-0.0027144281,0.6139359413525585,0.7870637053311275,0.060111427083241895,-0.7868579983638099,0.6162695154193223,-0.03265539428229333,-0.06274671566262412,-0.027250836964573113,0.9976573768375012,0.13037659,-0.043888815,0.11074642,-1.6684988,0.40217948,-0.29280654,0.9920202,-0.026260491,0.002918994,0.01579273,0.15085039098469816,-0.4864000206010296,-0.8606155817198997,0.9746176378977226,-0.07250387189865631,0.21181040686983915,-0.16542254815600937,-0.8707228080847664,0.46311680172776243,left_images/camera_left_105.png,right_images/camera_right_105.png
2025-06-02 14:22:06,5.768072128295898,106,-0.2904738,0.042174652,0.14082444,0.7607011,-0.6172202,0.47731572,1.0471122,0.005474381,-0.0015480234,-0.0029999376,0.612682799794611,0.7883199673416457,0.056315325856320306,-0.7884565003896746,0.614579562491398,-0.025066079891936995,-0.05437033960813269,-0.0290446287349111,0.9980983296812733,0.1307108,-0.043520276,0.110699795,-1.6676421,0.40203923,-0.29188862,0.99317694,-0.026261259,0.002877652,0.015848624,0.15096990938060806,-0.4863289612487752,-0.8606347819559107,0.9747105065527569,-0.07187645877272097,0.21159679366654183,-0.16476502929104442,-0.8708145130422323,0.4631787657025532,left_images/camera_left_106.png,right_images/camera_right_106.png
2025-06-02 14:22:06,5.8333213329315186,107,-0.2873503,0.041134886,0.1404342,0.7594267,-0.6158664,0.47642744,1.0459182,0.006050422,-0.0013822403,-0.0030226167,0.6133858849669955,0.7878836196762388,0.05474630552944594,-0.7878879181358202,0.6152414647959936,-0.026656489852999867,-0.054684408919349795,-0.026783238070626648,0.9981444151923073,0.13087705,-0.043284107,0.110673875,-1.667657,0.40237918,-0.2916486,0.99346924,-0.026259255,0.0028528827,0.015885819,0.15096691351294056,-0.48589790460153176,-0.8608787471695518,0.9747160868687619,-0.07195680366736867,0.21154377420577541,-0.16473475960957562,-0.871048474374312,0.46274940763501676,left_images/camera_left_107.png,right_images/camera_right_107.png
2025-06-02 14:22:06,5.888796806335449,108,-0.2884502,0.039350234,0.14024986,0.75481755,-0.6147239,0.4744766,1.0451989,0.006027369,-0.0010788043,-0.0027790256,0.6150889402164506,0.7863155229623711,0.05808178691996912,-0.786092179260663,0.6172793803559949,-0.032019561092253866,-0.06103016736520866,-0.02596276055684167,0.9977982029126143,0.13130744,-0.042723883,0.110637546,-1.6691223,0.4035674,-0.2908338,0.9958133,-0.026230711,0.002808528,0.015964743,0.14971275742989937,-0.4843763075489909,-0.8619545712785226,0.9748157177458878,-0.07342623999419345,0.21057754798621076,-0.16528885836107016,-0.8717730094270645,0.46118479304523213,left_images/camera_left_108.png,right_images/camera_right_108.png
2025-06-02 14:22:06,5.943654775619507,109,-0.29149368,0.038172413,0.14022557,0.7554186,-0.6131636,0.4749767,1.0402813,0.0057150517,-0.00094063685,-0.0024779984,0.6144954495928036,0.7864930505761115,0.06183869197533555,-0.7864247901113958,0.6168966580722157,-0.03121798772469244,-0.06270081281758261,-0.029448168955199007,0.997597821477774,0.13178545,-0.042287372,0.11060834,-1.6718513,0.404703,-0.28975177,0.99693805,-0.026192486,0.0027897367,0.016042294,0.14718706296015133,-0.482730350958811,-0.8633118652957037,0.9750152154527238,-0.07600534763365402,0.2087307278930579,-0.16637697596976214,-0.8724646671322973,0.45948243325821136,left_images/camera_left_109.png,right_images/camera_right_109.png
2025-06-02 14:22:06,6.000516653060913,110,-0.2929495,0.037809234,0.1404377,0.75919825,-0.61131567,0.47676647,1.0356851,0.0054085613,-0.0009685344,-0.0024969857,0.6129481606453616,0.7875866404928789,0.06326006701393931,-0.7878586092959332,0.6152866580738556,-0.026479051240249334,-0.059777622232281655,-0.03360970266822467,0.9976457406147774,0.13203293,-0.042165283,0.11056243,-1.6738739,0.40561414,-0.28895268,0.9963319,-0.026187953,0.0027974972,0.01611251,0.14518792488071153,-0.48152969843932725,-0.8643203202457777,0.975203158046292,-0.07782998615714776,0.20717454909162292,-0.1670307367084632,-0.8729671487379745,0.45828930842745974,left_images/camera_left_110.png,right_images/camera_right_110.png
2025-06-02 14:22:06,6.057955026626587,111,-0.29250702,0.039327458,0.14010733,0.7709194,-0.60939604,0.48211393,1.0242295,0.00573675,-0.001343465,-0.002345819,0.6085625283647509,0.7912104913802955,0.06031258077758755,-0.7921503189555315,0.6102064283809273,-0.01208250558625271,-0.04636292968473204,-0.040423669951446056,0.9981064099877853,0.13205282,-0.04183133,0.1105023,-1.6788201,0.40682703,-0.28862733,0.99661756,-0.02620487,0.0027988737,0.016186303,0.14148998755749687,-0.47997801788133554,-0.865795406416368,0.9752781329406441,-0.08237991231038244,0.20505148976670495,-0.16974435728115028,-0.8734040602140788,0.45645613236407634,left_images/camera_left_111.png,right_images/camera_right_111.png
2025-06-02 14:22:06,6.112269639968872,112,-0.29019827,0.03933189,0.14062138,0.76703835,-0.60882425,0.4787381,1.0150309,0.005560838,-0.0013068828,-0.0029032328,0.6107789171830725,0.7894743049284783,0.060658356245198095,-0.7901789444635179,0.6126376839896926,-0.017096896860713487,-0.05065915565022554,-0.03748853175894542,0.9980121542022244,0.13272475,-0.04127814,0.11053332,-1.6827604,0.4080262,-0.28834894,1.0002353,-0.026112864,0.0027718567,0.01623391,0.13884233894290554,-0.4779695371089605,-0.8673338033956186,0.9752682676221225,-0.08609628356183563,0.20356629418001454,-0.17197270448012264,-0.8741467563016443,0.4541947130483868,left_images/camera_left_112.png,right_images/camera_right_112.png
2025-06-02 14:22:06,6.170790672302246,113,-0.28998116,0.036242317,0.1399858,0.75721574,-0.60779995,0.47321677,1.0078348,0.005965829,-0.00072627503,-0.0024584788,0.6143357987169802,0.7863614593396894,0.06501677998735408,-0.786479219003739,0.6168952863076467,-0.029843656054100824,-0.06357644603183454,-0.03280032006796129,0.9974378048346677,0.13352162,-0.04084477,0.11062354,-1.6877636,0.4084235,-0.2875478,0.99785304,-0.02597969,0.0027721806,0.016232185,0.13477151748015714,-0.47642081761907373,-0.8688267045937693,0.9753570762711296,-0.09079535885419321,0.20108400378541302,-0.17468603791926085,-0.874516670710005,0.4524437874547058,left_images/camera_left_113.png,right_images/camera_right_113.png
2025-06-02 14:22:06,6.2370405197143555,114,-0.29271698,0.03444691,0.14005591,0.7552708,-0.6062077,0.47212952,0.9915824,0.005599898,-0.000469369,-0.0022422206,0.6146677334411564,0.7857097509482156,0.06959716036739384,-0.7858071540477596,0.6176191935295229,-0.03245995119070261,-0.06848864222389282,-0.034737861892107535,0.9970469331167379,0.13440235,-0.04053164,0.11058966,-1.6927543,0.4100579,-0.28659627,1.0011305,-0.025904866,0.0027843977,0.016354457,0.13069145371245103,-0.47369762671032306,-0.8709364513990293,0.9755090732670038,-0.09532493075249943,0.19823018324862346,-0.17692312426666545,-0.8755134013971679,0.44963817906588344,left_images/camera_left_114.png,right_images/camera_right_114.png
2025-06-02 14:22:06,6.301502466201782,115,-0.29488584,0.03365465,0.14026743,0.7584217,-0.60464543,0.4727521,0.97996336,0.005215952,-0.00041888337,-0.00219042,0.6129817417252127,0.7867840420286335,0.0722790116189344,-0.7871844908319062,0.6160089410612525,-0.02955608103769815,-0.06777877031369973,-0.03877957892602456,0.9969464291290094,0.13527188,-0.040257256,0.11060256,-1.6985973,0.41108105,-0.28600973,1.0022914,-0.025807723,0.0028051645,0.01643075,0.12617372016880868,-0.47140082456680343,-0.872846753408925,0.9755478552685245,-0.10065830031882605,0.19538241645016807,-0.17996270285741173,-0.8761559046052607,0.44717363116086356,left_images/camera_left_115.png,right_images/camera_right_115.png
2025-06-02 14:22:06,6.361320734024048,116,-0.29634252,0.034498107,0.14027765,0.7691723,-0.6028936,0.4781399,0.96013117,0.0050999066,-0.0007012193,-0.0020909822,0.6086299259853061,0.7902578338195968,0.0711489232657776,-0.79144332501192,0.6110218120902964,-0.01642584682648345,-0.05645419815387818,-0.04631307846223637,0.9973304478828237,0.13617985,-0.039940078,0.110667005,-1.7056327,0.4114854,-0.2858849,1.0037222,-0.025680335,0.0028267484,0.01646161,0.12110558424415555,-0.46944818563243057,-0.8746152516800176,0.9754170998416161,-0.10713783048773967,0.19256938130178153,-0.18410572723696655,-0.876435899701056,0.4449327981996251,left_images/camera_left_116.png,right_images/camera_right_116.png
2025-06-02 14:22:07,6.417009353637695,117,-0.2954006,0.034127243,0.14047594,0.7684367,-0.60121727,0.47810042,0.9552009,0.0050256443,-0.00066646916,-0.00231269,0.6094703565471682,0.7895837324451381,0.07143818270555634,-0.7907861110921918,0.611874985277165,-0.016319586261822845,-0.05659691682376018,-0.046546018627524936,0.9973115146011153,0.1370791,-0.03946426,0.110700585,-1.7140498,0.41249952,-0.2852383,1.0054464,-0.025565453,0.002845982,0.01652595,0.11470913571898975,-0.466776276994863,-0.8769046250404986,0.9752886679534724,-0.114870183607161,0.1887242832271428,-0.18882221358766055,-0.8768835430961583,0.44206495394114187,left_images/camera_left_117.png,right_images/camera_right_117.png
2025-06-02 14:22:07,6.47406530380249,118,-0.2950998,0.032227736,0.13920777,0.763628,-0.600417,0.4753135,0.93558466,0.005940191,-0.0003014836,-0.0014604381,0.6110630823370176,0.7881532268003144,0.07359619887626888,-0.7890625760547447,0.6138917230854462,-0.022742106257603853,-0.06310436177185798,-0.04417514472453864,0.9970287839946912,0.13798779,-0.03909214,0.11080116,-1.7217962,0.41283578,-0.28547642,1.0072306,-0.025416669,0.002865241,0.016528253,0.10946034672879912,-0.46472230686951493,-0.8786646743734992,0.97494898363202,-0.12200404742436033,0.185982503819487,-0.1936308648147349,-0.8770109405873742,0.439725935420174,left_images/camera_left_118.png,right_images/camera_right_118.png
2025-06-02 14:22:07,6.5303850173950195,119,-0.29356974,0.03056335,0.13996387,0.7547982,-0.5995314,0.4712203,0.9210216,0.005481229,1.2010045e-05,-0.002093093,0.6149527925058434,0.7849306391618311,0.07561054618414396,-0.7852333020590156,0.6183373369149265,-0.032674135251778716,-0.07239975363742542,-0.03927886813486613,0.9966019497227989,0.13858241,-0.03876439,0.110770054,-1.7277751,0.41386658,-0.28516546,1.0059006,-0.025370907,0.002877785,0.016619116,0.10508580748639554,-0.4625331214473274,-0.8803522503118419,0.9747586931992749,-0.12744335100666754,0.18331307186513823,-0.1969834081778823,-0.8773946112487717,0.43746569357407056,left_images/camera_left_119.png,right_images/camera_right_119.png
2025-06-02 14:22:07,6.5882110595703125,120,-0.29821324,0.029166188,0.13973932,0.7522296,-0.5986401,0.47092703,0.8949735,0.005150902,0.00023023333,-0.0014917175,0.6154662160476778,0.7839753793278578,0.08114149069184316,-0.7843107263314165,0.6193701423472331,-0.03517543646145523,-0.07783329278296593,-0.041990848723376,0.9960816970299431,0.13988137,-0.038488083,0.110780515,-1.7347795,0.41451198,-0.28448793,1.0083072,-0.025243081,0.0029079723,0.016723864,0.09967382277439119,-0.459892779564009,-0.8823626014051305,0.9745526015755751,-0.13381688033071049,0.17983400485123718,-0.20077937099168763,-0.8778335114607132,0.4348516647556223,left_images/camera_left_120.png,right_images/camera_right_120.png
2025-06-02 14:22:07,6.652791500091553,121,-0.29757467,0.028275462,0.14007308,0.75233907,-0.59773374,0.470856,0.8816142,0.004959232,0.0003339169,-0.0017790482,0.6152626625688972,0.7841338990288557,0.0811534622948167,-0.7844599360245547,0.6191732711739018,-0.03531386464495039,-0.07793885308999172,-0.04193433745291319,0.9960758236808092,0.14099431,-0.03832714,0.110851504,-1.7414833,0.41494402,-0.28497294,1.0079484,-0.025097173,0.0029402557,0.01676575,0.09539279982921689,-0.4576033828414881,-0.8840245232756665,0.974124070391593,-0.13988376964331672,0.1775241574380521,-0.2048963377526738,-0.8780840933546181,0.4324185654815716,left_images/camera_left_121.png,right_images/camera_right_121.png
2025-06-02 14:22:07,6.711986064910889,122,-0.2956875,0.027091872,0.13966858,0.74842656,-0.59643734,0.4693562,0.85927784,0.0054091313,0.00054432714,-0.0016683205,0.6171538029484755,0.7826334281746031,0.08127792203238328,-0.7826380132207579,0.6212365992866682,-0.03927884887061108,-0.08123376002684325,-0.039370100462200054,0.9959172010872678,0.14190444,-0.038108394,0.11083995,-1.7489965,0.41528434,-0.2848502,1.0087051,-0.025018983,0.002974593,0.016855625,0.08995487828010418,-0.4554270119895704,-0.8857168603023562,0.9736988592297142,-0.14670299305360857,0.1743237314993744,-0.20932905056003276,-0.8781027665252881,0.43025211215317777,left_images/camera_left_122.png,right_images/camera_right_122.png
2025-06-02 14:22:07,6.76866888999939,123,-0.29821268,0.02617492,0.13961577,0.7477155,-0.595276,0.4698548,0.8334032,0.0051763942,0.0006636769,-0.0013903044,0.6172512185547296,0.782236068066387,0.08430698078297182,-0.7823518904311223,0.6215891473492356,-0.039401160344584074,-0.08322531304567653,-0.04163731155693348,0.9956605252568569,0.1428642,-0.038107645,0.11084404,-1.7559412,0.41554913,-0.28514582,1.0088305,-0.02492923,0.003025658,0.016936187,0.08519857291581345,-0.45330297321838503,-0.8872753899689099,0.9732299405466913,-0.15291992395711462,0.17157791140013912,-0.2134588625393486,-0.8781411682231522,0.4281394663834264,left_images/camera_left_123.png,right_images/camera_right_123.png
2025-06-02 14:22:07,6.8177995681762695,124,-0.29761413,0.025673445,0.13941997,0.74737215,-0.59411675,0.4697144,0.8177824,0.0053632,0.0007299499,-0.0013114503,0.617594838350372,0.7819320711199993,0.08460999820923348,-0.7820527772546706,0.6219610736202863,-0.039469944126609965,-0.08348694048313612,-0.04179305032047184,0.9956320965666364,0.14398919,-0.03787659,0.11087775,-1.763573,0.41607907,-0.28576273,1.0108378,-0.024804976,0.0030553942,0.017010814,0.08043021564226643,-0.4506819052938217,-0.8890538794991389,0.9725747439636238,-0.1598079236488696,0.16899643470537723,-0.21824148967561202,-0.8782637689098691,0.4254684528897552,left_images/camera_left_124.png,right_images/camera_right_124.png
2025-06-02 14:22:07,6.871177673339844,125,-0.29462835,0.024366438,0.13915479,0.7404014,-0.59248364,0.46799007,0.794538,0.00580649,0.000979394,-0.0013885079,0.6212310371525747,0.7790931712314316,0.08417736642879307,-0.7786522676021773,0.6258004734656799,-0.04554573051470316,-0.088162603388985,-0.037250475845038405,0.9954093416343823,0.14512897,-0.038012758,0.110885106,-1.7709932,0.41549504,-0.28567255,1.0111054,-0.024705164,0.003126727,0.017088594,0.0748493388479145,-0.4489819950602318,-0.8904003282713704,0.9720319602575038,-0.16647101222031696,0.1656540682515753,-0.2226015379820736,-0.8778966739896428,0.4239646035766882,left_images/camera_left_125.png,right_images/camera_right_125.png
2025-06-02 14:22:07,6.9298906326293945,126,-0.29624453,0.023399299,0.13897762,0.7367019,-0.5918214,0.466804,0.7782706,0.0057455157,0.0011539622,-0.0011017872,0.6226222556969111,0.7776535021204232,0.08715823168657683,-0.7769729971535402,0.6276015218174249,-0.04928784339669306,-0.09302950287481265,-0.03703188426603712,0.9949744474822315,0.14599063,-0.037853897,0.110913366,-1.7771069,0.41581404,-0.28600165,1.0112894,-0.024609443,0.0031548678,0.017142246,0.07086786325633915,-0.4469488401278805,-0.8917479914560074,0.9714560064084321,-0.17197345155727745,0.16339632667981602,-0.2263867787006591,-0.8778734910383268,0.4220037442508298,left_images/camera_left_126.png,right_images/camera_right_126.png
2025-06-02 14:22:07,6.991801738739014,127,-0.29556733,0.022631181,0.13904823,0.7345063,-0.59066665,0.46611202,0.7596282,0.005736641,0.0012716725,-0.0012052087,0.6237510668238255,0.7766744484412054,0.08781462164519707,-0.7758284392107913,0.6288620321934595,-0.051213058659488137,-0.09499915551144342,-0.03618488087671251,0.9948194885747117,0.14673108,-0.037886344,0.11091557,-1.7830088,0.41527474,-0.2861031,1.0117719,-0.024547262,0.0032010723,0.017193379,0.06660201923993186,-0.4457640550450958,-0.8926693555079152,0.9709018808861873,-0.177302136616164,0.16097667546264788,-0.23002979964523573,-0.8774157279084391,0.42098447916054677,left_images/camera_left_127.png,right_images/camera_right_127.png
2025-06-02 14:22:07,7.040219068527222,128,-0.29632926,0.022436803,0.13896228,0.73269445,-0.5896519,0.4663063,0.7406183,0.0057043238,0.0013054011,-0.0010685865,0.6248935374687927,0.7755914839146151,0.08925198546174512,-0.7747288977356547,0.63016453984738,-0.05184387844516421,-0.09645310696413953,-0.036749187719795726,0.994658883918954,0.14763081,-0.037664376,0.1108939,-1.7898269,0.41556695,-0.28699243,1.0114001,-0.02448004,0.0032206178,0.01729014,0.06265725383406662,-0.4435553966775261,-0.8940540691816214,0.9700860546930641,-0.18344743277797004,0.15899712543696348,-0.2345359567998448,-0.8772717079020698,0.4187925924399412,left_images/camera_left_128.png,right_images/camera_right_128.png
2025-06-02 14:22:07,7.095177412033081,129,-0.29629964,0.02228778,0.13899647,0.7331703,-0.5889415,0.46675697,0.73250264,0.005676897,0.0013094881,-0.0010959134,0.6248497414972067,0.7756097225199846,0.08939999375473287,-0.7748451459796853,0.6300994496393673,-0.05088893117256955,-0.0958008366487153,-0.03747321572321972,0.9946949068939516,0.14816993,-0.03768642,0.11090435,-1.794465,0.41604748,-0.28778377,1.010499,-0.02442278,0.0032536013,0.017335905,0.060062407531287,-0.4418332686929081,-0.895084280879564,0.9695328735019468,-0.18751535327758412,0.15761979407498627,-0.23748371396919804,-0.8772806591743166,0.41710925503766133,left_images/camera_left_129.png,right_images/camera_right_129.png
2025-06-02 14:22:07,7.14903998374939,130,-0.29415187,0.021409772,0.13834374,0.7301889,-0.5883009,0.46583068,0.71129656,0.006347708,0.0014727712,-0.00084079336,0.626271216820184,0.7745743612596334,0.08842466772228545,-0.7734743650362927,0.6315330713237846,-0.0538830813526014,-0.09757955530883215,-0.034648790795325284,0.9946243972888218,0.14902233,-0.03737314,0.1109077,-1.8002015,0.4170415,-0.28750503,1.0125703,-0.024338618,0.003268707,0.017416712,0.05603454244206679,-0.43921106923138287,-0.8966346896690611,0.9689665608109956,-0.19262868131621175,0.15491286313437036,-0.24075700214826373,-0.8774895029565895,0.4147869792044806,left_images/camera_left_130.png,right_images/camera_right_130.png
2025-06-02 14:22:07,7.206660985946655,131,-0.29396224,0.020681558,0.13831636,0.726094,-0.5872411,0.46502838,0.6913245,0.0063557797,0.0016063768,-0.00082503073,0.6283302212688878,0.7727599168533673,0.08968413429903331,-0.7713597506243791,0.6338264611652842,-0.05716775527679906,-0.10102112727982125,-0.03325850314534888,0.9943282173465886,0.14984263,-0.03720854,0.11088408,-1.8058727,0.41742238,-0.2879277,1.011713,-0.02427959,0.003290685,0.017508248,0.052518878560972704,-0.4371273593487956,-0.8978649336639931,0.968269384266935,-0.19768982436374738,0.1528827421076729,-0.24432799038593245,-0.8774043566405285,0.41287459120438996,left_images/camera_left_131.png,right_images/camera_right_131.png
2025-06-02 14:22:07,7.264703989028931,132,-0.2952212,0.020183757,0.13819827,0.72851336,-0.58656436,0.46559146,0.6757545,0.006317793,0.0016426244,-0.0006334856,0.626937451336338,0.773749952194341,0.0908869825175855,-0.7726082251331337,0.6324862889627436,-0.05511465078149452,-0.10012972869495858,-0.03566659155837537,0.9943349192691978,0.15052699,-0.03732756,0.11092508,-1.8103714,0.41711304,-0.28830653,1.0123326,-0.0241981,0.0033356112,0.017527627,0.049558292872901755,-0.4359347695160913,-0.8986127376876405,0.9677106345000603,-0.20167537164099064,0.15120572855867237,-0.24714389226322037,-0.8770906003375141,0.4118640252760187,left_images/camera_left_132.png,right_images/camera_right_132.png
2025-06-02 14:22:07,7.312460422515869,133,-0.294232,0.019717881,0.13810658,0.7292114,-0.5856679,0.46567518,0.6513292,0.0064752395,0.001691303,-0.0006646598,0.6267252819142595,0.7739774047960903,0.09041237677774573,-0.7728894244019697,0.6322022073522058,-0.05442707659419768,-0.09928423166386531,-0.035767944924298384,0.9944160575226089,0.15157531,-0.037391122,0.11097501,-1.8161093,0.41712418,-0.28849226,1.0124631,-0.024078034,0.0033872826,0.017573198,0.04567176211121682,-0.43389531848458185,-0.899804947053982,0.9670192848668174,-0.2067365979487752,0.1487739283753549,-0.2505749246060451,-0.8769235038848768,0.41014311586682173,left_images/camera_left_133.png,right_images/camera_right_133.png
2025-06-02 14:22:07,7.362699031829834,134,-0.29247814,0.019131096,0.13769649,0.7303017,-0.5847073,0.46636814,0.63245326,0.006946015,0.0017535945,-0.00055043586,0.6263884253431422,0.7744349793046854,0.08881443252923649,-0.7734279539458853,0.63165933312406,-0.05306304676844083,-0.09719434474917035,-0.03545348652275908,0.994633756536626,0.15216048,-0.037505448,0.11099189,-1.8203859,0.417223,-0.2883438,1.0126233,-0.02401681,0.0034354962,0.01760901,0.04244410608595184,-0.4324443163111619,-0.9006610967221448,0.9665467679155648,-0.21046449992895422,0.14660163608101667,-0.25295423161224273,-0.8767534474182734,0.4090446786716983,left_images/camera_left_134.png,right_images/camera_right_134.png
2025-06-02 14:22:08,7.420650243759155,135,-0.2823149,0.018396413,0.13673046,0.7249756,-0.58387566,0.46367082,0.60695803,0.008626688,0.0019326408,-0.0008023763,0.6298440987345549,0.7724605721691925,0.08124700445739541,-0.7706485434164986,0.6345462247744367,-0.05875296719774488,-0.09693933061087989,-0.02560767596940104,0.9949608098373326,0.15289049,-0.037768714,0.11098895,-1.8246578,0.41693422,-0.28832352,1.0137758,-0.023959784,0.0034967698,0.017665982,0.03924089492342475,-0.4311744667002971,-0.9014148497952112,0.9660480421442839,-0.21417447011219226,0.14450078415481987,-0.25536509635187987,-0.8764803908918193,0.40813085150147493,left_images/camera_left_135.png,right_images/camera_right_135.png
2025-06-02 14:22:08,7.473173379898071,136,-0.28961077,0.018012596,0.13727172,0.72402126,-0.5830929,0.46277538,0.58657146,0.007482146,0.0019816519,-0.000499974,0.6295986896919881,0.7717309962711597,0.08964797450279961,-0.7700383306759421,0.6351779328161253,-0.05991629956232164,-0.10318168067995272,-0.0313091529389849,0.9941696423218238,0.15373684,-0.037719693,0.111026466,-1.8295296,0.4174537,-0.28836456,1.0134122,-0.023860466,0.0035319522,0.017712446,0.0359713402058201,-0.42900263521998133,-0.9025867280533815,0.9654225201478825,-0.21842913918420176,0.14229570881288017,-0.25819647610900603,-0.8764961210008635,0.4063116163676977,left_images/camera_left_136.png,right_images/camera_right_136.png
2025-06-02 14:22:08,7.526178598403931,137,-0.29148206,0.018107444,0.13712353,0.72716516,-0.5831369,0.46366483,0.566628,0.007417813,0.0019357275,-0.00023587886,0.627868118576246,0.7730121677609795,0.09074036681100825,-0.771656640573413,0.6334705366983211,-0.05710611345640305,-0.10162506941931049,-0.034165298602708415,0.9942359265470687,0.15438543,-0.03777261,0.11109015,-1.8335853,0.41719225,-0.28894603,1.0135286,-0.023768317,0.0035654837,0.017712474,0.033593640156509674,-0.4278265494564282,-0.9032363538527672,0.9647858361618751,-0.22202311061424473,0.1410461934779046,-0.26088265117187576,-0.8761678959727874,0.40530243076516587,left_images/camera_left_137.png,right_images/camera_right_137.png
2025-06-02 14:22:08,7.578355312347412,138,-0.28807357,0.017977474,0.13660145,0.7299982,-0.58288664,0.4648385,0.5460603,0.008151385,0.0019248035,-0.00020107627,0.6268261133470749,0.774329002109265,0.08662343862182897,-0.7731264245107814,0.6319249458909819,-0.054280700841592325,-0.0967706326804518,-0.03294630864223316,0.9947612705556423,0.15489006,-0.03783427,0.11114234,-1.8370667,0.41735783,-0.2889013,1.0140928,-0.023691736,0.0036022794,0.017715324,0.031090534514339963,-0.4265101485265993,-0.9039482683580025,0.9643322855560236,-0.22504405059827004,0.13934998501836826,-0.26286236264994045,-0.8760389651688684,0.4043007665191221,left_images/camera_left_138.png,right_images/camera_right_138.png
2025-06-02 14:22:08,7.63970685005188,139,-0.28593346,0.018242992,0.13641913,0.72744834,-0.5826532,0.46334082,0.52245677,0.008477687,0.0019244794,-0.0002628239,0.6284872465575315,0.7730787478390516,0.08574981372654299,-0.7715916101344659,0.6335778168931806,-0.05679381225955611,-0.09823526904648382,-0.030469650153480018,0.9946966534249975,0.15547463,-0.03777947,0.111141324,-1.841079,0.41731414,-0.28876957,1.0143754,-0.02364328,0.0036281464,0.01776192,0.028185369681566652,-0.42520356996199826,-0.9046587804401643,0.963762990714226,-0.22860732498863806,0.13747577492456603,-0.2652668141051272,-0.8757514573514058,0.4033520822822223,left_images/camera_left_139.png,right_images/camera_right_139.png
2025-06-02 14:22:08,7.693613290786743,140,-0.28609216,0.018106189,0.13606253,0.7258185,-0.5828833,0.4631801,0.50430363,0.008717212,0.0019685877,2.8572977e-06,0.6291657374549375,0.7725057303398103,0.08593818362602752,-0.7708771025869204,0.634316944334353,-0.058228058850727446,-0.09949355516805698,-0.02961267840782739,0.9945974671984317,0.15619722,-0.03756464,0.111178294,-1.8456626,0.41698226,-0.28904706,1.0145189,-0.023561552,0.0036372095,0.017786017,0.025333269305315653,-0.4239193072715812,-0.9053455950015372,0.9629822305559481,-0.23277694277955158,0.13594159975407227,-0.2683718485605287,-0.8752755656549476,0.40232975911261715,left_images/camera_left_140.png,right_images/camera_right_140.png
2025-06-02 14:22:08,7.743381500244141,141,-0.2844384,0.018073868,0.13617833,0.72439134,-0.5830818,0.46306467,0.47916037,0.008796375,0.001987388,-0.00022350345,0.6299902637993924,0.7720129054625903,0.08431097981391082,-0.7702163243147216,0.6350108828475933,-0.059396905847356136,-0.09939356758408245,-0.027518220587999513,0.9946676159695653,0.15693228,-0.037585318,0.11126018,-1.849048,0.41674483,-0.28885847,1.0148985,-0.023450468,0.0036693844,0.017776374,0.0228221071144053,-0.4227537563498545,-0.9059571805107273,0.9624865828585192,-0.2357782272014608,0.1342691528053535,-0.270367766651629,-0.8750359358733928,0.4015138623833381,left_images/camera_left_141.png,right_images/camera_right_141.png
2025-06-02 14:22:08,7.800325155258179,142,-0.28521606,0.018207487,0.13619533,0.72352433,-0.5832405,0.463328,0.46886307,0.008706979,0.001977103,-0.000162201,0.6304139143723608,0.7716061290466125,0.08486623700518452,-0.7697856616107059,0.635499078883382,-0.0597574758247112,-0.10004165004779549,-0.027656868153779025,0.9945987964499248,0.15733744,-0.03742342,0.11127911,-1.8532637,0.4172337,-0.28960046,1.014365,-0.023400435,0.0036800602,0.017804269,0.02065544607346742,-0.42107965633707817,-0.9067884403578126,0.9617345832323467,-0.23947482975939077,0.13311047038687474,-0.27320311850784273,-0.8748392589103205,0.40002040836291175,left_images/camera_left_142.png,right_images/camera_right_142.png
