jiaqis7/OS_Teleop_Extension/demo_01/teleop_log.csv
Epoch Time (Seconds),Time (Seconds),Frame Number,PSM1_joint_1,PSM1_joint_2,PSM1_joint_3,PSM1_joint_4,PSM1_joint_5,PSM1_joint_6,PSM1_jaw_angle,PSM1_ee_x,PSM1_ee_y,PSM1_ee_z,"PSM1_Orientation_Matrix_[1,1]","PSM1_Orientation_Matrix_[1,2]","PSM1_Orientation_Matrix_[1,3]","PSM1_Orientation_Matrix_[2,1]","PSM1_Orientation_Matrix_[2,2]","PSM1_Orientation_Matrix_[2,3]","PSM1_Orientation_Matrix_[3,1]","PSM1_Orientation_Matrix_[3,2]","PSM1_Orientation_Matrix_[3,3]",PSM2_joint_1,PSM2_joint_2,PSM2_joint_3,PSM2_joint_4,PSM2_joint_5,PSM2_joint_6,PSM2_jaw_angle,PSM2_ee_x,PSM2_ee_y,PSM2_ee_z,"PSM2_Orientation_Matrix_[1,1]","PSM2_Orientation_Matrix_[1,2]","PSM2_Orientation_Matrix_[1,3]","PSM2_Orientation_Matrix_[2,1]","PSM2_Orientation_Matrix_[2,2]","PSM2_Orientation_Matrix_[2,3]","PSM2_Orientation_Matrix_[3,1]","PSM2_Orientation_Matrix_[3,2]","PSM2_Orientation_Matrix_[3,3]",PSM3_joint_1,PSM3_joint_2,PSM3_joint_3,PSM3_joint_4,PSM3_joint_5,PSM3_joint_6,PSM3_jaw_angle,PSM3_ee_x,PSM3_ee_y,PSM3_ee_z,"PSM3_Orientation_Matrix_[1,1]","PSM3_Orientation_Matrix_[1,2]","PSM3_Orientation_Matrix_[1,3]","PSM3_Orientation_Matrix_[2,1]","PSM3_Orientation_Matrix_[2,2]","PSM3_Orientation_Matrix_[2,3]","PSM3_Orientation_Matrix_[3,1]","PSM3_Orientation_Matrix_[3,2]","PSM3_Orientation_Matrix_[3,3]",Camera Left,Camera Right
2025-05-26 21:18:26,0.0016753673553466797,1,-0.0008511408,-0.0014305251,0.09618439,-0.00012687487,-0.0001898513,0.021091871,1.0471792,0.030588701,0.00014485893,0.004232648,0.8758716414917198,0.0007015854266080732,0.48254365129850096,9.254755168074732e-05,0.999998680414183,-0.0016219139443789054,-0.4825441524519293,0.0014652466623282265,0.8758704207739108,0.0005595306,-9.2426075e-05,0.09122644,0.00031080307,0.00012536658,-0.0142224645,1.0471792,-0.03303998,6.2633026e-06,0.00854097,0.8726784479804155,0.00028552016875105343,-0.48829524358601595,-0.0003110770535889735,0.999999951201578,2.877340026208726e-05,0.48829522797336466,0.00012678751937241034,0.8726784942138571,0.00013299075,-0.01300043,0.09940966,-0.0003007058,1.7993301e-05,0.0059971674,0.5235896,6.9384965e-05,-0.022265444,0.01162538,0.9999811649150423,-0.0003019867854498464,-0.0061301402215806515,-0.001372679174999593,0.9624844825313853,-0.2713332575232416,0.005982103897237964,0.2713365616541063,0.962465939523415,left_images/camera_left_1.png,right_images/camera_right_1.png
2025-05-26 21:18:26,0.07418489456176758,2,-0.000851145,-0.0014305251,0.09618439,-0.00012689763,-0.00018985217,0.021091871,1.0471792,0.030588701,0.00014485893,0.004232648,0.8758716414917198,0.0007015854266080732,0.48254365129850096,9.254755168074732e-05,0.999998680414183,-0.0016219139443789054,-0.4825441524519293,0.0014652466623282265,0.8758704207739108,0.00055952795,-9.2419716e-05,0.09122644,0.0003108541,0.00012532598,-0.0142224645,1.0471792,-0.033039965,6.2614795e-06,0.008540967,0.8726785188863443,0.00028586408244698694,-0.48829511666210895,-0.0003114510368525619,0.9999999510841368,2.8809296750192685e-05,0.48829510101227497,0.00012693876595634116,0.8726785652311863,0.00013301177,-0.01300043,0.09940966,-0.00030064036,1.7983955e-05,0.0059971674,0.5235896,6.9384965e-05,-0.022265444,0.01162538,0.9999811649150423,-0.0003019867854498464,-0.0061301402215806515,-0.001372679174999593,0.9624844825313853,-0.2713332575232416,0.005982103897237964,0.2713365616541063,0.962465939523415,left_images/camera_left_2.png,right_images/camera_right_2.png
2025-05-26 21:18:26,0.14426827430725098,3,-0.0008511492,-0.0014305251,0.09618439,-0.0001269204,-0.00018985305,0.021091871,1.0471792,0.030588701,0.00014485893,0.004232648,0.8758716414917198,0.0007015854266080732,0.48254365129850096,9.254755168074732e-05,0.999998680414183,-0.0016219139443789054,-0.4825441524519293,0.0014652466623282265,0.8758704207739108,0.000559533,-9.242594e-05,0.09122644,0.00031083566,0.00012536615,-0.0142224645,1.0471792,-0.03303998,6.2633026e-06,0.00854097,0.8726784479804155,0.00028552016875105343,-0.48829524358601595,-0.0003110770535889735,0.999999951201578,2.877340026208726e-05,0.48829522797336466,0.00012678751937241034,0.8726784942138571,0.00013301204,-0.01300043,0.09940966,-0.0003006413,1.8014542e-05,0.0059971954,0.5235896,6.9384965e-05,-0.022265444,0.01162538,0.9999811649150423,-0.0003019867854498464,-0.0061301402215806515,-0.001372679174999593,0.9624844825313853,-0.2713332575232416,0.005982103897237964,0.2713365616541063,0.962465939523415,left_images/camera_left_3.png,right_images/camera_right_3.png
2025-05-26 21:18:26,0.21106863021850586,4,-0.0008511534,-0.0014305251,0.09618439,-0.00012694315,-0.00018985392,0.021091871,1.0471792,0.030588701,0.00014485893,0.004232648,0.8758716414917198,0.0007015854266080732,0.48254365129850096,9.254755168074732e-05,0.999998680414183,-0.0016219139443789054,-0.4825441524519293,0.0014652466623282265,0.8758704207739108,0.0005595194,-9.2425544e-05,0.09122644,0.0003108202,0.00012534902,-0.014222437,1.0471792,-0.03303998,6.2633026e-06,0.00854097,0.8726784479804155,0.00028552016875105343,-0.48829524358601595,-0.0003110770535889735,0.999999951201578,2.877340026208726e-05,0.48829522797336466,0.00012678751937241034,0.8726784942138571,0.00013301,-0.01300043,0.09940966,-0.00030069205,1.7973207e-05,0.0059972233,0.5235896,6.938652e-05,-0.022265438,0.011625378,0.9999811647921717,-0.00030210958191240385,-0.006130154214422395,-0.001372566901351238,0.9624843864747681,-0.2713335988269628,0.005982150198164452,0.2713369022490129,0.9624658432157043,left_images/camera_left_4.png,right_images/camera_right_4.png
2025-05-26 21:18:26,0.26462388038635254,5,-0.0008511576,-0.0014305251,0.09618439,-0.00012696591,-0.00018985479,0.021091871,1.0471792,0.030588739,0.00014484534,0.0042326404,0.8758717259746361,0.0007012191190174804,0.4825434984848095,9.291362554530183e-05,0.9999986805328894,-0.001621819823108603,-0.4825439990356013,0.0014653409936135485,0.8758705051378898,0.00055950286,-9.2425136e-05,0.09122644,0.00031080475,0.00012533188,-0.014222409,1.0471792,-0.033039894,6.0942953e-06,0.008540996,0.8726785752819447,0.0002856649769618762,-0.4882950159886908,-0.0003111809778542055,0.9999999511660509,2.8884158431392568e-05,0.4882950003945093,0.00012674153432857012,0.8726786215591106,0.00013301043,-0.01300043,0.09940966,-0.00030072292,1.7940267e-05,0.0059972513,0.5235896,6.938652e-05,-0.022265438,0.011625378,0.9999811647921717,-0.00030210958191240385,-0.006130154214422395,-0.001372566901351238,0.9624843864747681,-0.2713335988269628,0.005982150198164452,0.2713369022490129,0.9624658432157043,left_images/camera_left_5.png,right_images/camera_right_5.png
2025-05-26 21:18:26,0.3169827461242676,6,-0.0008511578,-0.0014305251,0.09618439,-0.00012697671,-0.00018985567,0.021091871,1.0471792,0.030588739,0.00014484534,0.0042326404,0.8758717259746361,0.0007012191190174804,0.4825434984848095,9.291362554530183e-05,0.9999986805328894,-0.001621819823108603,-0.4825439990356013,0.0014653409936135485,0.8758705051378898,0.000559507,-9.241879e-05,0.09122644,0.0003108449,0.00012529128,-0.014222409,1.0471792,-0.03303992,6.1218793e-06,0.008540965,0.8726785470579673,0.00028583525015251374,-0.48829506633080466,-0.00031142220192073794,0.999999951093334,2.8801768539587016e-05,0.4882950506824816,0.0001269312392219453,0.872678593393612,0.00013300957,-0.01300043,0.09940966,-0.0003007041,1.7979251e-05,0.005997279,0.5235896,6.9384965e-05,-0.022265444,0.01162538,0.9999811649150423,-0.0003019867854498464,-0.0061301402215806515,-0.001372679174999593,0.9624844825313853,-0.2713332575232416,0.005982103897237964,0.2713365616541063,0.962465939523415,left_images/camera_left_6.png,right_images/camera_right_6.png
2025-05-26 21:18:26,0.39278292655944824,7,-0.0008511578,-0.0014305251,0.09618439,-0.0001269875,-0.00018985654,0.021091871,1.0471792,0.030588739,0.00014484534,0.0042326404,0.8758717259746361,0.0007012191190174804,0.4825434984848095,9.291362554530183e-05,0.9999986805328894,-0.001621819823108603,-0.4825439990356013,0.0014653409936135485,0.8758705051378898,0.0005594566,-9.244725e-05,0.09122644,0.0003108855,0.00012525928,-0.014222348,1.0471792,-0.03303992,6.1218793e-06,0.008540965,0.8726785470579673,0.00028583525015251374,-0.48829506633080466,-0.00031142220192073794,0.999999951093334,2.8801768539587016e-05,0.4882950506824816,0.0001269312392219453,0.872678593393612,0.00013303058,-0.01300043,0.09940966,-0.00030063864,1.7969905e-05,0.005997279,0.5235896,6.938652e-05,-0.022265438,0.011625378,0.9999811647921717,-0.00030210958191240385,-0.006130154214422395,-0.001372566901351238,0.9624843864747681,-0.2713335988269628,0.005982150198164452,0.2713369022490129,0.9624658432157043,left_images/camera_left_7.png,right_images/camera_right_7.png
2025-05-26 21:18:26,0.45621776580810547,8,-0.0008511578,-0.0014305251,0.09618439,-0.0001269983,-0.00018985741,0.021091871,1.0471792,0.030588739,0.00014484534,0.0042326404,0.8758717259746361,0.0007012191190174804,0.4825434984848095,9.291362554530183e-05,0.9999986805328894,-0.001621819823108603,-0.4825439990356013,0.0014653409936135485,0.8758705051378898,0.00055944757,-9.244596e-05,0.09122644,0.0003108761,0.00012521872,-0.014222348,1.0471792,-0.03303992,6.1218793e-06,0.008540965,0.8726785470579673,0.00028583525015251374,-0.48829506633080466,-0.00031142220192073794,0.999999951093334,2.8801768539587016e-05,0.4882950506824816,0.0001269312392219453,0.872678593393612,0.00013303485,-0.01300043,0.09940966,-0.0003006695,1.7936974e-05,0.005997307,0.5235896,6.938652e-05,-0.022265438,0.011625378,0.9999811647921717,-0.00030210958191240385,-0.006130154214422395,-0.001372566901351238,0.9624843864747681,-0.2713335988269628,0.005982150198164452,0.2713369022490129,0.9624658432157043,left_images/camera_left_8.png,right_images/camera_right_8.png
2025-05-26 21:18:26,0.5247242450714111,9,-0.0008511578,-0.0014305251,0.09618439,-0.0001270091,-0.00018985829,0.021091871,1.0471792,0.030588739,0.00014484534,0.0042326404,0.8758717259746361,0.0007012191190174804,0.4825434984848095,9.291362554530183e-05,0.9999986805328894,-0.001621819823108603,-0.4825439990356013,0.0014653409936135485,0.8758705051378898,0.00055944757,-9.24387e-05,0.09122644,0.00031086666,0.00012517818,-0.014222348,1.0471792,-0.03303992,6.1218793e-06,0.008540965,0.8726785470579673,0.00028583525015251374,-0.48829506633080466,-0.00031142220192073794,0.999999951093334,2.8801768539587016e-05,0.4882950506824816,0.0001269312392219453,0.872678593393612,0.00013303399,-0.01300043,0.09940966,-0.00030065066,1.7975959e-05,0.005997335,0.5235896,6.938652e-05,-0.022265438,0.011625378,0.9999811647921717,-0.00030210958191240385,-0.006130154214422395,-0.001372566901351238,0.9624843864747681,-0.2713335988269628,0.005982150198164452,0.2713369022490129,0.9624658432157043,left_images/camera_left_9.png,right_images/camera_right_9.png
2025-05-26 21:18:27,0.6038022041320801,10,-0.0008511578,-0.0014305251,0.09618439,-0.0001270199,-0.00018985916,0.021091871,1.0471792,0.030588739,0.00014484534,0.0042326404,0.8758717259746361,0.0007012191190174804,0.4825434984848095,9.291362554530183e-05,0.9999986805328894,-0.001621819823108603,-0.4825439990356013,0.0014653409936135485,0.8758705051378898,0.00055944757,-9.243144e-05,0.09122644,0.00031085723,0.00012513764,-0.014222348,1.0471792,-0.03303992,6.1218793e-06,0.008540965,0.8726785470579673,0.00028583525015251374,-0.48829506633080466,-0.00031142220192073794,0.999999951093334,2.8801768539587016e-05,0.4882950506824816,0.0001269312392219453,0.872678593393612,0.00013303455,-0.01300043,0.09940966,-0.0003006815,1.7943028e-05,0.005997363,0.5235896,6.939152e-05,-0.022265438,0.011625378,0.9999811621797261,-0.0003022188359580357,-0.0061305749697326845,-0.0013725759918219297,0.9624843829709008,-0.2713336112100215,0.005982584795136194,0.2713369145562387,0.9624658370447594,left_images/camera_left_10.png,right_images/camera_right_10.png
2025-05-26 21:18:27,0.6701068878173828,11,-0.0008511578,-0.0014305251,0.09618439,-0.0001270307,-0.00018986003,0.021091871,1.0471792,0.030588739,0.00014484534,0.0042326404,0.8758717259746361,0.0007012191190174804,0.4825434984848095,9.291362554530183e-05,0.9999986805328894,-0.001621819823108603,-0.4825439990356013,0.0014653409936135485,0.8758705051378898,0.00055944757,-9.2424176e-05,0.09122644,0.0003108478,0.0001250971,-0.014222348,1.0471792,-0.03303992,6.1218793e-06,0.008540965,0.8726785470579673,0.00028583525015251374,-0.48829506633080466,-0.00031142220192073794,0.999999951093334,2.8801768539587016e-05,0.4882950506824816,0.0001269312392219453,0.872678593393612,0.00013303488,-0.01300043,0.09940966,-0.0003006738,1.794226e-05,0.005997363,0.5235896,6.939152e-05,-0.022265438,0.011625378,0.9999811621797261,-0.0003022188359580357,-0.0061305749697326845,-0.0013725759918219297,0.9624843829709008,-0.2713336112100215,0.005982584795136194,0.2713369145562387,0.9624658370447594,left_images/camera_left_11.png,right_images/camera_right_11.png
2025-05-26 21:18:27,0.7237999439239502,12,-0.0008511578,-0.0014305251,0.09618439,-0.0001270415,-0.0001898609,0.021091871,1.0471792,0.030588739,0.00014484534,0.0042326404,0.8758717259746361,0.0007012191190174804,0.4825434984848095,9.291362554530183e-05,0.9999986805328894,-0.001621819823108603,-0.4825439990356013,0.0014653409936135485,0.8758705051378898,0.00055945973,-9.241581e-05,0.09122644,0.0003108547,0.00012510491,-0.014222348,1.0471792,-0.03303992,6.1218793e-06,0.008540965,0.8726785470579673,0.00028583525015251374,-0.48829506633080466,-0.00031142220192073794,0.999999951093334,2.8801768539587016e-05,0.4882950506824816,0.0001269312392219453,0.872678593393612,0.00013303488,-0.01300043,0.09940966,-0.00030066606,1.7941504e-05,0.005997363,0.5235896,6.939152e-05,-0.022265438,0.011625378,0.9999811621797261,-0.0003022188359580357,-0.0061305749697326845,-0.0013725759918219297,0.9624843829709008,-0.2713336112100215,0.005982584795136194,0.2713369145562387,0.9624658370447594,left_images/camera_left_12.png,right_images/camera_right_12.png
2025-05-26 21:18:27,0.774395227432251,13,-0.0008511578,-0.0014305251,0.09618439,-0.00012705229,-0.00018986178,0.021091871,1.0471792,0.030588739,0.00014484534,0.0042326404,0.8758717259746361,0.0007012191190174804,0.4825434984848095,9.291362554530183e-05,0.9999986805328894,-0.001621819823108603,-0.4825439990356013,0.0014653409936135485,0.8758705051378898,0.000559474,-9.240722e-05,0.09122644,0.0003108616,0.00012511274,-0.014222348,1.0471792,-0.03303992,6.1218793e-06,0.008540965,0.8726785470579673,0.00028583525015251374,-0.48829506633080466,-0.00031142220192073794,0.999999951093334,2.8801768539587016e-05,0.4882950506824816,0.0001269312392219453,0.872678593393612,0.00013303488,-0.01300043,0.09940966,-0.0003006583,1.7940747e-05,0.005997363,0.5235896,6.939152e-05,-0.022265438,0.011625378,0.9999811621797261,-0.0003022188359580357,-0.0061305749697326845,-0.0013725759918219297,0.9624843829709008,-0.2713336112100215,0.005982584795136194,0.2713369145562387,0.9624658370447594,left_images/camera_left_13.png,right_images/camera_right_13.png
2025-05-26 21:18:27,0.83233642578125,14,-0.0008511578,-0.0014305251,0.09618439,-0.00012706309,-0.00018986265,0.021091871,1.0471792,0.030588739,0.00014484534,0.0042326404,0.8758717259746361,0.0007012191190174804,0.4825434984848095,9.291362554530183e-05,0.9999986805328894,-0.001621819823108603,-0.4825439990356013,0.0014653409936135485,0.8758705051378898,0.00055947615,-9.239974e-05,0.09122644,0.00031085216,0.00012507221,-0.014222348,1.0471792,-0.03303993,6.1287074e-06,0.008540968,0.8726786034537685,0.00028551918937346355,-0.48829496572540343,-0.0003112781101081922,0.9999999511493475,2.8411984526830276e-05,0.48829494998404255,0.00012720100312812375,0.8726786496987229,0.00013303488,-0.01300043,0.09940966,-0.00030065057,1.793999e-05,0.005997363,0.5235896,6.939152e-05,-0.022265438,0.011625378,0.9999811621797261,-0.0003022188359580357,-0.0061305749697326845,-0.0013725759918219297,0.9624843829709008,-0.2713336112100215,0.005982584795136194,0.2713369145562387,0.9624658370447594,left_images/camera_left_14.png,right_images/camera_right_14.png
2025-05-26 21:18:27,0.8828105926513672,15,-0.0008511578,-0.0014305251,0.09618439,-0.00012707389,-0.00018986352,0.021091871,1.0471792,0.030588739,0.00014484534,0.0042326404,0.8758717259746361,0.0007012191190174804,0.4825434984848095,9.291362554530183e-05,0.9999986805328894,-0.001621819823108603,-0.4825439990356013,0.0014653409936135485,0.8758705051378898,0.0005594827,-9.239246e-05,0.09122644,0.00031087032,0.00012503164,-0.014222348,1.0471792,-0.03303993,6.1287074e-06,0.008540968,0.8726786034537685,0.00028551918937346355,-0.48829496572540343,-0.0003112781101081922,0.9999999511493475,2.8411984526830276e-05,0.48829494998404255,0.00012720100312812375,0.8726786496987229,0.00013303488,-0.01300043,0.09940966,-0.00030064283,1.7939234e-05,0.005997363,0.5235896,6.939152e-05,-0.022265438,0.011625378,0.9999811621797261,-0.0003022188359580357,-0.0061305749697326845,-0.0013725759918219297,0.9624843829709008,-0.2713336112100215,0.005982584795136194,0.2713369145562387,0.9624658370447594,left_images/camera_left_15.png,right_images/camera_right_15.png
2025-05-26 21:18:27,0.9432921409606934,16,-0.0008511578,-0.0014305251,0.09618439,-0.00012708468,-0.0001898644,0.021091871,1.0471792,0.030588739,0.00014484534,0.0042326404,0.8758717259746361,0.0007012191190174804,0.4825434984848095,9.291362554530183e-05,0.9999986805328894,-0.001621819823108603,-0.4825439990356013,0.0014653409936135485,0.8758705051378898,0.0005594897,-9.238517e-05,0.09122644,0.00031088848,0.00012499107,-0.014222348,1.0471792,-0.03303993,6.1287074e-06,0.008540968,0.8726786034537685,0.00028551918937346355,-0.48829496572540343,-0.0003112781101081922,0.9999999511493475,2.8411984526830276e-05,0.48829494998404255,0.00012720100312812375,0.8726786496987229,0.00013303488,-0.01300043,0.09940966,-0.0003006351,1.7938477e-05,0.005997363,0.5235896,6.939152e-05,-0.022265438,0.011625378,0.9999811621797261,-0.0003022188359580357,-0.0061305749697326845,-0.0013725759918219297,0.9624843829709008,-0.2713336112100215,0.005982584795136194,0.2713369145562387,0.9624658370447594,left_images/camera_left_16.png,right_images/camera_right_16.png
2025-05-26 21:18:27,1.0245888233184814,17,-0.0008511578,-0.0014305251,0.09618439,-0.00012709548,-0.00018986527,0.021091871,1.0471792,0.030588739,0.00014484534,0.0042326404,0.8758717259746361,0.0007012191190174804,0.4825434984848095,9.291362554530183e-05,0.9999986805328894,-0.001621819823108603,-0.4825439990356013,0.0014653409936135485,0.8758705051378898,0.0005594967,-9.237788e-05,0.09122644,0.00031090665,0.0001249505,-0.014222348,1.0471792,-0.03303993,6.1287074e-06,0.008540968,0.8726786034537685,0.00028551918937346355,-0.48829496572540343,-0.0003112781101081922,0.9999999511493475,2.8411984526830276e-05,0.48829494998404255,0.00012720100312812375,0.8726786496987229,0.00013303488,-0.01300043,0.09940966,-0.00030062735,1.793772e-05,0.005997363,0.5235896,6.939152e-05,-0.022265438,0.011625378,0.9999811621797261,-0.0003022188359580357,-0.0061305749697326845,-0.0013725759918219297,0.9624843829709008,-0.2713336112100215,0.005982584795136194,0.2713369145562387,0.9624658370447594,left_images/camera_left_17.png,right_images/camera_right_17.png
2025-05-26 21:18:27,1.0974938869476318,18,-0.0008511578,-0.0014305251,0.09618439,-0.00012710628,-0.00018986614,0.021091871,1.0471792,0.030588739,0.00014484534,0.0042326404,0.8758717259746361,0.0007012191190174804,0.4825434984848095,9.291362554530183e-05,0.9999986805328894,-0.001621819823108603,-0.4825439990356013,0.0014653409936135485,0.8758705051378898,0.0005595037,-9.237059e-05,0.09122644,0.0003109248,0.00012490993,-0.014222348,1.0471792,-0.03303993,6.1287074e-06,0.008540968,0.8726786034537685,0.00028551918937346355,-0.48829496572540343,-0.0003112781101081922,0.9999999511493475,2.8411984526830276e-05,0.48829494998404255,0.00012720100312812375,0.8726786496987229,0.00013303488,-0.01300043,0.09940966,-0.0003006196,1.7936964e-05,0.005997363,0.5235896,6.939152e-05,-0.022265438,0.011625378,0.9999811621797261,-0.0003022188359580357,-0.0061305749697326845,-0.0013725759918219297,0.9624843829709008,-0.2713336112100215,0.005982584795136194,0.2713369145562387,0.9624658370447594,left_images/camera_left_18.png,right_images/camera_right_18.png
2025-05-26 21:18:27,1.160696029663086,19,-0.0008511578,-0.0014305251,0.09618439,-0.00012711708,-0.00018986702,0.021091871,1.0471792,0.030588739,0.00014484534,0.0042326404,0.8758717259746361,0.0007012191190174804,0.4825434984848095,9.291362554530183e-05,0.9999986805328894,-0.001621819823108603,-0.4825439990356013,0.0014653409936135485,0.8758705051378898,0.00055951066,-9.23633e-05,0.09122644,0.00031094297,0.00012486936,-0.014222348,1.0471792,-0.03303993,6.1287074e-06,0.008540968,0.8726786034537685,0.00028551918937346355,-0.48829496572540343,-0.0003112781101081922,0.9999999511493475,2.8411984526830276e-05,0.48829494998404255,0.00012720100312812375,0.8726786496987229,0.00013303488,-0.01300043,0.09940966,-0.00030061186,1.7936207e-05,0.005997363,0.5235896,6.939152e-05,-0.022265438,0.011625378,0.9999811621797261,-0.0003022188359580357,-0.0061305749697326845,-0.0013725759918219297,0.9624843829709008,-0.2713336112100215,0.005982584795136194,0.2713369145562387,0.9624658370447594,left_images/camera_left_19.png,right_images/camera_right_19.png
2025-05-26 21:18:27,1.219266653060913,20,-0.0008511578,-0.0014305251,0.09618439,-0.00012712787,-0.00018986789,0.021091871,1.0471792,0.030588739,0.00014484534,0.0042326404,0.8758717259746361,0.0007012191190174804,0.4825434984848095,9.291362554530183e-05,0.9999986805328894,-0.001621819823108603,-0.4825439990356013,0.0014653409936135485,0.8758705051378898,0.00055955787,-9.214456e-05,0.09122644,0.000310961,0.00012459888,-0.014222416,1.0471792,-0.03303997,6.2749973e-06,0.00854097,0.8726785324515303,0.00028540135368425795,-0.4882950926891552,-0.00031133225699665404,0.9999999511420389,2.8073930712618425e-05,0.4882950768443904,0.0001275224966328713,0.8726785786688841,0.00013303488,-0.01300043,0.09940966,-0.00030060412,1.793545e-05,0.005997363,0.5235896,6.939152e-05,-0.022265438,0.011625378,0.9999811621797261,-0.0003022188359580357,-0.0061305749697326845,-0.0013725759918219297,0.9624843829709008,-0.2713336112100215,0.005982584795136194,0.2713369145562387,0.9624658370447594,left_images/camera_left_20.png,right_images/camera_right_20.png
2025-05-26 21:18:27,1.2734549045562744,21,-0.0008511578,-0.0014305251,0.09618439,-0.00012713867,-0.00018986876,0.021091871,1.0471792,0.030588739,0.00014484534,0.0042326404,0.8758717259746361,0.0007012191190174804,0.4825434984848095,9.291362554530183e-05,0.9999986805328894,-0.001621819823108603,-0.4825439990356013,0.0014653409936135485,0.8758705051378898,0.0005596147,-9.220676e-05,0.09122644,0.0003109851,0.00012464733,-0.014222472,1.0471792,-0.03303997,6.2749973e-06,0.00854097,0.8726785324515303,0.00028540135368425795,-0.4882950926891552,-0.00031133225699665404,0.9999999511420389,2.8073930712618425e-05,0.4882950768443904,0.0001275224966328713,0.8726785786688841,0.00013303488,-0.01300043,0.09940966,-0.00030059638,1.7934693e-05,0.005997363,0.5235896,6.939152e-05,-0.022265438,0.011625378,0.9999811621797261,-0.0003022188359580357,-0.0061305749697326845,-0.0013725759918219297,0.9624843829709008,-0.2713336112100215,0.005982584795136194,0.2713369145562387,0.9624658370447594,left_images/camera_left_21.png,right_images/camera_right_21.png
2025-05-26 21:18:27,1.3252017498016357,22,-0.0008511578,-0.0014305251,0.09618439,-0.00012714947,-0.00018986964,0.021091871,1.0471792,0.030588739,0.00014484534,0.0042326404,0.8758717259746361,0.0007012191190174804,0.4825434984848095,9.291362554530183e-05,0.9999986805328894,-0.001621819823108603,-0.4825439990356013,0.0014653409936135485,0.8758705051378898,0.00055962073,-9.2216935e-05,0.09122644,0.00031099212,0.00012460671,-0.014222472,1.0471792,-0.03303997,6.2749973e-06,0.00854097,0.8726785324515303,0.00028540135368425795,-0.4882950926891552,-0.00031133225699665404,0.9999999511420389,2.8073930712618425e-05,0.4882950768443904,0.0001275224966328713,0.8726785786688841,0.00013303488,-0.01300043,0.09940966,-0.00030058864,1.7933937e-05,0.005997363,0.5235896,6.939152e-05,-0.022265438,0.011625378,0.9999811621797261,-0.0003022188359580357,-0.0061305749697326845,-0.0013725759918219297,0.9624843829709008,-0.2713336112100215,0.005982584795136194,0.2713369145562387,0.9624658370447594,left_images/camera_left_22.png,right_images/camera_right_22.png
2025-05-26 21:18:27,1.3820037841796875,23,-0.0008511578,-0.0014305251,0.09618439,-0.00012716027,-0.00018987051,0.021091871,1.0471792,0.030588739,0.00014484534,0.0042326404,0.8758717259746361,0.0007012191190174804,0.4825434984848095,9.291362554530183e-05,0.9999986805328894,-0.001621819823108603,-0.4825439990356013,0.0014653409936135485,0.8758705051378898,0.00055961724,-9.220965e-05,0.09122644,0.0003109991,0.00012456614,-0.014222472,1.0471792,-0.03303997,6.2749973e-06,0.00854097,0.8726785324515303,0.00028540135368425795,-0.4882950926891552,-0.00031133225699665404,0.9999999511420389,2.8073930712618425e-05,0.4882950768443904,0.0001275224966328713,0.8726785786688841,0.00013303488,-0.01300043,0.09940966,-0.0003005809,1.793318e-05,0.005997363,0.5235896,6.939152e-05,-0.022265438,0.011625378,0.9999811621797261,-0.0003022188359580357,-0.0061305749697326845,-0.0013725759918219297,0.9624843829709008,-0.2713336112100215,0.005982584795136194,0.2713369145562387,0.9624658370447594,left_images/camera_left_23.png,right_images/camera_right_23.png
2025-05-26 21:18:27,1.4368691444396973,24,-0.0008511578,-0.0014305251,0.09618439,-0.00012717106,-0.00018987138,0.021091871,1.0471792,0.030588739,0.00014484534,0.0042326404,0.8758717259746361,0.0007012191190174804,0.4825434984848095,9.291362554530183e-05,0.9999986805328894,-0.001621819823108603,-0.4825439990356013,0.0014653409936135485,0.8758705051378898,0.00055961375,-9.220236e-05,0.09122644,0.0003110061,0.00012452557,-0.014222472,1.0471792,-0.03303997,6.2749973e-06,0.00854097,0.8726785324515303,0.00028540135368425795,-0.4882950926891552,-0.00031133225699665404,0.9999999511420389,2.8073930712618425e-05,0.4882950768443904,0.0001275224966328713,0.8726785786688841,0.00013303488,-0.01300043,0.09940966,-0.00030057316,1.7932423e-05,0.005997363,0.5235896,6.939152e-05,-0.022265438,0.011625378,0.9999811621797261,-0.0003022188359580357,-0.0061305749697326845,-0.0013725759918219297,0.9624843829709008,-0.2713336112100215,0.005982584795136194,0.2713369145562387,0.9624658370447594,left_images/camera_left_24.png,right_images/camera_right_24.png
2025-05-26 21:18:27,1.488248348236084,25,-0.0008511578,-0.0014305251,0.09618439,-0.00012718186,-0.00018987225,0.021091871,1.0471792,0.030588739,0.00014484534,0.0042326404,0.8758717259746361,0.0007012191190174804,0.4825434984848095,9.291362554530183e-05,0.9999986805328894,-0.001621819823108603,-0.4825439990356013,0.0014653409936135485,0.8758705051378898,0.00055961026,-9.219507e-05,0.09122644,0.00031101308,0.000124485,-0.014222472,1.0471792,-0.03303997,6.2749973e-06,0.00854097,0.8726785324515303,0.00028540135368425795,-0.4882950926891552,-0.00031133225699665404,0.9999999511420389,2.8073930712618425e-05,0.4882950768443904,0.0001275224966328713,0.8726785786688841,0.00013303488,-0.01300043,0.09940966,-0.0003005654,1.7931667e-05,0.005997363,0.5235896,6.939152e-05,-0.022265438,0.011625378,0.9999811621797261,-0.0003022188359580357,-0.0061305749697326845,-0.0013725759918219297,0.9624843829709008,-0.2713336112100215,0.005982584795136194,0.2713369145562387,0.9624658370447594,left_images/camera_left_25.png,right_images/camera_right_25.png
2025-05-26 21:18:27,1.549638271331787,26,-0.0008511578,-0.0014305251,0.09618439,-0.00012719266,-0.00018987313,0.021091871,1.0471792,0.030588739,0.00014484534,0.0042326404,0.8758717259746361,0.0007012191190174804,0.4825434984848095,9.291362554530183e-05,0.9999986805328894,-0.001621819823108603,-0.4825439990356013,0.0014653409936135485,0.8758705051378898,0.00055960676,-9.218778e-05,0.09122644,0.00031102006,0.00012444443,-0.014222472,1.0471792,-0.03303997,6.2749973e-06,0.00854097,0.8726785324515303,0.00028540135368425795,-0.4882950926891552,-0.00031133225699665404,0.9999999511420389,2.8073930712618425e-05,0.4882950768443904,0.0001275224966328713,0.8726785786688841,0.00013303488,-0.01300043,0.09940966,-0.00030055767,1.793091e-05,0.005997363,0.5235896,6.939152e-05,-0.022265438,0.011625378,0.9999811621797261,-0.0003022188359580357,-0.0061305749697326845,-0.0013725759918219297,0.9624843829709008,-0.2713336112100215,0.005982584795136194,0.2713369145562387,0.9624658370447594,left_images/camera_left_26.png,right_images/camera_right_26.png
2025-05-26 21:18:28,1.6029388904571533,27,-0.0008511578,-0.0014305251,0.09618439,-0.00012720346,-0.000189874,0.021091871,1.0471792,0.030588739,0.00014484534,0.0042326404,0.8758717259746361,0.0007012191190174804,0.4825434984848095,9.291362554530183e-05,0.9999986805328894,-0.001621819823108603,-0.4825439990356013,0.0014653409936135485,0.8758705051378898,0.0005596033,-9.218049e-05,0.09122644,0.00031102705,0.00012440386,-0.014222472,1.0471792,-0.03303997,6.2749973e-06,0.00854097,0.8726785324515303,0.00028540135368425795,-0.4882950926891552,-0.00031133225699665404,0.9999999511420389,2.8073930712618425e-05,0.4882950768443904,0.0001275224966328713,0.8726785786688841,0.00013303488,-0.01300043,0.09940966,-0.00030054993,1.7930153e-05,0.005997363,0.5235896,6.939152e-05,-0.022265438,0.011625378,0.9999811621797261,-0.0003022188359580357,-0.0061305749697326845,-0.0013725759918219297,0.9624843829709008,-0.2713336112100215,0.005982584795136194,0.2713369145562387,0.9624658370447594,left_images/camera_left_27.png,right_images/camera_right_27.png
2025-05-26 21:18:28,1.656111717224121,28,-0.0008511578,-0.0014305251,0.09618439,-0.00012721425,-0.00018987487,0.021091871,1.0471792,0.030588739,0.00014484534,0.0042326404,0.8758717259746361,0.0007012191190174804,0.4825434984848095,9.291362554530183e-05,0.9999986805328894,-0.001621819823108603,-0.4825439990356013,0.0014653409936135485,0.8758705051378898,0.0005595998,-9.21732e-05,0.09122644,0.00031103403,0.00012436329,-0.014222472,1.0471792,-0.03303997,6.2749973e-06,0.00854097,0.8726785324515303,0.00028540135368425795,-0.4882950926891552,-0.00031133225699665404,0.9999999511420389,2.8073930712618425e-05,0.4882950768443904,0.0001275224966328713,0.8726785786688841,0.00013303488,-0.01300043,0.09940966,-0.0003005422,1.7929397e-05,0.005997363,0.5235896,6.939152e-05,-0.022265438,0.011625378,0.9999811621797261,-0.0003022188359580357,-0.0061305749697326845,-0.0013725759918219297,0.9624843829709008,-0.2713336112100215,0.005982584795136194,0.2713369145562387,0.9624658370447594,left_images/camera_left_28.png,right_images/camera_right_28.png
2025-05-26 21:18:28,1.7091193199157715,29,-0.0008511594,-0.0014305251,0.09618439,-0.00012724136,-0.00018984279,0.021091871,1.0471792,0.030588739,0.00014484534,0.0042326404,0.8758717259746361,0.0007012191190174804,0.4825434984848095,9.291362554530183e-05,0.9999986805328894,-0.001621819823108603,-0.4825439990356013,0.0014653409936135485,0.8758705051378898,0.0005595963,-9.216591e-05,0.09122644,0.00031104102,0.00012432272,-0.014222472,1.0471792,-0.033039965,6.284757e-06,0.00854097,0.8726784761802344,0.00028508730633229227,-0.48829519344037353,-0.00031129121722017023,0.9999999511706485,2.750415629744556e-05,0.48829517743832174,0.0001279997199225346,0.8726785223130851,0.00013303488,-0.01300043,0.09940966,-0.00030053445,1.792864e-05,0.005997363,0.5235896,6.939152e-05,-0.022265438,0.011625378,0.9999811621797261,-0.0003022188359580357,-0.0061305749697326845,-0.0013725759918219297,0.9624843829709008,-0.2713336112100215,0.005982584795136194,0.2713369145562387,0.9624658370447594,left_images/camera_left_29.png,right_images/camera_right_29.png
2025-05-26 21:18:28,1.7631149291992188,30,-0.0008511595,-0.0014305251,0.09618439,-0.00012725216,-0.00018984366,0.021091871,1.0471792,0.030588739,0.00014484534,0.0042326404,0.8758717259746361,0.0007012191190174804,0.4825434984848095,9.291362554530183e-05,0.9999986805328894,-0.001621819823108603,-0.4825439990356013,0.0014653409936135485,0.8758705051378898,0.00055959873,-9.216825e-05,0.09122644,0.00031106948,0.00012425908,-0.0142225,1.0471792,-0.033039965,6.284757e-06,0.00854097,0.8726784761802344,0.00028508730633229227,-0.48829519344037353,-0.00031129121722017023,0.9999999511706485,2.750415629744556e-05,0.48829517743832174,0.0001279997199225346,0.8726785223130851,0.00013303488,-0.01300043,0.09940966,-0.0003005267,1.7927883e-05,0.005997363,0.5235896,6.939152e-05,-0.022265438,0.011625378,0.9999811621797261,-0.0003022188359580357,-0.0061305749697326845,-0.0013725759918219297,0.9624843829709008,-0.2713336112100215,0.005982584795136194,0.2713369145562387,0.9624658370447594,left_images/camera_left_30.png,right_images/camera_right_30.png
2025-05-26 21:18:28,1.8332903385162354,31,-0.0008511595,-0.0014305251,0.09618439,-0.00012726296,-0.00018984453,0.021091871,1.0471792,0.030588739,0.00014484534,0.0042326404,0.8758717259746361,0.0007012191190174804,0.4825434984848095,9.291362554530183e-05,0.9999986805328894,-0.001621819823108603,-0.4825439990356013,0.0014653409936135485,0.8758705051378898,0.0005596014,-9.2174836e-05,0.09122644,0.0003110972,0.00012429917,-0.014222556,1.0471792,-0.033039965,6.284757e-06,0.00854097,0.8726784761802344,0.00028508730633229227,-0.48829519344037353,-0.00031129121722017023,0.9999999511706485,2.750415629744556e-05,0.48829517743832174,0.0001279997199225346,0.8726785223130851,0.00013303488,-0.01300043,0.09940966,-0.00030051896,1.7927126e-05,0.005997363,0.5235896,6.939152e-05,-0.022265438,0.011625378,0.9999811621797261,-0.0003022188359580357,-0.0061305749697326845,-0.0013725759918219297,0.9624843829709008,-0.2713336112100215,0.005982584795136194,0.2713369145562387,0.9624658370447594,left_images/camera_left_31.png,right_images/camera_right_31.png
2025-05-26 21:18:28,1.8999698162078857,32,-0.0008511595,-0.0014305251,0.09618439,-0.00012727376,-0.0001898454,0.021091871,1.0471792,0.030588739,0.00014484534,0.0042326404,0.8758717259746361,0.0007012191190174804,0.4825434984848095,9.291362554530183e-05,0.9999986805328894,-0.001621819823108603,-0.4825439990356013,0.0014653409936135485,0.8758705051378898,0.0005596043,-9.2182025e-05,0.09122644,0.0003111249,0.00012433928,-0.014222612,1.0471792,-0.03303997,6.2749973e-06,0.00854097,0.8726785324515303,0.00028540135368425795,-0.4882950926891552,-0.00031133225699665404,0.9999999511420389,2.8073930712618425e-05,0.4882950768443904,0.0001275224966328713,0.8726785786688841,0.00013303488,-0.01300043,0.09940966,-0.00030051122,1.792637e-05,0.005997363,0.5235896,6.939152e-05,-0.022265438,0.011625378,0.9999811621797261,-0.0003022188359580357,-0.0061305749697326845,-0.0013725759918219297,0.9624843829709008,-0.2713336112100215,0.005982584795136194,0.2713369145562387,0.9624658370447594,left_images/camera_left_32.png,right_images/camera_right_32.png
2025-05-26 21:18:28,1.9670021533966064,33,-0.0008511595,-0.0014305251,0.09618439,-0.00012728455,-0.00018984628,0.021091871,1.0471792,0.030588739,0.00014484534,0.0042326404,0.8758717259746361,0.0007012191190174804,0.4825434984848095,9.291362554530183e-05,0.9999986805328894,-0.001621819823108603,-0.4825439990356013,0.0014653409936135485,0.8758705051378898,0.00055960024,-9.2179456e-05,0.09122644,0.00031113124,0.00012440239,-0.01422264,1.0471792,-0.03303997,6.2749973e-06,0.00854097,0.8726785324515303,0.00028540135368425795,-0.4882950926891552,-0.00031133225699665404,0.9999999511420389,2.8073930712618425e-05,0.4882950768443904,0.0001275224966328713,0.8726785786688841,0.00013303488,-0.01300043,0.09940966,-0.00030050348,1.7925613e-05,0.005997363,0.5235896,6.939152e-05,-0.022265438,0.011625378,0.9999811621797261,-0.0003022188359580357,-0.0061305749697326845,-0.0013725759918219297,0.9624843829709008,-0.2713336112100215,0.005982584795136194,0.2713369145562387,0.9624658370447594,left_images/camera_left_33.png,right_images/camera_right_33.png
2025-05-26 21:18:28,2.043625831604004,34,-0.0008511595,-0.0014305251,0.09618439,-0.00012729535,-0.00018984715,0.021091871,1.0471792,0.030588739,0.00014484534,0.0042326404,0.8758717259746361,0.0007012191190174804,0.4825434984848095,9.291362554530183e-05,0.9999986805328894,-0.001621819823108603,-0.4825439990356013,0.0014653409936135485,0.8758705051378898,0.00055959675,-9.217277e-05,0.09122644,0.00031113822,0.00012436185,-0.01422264,1.0471792,-0.03303997,6.2749973e-06,0.00854097,0.8726785324515303,0.00028540135368425795,-0.4882950926891552,-0.00031133225699665404,0.9999999511420389,2.8073930712618425e-05,0.4882950768443904,0.0001275224966328713,0.8726785786688841,0.00013303488,-0.01300043,0.09940966,-0.00030049574,1.7924856e-05,0.005997363,0.5235896,6.939152e-05,-0.022265438,0.011625378,0.9999811621797261,-0.0003022188359580357,-0.0061305749697326845,-0.0013725759918219297,0.9624843829709008,-0.2713336112100215,0.005982584795136194,0.2713369145562387,0.9624658370447594,left_images/camera_left_34.png,right_images/camera_right_34.png
2025-05-26 21:18:28,2.123508930206299,35,-0.0008511595,-0.0014305251,0.09618439,-0.00012730615,-0.00018984803,0.021091871,1.0471792,0.030588739,0.00014484534,0.0042326404,0.8758717259746361,0.0007012191190174804,0.4825434984848095,9.291362554530183e-05,0.9999986805328894,-0.001621819823108603,-0.4825439990356013,0.0014653409936135485,0.8758705051378898,0.00055959326,-9.216548e-05,0.09122644,0.0003111452,0.00012432128,-0.01422264,1.0471792,-0.033039965,6.284757e-06,0.00854097,0.8726784761802344,0.00028508730633229227,-0.48829519344037353,-0.00031129121722017023,0.9999999511706485,2.750415629744556e-05,0.48829517743832174,0.0001279997199225346,0.8726785223130851,0.00013303488,-0.01300043,0.09940966,-0.000300488,1.79241e-05,0.005997363,0.5235896,6.939152e-05,-0.022265438,0.011625378,0.9999811621797261,-0.0003022188359580357,-0.0061305749697326845,-0.0013725759918219297,0.9624843829709008,-0.2713336112100215,0.005982584795136194,0.2713369145562387,0.9624658370447594,left_images/camera_left_35.png,right_images/camera_right_35.png
2025-05-26 21:18:28,2.1937613487243652,36,-0.0008511595,-0.0014305251,0.09618439,-0.00012731695,-0.0001898489,0.021091871,1.0471792,0.030588739,0.00014484534,0.0042326404,0.8758717259746361,0.0007012191190174804,0.4825434984848095,9.291362554530183e-05,0.9999986805328894,-0.001621819823108603,-0.4825439990356013,0.0014653409936135485,0.8758705051378898,0.00055959116,-9.216782e-05,0.09122644,0.00031117364,0.00012425764,-0.014222584,1.0471792,-0.033039965,6.284757e-06,0.00854097,0.8726784761802344,0.00028508730633229227,-0.48829519344037353,-0.00031129121722017023,0.9999999511706485,2.750415629744556e-05,0.48829517743832174,0.0001279997199225346,0.8726785223130851,0.00013303488,-0.01300043,0.09940966,-0.00030048026,1.7923343e-05,0.005997363,0.5235896,6.939152e-05,-0.022265438,0.011625378,0.9999811621797261,-0.0003022188359580357,-0.0061305749697326845,-0.0013725759918219297,0.9624843829709008,-0.2713336112100215,0.005982584795136194,0.2713369145562387,0.9624658370447594,left_images/camera_left_36.png,right_images/camera_right_36.png
2025-05-26 21:18:28,2.2607388496398926,37,-0.0008511595,-0.0014305251,0.09618439,-0.00012732774,-0.00018984977,0.021091871,1.0471792,0.030588739,0.00014484534,0.0042326404,0.8758717259746361,0.0007012191190174804,0.4825434984848095,9.291362554530183e-05,0.9999986805328894,-0.001621819823108603,-0.4825439990356013,0.0014653409936135485,0.8758705051378898,0.0005595931,-9.217441e-05,0.09122644,0.00031120135,0.00012429773,-0.01422264,1.0471792,-0.033039965,6.284757e-06,0.00854097,0.8726784761802344,0.00028508730633229227,-0.48829519344037353,-0.00031129121722017023,0.9999999511706485,2.750415629744556e-05,0.48829517743832174,0.0001279997199225346,0.8726785223130851,0.00013303488,-0.01300043,0.09940966,-0.00030047251,1.7922586e-05,0.005997363,0.5235896,6.939152e-05,-0.022265438,0.011625378,0.9999811621797261,-0.0003022188359580357,-0.0061305749697326845,-0.0013725759918219297,0.9624843829709008,-0.2713336112100215,0.005982584795136194,0.2713369145562387,0.9624658370447594,left_images/camera_left_37.png,right_images/camera_right_37.png
2025-05-26 21:18:28,2.3274712562561035,38,-0.0008511548,-0.0014305344,0.09618439,-0.00012728943,-0.00018980655,0.021091871,1.0471792,0.030588739,0.00014484534,0.0042326404,0.8758717259746361,0.0007012191190174804,0.4825434984848095,9.291362554530183e-05,0.9999986805328894,-0.001621819823108603,-0.4825439990356013,0.0014653409936135485,0.8758705051378898,0.00055959454,-9.218221e-05,0.09122644,0.0003112291,0.00012433855,-0.014222635,1.0471792,-0.03303997,6.27044e-06,0.00854097,0.8726785323450132,0.0002857098243928875,-0.48829509269912785,-0.00031174175374482245,0.9999999510172712,2.797381025036232e-05,0.48829507677349415,0.0001278098248696327,0.8726785786665192,0.00013303488,-0.01300043,0.09940966,-0.00030046477,1.792183e-05,0.005997363,0.5235896,6.939152e-05,-0.022265438,0.011625378,0.9999811621797261,-0.0003022188359580357,-0.0061305749697326845,-0.0013725759918219297,0.9624843829709008,-0.2713336112100215,0.005982584795136194,0.2713369145562387,0.9624658370447594,left_images/camera_left_38.png,right_images/camera_right_38.png
2025-05-26 21:18:28,2.391960382461548,39,-0.0008511538,-0.0014305358,0.09618439,-0.00012730021,-0.00018980743,0.021091871,1.0471792,0.030588739,0.00014484534,0.0042326404,0.8758717259746361,0.0007012191190174804,0.4825434984848095,9.291362554530183e-05,0.9999986805328894,-0.001621819823108603,-0.4825439990356013,0.0014653409936135485,0.8758705051378898,0.0005595931,-9.217628e-05,0.09122644,0.00031126657,0.0001243302,-0.014222635,1.0471792,-0.033039965,6.276513e-06,0.00854097,0.8726784760732174,0.0002854459802678732,-0.48829519342209315,-0.0003116498911542538,0.9999999510563555,2.7597679431957066e-05,0.4882951774007934,0.00012809324305130312,0.872678522320361,0.00013303488,-0.01300043,0.09940966,-0.00030045703,1.7921073e-05,0.005997363,0.5235896,6.939152e-05,-0.022265438,0.011625378,0.9999811621797261,-0.0003022188359580357,-0.0061305749697326845,-0.0013725759918219297,0.9624843829709008,-0.2713336112100215,0.005982584795136194,0.2713369145562387,0.9624658370447594,left_images/camera_left_39.png,right_images/camera_right_39.png
2025-05-26 21:18:28,2.444359302520752,40,-0.0008511538,-0.0014305358,0.09618439,-0.00012731101,-0.0001898083,0.021091871,1.0471792,0.030588739,0.00014484534,0.0042326404,0.8758717259746361,0.0007012191190174804,0.4825434984848095,9.291362554530183e-05,0.9999986805328894,-0.001621819823108603,-0.4825439990356013,0.0014653409936135485,0.8758705051378898,0.0005595949,-9.2174945e-05,0.09122644,0.00031127702,0.00012433062,-0.014222635,1.0471792,-0.033039965,6.276513e-06,0.00854097,0.8726784760732174,0.0002854459802678732,-0.48829519342209315,-0.0003116498911542538,0.9999999510563555,2.7597679431957066e-05,0.4882951774007934,0.00012809324305130312,0.872678522320361,0.00013303488,-0.01300043,0.09940966,-0.0003004493,1.7920316e-05,0.005997363,0.5235896,6.939152e-05,-0.022265438,0.011625378,0.9999811621797261,-0.0003022188359580357,-0.0061305749697326845,-0.0013725759918219297,0.9624843829709008,-0.2713336112100215,0.005982584795136194,0.2713369145562387,0.9624658370447594,left_images/camera_left_40.png,right_images/camera_right_40.png
2025-05-26 21:18:28,2.5093588829040527,41,-0.0008511538,-0.0014305358,0.09618439,-0.00012732181,-0.00018980917,0.021091871,1.0471792,0.030588739,0.00014484534,0.0042326404,0.8758717259746361,0.0007012191190174804,0.4825434984848095,9.291362554530183e-05,0.9999986805328894,-0.001621819823108603,-0.4825439990356013,0.0014653409936135485,0.8758705051378898,0.00055959704,-9.217536e-05,0.09122644,0.00031128747,0.00012433105,-0.014222635,1.0471792,-0.033039965,6.276513e-06,0.00854097,0.8726784760732174,0.0002854459802678732,-0.48829519342209315,-0.0003116498911542538,0.9999999510563555,2.7597679431957066e-05,0.4882951774007934,0.00012809324305130312,0.872678522320361,0.00013303488,-0.01300043,0.09940966,-0.00030044155,1.791956e-05,0.005997363,0.5235896,6.939152e-05,-0.022265438,0.011625378,0.9999811621797261,-0.0003022188359580357,-0.0061305749697326845,-0.0013725759918219297,0.9624843829709008,-0.2713336112100215,0.005982584795136194,0.2713369145562387,0.9624658370447594,left_images/camera_left_41.png,right_images/camera_right_41.png
2025-05-26 21:18:28,2.565390110015869,42,-0.0008511538,-0.0014305358,0.09618439,-0.0001273326,-0.00018981005,0.021091871,1.0471792,0.030588739,0.0001448429,0.004232644,0.8758717396140914,0.0007009553419116595,0.48254347411087617,9.32770624787276e-05,0.9999986803155789,-0.0016219329487218736,-0.4825439742083355,0.0014656154711177828,0.8758705183567466,0.0005595992,-9.2175775e-05,0.09122644,0.00031129792,0.00012433149,-0.014222635,1.0471792,-0.033039965,6.276513e-06,0.00854097,0.8726784760732174,0.0002854459802678732,-0.48829519342209315,-0.0003116498911542538,0.9999999510563555,2.7597679431957066e-05,0.4882951774007934,0.00012809324305130312,0.872678522320361,0.00013303488,-0.01300043,0.09940966,-0.0003004338,1.7918803e-05,0.005997363,0.5235896,6.939152e-05,-0.022265438,0.011625378,0.9999811621797261,-0.0003022188359580357,-0.0061305749697326845,-0.0013725759918219297,0.9624843829709008,-0.2713336112100215,0.005982584795136194,0.2713369145562387,0.9624658370447594,left_images/camera_left_42.png,right_images/camera_right_42.png
2025-05-26 21:18:29,2.616288185119629,43,-0.00085115037,-0.0014305488,0.09618439,-0.00012733892,-0.00018973104,0.021091871,1.0471792,0.030588739,0.0001448429,0.004232644,0.8758717396140914,0.0007009553419116595,0.48254347411087617,9.32770624787276e-05,0.9999986803155789,-0.0016219329487218736,-0.4825439742083355,0.0014656154711177828,0.8758705183567466,0.00055960135,-9.217619e-05,0.09122644,0.00031130837,0.00012433193,-0.014222635,1.0471792,-0.033039965,6.276513e-06,0.00854097,0.8726784760732174,0.0002854459802678732,-0.48829519342209315,-0.0003116498911542538,0.9999999510563555,2.7597679431957066e-05,0.4882951774007934,0.00012809324305130312,0.872678522320361,0.00013303488,-0.01300043,0.09940966,-0.00030042607,1.7918046e-05,0.005997363,0.5235896,6.939152e-05,-0.022265438,0.011625378,0.9999811621797261,-0.0003022188359580357,-0.0061305749697326845,-0.0013725759918219297,0.9624843829709008,-0.2713336112100215,0.005982584795136194,0.2713369145562387,0.9624658370447594,left_images/camera_left_43.png,right_images/camera_right_43.png
2025-05-26 21:18:29,2.679351568222046,44,-0.0008511469,-0.0014305628,0.09618439,-0.00012734524,-0.00018965203,0.021091871,1.0471792,0.030588739,0.0001448429,0.004232644,0.8758717396140914,0.0007009553419116595,0.48254347411087617,9.32770624787276e-05,0.9999986803155789,-0.0016219329487218736,-0.4825439742083355,0.0014656154711177828,0.8758705183567466,0.0005596035,-9.2176604e-05,0.09122644,0.0003113188,0.00012433236,-0.014222635,1.0471792,-0.033039965,6.276513e-06,0.00854097,0.8726784760732174,0.0002854459802678732,-0.48829519342209315,-0.0003116498911542538,0.9999999510563555,2.7597679431957066e-05,0.4882951774007934,0.00012809324305130312,0.872678522320361,0.00013303488,-0.01300043,0.09940966,-0.00030041832,1.791729e-05,0.005997363,0.5235896,6.939152e-05,-0.022265438,0.011625378,0.9999811621797261,-0.0003022188359580357,-0.0061305749697326845,-0.0013725759918219297,0.9624843829709008,-0.2713336112100215,0.005982584795136194,0.2713369145562387,0.9624658370447594,left_images/camera_left_44.png,right_images/camera_right_44.png
2025-05-26 21:18:29,2.7536613941192627,45,-0.0008511434,-0.0014305768,0.09618439,-0.00012735155,-0.00018957301,0.021091871,1.0471792,0.030588739,0.0001448429,0.004232644,0.8758717396140914,0.0007009553419116595,0.48254347411087617,9.32770624787276e-05,0.9999986803155789,-0.0016219329487218736,-0.4825439742083355,0.0014656154711177828,0.8758705183567466,0.00055960566,-9.217702e-05,0.09122644,0.00031132926,0.0001243328,-0.014222635,1.0471792,-0.033039965,6.276513e-06,0.00854097,0.8726784760732174,0.0002854459802678732,-0.48829519342209315,-0.0003116498911542538,0.9999999510563555,2.7597679431957066e-05,0.4882951774007934,0.00012809324305130312,0.872678522320361,0.00013303488,-0.01300043,0.09940966,-0.00030041058,1.7916533e-05,0.005997363,0.5235896,6.939152e-05,-0.022265438,0.011625378,0.9999811621797261,-0.0003022188359580357,-0.0061305749697326845,-0.0013725759918219297,0.9624843829709008,-0.2713336112100215,0.005982584795136194,0.2713369145562387,0.9624658370447594,left_images/camera_left_45.png,right_images/camera_right_45.png
2025-05-26 21:18:29,2.813621759414673,46,-0.0008511399,-0.0014305908,0.09618439,-0.00012735787,-0.00018949399,0.021091871,1.0471792,0.030588739,0.00014483495,0.0042326394,0.8758717121143014,0.0007008489518463552,0.48254352418067825,9.315442685903642e-05,0.999998681045831,-0.0016214897011233979,-0.48254402414724284,0.0014651680261282482,0.8758704915924729,0.0005596078,-9.217743e-05,0.09122644,0.0003113397,0.00012433324,-0.014222635,1.0471792,-0.033039965,6.276513e-06,0.00854097,0.8726784760732174,0.0002854459802678732,-0.48829519342209315,-0.0003116498911542538,0.9999999510563555,2.7597679431957066e-05,0.4882951774007934,0.00012809324305130312,0.872678522320361,0.00013303488,-0.01300043,0.09940966,-0.00030040284,1.7915776e-05,0.005997363,0.5235896,6.939152e-05,-0.022265438,0.011625378,0.9999811621797261,-0.0003022188359580357,-0.0061305749697326845,-0.0013725759918219297,0.9624843829709008,-0.2713336112100215,0.005982584795136194,0.2713369145562387,0.9624658370447594,left_images/camera_left_46.png,right_images/camera_right_46.png
2025-05-26 21:18:29,2.86651873588562,47,-0.0008511428,-0.0014306047,0.09618439,-0.00012744391,-0.00018941535,0.021091871,1.0471792,0.030588739,0.00014483495,0.0042326394,0.8758717121143014,0.0007008489518463552,0.48254352418067825,9.315442685903642e-05,0.999998681045831,-0.0016214897011233979,-0.48254402414724284,0.0014651680261282482,0.8758704915924729,0.00055960997,-9.217785e-05,0.09122644,0.00031135016,0.00012433367,-0.014222635,1.0471792,-0.033039965,6.276513e-06,0.00854097,0.8726784760732174,0.0002854459802678732,-0.48829519342209315,-0.0003116498911542538,0.9999999510563555,2.7597679431957066e-05,0.4882951774007934,0.00012809324305130312,0.872678522320361,0.00013303488,-0.01300043,0.09940966,-0.0003003951,1.791502e-05,0.005997363,0.5235896,6.939152e-05,-0.022265438,0.011625378,0.9999811621797261,-0.0003022188359580357,-0.0061305749697326845,-0.0013725759918219297,0.9624843829709008,-0.2713336112100215,0.005982584795136194,0.2713369145562387,0.9624658370447594,left_images/camera_left_47.png,right_images/camera_right_47.png
2025-05-26 21:18:29,2.9180057048797607,48,-0.0008511463,-0.0014306187,0.09618439,-0.00012752997,-0.00018933672,0.021091871,1.0471792,0.030588744,0.00014481565,0.0042325826,0.875871642080928,0.0007010889615951647,0.482543650950592,9.314373404152322e-05,0.9999986802723948,-0.00162196723569231,-0.48254415126774014,0.0014655810236148545,0.8758704208668996,0.0005596121,-9.217826e-05,0.09122644,0.0003113606,0.00012433411,-0.014222635,1.0471792,-0.033039965,6.276513e-06,0.00854097,0.8726784760732174,0.0002854459802678732,-0.48829519342209315,-0.0003116498911542538,0.9999999510563555,2.7597679431957066e-05,0.4882951774007934,0.00012809324305130312,0.872678522320361,0.00013303488,-0.01300043,0.09940966,-0.00030038736,1.7914263e-05,0.005997363,0.5235896,6.939152e-05,-0.022265438,0.011625378,0.9999811621797261,-0.0003022188359580357,-0.0061305749697326845,-0.0013725759918219297,0.9624843829709008,-0.2713336112100215,0.005982584795136194,0.2713369145562387,0.9624658370447594,left_images/camera_left_48.png,right_images/camera_right_48.png
2025-05-26 21:18:29,2.9694223403930664,49,-0.0008511531,-0.0014306259,0.09618439,-0.00012755416,-0.0001892978,0.021091871,1.0471792,0.030588744,0.00014481565,0.0042325826,0.875871642080928,0.0007010889615951647,0.482543650950592,9.314373404152322e-05,0.9999986802723948,-0.00162196723569231,-0.48254415126774014,0.0014655810236148545,0.8758704208668996,0.0005596143,-9.217868e-05,0.09122644,0.00031137106,0.00012433455,-0.014222635,1.0471792,-0.033039965,6.276513e-06,0.00854097,0.8726784760732174,0.0002854459802678732,-0.48829519342209315,-0.0003116498911542538,0.9999999510563555,2.7597679431957066e-05,0.4882951774007934,0.00012809324305130312,0.872678522320361,0.00013303488,-0.01300043,0.09940966,-0.00030037962,1.7913506e-05,0.005997363,0.5235896,6.939152e-05,-0.022265438,0.011625378,0.9999811621797261,-0.0003022188359580357,-0.0061305749697326845,-0.0013725759918219297,0.9624843829709008,-0.2713336112100215,0.005982584795136194,0.2713369145562387,0.9624658370447594,left_images/camera_left_49.png,right_images/camera_right_49.png
2025-05-26 21:18:29,3.0450193881988525,50,-0.0008511601,-0.0014306329,0.09618439,-0.00012757834,-0.00018925889,0.021091871,1.0471792,0.030588744,0.00014481565,0.0042325826,0.875871642080928,0.0007010889615951647,0.482543650950592,9.314373404152322e-05,0.9999986802723948,-0.00162196723569231,-0.48254415126774014,0.0014655810236148545,0.8758704208668996,0.0005596164,-9.217909e-05,0.09122644,0.0003113815,0.00012433498,-0.014222635,1.0471792,-0.033039965,6.276513e-06,0.00854097,0.8726784760732174,0.0002854459802678732,-0.48829519342209315,-0.0003116498911542538,0.9999999510563555,2.7597679431957066e-05,0.4882951774007934,0.00012809324305130312,0.872678522320361,0.00013303488,-0.01300043,0.09940966,-0.00030037187,1.791275e-05,0.005997363,0.5235896,6.939152e-05,-0.022265438,0.011625378,0.9999811621797261,-0.0003022188359580357,-0.0061305749697326845,-0.0013725759918219297,0.9624843829709008,-0.2713336112100215,0.005982584795136194,0.2713369145562387,0.9624658370447594,left_images/camera_left_50.png,right_images/camera_right_50.png
2025-05-26 21:18:29,3.09706974029541,51,-0.0008511671,-0.0014306399,0.09618439,-0.00012760253,-0.00018921998,0.021091871,1.0471792,0.030588744,0.00014481565,0.0042325826,0.875871642080928,0.0007010889615951647,0.482543650950592,9.314373404152322e-05,0.9999986802723948,-0.00162196723569231,-0.48254415126774014,0.0014655810236148545,0.8758704208668996,0.0005596186,-9.217951e-05,0.09122644,0.00031139195,0.00012433542,-0.014222635,1.0471792,-0.033039965,6.276513e-06,0.00854097,0.8726784760732174,0.0002854459802678732,-0.48829519342209315,-0.0003116498911542538,0.9999999510563555,2.7597679431957066e-05,0.4882951774007934,0.00012809324305130312,0.872678522320361,0.00013303488,-0.01300043,0.09940966,-0.00030036413,1.7911992e-05,0.005997363,0.5235896,6.939152e-05,-0.022265438,0.011625378,0.9999811621797261,-0.0003022188359580357,-0.0061305749697326845,-0.0013725759918219297,0.9624843829709008,-0.2713336112100215,0.005982584795136194,0.2713369145562387,0.9624658370447594,left_images/camera_left_51.png,right_images/camera_right_51.png
2025-05-26 21:18:29,3.147510290145874,52,-0.00085117406,-0.0014306469,0.09618439,-0.00012762671,-0.00018918107,0.021091871,1.0471792,0.030588744,0.00014481565,0.0042325826,0.875871642080928,0.0007010889615951647,0.482543650950592,9.314373404152322e-05,0.9999986802723948,-0.00162196723569231,-0.48254415126774014,0.0014655810236148545,0.8758704208668996,0.00055962073,-9.217992e-05,0.09122644,0.0003114024,0.00012433586,-0.014222635,1.0471792,-0.033039965,6.276513e-06,0.00854097,0.8726784760732174,0.0002854459802678732,-0.48829519342209315,-0.0003116498911542538,0.9999999510563555,2.7597679431957066e-05,0.4882951774007934,0.00012809324305130312,0.872678522320361,0.00013303488,-0.01300043,0.09940966,-0.0003003564,1.7911236e-05,0.005997363,0.5235896,6.939152e-05,-0.022265438,0.011625378,0.9999811621797261,-0.0003022188359580357,-0.0061305749697326845,-0.0013725759918219297,0.9624843829709008,-0.2713336112100215,0.005982584795136194,0.2713369145562387,0.9624658370447594,left_images/camera_left_52.png,right_images/camera_right_52.png
2025-05-26 21:18:29,3.201162338256836,53,-0.00085118104,-0.0014306539,0.09618439,-0.0001276509,-0.00018914216,0.021091871,1.0471792,0.030588744,0.00014481565,0.0042325826,0.875871642080928,0.0007010889615951647,0.482543650950592,9.314373404152322e-05,0.9999986802723948,-0.00162196723569231,-0.48254415126774014,0.0014655810236148545,0.8758704208668996,0.0005596229,-9.218034e-05,0.09122644,0.00031141285,0.0001243363,-0.014222635,1.0471792,-0.033039965,6.276513e-06,0.00854097,0.8726784760732174,0.0002854459802678732,-0.48829519342209315,-0.0003116498911542538,0.9999999510563555,2.7597679431957066e-05,0.4882951774007934,0.00012809324305130312,0.872678522320361,0.00013305563,-0.01300043,0.09940966,-0.00030041483,1.791653e-05,0.005997377,0.5235896,6.939152e-05,-0.022265438,0.011625378,0.9999811621797261,-0.0003022188359580357,-0.0061305749697326845,-0.0013725759918219297,0.9624843829709008,-0.2713336112100215,0.005982584795136194,0.2713369145562387,0.9624658370447594,left_images/camera_left_53.png,right_images/camera_right_53.png
2025-05-26 21:18:29,3.252518653869629,54,-0.00085118803,-0.0014306578,0.09618439,-0.00012767581,-0.00018918852,0.021091871,1.0471792,0.030588744,0.00014481565,0.0042325826,0.875871642080928,0.0007010889615951647,0.482543650950592,9.314373404152322e-05,0.9999986802723948,-0.00162196723569231,-0.48254415126774014,0.0014655810236148545,0.8758704208668996,0.00055962504,-9.218075e-05,0.09122644,0.0003114233,0.00012433673,-0.014222635,1.0471792,-0.03303997,6.27044e-06,0.00854097,0.8726785323450132,0.0002857098243928875,-0.48829509269912785,-0.00031174175374482245,0.9999999510172712,2.797381025036232e-05,0.48829507677349415,0.0001278098248696327,0.8726785786665192,0.00013305932,-0.01300043,0.09940966,-0.00030040712,1.7915776e-05,0.005997377,0.5235896,6.939152e-05,-0.022265438,0.011625378,0.9999811621797261,-0.0003022188359580357,-0.0061305749697326845,-0.0013725759918219297,0.9624843829709008,-0.2713336112100215,0.005982584795136194,0.2713369145562387,0.9624658370447594,left_images/camera_left_54.png,right_images/camera_right_54.png
2025-05-26 21:18:29,3.3032305240631104,55,-0.000851195,-0.0014306647,0.09618439,-0.0001277,-0.0001891496,0.021091871,1.0471792,0.030588744,0.00014481565,0.0042325826,0.875871642080928,0.0007010889615951647,0.482543650950592,9.314373404152322e-05,0.9999986802723948,-0.00162196723569231,-0.48254415126774014,0.0014655810236148545,0.8758704208668996,0.00055962504,-9.218757e-05,0.09122644,0.00031137714,0.00012437692,-0.014222635,1.0471792,-0.03303997,6.27044e-06,0.00854097,0.8726785323450132,0.0002857098243928875,-0.48829509269912785,-0.00031174175374482245,0.9999999510172712,2.797381025036232e-05,0.48829507677349415,0.0001278098248696327,0.8726785786665192,0.00013305932,-0.01300043,0.09940966,-0.00030039938,1.791502e-05,0.005997377,0.5235896,6.939152e-05,-0.022265438,0.011625378,0.9999811621797261,-0.0003022188359580357,-0.0061305749697326845,-0.0013725759918219297,0.9624843829709008,-0.2713336112100215,0.005982584795136194,0.2713369145562387,0.9624658370447594,left_images/camera_left_55.png,right_images/camera_right_55.png
2025-05-26 21:18:29,3.359381675720215,56,-0.0008511856,-0.0014306743,0.09618439,-0.0001276751,-0.00018912501,0.021091871,1.0471792,0.030588746,0.00014480687,0.0042325864,0.8758716973716346,0.0007008778342110663,0.482543550898355,9.312557022150554e-05,0.9999986810365464,-0.001621497084731003,-0.4825440509124115,0.00146516054722062,0.8758704768592277,0.00055962504,-9.219483e-05,0.09122644,0.00031133098,0.00012441711,-0.014222635,1.0471792,-0.03303997,6.27044e-06,0.00854097,0.8726785323450132,0.0002857098243928875,-0.48829509269912785,-0.00031174175374482245,0.9999999510172712,2.797381025036232e-05,0.48829507677349415,0.0001278098248696327,0.8726785786665192,0.00013305932,-0.01300043,0.09940966,-0.00030039164,1.7914263e-05,0.005997377,0.5235896,6.939152e-05,-0.022265438,0.011625378,0.9999811621797261,-0.0003022188359580357,-0.0061305749697326845,-0.0013725759918219297,0.9624843829709008,-0.2713336112100215,0.005982584795136194,0.2713369145562387,0.9624658370447594,left_images/camera_left_56.png,right_images/camera_right_56.png
2025-05-26 21:18:29,3.4241254329681396,57,-0.0008511947,-0.0014306813,0.09618439,-0.00012772866,-0.0001890864,0.021091953,1.0471792,0.030588731,0.00014480432,0.004232588,0.8758716557193347,0.000700483249778026,0.4825436270749908,9.354997768867021e-05,0.9999986810741681,-0.0016214494521169204,-0.4825441264339177,0.0014653235618375306,0.8758704349793902,0.00055962504,-9.220209e-05,0.09122644,0.00031128482,0.0001244573,-0.014222635,1.0471792,-0.03303997,6.27044e-06,0.00854097,0.8726785323450132,0.0002857098243928875,-0.48829509269912785,-0.00031174175374482245,0.9999999510172712,2.797381025036232e-05,0.48829507677349415,0.0001278098248696327,0.8726785786665192,0.00013305932,-0.01300043,0.09940966,-0.0003003839,1.7913506e-05,0.005997377,0.5235896,6.939152e-05,-0.022265438,0.011625378,0.9999811621797261,-0.0003022188359580357,-0.0061305749697326845,-0.0013725759918219297,0.9624843829709008,-0.2713336112100215,0.005982584795136194,0.2713369145562387,0.9624658370447594,left_images/camera_left_57.png,right_images/camera_right_57.png
2025-05-26 21:18:29,3.474346160888672,58,-0.00085120864,-0.0014306752,0.09618439,-0.00012776062,-0.0001891277,0.021092065,1.0471792,0.03058873,0.00014481232,0.0042325826,0.8758716143382368,0.0007007191957529065,0.4825437018438223,9.351358314947384e-05,0.9999986803921896,-0.0016218720939131974,-0.48254420155229377,0.001465676119731516,0.8758703930044509,0.00055962504,-9.220935e-05,0.09122644,0.00031123866,0.0001244975,-0.014222635,1.0471792,-0.03303997,6.27044e-06,0.00854097,0.8726785323450132,0.0002857098243928875,-0.48829509269912785,-0.00031174175374482245,0.9999999510172712,2.797381025036232e-05,0.48829507677349415,0.0001278098248696327,0.8726785786665192,0.00013305932,-0.01300043,0.09940966,-0.00030037615,1.791275e-05,0.005997377,0.5235896,6.939152e-05,-0.022265438,0.011625378,0.9999811621797261,-0.0003022188359580357,-0.0061305749697326845,-0.0013725759918219297,0.9624843829709008,-0.2713336112100215,0.005982584795136194,0.2713369145562387,0.9624658370447594,left_images/camera_left_58.png,right_images/camera_right_58.png
2025-05-26 21:18:29,3.529334545135498,59,-0.0008512157,-0.001430678,0.09618439,-0.00012780617,-0.00018917542,0.021092065,1.0471792,0.03058873,0.00014481232,0.0042325826,0.8758716143382368,0.0007007191957529065,0.4825437018438223,9.351358314947384e-05,0.9999986803921896,-0.0016218720939131974,-0.48254420155229377,0.001465676119731516,0.8758703930044509,0.00055962504,-9.2216615e-05,0.09122644,0.0003111925,0.00012453769,-0.014222635,1.0471792,-0.03303997,6.2749973e-06,0.00854097,0.8726785324515303,0.00028540135368425795,-0.4882950926891552,-0.00031133225699665404,0.9999999511420389,2.8073930712618425e-05,0.4882950768443904,0.0001275224966328713,0.8726785786688841,0.00013305932,-0.01300043,0.09940966,-0.0003003684,1.7911992e-05,0.005997377,0.5235896,6.939152e-05,-0.022265438,0.011625378,0.9999811621797261,-0.0003022188359580357,-0.0061305749697326845,-0.0013725759918219297,0.9624843829709008,-0.2713336112100215,0.005982584795136194,0.2713369145562387,0.9624658370447594,left_images/camera_left_59.png,right_images/camera_right_59.png
2025-05-26 21:18:30,3.594371795654297,60,-0.00085122243,-0.0014306845,0.09618439,-0.00012785076,-0.00018913654,0.021092065,1.0471792,0.03058873,0.00014481232,0.0042325826,0.8758716143382368,0.0007007191957529065,0.4825437018438223,9.351358314947384e-05,0.9999986803921896,-0.0016218720939131974,-0.48254420155229377,0.001465676119731516,0.8758703930044509,0.00055962184,-9.221031e-05,0.09122644,0.0003111995,0.00012449714,-0.014222635,1.0471792,-0.03303997,6.2749973e-06,0.00854097,0.8726785324515303,0.00028540135368425795,-0.4882950926891552,-0.00031133225699665404,0.9999999511420389,2.8073930712618425e-05,0.4882950768443904,0.0001275224966328713,0.8726785786688841,0.00013305932,-0.01300043,0.09940966,-0.00030036067,1.7911236e-05,0.005997377,0.5235896,6.939152e-05,-0.022265438,0.011625378,0.9999811621797261,-0.0003022188359580357,-0.0061305749697326845,-0.0013725759918219297,0.9624843829709008,-0.2713336112100215,0.005982584795136194,0.2713369145562387,0.9624658370447594,left_images/camera_left_60.png,right_images/camera_right_60.png
2025-05-26 21:18:30,3.6553447246551514,61,-0.00085122936,-0.0014306882,0.09618439,-0.0001278963,-0.00018918424,0.021092065,1.0471792,0.03058873,0.00014481232,0.0042325826,0.8758716143382368,0.0007007191957529065,0.4825437018438223,9.351358314947384e-05,0.9999986803921896,-0.0016218720939131974,-0.48254420155229377,0.001465676119731516,0.8758703930044509,0.00055961835,-9.220302e-05,0.09122644,0.00031120647,0.00012445656,-0.014222635,1.0471792,-0.03303997,6.2749973e-06,0.00854097,0.8726785324515303,0.00028540135368425795,-0.4882950926891552,-0.00031133225699665404,0.9999999511420389,2.8073930712618425e-05,0.4882950768443904,0.0001275224966328713,0.8726785786688841,0.00013305932,-0.01300043,0.09940966,-0.00030035293,1.7910479e-05,0.005997377,0.5235896,6.9372945e-05,-0.022265421,0.01162535,0.999981162730842,-0.00030190183423449673,-0.006130500693714212,-0.0013728615745792032,0.9624843543353356,-0.2713337113423044,0.005982427147085747,0.2713370164849876,0.9624658092890652,left_images/camera_left_61.png,right_images/camera_right_61.png
2025-05-26 21:18:30,3.7172186374664307,62,-0.0008512361,-0.0014306947,0.09618439,-0.00012794089,-0.00018914536,0.021092065,1.0471792,0.03058873,0.00014481232,0.0042325826,0.8758716143382368,0.0007007191957529065,0.4825437018438223,9.351358314947384e-05,0.9999986803921896,-0.0016218720939131974,-0.48254420155229377,0.001465676119731516,0.8758703930044509,0.00055961485,-9.219573e-05,0.09122644,0.00031121346,0.000124416,-0.014222635,1.0471792,-0.03303997,6.2749973e-06,0.00854097,0.8726785324515303,0.00028540135368425795,-0.4882950926891552,-0.00031133225699665404,0.9999999511420389,2.8073930712618425e-05,0.4882950768443904,0.0001275224966328713,0.8726785786688841,0.00013303857,-0.01300043,0.09940966,-0.00030031084,1.7864548e-05,0.005997363,0.5235896,6.9372945e-05,-0.022265421,0.01162535,0.999981162730842,-0.00030190183423449673,-0.006130500693714212,-0.0013728615745792032,0.9624843543353356,-0.2713337113423044,0.005982427147085747,0.2713370164849876,0.9624658092890652,left_images/camera_left_62.png,right_images/camera_right_62.png
2025-05-26 21:18:30,3.7896857261657715,63,-0.00085124304,-0.0014306984,0.09618439,-0.00012798644,-0.00018919306,0.021092065,1.0471792,0.03058873,0.00014481232,0.0042325826,0.8758716143382368,0.0007007191957529065,0.4825437018438223,9.351358314947384e-05,0.9999986803921896,-0.0016218720939131974,-0.48254420155229377,0.001465676119731516,0.8758703930044509,0.00055961305,-9.220173e-05,0.09122644,0.00031113692,0.00012442394,-0.014222635,1.0471792,-0.03303997,6.2749973e-06,0.00854097,0.8726785324515303,0.00028540135368425795,-0.4882950926891552,-0.00031133225699665404,0.9999999511420389,2.8073930712618425e-05,0.4882950768443904,0.0001275224966328713,0.8726785786688841,0.00013303488,-0.01300043,0.09940966,-0.000300335,1.782466e-05,0.005997363,0.5235896,6.9372945e-05,-0.022265421,0.01162535,0.999981162730842,-0.00030190183423449673,-0.006130500693714212,-0.0013728615745792032,0.9624843543353356,-0.2713337113423044,0.005982427147085747,0.2713370164849876,0.9624658092890652,left_images/camera_left_63.png,right_images/camera_right_63.png
2025-05-26 21:18:30,3.8530924320220947,64,-0.0008512498,-0.001430705,0.09618439,-0.00012803102,-0.00018915418,0.021092065,1.0471792,0.03058873,0.00014481232,0.0042325826,0.8758716143382368,0.0007007191957529065,0.4825437018438223,9.351358314947384e-05,0.9999986803921896,-0.0016218720939131974,-0.48254420155229377,0.001465676119731516,0.8758703930044509,0.00055960985,-9.219666e-05,0.09122644,0.0003111439,0.00012438338,-0.014222635,1.0471792,-0.03303997,6.2749973e-06,0.00854097,0.8726785324515303,0.00028540135368425795,-0.4882950926891552,-0.00031133225699665404,0.9999999511420389,2.8073930712618425e-05,0.4882950768443904,0.0001275224966328713,0.8726785786688841,0.00013303488,-0.01300043,0.09940966,-0.00030035916,1.7784772e-05,0.005997363,0.5235896,6.939152e-05,-0.022265438,0.011625378,0.9999811621797261,-0.0003022188359580357,-0.0061305749697326845,-0.0013725759918219297,0.9624843829709008,-0.2713336112100215,0.005982584795136194,0.2713369145562387,0.9624658370447594,left_images/camera_left_64.png,right_images/camera_right_64.png
2025-05-26 21:18:30,3.9346048831939697,65,-0.00085125666,-0.001430712,0.09618439,-0.00012807561,-0.00018911526,0.021092065,1.0471792,0.030588686,0.00014484824,0.0042325286,0.8758716139017417,0.0007005987560969797,0.48254370281099007,9.343459615074047e-05,0.9999986810368366,-0.0016214791282113368,-0.48254420235988166,0.0014652938169316806,0.8758703931991854,0.00055960636,-9.2189366e-05,0.09122644,0.00031115088,0.00012434281,-0.014222635,1.0471792,-0.03303997,6.2749973e-06,0.00854097,0.8726785324515303,0.00028540135368425795,-0.4882950926891552,-0.00031133225699665404,0.9999999511420389,2.8073930712618425e-05,0.4882950768443904,0.0001275224966328713,0.8726785786688841,0.00013303488,-0.01300043,0.09940966,-0.0003003514,1.7784012e-05,0.005997363,0.5235896,6.9372945e-05,-0.022265421,0.01162535,0.999981162730842,-0.00030190183423449673,-0.006130500693714212,-0.0013728615745792032,0.9624843543353356,-0.2713337113423044,0.005982427147085747,0.2713370164849876,0.9624658092890652,left_images/camera_left_65.png,right_images/camera_right_65.png
2025-05-26 21:18:30,4.002465486526489,66,-0.0008512745,-0.0014306824,0.09618439,-0.00012806577,-0.00018911895,0.021092065,1.0471792,0.030588686,0.00014484824,0.0042325286,0.8758716139017417,0.0007005987560969797,0.48254370281099007,9.343459615074047e-05,0.9999986810368366,-0.0016214791282113368,-0.48254420235988166,0.0014652938169316806,0.8758703931991854,0.00055960176,-9.218584e-05,0.09122644,0.0003111572,0.00012440591,-0.014222663,1.0471792,-0.03303997,6.274993e-06,0.00854097,0.8726787161147678,0.0002854067812276988,-0.48829476444382414,-0.0003113376655113446,0.999999951140317,2.8075281703705188e-05,0.48829474859877253,0.00012752385125160224,0.8726787623338434,0.00013301412,-0.01300043,0.09940966,-0.00030030933,1.773808e-05,0.005997349,0.5235896,6.936852e-05,-0.022265423,0.011625349,0.9999811651168757,-0.00030184477263937924,-0.006130114291703408,-0.0013728113756743148,0.9624843667290406,-0.27133366763290717,0.005982039821242859,0.27133697258562345,0.9624658240725465,left_images/camera_left_66.png,right_images/camera_right_66.png
2025-05-26 21:18:30,4.0578999519348145,67,-0.00085129426,-0.0014306465,0.09618439,-0.00012805595,-0.00018912264,0.021092065,1.0471792,0.030588686,0.00014484824,0.0042325286,0.8758716139017417,0.0007005987560969797,0.48254370281099007,9.343459615074047e-05,0.9999986810368366,-0.0016214791282113368,-0.48254420235988166,0.0014652938169316806,0.8758703931991854,0.0005596012,-9.21859e-05,0.09122644,0.0003111607,0.00012440592,-0.014222663,1.0471792,-0.03303997,6.274993e-06,0.00854097,0.8726787161147678,0.0002854067812276988,-0.48829476444382414,-0.0003113376655113446,0.999999951140317,2.8075281703705188e-05,0.48829474859877253,0.00012752385125160224,0.8726787623338434,0.00013300625,-0.01300043,0.09940966,-0.00030031003,1.7694463e-05,0.005997335,0.5235896,6.936852e-05,-0.022265423,0.011625349,0.9999811651168757,-0.00030184477263937924,-0.006130114291703408,-0.0013728113756743148,0.9624843667290406,-0.27133366763290717,0.005982039821242859,0.27133697258562345,0.9624658240725465,left_images/camera_left_67.png,right_images/camera_right_67.png
2025-05-26 21:18:30,4.1130266189575195,68,-0.000851314,-0.0014306107,0.09618439,-0.00012804613,-0.00018912634,0.021092065,1.0471792,0.03058862,0.00014488421,0.004232621,0.8758714603164042,0.0007005776701466977,0.4825439816163263,9.349650276948375e-05,0.9999986809212685,-0.0016215468314905285,-0.4825444811223244,0.0014653827659826361,0.8758702394714274,0.0005596012,-9.21859e-05,0.09122644,0.00031116419,0.00012440592,-0.014222663,1.0471792,-0.03303997,6.274993e-06,0.00854097,0.8726787161147678,0.0002854067812276988,-0.48829476444382414,-0.0003113376655113446,0.999999951140317,2.8075281703705188e-05,0.48829474859877253,0.00012752385125160224,0.8726787623338434,0.00013300354,-0.01300043,0.0994096,-0.0003002803,1.7652163e-05,0.0059973625,0.49692163,6.9372945e-05,-0.022265436,0.01162541,0.999981162730842,-0.00030190183423449673,-0.006130500693714212,-0.0013728615745792032,0.9624843543353356,-0.2713337113423044,0.005982427147085747,0.2713370164849876,0.9624658092890652,left_images/camera_left_68.png,right_images/camera_right_68.png
2025-05-26 21:18:30,4.17404580116272,69,-0.00085131807,-0.0014306179,0.09618439,-0.0001280761,-0.00018913022,0.021092065,1.0471792,0.030588683,0.00014485428,0.0042325286,0.875871530764517,0.0007007258339378302,0.48254385352994417,9.348828521455106e-05,0.9999986804475707,-0.0016218394059892582,-0.48254435325280004,0.0014656351605853617,0.8758703094964538,0.0005596012,-9.21859e-05,0.09122644,0.00031116768,0.00012440592,-0.014222663,1.0471792,-0.03303997,6.274993e-06,0.00854097,0.8726787161147678,0.0002854067812276988,-0.48829476444382414,-0.0003113376655113446,0.999999951140317,2.8075281703705188e-05,0.48829474859877253,0.00012752385125160224,0.8726787623338434,0.00013300328,-0.01300043,0.0994096,-0.00030030447,1.7614153e-05,0.0059973625,0.4702551,6.9372945e-05,-0.022265436,0.01162541,0.999981162730842,-0.00030190183423449673,-0.006130500693714212,-0.0013728615745792032,0.9624843543353356,-0.2713337113423044,0.005982427147085747,0.2713370164849876,0.9624658092890652,left_images/camera_left_69.png,right_images/camera_right_69.png
2025-05-26 21:18:30,4.244869709014893,70,-0.00085125584,-0.0014305908,0.09618439,-0.00012804673,-0.00018922955,0.021092009,1.0471792,0.03058862,0.00014488421,0.004232621,0.8758714603164042,0.0007005776701466977,0.4825439816163263,9.349650276948375e-05,0.9999986809212685,-0.0016215468314905285,-0.4825444811223244,0.0014653827659826361,0.8758702394714274,0.0005596012,-9.21859e-05,0.09122644,0.00031117117,0.00012440592,-0.014222663,1.0471792,-0.03303997,6.274993e-06,0.00854097,0.8726787161147678,0.0002854067812276988,-0.48829476444382414,-0.0003113376655113446,0.999999951140317,2.8075281703705188e-05,0.48829474859877253,0.00012752385125160224,0.8726787623338434,0.00013300478,-0.01300043,0.0994096,-0.00030032865,1.760751e-05,0.0059973765,0.44358858,6.9372945e-05,-0.022265436,0.01162541,0.999981162730842,-0.00030190183423449673,-0.006130500693714212,-0.0013728615745792032,0.9624843543353356,-0.2713337113423044,0.005982427147085747,0.2713370164849876,0.9624658092890652,left_images/camera_left_70.png,right_images/camera_right_70.png
2025-05-26 21:18:30,4.322768211364746,71,-0.0008512973,-0.0014306331,0.09618439,-0.00012805952,-0.000189095,0.021092065,1.0471792,0.030588686,0.00014484824,0.0042325286,0.8758716139017417,0.0007005987560969797,0.48254370281099007,9.343459615074047e-05,0.9999986810368366,-0.0016214791282113368,-0.48254420235988166,0.0014652938169316806,0.8758703931991854,0.0005596012,-9.21859e-05,0.09122644,0.00031117466,0.00012440592,-0.014222663,1.0471792,-0.03303997,6.274993e-06,0.00854097,0.8726787161147678,0.0002854067812276988,-0.48829476444382414,-0.0003113376655113446,0.999999951140317,2.8075281703705188e-05,0.48829474859877253,0.00012752385125160224,0.8726787623338434,-0.0021803717,0.0067611556,0.09943677,-0.049100004,-0.115727834,0.042796902,0.41692156,7.056957e-05,-0.022169495,0.011737208,0.9982124313400427,-0.048514097864459434,-0.03490450152341765,0.03251590950141708,0.9308644935894888,-0.3639148392188486,0.05014636125878194,0.3621293648446401,0.9307779894097847,left_images/camera_left_71.png,right_images/camera_right_71.png
2025-05-26 21:18:30,4.384804964065552,72,-0.000851324,-0.0014306098,0.09618439,-0.0001280497,-0.00018909866,0.021092065,1.0471792,0.030588625,0.00014487376,0.004232619,0.8758715442353474,0.0007004292129709003,0.48254382950951213,9.337511427446444e-05,0.9999986817877737,-0.001621019371409983,-0.48254432882365894,0.0014648623252951627,0.8758703242481115,0.0005596012,-9.21859e-05,0.09122644,0.00031117816,0.00012440592,-0.014222663,1.0471792,-0.03303997,6.274993e-06,0.00854097,0.8726787161147678,0.0002854067812276988,-0.48829476444382414,-0.0003113376655113446,0.999999951140317,2.8075281703705188e-05,0.48829474859877253,0.00012752385125160224,0.8726787623338434,-0.002825894,0.023288457,0.09959276,-0.09284888,-0.20080556,0.076087736,0.3902536,7.586859e-05,-0.022293426,0.011767512,0.9944189820802506,-0.09035215860793575,-0.05447362217958625,0.058289703115273706,0.9008752839525392,-0.43014652535405284,0.08793860693239995,0.42457061862347234,0.9011140833504215,left_images/camera_left_72.png,right_images/camera_right_72.png
2025-05-26 21:18:30,4.44623875617981,73,-0.0008513231,-0.001430604,0.09618439,-0.00012803022,-0.0001891004,0.021092065,1.0471792,0.030588625,0.00014487376,0.004232619,0.8758715442353474,0.0007004292129709003,0.48254382950951213,9.337511427446444e-05,0.9999986817877737,-0.001621019371409983,-0.48254432882365894,0.0014648623252951627,0.8758703242481115,0.0005596012,-9.21859e-05,0.09122644,0.00031118165,0.00012440592,-0.014222663,1.0471792,-0.03303997,6.274993e-06,0.00854097,0.8726787161147678,0.0002854067812276988,-0.48829476444382414,-0.0003113376655113446,0.999999951140317,2.8075281703705188e-05,0.48829474859877253,0.00012752385125160224,0.8726787623338434,-0.0023415794,0.034447756,0.099808484,-0.14180806,-0.25124067,0.109316334,0.363586,0.000120958546,-0.022476304,0.011696576,0.988121714856192,-0.1363907877146537,-0.07080275175609196,0.08749478864457488,0.8780889538004634,-0.4704300704394321,0.12633344208759487,0.45864729612217725,0.879592245969754,left_images/camera_left_73.png,right_images/camera_right_73.png
2025-05-26 21:18:30,4.516259670257568,74,-0.0008513196,-0.001430604,0.09618439,-0.00012801075,-0.00018910215,0.021092065,1.0471792,0.030588625,0.00014487376,0.004232619,0.8758715442353474,0.0007004292129709003,0.48254382950951213,9.337511427446444e-05,0.9999986817877737,-0.001621019371409983,-0.48254432882365894,0.0014648623252951627,0.8758703242481115,0.0005596012,-9.21859e-05,0.09122644,0.00031118514,0.00012440592,-0.014222663,1.0471792,-0.03303997,6.274993e-06,0.00854097,0.8726787161147678,0.0002854067812276988,-0.48829476444382414,-0.0003113376655113446,0.999999951140317,2.8075281703705188e-05,0.48829474859877253,0.00012752385125160224,0.8726787623338434,-0.0010794852,0.04071391,0.09998086,-0.20512852,-0.26769283,0.14954327,0.33692,0.00026052585,-0.022728939,0.011558489,0.9762824072412855,-0.1961943752619866,-0.09154467994765914,0.12763983556538136,0.8631260145351423,-0.48859139923818107,0.174873479087033,0.46531843951023477,0.8676969610202382,left_images/camera_left_74.png,right_images/camera_right_74.png
2025-05-26 21:18:30,4.5763654708862305,75,-0.0008513161,-0.001430604,0.09618439,-0.00012799128,-0.0001891039,0.021092065,1.0471792,0.030588625,0.00014487376,0.004232619,0.8758715442353474,0.0007004292129709003,0.48254382950951213,9.337511427446444e-05,0.9999986817877737,-0.001621019371409983,-0.48254432882365894,0.0014648623252951627,0.8758703242481115,0.0005596012,-9.21859e-05,0.09122644,0.00031118863,0.00012440592,-0.014222663,1.0471792,-0.03303997,6.274993e-06,0.00854097,0.8726787161147678,0.0002854067812276988,-0.48829476444382414,-0.0003113376655113446,0.999999951140317,2.8075281703705188e-05,0.48829474859877253,0.00012752385125160224,0.8726787623338434,0.00046195232,0.04332093,0.10007311,-0.27842894,-0.2598608,0.19435678,0.31025398,0.0004871199,-0.022996206,0.011423692,0.956943309712978,-0.2657173449347408,-0.11684945270048736,0.17611033702341763,0.8514587378988683,-0.4939667669481061,0.23074802531997912,0.45211979635545524,0.861593313898403,left_images/camera_left_75.png,right_images/camera_right_75.png
2025-05-26 21:18:31,4.65130090713501,76,-0.0008513126,-0.001430604,0.09618439,-0.00012797181,-0.00018910565,0.021092065,1.0471792,0.030588625,0.00014487376,0.004232619,0.8758715442353474,0.0007004292129709003,0.48254382950951213,9.337511427446444e-05,0.9999986817877737,-0.001621019371409983,-0.48254432882365894,0.0014648623252951627,0.8758703242481115,0.0005596012,-9.21859e-05,0.09122644,0.00031119213,0.00012440592,-0.014222663,1.0471792,-0.03303997,6.274993e-06,0.00854097,0.8726787161147678,0.0002854067812276988,-0.48829476444382414,-0.0003113376655113446,0.999999951140317,2.8075281703705188e-05,0.48829474859877253,0.00012752385125160224,0.8726787623338434,0.0017148003,0.043084387,0.10008731,-0.35757005,-0.23265284,0.2401956,0.28358763,0.000784512,-0.023261674,0.01132021,0.9286778054981325,-0.3408963545692635,-0.14610684110116307,0.23105893423821766,0.8399230321410913,-0.491061166238601,0.29011946243551556,0.4222783152380701,0.8587850266485934,left_images/camera_left_76.png,right_images/camera_right_76.png
2025-05-26 21:18:31,4.731886863708496,77,-0.0008513091,-0.001430604,0.09618439,-0.00012795234,-0.00018910739,0.021092065,1.0471792,0.030588625,0.00014487376,0.004232619,0.8758715442353474,0.0007004292129709003,0.48254382950951213,9.337511427446444e-05,0.9999986817877737,-0.001621019371409983,-0.48254432882365894,0.0014648623252951627,0.8758703242481115,0.0005596012,-9.21859e-05,0.09122644,0.00031119562,0.00012440592,-0.014222663,1.0471792,-0.03303997,6.274993e-06,0.00854097,0.8726787161147678,0.0002854067812276988,-0.48829476444382414,-0.0003113376655113446,0.999999951140317,2.8075281703705188e-05,0.48829474859877253,0.00012752385125160224,0.8726787623338434,0.0024576753,0.03946695,0.10001364,-0.46916094,-0.1809387,0.2921851,0.25692153,0.0011755368,-0.023481252,0.011295009,0.8769200445805694,-0.44511198216605047,-0.1813465156682685,0.31418491326485437,0.8163936616030674,-0.4845505438765827,0.3637293989899193,0.3679357452416736,0.8557594356382442,left_images/camera_left_77.png,right_images/camera_right_77.png
2025-05-26 21:18:31,4.8081278800964355,78,-0.0008513056,-0.001430604,0.09618439,-0.00012793287,-0.00018910914,0.021092065,1.0471792,0.030588625,0.00014487376,0.004232619,0.8758715442353474,0.0007004292129709003,0.48254382950951213,9.337511427446444e-05,0.9999986817877737,-0.001621019371409983,-0.48254432882365894,0.0014648623252951627,0.8758703242481115,0.0005596012,-9.21859e-05,0.09122644,0.0003111991,0.00012440592,-0.014222663,1.0471792,-0.03303997,6.274993e-06,0.00854097,0.8726787161147678,0.0002854067812276988,-0.48829476444382414,-0.0003113376655113446,0.999999951140317,2.8075281703705188e-05,0.48829474859877253,0.00012752385125160224,0.8726787623338434,0.0014878685,0.034298174,0.099948496,-0.5858207,-0.11320057,0.33730444,0.23025432,0.0016002096,-0.023673471,0.011286483,0.8065088103360616,-0.5494693708282243,-0.21823599467536525,0.4034625584476233,0.7813271860152002,-0.4761783198807636,0.4321591174338555,0.29599195751777446,0.851837577419303,left_images/camera_left_78.png,right_images/camera_right_78.png
2025-05-26 21:18:31,4.879495143890381,79,-0.0008513021,-0.001430604,0.09618439,-0.0001279134,-0.00018911088,0.021092065,1.0471792,0.030588625,0.00014487376,0.004232619,0.8758715442353474,0.0007004292129709003,0.48254382950951213,9.337511427446444e-05,0.9999986817877737,-0.001621019371409983,-0.48254432882365894,0.0014648623252951627,0.8758703242481115,0.0005596012,-9.21859e-05,0.09122644,0.0003112026,0.00012440592,-0.014222663,1.0471792,-0.03303997,6.274993e-06,0.00854097,0.8726787161147678,0.0002854067812276988,-0.48829476444382414,-0.0003113376655113446,0.999999951140317,2.8075281703705188e-05,0.48829474859877253,0.00012752385125160224,0.8726787623338434,-0.0022176004,0.028152455,0.09991235,-0.7024998,-0.031053424,0.37786204,0.20358846,0.002036457,-0.023806367,0.011330992,0.7175679739447807,-0.6457931132295975,-0.2608590762730075,0.4907588564989738,0.7345744265113081,-0.4685681985404072,0.4942185220493078,0.20821063090247602,0.8440357727268382,left_images/camera_left_79.png,right_images/camera_right_79.png
2025-05-26 21:18:31,4.935550928115845,80,-0.0008512986,-0.001430604,0.09618439,-0.00012789393,-0.00018911263,0.021092065,1.0471792,0.030588625,0.00014487376,0.004232619,0.8758715442353474,0.0007004292129709003,0.48254382950951213,9.337511427446444e-05,0.9999986817877737,-0.001621019371409983,-0.48254432882365894,0.0014648623252951627,0.8758703242481115,0.0005596012,-9.21859e-05,0.09122644,0.0003112061,0.00012440592,-0.014222663,1.0471792,-0.03303997,6.274993e-06,0.00854097,0.8726787161147678,0.0002854067812276988,-0.48829476444382414,-0.0003113376655113446,0.999999951140317,2.8075281703705188e-05,0.48829474859877253,0.00012752385125160224,0.8726787623338434,-0.007863998,0.022497922,0.100033596,-0.81908715,0.050363336,0.3969067,0.17692184,0.00230204,-0.023836236,0.011278806,0.6184801648181221,-0.7300900741629759,-0.2906041454199317,0.577190909012169,0.6730344893216609,-0.4624664644460581,0.5332287879327732,0.1182922642958173,0.8376598354508313,left_images/camera_left_80.png,right_images/camera_right_80.png
2025-05-26 21:18:31,4.99203896522522,81,-0.00085129513,-0.001430604,0.09618439,-0.00012787446,-0.00018911438,0.021092065,1.0471792,0.030588625,0.00014487376,0.004232619,0.8758715442353474,0.0007004292129709003,0.48254382950951213,9.337511427446444e-05,0.9999986817877737,-0.001621019371409983,-0.48254432882365894,0.0014648623252951627,0.8758703242481115,0.0005596012,-9.21859e-05,0.09122644,0.0003112096,0.00012440592,-0.014222663,1.0471792,-0.03303997,6.274993e-06,0.00854097,0.8726787161147678,0.0002854067812276988,-0.48829476444382414,-0.0003113376655113446,0.999999951140317,2.8075281703705188e-05,0.48829474859877253,0.00012752385125160224,0.8726787623338434,-0.013503294,0.019014405,0.100265965,-0.91729826,0.11324095,0.39548108,0.15025644,0.0023838503,-0.023829415,0.011115014,0.5314010836988428,-0.7904850875508586,-0.30454263183240365,0.6467043717180717,0.6107635769425815,-0.4568821606071279,0.5471620818774175,0.04583862388875387,0.8357705885681522,left_images/camera_left_81.png,right_images/camera_right_81.png
2025-05-26 21:18:31,5.04228949546814,82,-0.00085129164,-0.001430604,0.09618439,-0.00012785499,-0.00018911612,0.021092065,1.0471792,0.030588625,0.00014487376,0.004232619,0.8758715442353474,0.0007004292129709003,0.48254382950951213,9.337511427446444e-05,0.9999986817877737,-0.001621019371409983,-0.48254432882365894,0.0014648623252951627,0.8758703242481115,0.0005596012,-9.21859e-05,0.09122644,0.00031121308,0.00012440592,-0.014222663,1.0471792,-0.03303997,6.274993e-06,0.00854097,0.8726787161147678,0.0002854067812276988,-0.48829476444382414,-0.0003113376655113446,0.999999951140317,2.8075281703705188e-05,0.48829474859877253,0.00012752385125160224,0.8726787623338434,-0.018515619,0.017355058,0.10049298,-0.9997308,0.16172701,0.38032347,0.123591706,0.0023721843,-0.023882002,0.010917069,0.45805838263848137,-0.8333566786494303,-0.30935281515610724,0.7028450814023378,0.5525998723713095,-0.4479309908945278,0.5442346090089821,-0.012248559327636827,0.838843646427174,left_images/camera_left_82.png,right_images/camera_right_82.png
2025-05-26 21:18:31,5.09752893447876,83,-0.00085128815,-0.001430604,0.09618439,-0.00012783552,-0.00018911787,0.021092065,1.0471792,0.030588625,0.00014487376,0.004232619,0.8758715442353474,0.0007004292129709003,0.48254382950951213,9.337511427446444e-05,0.9999986817877737,-0.001621019371409983,-0.48254432882365894,0.0014648623252951627,0.8758703242481115,0.0005596012,-9.21859e-05,0.09122644,0.00031121657,0.00012440592,-0.014222663,1.0471792,-0.03303997,6.271209e-06,0.00854097,0.8726786878555943,0.00028566624363837874,-0.4882948147967939,-0.0003117282343382019,0.9999999510233066,2.7908637824177336e-05,0.48829479885428423,0.00012786000701686377,0.8726787341649116,-0.022875052,0.016904466,0.10067074,-1.0765804,0.19942683,0.36155057,0.09692535,0.0023184405,-0.02393699,0.010761622,0.3894836474800182,-0.8673772885690852,-0.30977270315539845,0.7493272782233503,0.493977900738407,-0.44101526469325547,0.5355474941179788,-0.06035290263622975,0.8423457773903393,left_images/camera_left_83.png,right_images/camera_right_83.png
2025-05-26 21:18:31,5.15067458152771,84,-0.00085128465,-0.001430604,0.09618439,-0.00012781605,-0.00018911962,0.021092065,1.0471792,0.030588625,0.00014487376,0.004232619,0.8758715442353474,0.0007004292129709003,0.48254382950951213,9.337511427446444e-05,0.9999986817877737,-0.001621019371409983,-0.48254432882365894,0.0014648623252951627,0.8758703242481115,0.0005596012,-9.2192575e-05,0.09122644,0.0003112444,0.00012444603,-0.014222719,1.0471792,-0.03303997,6.271209e-06,0.00854097,0.8726786878555943,0.00028566624363837874,-0.4882948147967939,-0.0003117282343382019,0.9999999510233066,2.7908637824177336e-05,0.48829479885428423,0.00012786000701686377,0.8726787341649116,-0.02717508,0.017814234,0.100802325,-1.1682509,0.23444602,0.34073913,0.0702578,0.0022468087,-0.023997484,0.010661401,0.3060984055708328,-0.901061562799808,-0.3072325278217816,0.7946031447867432,0.41956120078876413,-0.4388328167852859,0.5243182319946655,-0.10980190725783484,0.8444133660480097,left_images/camera_left_84.png,right_images/camera_right_84.png
2025-05-26 21:18:31,5.202347040176392,85,-0.00085128116,-0.001430604,0.09618439,-0.00012779658,-0.00018912136,0.021092065,1.0471792,0.030588625,0.00014487376,0.004232619,0.8758715442353474,0.0007004292129709003,0.48254382950951213,9.337511427446444e-05,0.9999986817877737,-0.001621019371409983,-0.48254432882365894,0.0014648623252951627,0.8758703242481115,0.0005596012,-9.219976e-05,0.09122644,0.00031127222,0.00012448613,-0.014222775,1.0471792,-0.03303997,6.271209e-06,0.00854097,0.8726786878555943,0.00028566624363837874,-0.4882948147967939,-0.0003117282343382019,0.9999999510233066,2.7908637824177336e-05,0.48829479885428423,0.00012786000701686377,0.8726787341649116,-0.030744981,0.019369965,0.10088923,-1.2545242,0.25994873,0.31924462,0.04359079,0.0021307338,-0.024034936,0.0105955135,0.22730927299745712,-0.9261153320292578,-0.3010662488385328,0.82931195549975,0.3461508104349659,-0.43865851969430303,0.5104627066442253,-0.14996669035340524,0.8467218060909366,left_images/camera_left_85.png,right_images/camera_right_85.png
2025-05-26 21:18:31,5.264567852020264,86,-0.00085127767,-0.001430604,0.09618439,-0.00012777711,-0.00018912311,0.021092065,1.0471792,0.030588625,0.00014487376,0.004232619,0.8758715442353474,0.0007004292129709003,0.48254382950951213,9.337511427446444e-05,0.9999986817877737,-0.001621019371409983,-0.48254432882365894,0.0014648623252951627,0.8758703242481115,0.0005596012,-9.220695e-05,0.09122644,0.00031130004,0.00012452624,-0.0142228305,1.0471792,-0.03303997,6.271209e-06,0.00854097,0.8726786878555943,0.00028566624363837874,-0.4882948147967939,-0.0003117282343382019,0.9999999510233066,2.7908637824177336e-05,0.48829479885428423,0.00012786000701686377,0.8726787341649116,-0.033837438,0.021436753,0.10094354,-1.3437766,0.27713493,0.2946143,0.016924389,0.0019298106,-0.024051357,0.010537821,0.14664892332857582,-0.9460382350807696,-0.2889736165324302,0.8576847498900314,0.2671483860355002,-0.43932745150366087,0.492819402106536,-0.18342136626873623,0.8505795902227296,left_images/camera_left_86.png,right_images/camera_right_86.png
2025-05-26 21:18:31,5.328777551651001,87,-0.0008512742,-0.001430604,0.09618439,-0.00012775764,-0.00018912485,0.021092065,1.0471792,0.030588625,0.00014487376,0.004232619,0.8758715442353474,0.0007004292129709003,0.48254382950951213,9.337511427446444e-05,0.9999986817877737,-0.001621019371409983,-0.48254432882365894,0.0014648623252951627,0.8758703242481115,0.0005596012,-9.221414e-05,0.09122644,0.00031132787,0.00012456634,-0.014222886,1.0471792,-0.03303997,6.271209e-06,0.00854097,0.8726786878555943,0.00028566624363837874,-0.4882948147967939,-0.0003117282343382019,0.9999999510233066,2.7908637824177336e-05,0.48829479885428423,0.00012786000701686377,0.8726787341649116,-0.035929937,0.023825351,0.10097557,-1.4315115,0.28673494,0.26980948,0.0013394738,0.0017102764,-0.024060503,0.010480908,0.06747419818873779,-0.9595410660994873,-0.27336454606888294,0.8780788859421759,0.1872051835725339,-0.4403767583627926,0.473734844233918,-0.21032156739676838,0.8551842699947376,left_images/camera_left_87.png,right_images/camera_right_87.png
2025-05-26 21:18:31,5.381714344024658,88,-0.0008512707,-0.001430604,0.09618439,-0.00012773817,-0.0001891266,0.021092065,1.0471792,0.03058862,0.00014488421,0.004232621,0.8758714603164042,0.0007005776701466977,0.4825439816163263,9.349650276948375e-05,0.9999986809212685,-0.0016215468314905285,-0.4825444811223244,0.0014653827659826361,0.8758702394714274,0.0005596012,-9.222133e-05,0.09122644,0.0003113557,0.00012460645,-0.014222942,1.0471792,-0.03303997,6.271209e-06,0.00854097,0.8726786878555943,0.00028566624363837874,-0.4882948147967939,-0.0003117282343382019,0.9999999510233066,2.7908637824177336e-05,0.48829479885428423,0.00012786000701686377,0.8726787341649116,-0.036933623,0.025903948,0.1010076,-1.4993479,0.28608346,0.25486374,8.854637e-05,0.0014630499,-0.024029557,0.010415894,0.006119351323612632,-0.9667384195245957,-0.2556939220131468,0.8869282685880416,0.12334801436874054,-0.44513314157756,0.4618666473331856,-0.22405824146050948,0.8581824424414817,left_images/camera_left_88.png,right_images/camera_right_88.png
2025-05-26 21:18:31,5.437421798706055,89,-0.0008512716,-0.0014306171,0.09618439,-0.00012776816,-0.0001891305,0.021092065,1.0471792,0.030588683,0.00014485428,0.0042325286,0.875871530764517,0.0007007258339378302,0.48254385352994417,9.348828521455106e-05,0.9999986804475707,-0.0016218394059892582,-0.48254435325280004,0.0014656351605853617,0.8758703094964538,0.0005596012,-9.222852e-05,0.09122644,0.0003113835,0.00012464655,-0.014222998,1.0471792,-0.03303997,6.271209e-06,0.00854097,0.8726786878555943,0.00028566624363837874,-0.4882948147967939,-0.0003117282343382019,0.9999999510233066,2.7908637824177336e-05,0.48829479885428423,0.00012786000701686377,0.8726787341649116,-0.037351955,0.027186664,0.10103464,-1.5505464,0.2798686,0.24769153,5.966963e-06,0.0012045333,-0.023943253,0.010365154,-0.04023294167575092,-0.9705557852178206,-0.23749269080191732,0.8888598756927044,0.07380485561032207,-0.4521957150083241,0.45640928100518025,-0.2292908874520725,0.8597187081503899,left_images/camera_left_89.png,right_images/camera_right_89.png
2025-05-26 21:18:31,5.488542556762695,90,-0.00085114373,-0.0014305623,0.09618439,-0.00012780441,-0.00018926183,0.021091951,1.0471792,0.030588686,0.00014486263,0.004232646,0.8758716557325917,0.0007005203692909016,0.48254362699704223,9.358286933894928e-05,0.9999986808495479,-0.0016215860787237137,-0.4825441264034772,0.001465459100880267,0.8758704347693949,0.0005596012,-9.223571e-05,0.09122644,0.00031141134,0.00012468666,-0.014223054,1.0471792,-0.033039972,6.270949e-06,0.00854097,0.8726788568577546,0.0002855851714672733,-0.48829451280405817,-0.00031164714604881016,0.9999999510491724,2.788743672868132e-05,0.48829449686587606,0.00012783881494160033,0.872678903141206,-0.03733578,0.02795661,0.10108417,-1.596287,0.2727218,0.24133673,9.365131e-07,0.0009784047,-0.023835447,0.010296207,-0.08146505966294398,-0.9720822679225721,-0.2200443329073069,0.8885306531747793,0.029186276061300864,-0.45788802087243313,0.4515271004302103,-0.23281800978485806,0.8613472307361907,left_images/camera_left_90.png,right_images/camera_right_90.png
2025-05-26 21:18:31,5.544849634170532,91,-0.00085112214,-0.0014305533,0.09618439,-0.00012781238,-0.00018926276,0.021091951,1.0471792,0.030588686,0.00014486263,0.004232646,0.8758716557325917,0.0007005203692909016,0.48254362699704223,9.358286933894928e-05,0.9999986808495479,-0.0016215860787237137,-0.4825441264034772,0.001465459100880267,0.8758704347693949,0.00055959803,-9.2242946e-05,0.09122644,0.0003113866,0.0001247268,-0.014223054,1.0471792,-0.033039972,6.2627e-06,0.008540968,0.8726788715219764,0.00028575740322990604,-0.48829448649543095,-0.00031161732667010116,0.9999999510470604,2.8293443072106865e-05,0.4882944706770411,0.00012746993253781846,0.8726789178487383,-0.036851782,0.028011523,0.1011623,-1.6319176,0.26268032,0.23956767,1.0919817e-06,0.0007636624,-0.023673471,0.010211603,-0.11331437282434897,-0.9727422170049829,-0.20231765164625504,0.8853867269018016,-0.006463916972941686,-0.4648102425759156,0.45083278134751803,-0.23179904450535999,0.8619855023310213,left_images/camera_left_91.png,right_images/camera_right_91.png
2025-05-26 21:18:32,5.5999462604522705,92,-0.00085112214,-0.0014305533,0.09618439,-0.00012782036,-0.0001892637,0.021091951,1.0471792,0.030588686,0.00014486263,0.004232646,0.8758716557325917,0.0007005203692909016,0.48254362699704223,9.358286933894928e-05,0.9999986808495479,-0.0016215860787237137,-0.4825441264034772,0.001465459100880267,0.8758704347693949,0.00055960735,-9.225018e-05,0.09122644,0.00031137856,0.00012476693,-0.01422311,1.0471792,-0.033039972,6.2627e-06,0.008540968,0.8726788715219764,0.00028575740322990604,-0.48829448649543095,-0.00031161732667010116,0.9999999510470604,2.8293443072106865e-05,0.4882944706770411,0.00012746993253781846,0.8726789178487383,-0.035947498,0.027755443,0.10122886,-1.6553255,0.24945818,0.240203,9.266062e-07,0.0005609371,-0.02353207,0.010128158,-0.13311416817813282,-0.9737504441287201,-0.18463664530467497,0.8818749190404993,-0.03135260469477996,-0.4704398381792998,0.4523021616105286,-0.22544863436706253,0.8628995699758287,left_images/camera_left_92.png,right_images/camera_right_92.png
2025-05-26 21:18:32,5.650543928146362,93,-0.00085112214,-0.0014305533,0.09618439,-0.00012782833,-0.00018926463,0.021091951,1.0471792,0.030588686,0.00014486263,0.004232646,0.8758716557325917,0.0007005203692909016,0.48254362699704223,9.358286933894928e-05,0.9999986808495479,-0.0016215860787237137,-0.4825441264034772,0.001465459100880267,0.8758704347693949,0.0005596178,-9.225741e-05,0.09122644,0.00031137053,0.00012480706,-0.014223166,1.0471792,-0.033039972,6.2627e-06,0.008540968,0.8726788715219764,0.00028575740322990604,-0.48829448649543095,-0.00031161732667010116,0.9999999510470604,2.8293443072106865e-05,0.4882944706770411,0.00012746993253781846,0.8726789178487383,-0.034999497,0.027412461,0.10127532,-1.6718041,0.23723315,0.24195342,7.6223546e-07,0.00039593363,-0.023415824,0.010067941,-0.14660177279874492,-0.974572147477735,-0.16946105621322197,0.8785405496379876,-0.049545984623482586,-0.47509125233945537,0.4546145871549302,-0.218527629301938,0.8634646792878251,left_images/camera_left_93.png,right_images/camera_right_93.png
2025-05-26 21:18:32,5.707679986953735,94,-0.00085112214,-0.0014305533,0.09618439,-0.0001278363,-0.00018926556,0.021091951,1.0471792,0.030588686,0.00014486263,0.004232646,0.8758716557325917,0.0007005203692909016,0.48254362699704223,9.358286933894928e-05,0.9999986808495479,-0.0016215860787237137,-0.4825441264034772,0.001465459100880267,0.8758704347693949,0.0005596283,-9.226464e-05,0.09122644,0.0003113625,0.0001248472,-0.014223222,1.0471792,-0.033039972,6.2627e-06,0.008540968,0.8726788715219764,0.00028575740322990604,-0.48829448649543095,-0.00031161732667010116,0.9999999510470604,2.8293443072106865e-05,0.4882944706770411,0.00012746993253781846,0.8726789178487383,-0.034426216,0.027236756,0.10131424,-1.6915522,0.23070045,0.2448515,9.0314063e-07,0.00028131122,-0.023297591,0.010041186,-0.16457017016908493,-0.9736023641018056,-0.15816161261789746,0.8738932271485297,-0.06955893574752975,-0.4811155599246398,0.4574136930989791,-0.2173936316294625,0.8622718378171159,left_images/camera_left_94.png,right_images/camera_right_94.png
