jiaqis7/OS_Teleop_Extension/demo_01/teleop_log.csv
Epoch Time (Seconds),Time (Seconds),Frame Number,PSM1_joint_1,PSM1_joint_2,PSM1_joint_3,PSM1_joint_4,PSM1_joint_5,PSM1_joint_6,PSM1_jaw_angle,PSM1_ee_x,PSM1_ee_y,PSM1_ee_z,"PSM1_Orientation_Matrix_[1,1]","PSM1_Orientation_Matrix_[1,2]","PSM1_Orientation_Matrix_[1,3]","PSM1_Orientation_Matrix_[2,1]","PSM1_Orientation_Matrix_[2,2]","PSM1_Orientation_Matrix_[2,3]","PSM1_Orientation_Matrix_[3,1]","PSM1_Orientation_Matrix_[3,2]","PSM1_Orientation_Matrix_[3,3]",PSM2_joint_1,PSM2_joint_2,PSM2_joint_3,PSM2_joint_4,PSM2_joint_5,PSM2_joint_6,PSM2_jaw_angle,PSM2_ee_x,PSM2_ee_y,PSM2_ee_z,"PSM2_Orientation_Matrix_[1,1]","PSM2_Orientation_Matrix_[1,2]","PSM2_Orientation_Matrix_[1,3]","PSM2_Orientation_Matrix_[2,1]","PSM2_Orientation_Matrix_[2,2]","PSM2_Orientation_Matrix_[2,3]","PSM2_Orientation_Matrix_[3,1]","PSM2_Orientation_Matrix_[3,2]","PSM2_Orientation_Matrix_[3,3]",PSM3_joint_1,PSM3_joint_2,PSM3_joint_3,PSM3_joint_4,PSM3_joint_5,PSM3_joint_6,PSM3_jaw_angle,PSM3_ee_x,PSM3_ee_y,PSM3_ee_z,"PSM3_Orientation_Matrix_[1,1]","PSM3_Orientation_Matrix_[1,2]","PSM3_Orientation_Matrix_[1,3]","PSM3_Orientation_Matrix_[2,1]","PSM3_Orientation_Matrix_[2,2]","PSM3_Orientation_Matrix_[2,3]","PSM3_Orientation_Matrix_[3,1]","PSM3_Orientation_Matrix_[3,2]","PSM3_Orientation_Matrix_[3,3]",Camera Left,Camera Right
2025-05-25 16:14:15,0.0021588802337646484,1,-0.0101164915,-0.014804503,0.09887497,0.015451373,0.07001793,0.11973691,1.047179,0.029248714,0.00020388805,0.0020097978,0.9152483198615251,-0.014817858160706604,0.4026176152010542,-0.008747154057611572,0.9983570427548764,0.056627753598654455,-0.40279523369392967,-0.055350214645172736,0.913614991915186,0.007580384,-0.013009976,0.09298855,-0.047382325,0.064988546,-0.09276875,1.047179,-0.032190878,1.321343e-05,0.007073446,0.904250610723788,-0.01441286465205724,-0.4267588339310365,0.042350618864156905,0.9975295591430764,0.05604644250657487,0.4248967616815636,-0.06875353058819135,0.9026271068077777,0.0001551916,-0.013308141,0.1037553,-0.00030183577,0.00017329578,0.0059603266,7.74538e-12,7.202813e-05,-0.021057472,0.007450845,0.9999812535043958,-0.0003035023547915928,-0.006115596953541365,-0.0013681856626407895,0.9624430404341413,-0.2714802423526963,0.005968308618869558,0.2714835203215967,0.962424582752344,left_images/camera_left_1.png,right_images/camera_right_1.png
2025-05-25 16:14:15,0.06458497047424316,2,-0.010116547,-0.014804503,0.09887497,0.015451373,0.07001793,0.11973691,1.047179,0.029248714,0.00020388805,0.0020097978,0.9152483198615251,-0.014817858160706604,0.4026176152010542,-0.008747154057611572,0.9983570427548764,0.056627753598654455,-0.40279523369392967,-0.055350214645172736,0.913614991915186,0.007580359,-0.013010003,0.09298855,-0.047382325,0.064988546,-0.09276875,1.047179,-0.032190852,1.3265293e-05,0.007073329,0.904250619352934,-0.014413007127433203,-0.42675881083508943,0.04235072385101062,0.9975295606828812,0.05604633576883873,0.42489673285297275,-0.06875347838009747,0.9026271243550722,0.00015519325,-0.013308141,0.1037553,-0.00030183402,0.00017328194,0.0059602987,1.9565074e-12,7.202813e-05,-0.021057472,0.007450845,0.9999812535043958,-0.0003035023547915928,-0.006115596953541365,-0.0013681856626407895,0.9624430404341413,-0.2714802423526963,0.005968308618869558,0.2714835203215967,0.962424582752344,left_images/camera_left_2.png,right_images/camera_right_2.png
2025-05-25 16:14:15,0.12678098678588867,3,-0.010116678,-0.014804671,0.09887497,0.015451373,0.07001815,0.11973691,1.047179,0.029248644,0.00020398095,0.002009892,0.9152481336516853,-0.01481741622743599,0.40261805476586626,-0.008747424649445664,0.9983570713276093,0.05662720805550417,-0.4027956509312252,-0.05534981758327666,0.9136148320186078,0.007580375,-0.01300996,0.09298855,-0.047382325,0.064988546,-0.09276878,1.047179,-0.03219088,1.3213372e-05,0.0070734443,0.9042507540589585,-0.014413010856101435,-0.42675852528317126,0.042350778492455866,0.9975295494682778,0.056046494080342325,0.424896440729842,-0.06875364030854521,0.9026272495329594,0.000155195,-0.013308141,0.1037553,-0.00030183227,0.00017326808,0.0059602708,3.9457714e-13,7.20249e-05,-0.021057472,0.007450847,0.9999812558143688,-0.00030351975661800363,-0.0061152183669202715,-0.0013680665838614772,0.9624430199638694,-0.2714803155233342,0.005967948872091489,0.27148359287180557,0.9624245645180072,left_images/camera_left_3.png,right_images/camera_right_3.png
2025-05-25 16:14:15,0.18909621238708496,4,-0.01011667,-0.01480473,0.09887497,0.015451345,0.07001837,0.11973669,1.047179,0.02924864,0.0002039735,0.0020098947,0.9152481225783733,-0.014817594524134975,0.4026180733763463,-0.008747411746410794,0.9983570482376207,0.05662761713160408,-0.40279567637265107,-0.055350186330157106,0.913614798461975,0.0075803306,-0.013009991,0.09298855,-0.047382325,0.064988546,-0.09276878,1.047179,-0.03219088,1.3213372e-05,0.0070734443,0.9042507540589585,-0.014413010856101435,-0.42675852528317126,0.042350778492455866,0.9975295494682778,0.056046494080342325,0.424896440729842,-0.06875364030854521,0.9026272495329594,0.00015519503,-0.013308141,0.1037553,-0.00030184255,0.00017325615,0.005960224,7.5694034e-12,7.20249e-05,-0.021057472,0.007450847,0.9999812558143688,-0.00030351975661800363,-0.0061152183669202715,-0.0013680665838614772,0.9624430199638694,-0.2714803155233342,0.005967948872091489,0.27148359287180557,0.9624245645180072,left_images/camera_left_4.png,right_images/camera_right_4.png
2025-05-25 16:14:15,0.23911738395690918,5,-0.010116432,-0.0148045,0.09887497,0.01545126,0.07001837,0.11973646,1.047179,0.02924871,0.0002038799,0.0020098006,0.915248123164254,-0.014817947658537615,0.4026180590479015,-0.008747282154856595,0.9983570163661335,0.05662819904795984,-0.4027956778556766,-0.05535066665994975,0.9136147687078429,0.0075803953,-0.013009995,0.09298855,-0.047382325,0.064988546,-0.09276878,1.047179,-0.03219088,1.3213372e-05,0.0070734443,0.9042507540589585,-0.014413010856101435,-0.42675852528317126,0.042350778492455866,0.9975295494682778,0.056046494080342325,0.424896440729842,-0.06875364030854521,0.9026272495329594,0.00015519421,-0.013308141,0.1037553,-0.00030185378,0.0001732837,0.005960252,2.013493e-12,7.2020666e-05,-0.021057472,0.007450847,0.9999812549934867,-0.00030379778882784144,-0.006115338793136494,-0.0013678316876104446,0.9624430201183737,-0.27148031615919793,0.0059681402568727854,0.271483592013085,0.9624245635734506,left_images/camera_left_5.png,right_images/camera_right_5.png
2025-05-25 16:14:15,0.3070991039276123,6,-0.010116465,-0.0148044815,0.09887497,0.015451185,0.07001837,0.11973646,1.047179,0.02924871,0.0002038799,0.0020098006,0.915248123164254,-0.014817947658537615,0.4026180590479015,-0.008747282154856595,0.9983570163661335,0.05662819904795984,-0.4027956778556766,-0.05535066665994975,0.9136147687078429,0.00758037,-0.013010021,0.09298855,-0.047382325,0.064988546,-0.09276878,1.047179,-0.03219086,1.3264769e-05,0.007073329,0.9042507913064662,-0.014413065606910264,-0.42675844451099093,0.04235079386533082,0.9975295533796645,0.05604641284813154,0.424896359928637,-0.06875357208158604,0.9026272927656332,0.00015519577,-0.013308141,0.1037553,-0.00030187514,0.00017335097,0.005960224,5.6165814e-13,7.2020666e-05,-0.021057472,0.007450847,0.9999812549934867,-0.00030379778882784144,-0.006115338793136494,-0.0013678316876104446,0.9624430201183737,-0.27148031615919793,0.0059681402568727854,0.271483592013085,0.9624245635734506,left_images/camera_left_6.png,right_images/camera_right_6.png
2025-05-25 16:14:15,0.3708465099334717,7,-0.010116521,-0.0148044815,0.09887497,0.015451111,0.07001837,0.11973646,1.047179,0.02924871,0.0002038799,0.0020098006,0.915248123164254,-0.014817947658537615,0.4026180590479015,-0.008747282154856595,0.9983570163661335,0.05662819904795984,-0.4027956778556766,-0.05535066665994975,0.9136147687078429,0.007580392,-0.013009972,0.09298855,-0.047382325,0.064988546,-0.09276878,1.047179,-0.03219088,1.3213372e-05,0.0070734443,0.9042507540589585,-0.014413010856101435,-0.42675852528317126,0.042350778492455866,0.9975295494682778,0.056046494080342325,0.424896440729842,-0.06875364030854521,0.9026272495329594,0.00015519751,-0.013308141,0.1037553,-0.0003018965,0.00017341826,0.0059601963,3.80319e-13,7.201877e-05,-0.02105748,0.007450845,0.9999812557712214,-0.000303834234631218,-0.006115209805796309,-0.0013677593808446961,0.9624431207421452,-0.27147995979518746,0.005968026515285651,0.27148323524829,0.962424664915979,left_images/camera_left_7.png,right_images/camera_right_7.png
2025-05-25 16:14:15,0.43364500999450684,8,-0.010116577,-0.0148044815,0.09887497,0.015451036,0.07001837,0.11973646,1.047179,0.029248796,0.00020376261,0.0020098342,0.9152480634203164,-0.0148179951088484,0.4026181931139163,-0.008747126137722255,0.9983570322861929,0.056627942475748705,-0.4027958169962685,-0.055350366806915324,0.9136147255296669,0.007580348,-0.013010003,0.09298855,-0.047382325,0.064988546,-0.09276878,1.047179,-0.03219086,1.3264769e-05,0.007073329,0.9042507913064662,-0.014413065606910264,-0.42675844451099093,0.04235079386533082,0.9975295533796645,0.05604641284813154,0.424896359928637,-0.06875357208158604,0.9026272927656332,0.00015519722,-0.013308141,0.1037553,-0.00030189825,0.00017339282,0.0059601683,3.070957e-12,7.2020666e-05,-0.021057472,0.007450847,0.9999812549934867,-0.00030379778882784144,-0.006115338793136494,-0.0013678316876104446,0.9624430201183737,-0.27148031615919793,0.0059681402568727854,0.271483592013085,0.9624245635734506,left_images/camera_left_8.png,right_images/camera_right_8.png
2025-05-25 16:14:15,0.4958832263946533,9,-0.010116607,-0.014804584,0.09887497,0.015451043,0.070018515,0.11973646,1.047179,0.029248796,0.00020376273,0.0020098314,0.9152480865471939,-0.014817710216562656,0.40261815102605425,-0.008747492478978507,0.998357021568068,0.05662807484867187,-0.4027957564908434,-0.05535063639809884,0.9136147358724547,0.0075803697,-0.013009953,0.09298855,-0.047382325,0.064988546,-0.09276878,1.047179,-0.03219088,1.3213372e-05,0.0070734443,0.9042507540589585,-0.014413010856101435,-0.42675852528317126,0.042350778492455866,0.9975295494682778,0.056046494080342325,0.424896440729842,-0.06875364030854521,0.9026272495329594,0.00015519919,-0.013308141,0.1037553,-0.00030192002,0.0001733521,0.0059601683,3.7035036e-12,7.2020666e-05,-0.021057472,0.007450847,0.9999812549934867,-0.00030379778882784144,-0.006115338793136494,-0.0013678316876104446,0.9624430201183737,-0.27148031615919793,0.0059681402568727854,0.271483592013085,0.9624245635734506,left_images/camera_left_9.png,right_images/camera_right_9.png
2025-05-25 16:14:15,0.5625088214874268,10,-0.010116632,-0.01480467,0.09887497,0.015451014,0.07001866,0.11973646,1.047179,0.029248646,0.00020394672,0.002009862,0.9152480140630184,-0.01481828643617834,0.4026182945927772,-0.008746891919218406,0.9983570244503704,0.056628116800368104,-0.40279593423401694,-0.05535043014916861,0.9136146700041805,0.0075804344,-0.013009958,0.09298855,-0.047382325,0.064988546,-0.09276878,1.047179,-0.032190755,1.3200275e-05,0.007073392,0.9042506445340451,-0.014413024643001841,-0.42675875688778114,0.042350801104604194,0.9975295499474978,0.05604646846448929,0.42489667156329,-0.06875363046547403,0.9026271416217523,0.00015520098,-0.013308141,0.1037553,-0.00030194139,0.00017341938,0.0059601404,8.485092e-13,7.201877e-05,-0.02105748,0.007450845,0.9999812557712214,-0.000303834234631218,-0.006115209805796309,-0.0013677593808446961,0.9624431207421452,-0.27147995979518746,0.005968026515285651,0.27148323524829,0.962424664915979,left_images/camera_left_10.png,right_images/camera_right_10.png
2025-05-25 16:14:15,0.6274652481079102,11,-0.0101165455,-0.014804543,0.09887497,0.015451005,0.070018575,0.11973646,1.047179,0.02924871,0.00020387449,0.0020098276,0.915248154824407,-0.014818376623839353,0.4026179712888537,-0.008746792179562618,0.9983570227507236,0.056628162171119684,-0.4027956165564438,-0.05535043666083529,0.9136148096678212,0.00758039,-0.013009989,0.09298855,-0.047382325,0.064988546,-0.09276878,1.047179,-0.03219088,1.3213372e-05,0.0070734443,0.9042507540589585,-0.014413010856101435,-0.42675852528317126,0.042350778492455866,0.9975295494682778,0.056046494080342325,0.424896440729842,-0.06875364030854521,0.9026272495329594,0.00015520069,-0.013308141,0.1037553,-0.00030194313,0.00017339394,0.0059601124,3.0768725e-12,7.2020666e-05,-0.021057472,0.007450847,0.9999812549934867,-0.00030379778882784144,-0.006115338793136494,-0.0013678316876104446,0.9624430201183737,-0.27148031615919793,0.0059681402568727854,0.271483592013085,0.9624245635734506,left_images/camera_left_11.png,right_images/camera_right_11.png
2025-05-25 16:14:15,0.6773531436920166,12,-0.010116576,-0.014804543,0.09887497,0.015451024,0.070018575,0.11973646,1.047179,0.029248796,0.00020376261,0.0020098342,0.9152480634203164,-0.0148179951088484,0.4026181931139163,-0.008747126137722255,0.9983570322861929,0.056627942475748705,-0.4027958169962685,-0.055350366806915324,0.9136147255296669,0.007580365,-0.013010015,0.09298855,-0.047382325,0.064988546,-0.09276878,1.047179,-0.03219086,1.3264769e-05,0.007073329,0.9042507913064662,-0.014413065606910264,-0.42675844451099093,0.04235079386533082,0.9975295533796645,0.05604641284813154,0.424896359928637,-0.06875357208158604,0.9026272927656332,0.00015520265,-0.013308141,0.1037553,-0.0003019649,0.00017335323,0.0059601124,3.7084073e-12,7.2020666e-05,-0.021057472,0.007450847,0.9999812549934867,-0.00030379778882784144,-0.006115338793136494,-0.0013678316876104446,0.9624430201183737,-0.27148031615919793,0.0059681402568727854,0.271483592013085,0.9624245635734506,left_images/camera_left_12.png,right_images/camera_right_12.png
2025-05-25 16:14:15,0.7272725105285645,13,-0.010116606,-0.014804645,0.09887497,0.015451031,0.070018716,0.11973646,1.047179,0.029248646,0.00020394672,0.002009862,0.9152480140630184,-0.01481828643617834,0.4026182945927772,-0.008746891919218406,0.9983570244503704,0.056628116800368104,-0.40279593423401694,-0.05535043014916861,0.9136146700041805,0.007580387,-0.013009965,0.09298855,-0.047382325,0.064988546,-0.09276878,1.047179,-0.03219088,1.3213372e-05,0.0070734443,0.9042507540589585,-0.014413010856101435,-0.42675852528317126,0.042350778492455866,0.9975295494682778,0.056046494080342325,0.424896440729842,-0.06875364030854521,0.9026272495329594,0.00015520444,-0.013308141,0.1037553,-0.00030198626,0.0001734205,0.0059600845,8.4800965e-13,7.201877e-05,-0.02105748,0.007450845,0.9999812557712214,-0.000303834234631218,-0.006115209805796309,-0.0013677593808446961,0.9624431207421452,-0.27147995979518746,0.005968026515285651,0.27148323524829,0.962424664915979,left_images/camera_left_13.png,right_images/camera_right_13.png
2025-05-25 16:14:15,0.7796964645385742,14,-0.010116156,-0.014807787,0.09887497,0.015418478,0.07004116,0.1197258,1.047179,0.029248828,0.00020377256,0.0020099254,0.9152444357727428,-0.014855691274677205,0.4026250504176128,-0.008713303995788402,0.9983564474406407,0.05664346552940102,-0.40280479282216936,-0.05535081110927773,0.9136107412837452,0.0075803427,-0.013009996,0.09298855,-0.047382325,0.064988546,-0.09276878,1.047179,-0.03219088,1.3213372e-05,0.0070734443,0.9042507540589585,-0.014413010856101435,-0.42675852528317126,0.042350778492455866,0.9975295494682778,0.056046494080342325,0.424896440729842,-0.06875364030854521,0.9026272495329594,0.00015520415,-0.013308141,0.1037553,-0.000301988,0.00017339506,0.0059600566,3.0739192e-12,7.2020666e-05,-0.021057472,0.007450847,0.9999812549934867,-0.00030379778882784144,-0.006115338793136494,-0.0013678316876104446,0.9624430201183737,-0.27148031615919793,0.0059681402568727854,0.271483592013085,0.9624245635734506,left_images/camera_left_14.png,right_images/camera_right_14.png
2025-05-25 16:14:16,0.8312098979949951,15,-0.010115909,-0.014810442,0.09887497,0.015394238,0.07005784,0.11971793,1.047179,0.02924875,0.00020376005,0.0020100428,0.9152415236028982,-0.014883579414503294,0.4026306403353547,-0.008687964195750783,0.998356061928534,0.056654151557346065,-0.4028119570608337,-0.0553502725771207,0.913607615212603,0.007580464,-0.01300993,0.09298855,-0.047382325,0.064988546,-0.09276878,1.047179,-0.032190755,1.3200275e-05,0.007073392,0.9042506445340451,-0.014413024643001841,-0.42675875688778114,0.042350801104604194,0.9975295499474978,0.05604646846448929,0.42489667156329,-0.06875363046547403,0.9026271416217523,0.00015520611,-0.013308141,0.1037553,-0.00030200978,0.00017335435,0.0059600566,3.7035128e-12,7.2020666e-05,-0.021057472,0.007450847,0.9999812549934867,-0.00030379778882784144,-0.006115338793136494,-0.0013678316876104446,0.9624430201183737,-0.27148031615919793,0.0059681402568727854,0.271483592013085,0.9624245635734506,left_images/camera_left_15.png,right_images/camera_right_15.png
2025-05-25 16:14:16,0.8833396434783936,16,-0.010115472,-0.014812641,0.09887497,0.015376289,0.07007052,0.11971179,1.047179,0.02924871,0.00020381011,0.0020098537,0.9152393183960884,-0.014904280507641282,0.4026348873165529,-0.008669165997915135,0.9983557745574524,0.056662094637332294,-0.40281737254339506,-0.05534988554946571,0.9136052509409613,0.007580322,-0.013009974,0.09298855,-0.047382325,0.064988546,-0.09276878,1.047179,-0.03219088,1.3213372e-05,0.0070734443,0.9042507540589585,-0.014413010856101435,-0.42675852528317126,0.042350778492455866,0.9975295494682778,0.056046494080342325,0.424896440729842,-0.06875364030854521,0.9026272495329594,0.0001552079,-0.013308141,0.1037553,-0.00030203114,0.00017342162,0.0059600286,8.482516e-13,7.201877e-05,-0.02105748,0.007450845,0.9999812557712214,-0.000303834234631218,-0.006115209805796309,-0.0013677593808446961,0.9624431207421452,-0.27147995979518746,0.005968026515285651,0.27148323524829,0.962424664915979,left_images/camera_left_16.png,right_images/camera_right_16.png
2025-05-25 16:14:16,0.9353759288787842,17,-0.010114613,-0.014817822,0.09887497,0.015330358,0.070102826,0.11969652,1.047179,0.02924876,0.00020374957,0.0020099245,0.9152342017684073,-0.01495747890916644,0.40264454514873044,-0.008621204382485616,0.998354975830557,0.05668348145062511,-0.40283002711856225,-0.05534994181613736,0.9135996679030748,0.007580388,-0.013009978,0.09298855,-0.047382325,0.064988546,-0.09276878,1.047179,-0.03219088,1.3213372e-05,0.0070734443,0.9042507540589585,-0.014413010856101435,-0.42675852528317126,0.042350778492455866,0.9975295494682778,0.056046494080342325,0.424896440729842,-0.06875364030854521,0.9026272495329594,0.00015520761,-0.013308141,0.1037553,-0.0003020329,0.00017339618,0.0059600007,3.0733324e-12,7.2020666e-05,-0.021057472,0.007450847,0.9999812549934867,-0.00030379778882784144,-0.006115338793136494,-0.0013678316876104446,0.9624430201183737,-0.27148031615919793,0.0059681402568727854,0.271483592013085,0.9624245635734506,left_images/camera_left_17.png,right_images/camera_right_17.png
2025-05-25 16:14:16,0.9872267246246338,18,-0.010114134,-0.014821906,0.09887497,0.015296294,0.07012668,0.11968534,1.047179,0.029248653,0.00020383444,0.0020099003,0.915230340700638,-0.014996983565274314,0.4026518520321706,-0.008585436546598242,0.9983544029526684,0.05669899808925553,-0.4028395632758759,-0.05534958526460663,0.9135954847035627,0.0075803627,-0.013010005,0.09298855,-0.047382325,0.064988546,-0.09276878,1.047179,-0.03219086,1.3264769e-05,0.007073329,0.9042507913064662,-0.014413065606910264,-0.42675844451099093,0.04235079386533082,0.9975295533796645,0.05604641284813154,0.424896359928637,-0.06875357208158604,0.9026272927656332,0.00015520958,-0.013308141,0.1037553,-0.00030205466,0.00017335547,0.0059600007,3.709672e-12,7.2020666e-05,-0.021057472,0.007450847,0.9999812549934867,-0.00030379778882784144,-0.006115338793136494,-0.0013678316876104446,0.9624430201183737,-0.27148031615919793,0.0059681402568727854,0.271483592013085,0.9624245635734506,left_images/camera_left_18.png,right_images/camera_right_18.png
2025-05-25 16:14:16,1.0387158393859863,19,-0.010113729,-0.014824676,0.09887497,0.015271034,0.07014422,0.11967699,1.047179,0.029248742,0.00020375446,0.0020098053,0.9152273796760607,-0.015025887295653668,0.40265750483788343,-0.008559534502559188,0.9983539486826933,0.056710911813986464,-0.4028468416909723,-0.05534994002392925,0.9135922538413711,0.0075803846,-0.013009955,0.09298855,-0.047382325,0.064988546,-0.09276878,1.047179,-0.03219088,1.3213372e-05,0.0070734443,0.9042507540589585,-0.014413010856101435,-0.42675852528317126,0.042350778492455866,0.9975295494682778,0.056046494080342325,0.424896440729842,-0.06875364030854521,0.9026272495329594,0.00015521137,-0.013308141,0.1037553,-0.00030207602,0.00017342274,0.0059599727,8.485765e-13,7.201877e-05,-0.02105748,0.007450845,0.9999812557712214,-0.000303834234631218,-0.006115209805796309,-0.0013677593808446961,0.9624431207421452,-0.27147995979518746,0.005968026515285651,0.27148323524829,0.962424664915979,left_images/camera_left_19.png,right_images/camera_right_19.png
2025-05-25 16:14:16,1.0848941802978516,20,-0.010113441,-0.014826863,0.09887497,0.0152522735,0.070157304,0.11967083,1.047179,0.029248755,0.0002038331,0.0020098863,0.9152253202673856,-0.015047672564659364,0.4026613722370796,-0.00853980387786585,0.9983536309554327,0.05671947908638608,-0.4028519391677155,-0.05534975256033399,0.9135900174587728,0.0075803404,-0.013009986,0.09298855,-0.047382325,0.064988546,-0.09276878,1.047179,-0.03219088,1.3213372e-05,0.0070734443,0.9042507540589585,-0.014413010856101435,-0.42675852528317126,0.042350778492455866,0.9975295494682778,0.056046494080342325,0.424896440729842,-0.06875364030854521,0.9026272495329594,0.00015521108,-0.013308141,0.1037553,-0.00030207777,0.0001733973,0.005959945,3.0745185e-12,7.201877e-05,-0.02105748,0.007450845,0.9999812557712214,-0.000303834234631218,-0.006115209805796309,-0.0013677593808446961,0.9624431207421452,-0.27147995979518746,0.005968026515285651,0.27148323524829,0.962424664915979,left_images/camera_left_20.png,right_images/camera_right_20.png
2025-05-25 16:14:16,1.1304585933685303,21,-0.01011313,-0.014828592,0.09887497,0.015238389,0.07016715,0.11966618,1.047179,0.029248668,0.00020373869,0.0020099338,0.9152235781635817,-0.015063941007503835,0.40266472362844613,-0.008525030900756566,0.9983534026728683,0.056725719207841495,-0.4028562098585445,-0.05534944491888041,0.9135881529034734,0.007580405,-0.013009991,0.09298855,-0.047382325,0.064988546,-0.09276878,1.047179,-0.032190755,1.3200275e-05,0.007073392,0.9042506445340451,-0.014413024643001841,-0.42675875688778114,0.042350801104604194,0.9975295499474978,0.05604646846448929,0.42489667156329,-0.06875363046547403,0.9026271416217523,0.00015521064,-0.013308141,0.1037553,-0.0003020795,0.00017337187,0.005959917,3.0740267e-12,7.2020666e-05,-0.021057472,0.007450847,0.9999812549934867,-0.00030379778882784144,-0.006115338793136494,-0.0013678316876104446,0.9624430201183737,-0.27148031615919793,0.0059681402568727854,0.271483592013085,0.9624245635734506,left_images/camera_left_21.png,right_images/camera_right_21.png
2025-05-25 16:14:16,1.1951794624328613,22,-0.010112762,-0.014830239,0.09887497,0.015228138,0.070174806,0.11966265,1.047179,0.02924864,0.00020375155,0.002009998,0.915222557873892,-0.015075840491206702,0.40266659731377547,-0.00851433098037189,0.9983532160903141,0.05673060981589442,-0.4028587540649045,-0.05534957050971823,0.9135870233960542,0.007580417,-0.013009951,0.09298855,-0.047382325,0.064988546,-0.09276878,1.047179,-0.032190755,1.3200275e-05,0.007073392,0.9042506445340451,-0.014413024643001841,-0.42675875688778114,0.042350801104604194,0.9975295499474978,0.05604646846448929,0.42489667156329,-0.06875363046547403,0.9026271416217523,0.0001552137,-0.013308141,0.1037553,-0.00030208583,0.00017333128,0.0059599923,1.24489846e-11,7.2020666e-05,-0.021057472,0.007450847,0.9999812549934867,-0.00030379778882784144,-0.006115338793136494,-0.0013678316876104446,0.9624430201183737,-0.27148031615919793,0.0059681402568727854,0.271483592013085,0.9624245635734506,left_images/camera_left_22.png,right_images/camera_right_22.png
2025-05-25 16:14:16,1.244333028793335,23,-0.010112332,-0.014831547,0.09887497,0.015220584,0.07018056,0.1196598,1.047179,0.029248707,0.0002038866,0.0020098845,0.9152215905987926,-0.015084472068657491,0.4026684725729413,-0.00850652871989599,0.9983530906652572,0.056733987417297044,-0.4028611163551941,-0.05534948113160887,0.913585987123001,0.0075803827,-0.013009972,0.09298855,-0.047382325,0.064988546,-0.09276878,1.047179,-0.03219088,1.3213372e-05,0.0070734443,0.9042507540589585,-0.014413010856101435,-0.42675852528317126,0.042350778492455866,0.9975295494682778,0.056046494080342325,0.424896440729842,-0.06875364030854521,0.9026272495329594,0.0001552157,-0.013308141,0.1037553,-0.0003021072,0.00017339856,0.0059599644,2.9405567e-12,7.201877e-05,-0.02105748,0.007450845,0.9999812557712214,-0.000303834234631218,-0.006115209805796309,-0.0013677593808446961,0.9624431207421452,-0.27147995979518746,0.005968026515285651,0.27148323524829,0.962424664915979,left_images/camera_left_23.png,right_images/camera_right_23.png
2025-05-25 16:14:16,1.3022496700286865,24,-0.010112444,-0.014829131,0.09887497,0.015247592,0.070162185,0.11966841,1.047179,0.029248659,0.00020377286,0.0020099469,0.9152245471843224,-0.015052936781234844,0.4026629326440569,-0.008534926359627753,0.9983535745237675,0.05672120650737293,-0.40285379886912803,-0.055349339019327606,0.9135892224664408,0.0075803576,-0.013009998,0.09298855,-0.047382325,0.064988546,-0.09276878,1.047179,-0.03219088,1.3213372e-05,0.0070734443,0.9042507540589585,-0.014413010856101435,-0.42675852528317126,0.042350778492455866,0.9975295494682778,0.056046494080342325,0.424896440729842,-0.06875364030854521,0.9026272495329594,0.00015521541,-0.013308141,0.1037553,-0.00030210894,0.00017337312,0.0059599364,3.0801143e-12,7.2020666e-05,-0.021057472,0.007450847,0.9999812549934867,-0.00030379778882784144,-0.006115338793136494,-0.0013678316876104446,0.9624430201183737,-0.27148031615919793,0.0059681402568727854,0.271483592013085,0.9624245635734506,left_images/camera_left_24.png,right_images/camera_right_24.png
2025-05-25 16:14:16,1.352541446685791,25,-0.010112517,-0.014827206,0.09887497,0.015267567,0.07014862,0.1196749,1.047179,0.029248841,0.00020391837,0.0020100418,0.9152270554169926,-0.015029639480707048,0.402658101830599,-0.008556007433371107,0.9983539110954388,0.05671210573802269,-0.4028476533002783,-0.05534959925347734,0.9135919166087987,0.0075804787,-0.013009932,0.09298855,-0.047382325,0.064988546,-0.09276878,1.047179,-0.032190755,1.3200275e-05,0.007073392,0.9042506445340451,-0.014413024643001841,-0.42675875688778114,0.042350801104604194,0.9975295499474978,0.05604646846448929,0.42489667156329,-0.06875363046547403,0.9026271416217523,0.00015521738,-0.013308141,0.1037553,-0.0003021307,0.0001733324,0.0059599364,3.702278e-12,7.2020666e-05,-0.021057472,0.007450847,0.9999812549934867,-0.00030379778882784144,-0.006115338793136494,-0.0013678316876104446,0.9624430201183737,-0.27148031615919793,0.0059681402568727854,0.271483592013085,0.9624245635734506,left_images/camera_left_25.png,right_images/camera_right_25.png
2025-05-25 16:14:16,1.4189105033874512,26,-0.0101127215,-0.0148255285,0.09887497,0.015282341,0.07013837,0.11967963,1.047179,0.029248739,0.00020389468,0.0020099385,0.9152286119013285,-0.015012896446288032,0.4026551885887728,-0.008571213872927193,0.9983541496950116,0.05670560888919925,-0.40284379385800606,-0.05534983944911967,0.9135936038650034,0.007580337,-0.013009976,0.09298855,-0.047382325,0.064988546,-0.09276878,1.047179,-0.03219088,1.3213372e-05,0.0070734443,0.9042507540589585,-0.014413010856101435,-0.42675852528317126,0.042350778492455866,0.9975295494682778,0.056046494080342325,0.424896440729842,-0.06875364030854521,0.9026272495329594,0.00015521917,-0.013308141,0.1037553,-0.00030215207,0.00017339968,0.0059599085,8.4737295e-13,7.201877e-05,-0.02105748,0.007450845,0.9999812557712214,-0.000303834234631218,-0.006115209805796309,-0.0013677593808446961,0.9624431207421452,-0.27147995979518746,0.005968026515285651,0.27148323524829,0.962424664915979,left_images/camera_left_26.png,right_images/camera_right_26.png
2025-05-25 16:14:16,1.4813802242279053,27,-0.010112882,-0.014824034,0.09887497,0.015293305,0.0701305,0.119683236,1.047179,0.02924889,0.00020392262,0.0020099832,0.9152299706605639,-0.01500035003724174,0.40265256773479513,-0.008582531496457834,0.9983543352099995,0.05670063068884121,-0.40284046588913563,-0.055349894906497096,0.913595067946442,0.007580842,-0.013006481,0.09298855,-0.047414947,0.06496556,-0.092778705,1.047179,-0.032190893,1.3311219e-05,0.0070734434,0.9042533112843186,-0.014450982441362982,-0.42675182265319545,0.042384632241667976,0.9975290032776212,0.0560306217143279,0.42488762276757785,-0.06875359428011725,0.902631403892243,0.00015521888,-0.013308141,0.1037553,-0.0003021538,0.00017337424,0.0059598805,3.071353e-12,7.2014605e-05,-0.021057473,0.007450845,0.9999812582422488,-0.00030387952615093744,-0.006114803470456936,-0.0013676065337783646,0.9624430726624696,-0.27148013101586793,0.005967647494406203,0.27148340564619716,0.9624246191999272,left_images/camera_left_27.png,right_images/camera_right_27.png
2025-05-25 16:14:16,1.5415515899658203,28,-0.01011314,-0.014822805,0.09887497,0.01530146,0.07012454,0.11968609,1.047179,0.029248826,0.00020394428,0.0020099478,0.9152310091830752,-0.014990739233811654,0.40265056508957425,-0.00859108013317577,0.9983544938679468,0.05669654236213225,-0.40283792419765413,-0.05534963695363832,0.9135962043032061,0.0075814086,-0.013003483,0.09298855,-0.04743913,0.064948276,-0.09278619,1.047179,-0.032190856,1.3269717e-05,0.007073381,0.9042554255187274,-0.014478533092739956,-0.42674640888873105,0.04240914001137447,0.9975286095140768,0.05601908642961177,0.4248806776772053,-0.0687535110404924,0.9026346794003453,0.00015522211,-0.013308141,0.1037553,-0.00030218286,0.00017335947,0.0059598247,8.5195696e-13,7.2014605e-05,-0.021057473,0.007450845,0.9999812582422488,-0.00030387952615093744,-0.006114803470456936,-0.0013676065337783646,0.9624430726624696,-0.27148013101586793,0.005967647494406203,0.27148340564619716,0.9624246191999272,left_images/camera_left_28.png,right_images/camera_right_28.png
2025-05-25 16:14:16,1.6021480560302734,29,-0.010113344,-0.014822024,0.09887497,0.015307494,0.07012031,0.11968821,1.047179,0.029248808,0.00020387664,0.0020098835,0.9152314564362426,-0.014983922969316141,0.4026498021880103,-0.008597351393693112,0.9983545833116142,0.05669401670111783,-0.4028367742629856,-0.05534986931459608,0.9135966972730635,0.007581848,-0.013001248,0.09298855,-0.047457132,0.06493543,-0.09279181,1.047179,-0.03219085,1.31743145e-05,0.0070733624,0.9042568919600062,-0.014499564309026571,-0.4267425874900202,0.042427893876047784,0.9975283041963586,0.05601032180214169,0.4248756843643467,-0.06875350872490105,0.9026370299704874,0.0001552256,-0.013308141,0.1037553,-0.0003022119,0.00017334468,0.005959769,8.075007e-13,7.2014605e-05,-0.021057473,0.007450845,0.9999812582422488,-0.00030387952615093744,-0.006114803470456936,-0.0013676065337783646,0.9624430726624696,-0.27148013101586793,0.005967647494406203,0.27148340564619716,0.9624246191999272,left_images/camera_left_29.png,right_images/camera_right_29.png
2025-05-25 16:14:16,1.6615424156188965,30,-0.010113604,-0.014821566,0.09887497,0.015311987,0.07011722,0.11968978,1.047179,0.029248817,0.00020394957,0.0020097885,0.9152320277254739,-0.014978897168181684,0.4026486906288685,-0.008601889974358628,0.9983546562890535,0.05669204313512342,-0.4028353794223966,-0.05534991332956813,0.9135973096392211,0.007582253,-0.012999677,0.09298855,-0.04747044,0.06492594,-0.09279608,1.047179,-0.032190826,1.3223384e-05,0.00707337,0.9042580702389316,-0.014515394165323301,-0.4267395525844645,0.04244188046513761,0.9975280934148312,0.056003478737974996,0.42487177970576795,-0.06875322669080444,0.9026388893844849,0.00015522909,-0.013308141,0.1037553,-0.00030224095,0.0001733299,0.005959713,8.05911e-13,7.201356e-05,-0.021057475,0.0074509066,0.9999812583488362,-0.00030434588332207925,-0.006114762845890502,-0.0013671460555008872,0.9624431005346429,-0.2714800345235839,0.00596773514334428,0.27148330631338397,0.9624246466765137,left_images/camera_left_30.png,right_images/camera_right_30.png
2025-05-25 16:14:16,1.7230312824249268,31,-0.010113874,-0.0148210665,0.09887497,0.015315347,0.07011476,0.119691156,1.047179,0.02924867,0.00020389946,0.0020098463,0.9152324708705785,-0.01497483997731716,0.4026478342569216,-0.00860554072156487,0.9983547173357332,0.056690414025454605,-0.4028342946336932,-0.05534991003734076,0.9135977881572575,0.0075825443,-0.012998333,0.09298855,-0.04748025,0.06491875,-0.09279918,1.047179,-0.032190967,1.3292709e-05,0.0070734257,0.9042588095517914,-0.014526212911508615,-0.4267376178478135,0.04245155364398521,0.9975279321376639,0.055999019619704,0.4248692398152505,-0.06875328169335386,0.902640080716121,0.00015523011,-0.013308163,0.1037553,-0.0003022956,0.00017329775,0.005959685,1.6804978e-12,7.201356e-05,-0.021057475,0.0074509066,0.9999812583488362,-0.00030434588332207925,-0.006114762845890502,-0.0013671460555008872,0.9624431005346429,-0.2714800345235839,0.00596773514334428,0.27148330631338397,0.9624246466765137,left_images/camera_left_31.png,right_images/camera_right_31.png
2025-05-25 16:14:16,1.7687928676605225,32,-0.010113873,-0.014820706,0.09887497,0.015317764,0.07011297,0.11969205,1.047179,0.029248765,0.00020394998,0.0020099655,0.915232795162694,-0.014971969424458904,0.4026472038773337,-0.00860834351963323,0.9983547301068711,0.05668976358289203,-0.4028334979622848,-0.055350456229278464,0.9135981063436376,0.0075833225,-0.012993649,0.09298855,-0.04752017,0.06489013,-0.0928115,1.047179,-0.032190755,1.3303885e-05,0.007073256,0.9042622432002062,-0.014572899851875556,-0.4267287500420364,0.042492992757289946,0.9975272789102949,0.05597922289878592,0.42485778925313405,-0.06875287935592414,0.9026455010086792,0.00015523098,-0.013308164,0.1037553,-0.00030226802,0.00017320228,0.005959685,9.149731e-13,7.201356e-05,-0.021057475,0.0074509066,0.9999812583488362,-0.00030434588332207925,-0.006114762845890502,-0.0013671460555008872,0.9624431005346429,-0.2714800345235839,0.00596773514334428,0.27148330631338397,0.9624246466765137,left_images/camera_left_32.png,right_images/camera_right_32.png
2025-05-25 16:14:17,1.8250107765197754,33,-0.010113921,-0.014820284,0.09887497,0.015319577,0.07011141,0.1196925,1.047179,0.029248742,0.00020391343,0.0020097168,0.9152332376902651,-0.01497009650760336,0.40264626763146294,-0.008609833880108279,0.9983547804575204,0.05668865052347872,-0.4028324606924715,-0.055350054635647884,0.9135985880375905,0.0075838314,-0.012989972,0.09298855,-0.04754981,0.064868994,-0.09282049,1.047179,-0.032190867,1.3522571e-05,0.0070733745,0.9042644447227517,-0.0146074405415848,-0.42672290387449047,0.04252380242994361,0.9975267769120129,0.05596477079762306,0.4248500208746055,-0.06875283284603934,0.902649160936015,0.00015523186,-0.013308164,0.1037553,-0.00030224043,0.00017310679,0.005959685,1.5680641e-13,7.201356e-05,-0.021057475,0.0074509066,0.9999812583488362,-0.00030434588332207925,-0.006114762845890502,-0.0013671460555008872,0.9624431005346429,-0.2714800345235839,0.00596773514334428,0.27148330631338397,0.9624246466765137,left_images/camera_left_33.png,right_images/camera_right_33.png
2025-05-25 16:14:17,1.8884248733520508,34,-0.010114114,-0.014820164,0.09887497,0.015320907,0.07011051,0.119692944,1.047179,0.029248767,0.00020383374,0.0020098398,0.9152331619976144,-0.014968371214660962,0.4026465038256619,-0.00861146263831212,0.9983548010296796,0.056688040821834214,-0.40283259785061787,-0.05535015017295885,0.9135985217724213,0.007584389,-0.012986905,0.09298855,-0.047571756,0.06485297,-0.09282741,1.047179,-0.032190837,1.3285491e-05,0.0070733465,0.9042663072775087,-0.014632364581246175,-0.42671810300180574,0.042545896919137446,0.9975264303480408,0.05595415455925787,0.4248438444629324,-0.06875256114397979,0.9026520886576948,0.00015523273,-0.013308185,0.1037553,-0.0003022951,0.00017307464,0.005959657,1.6861404e-12,7.201356e-05,-0.021057475,0.0074509066,0.9999812583488362,-0.00030434588332207925,-0.006114762845890502,-0.0013671460555008872,0.9624431005346429,-0.2714800345235839,0.00596773514334428,0.27148330631338397,0.9624246466765137,left_images/camera_left_34.png,right_images/camera_right_34.png
2025-05-25 16:14:17,1.9435076713562012,35,-0.010114277,-0.014820172,0.09887497,0.01532193,0.07010984,0.11969339,1.047179,0.029248763,0.00020385318,0.0020098118,0.9152331997331078,-0.014967118897111298,0.40264646460414494,-0.008612511244933512,0.9983548325299005,0.05668732675166661,-0.4028324896980792,-0.055349920651379954,0.9135985833655462,0.007584769,-0.012984907,0.09298855,-0.047588047,0.064841375,-0.09283252,1.047179,-0.032190904,1.3246434e-05,0.0070733856,0.9042678117107691,-0.014651446438930824,-0.4267142601566815,0.04256302878470414,0.997526127931967,0.0559465161893859,0.42483892628205505,-0.06875288510530968,0.9026543787658743,0.0001552336,-0.013308186,0.1037553,-0.00030226752,0.00017297917,0.005959657,9.140001e-13,7.20115e-05,-0.021057464,0.0074509047,0.999981258868836,-0.00030432950493146187,-0.0061146786220152615,-0.001367142555456524,0.962442936651704,-0.2714806155335542,0.005967648810977577,0.27148388731708706,0.9624244833205732,left_images/camera_left_35.png,right_images/camera_right_35.png
2025-05-25 16:14:17,1.9905481338500977,36,-0.010114396,-0.014820249,0.09887497,0.015322681,0.07010939,0.11969384,1.047179,0.029248714,0.00020378118,0.0020098733,0.915233223973077,-0.014966419985801624,0.4026464354848503,-0.00861325793728361,0.9983548278613329,0.05668729552266448,-0.4028324186601085,-0.055350193845881634,0.9135985981368788,0.0075850924,-0.012983343,0.09298855,-0.047600124,0.06483256,-0.09283632,1.047179,-0.032190673,1.3166922e-05,0.0070732916,0.9042686139511456,-0.014665200626020307,-0.426712087611158,0.042575343196707506,0.9975259212516188,0.05594083108778126,0.42483598479243323,-0.0687529513672517,0.9026557581402422,0.00015523448,-0.013308186,0.1037553,-0.00030229113,0.00017296395,0.005959629,2.693439e-13,7.20115e-05,-0.021057464,0.0074509047,0.999981258868836,-0.00030432950493146187,-0.0061146786220152615,-0.001367142555456524,0.962442936651704,-0.2714806155335542,0.005967648810977577,0.27148388731708706,0.9624244833205732,left_images/camera_left_36.png,right_images/camera_right_36.png
2025-05-25 16:14:17,2.0372400283813477,37,-0.0101143485,-0.014820472,0.09887497,0.015323234,0.070109166,0.11969384,1.047179,0.029248621,0.00020399556,0.0020099906,0.9152331767058706,-0.014965611276481014,0.40264657298430107,-0.008613693155617655,0.9983548828305249,0.056686261286753484,-0.40283251674498877,-0.055349421022902176,0.9135986017093766,0.0075851725,-0.012982209,0.09298855,-0.04760906,0.06482609,-0.092839055,1.047179,-0.03219084,1.3264129e-05,0.007073391,0.9042694037932647,-0.014675878260851379,-0.4267100467069485,0.04258474219132226,0.99752578316987,0.05593613897862496,0.42483336156176826,-0.06875267637416088,0.9026570137075973,0.00015523535,-0.013308186,0.1037553,-0.00030231476,0.00017294873,0.005959601,2.719525e-13,7.20115e-05,-0.021057464,0.0074509047,0.999981258868836,-0.00030432950493146187,-0.0061146786220152615,-0.001367142555456524,0.962442936651704,-0.2714806155335542,0.005967648810977577,0.27148388731708706,0.9624244833205732,left_images/camera_left_37.png,right_images/camera_right_37.png
2025-05-25 16:14:17,2.087332010269165,38,-0.0101141995,-0.01482029,0.09887497,0.015323672,0.07010872,0.11969406,1.047179,0.029248785,0.00020387268,0.0020098398,0.9152335433153435,-0.014965178602422857,0.4026457557454678,-0.008614216772679244,0.9983548647070319,0.05668650090804053,-0.40283167261256236,-0.05534986490680509,0.913598947019404,0.007585443,-0.012981148,0.09298855,-0.047615673,0.064821124,-0.0928413,1.047179,-0.032190833,1.3246201e-05,0.007073206,0.9042699549837026,-0.01468351747767154,-0.426708615835509,0.042591528569004326,0.9975256745800583,0.0559329084507136,0.42483150802162584,-0.0687526208088327,0.9026578903017403,0.00015523622,-0.013308186,0.1037553,-0.0003023384,0.0001729335,0.005959573,2.7123437e-13,7.20115e-05,-0.021057464,0.0074509047,0.999981258868836,-0.00030432950493146187,-0.0061146786220152615,-0.001367142555456524,0.962442936651704,-0.2714806155335542,0.005967648810977577,0.27148388731708706,0.9624244833205732,left_images/camera_left_38.png,right_images/camera_right_38.png
2025-05-25 16:14:17,2.1364407539367676,39,-0.010114787,-0.014817055,0.09887497,0.015356584,0.07008602,0.119705014,1.047179,0.029248731,0.00020396628,0.0020098966,0.9152372575452626,-0.014926821959201093,0.40263873681903106,-0.008648714515106654,0.9983554521112364,0.05667090061932102,-0.402822494578273,-0.055349627152918454,0.9136030082239058,0.007585724,-0.012980555,0.09298855,-0.04762059,0.06481766,-0.09284297,1.047179,-0.032190777,1.321343e-05,0.007073383,0.9042703736068197,-0.014689382700423931,-0.4267075268293999,0.04259670517497134,0.9975255967390722,0.055930354536641726,0.4248300979511917,-0.06875249730910402,0.9026585633496989,0.0001552371,-0.013308186,0.1037553,-0.00030236202,0.00017291828,0.0059595453,2.6813705e-13,7.20115e-05,-0.021057464,0.0074509047,0.999981258868836,-0.00030432950493146187,-0.0061146786220152615,-0.001367142555456524,0.962442936651704,-0.2714806155335542,0.005967648810977577,0.27148388731708706,0.9624244833205732,left_images/camera_left_39.png,right_images/camera_right_39.png
2025-05-25 16:14:17,2.1821036338806152,40,-0.01011531,-0.01481429,0.09887497,0.015381049,0.07006914,0.119713165,1.047179,0.029248819,0.0002039657,0.0020098733,0.9152400555775813,-0.01489865164669502,0.40263341993115287,-0.008674276645078922,0.9983558501883466,0.05665997987458279,-0.4028155875720679,-0.05535003680047485,0.9136060287865637,0.0075852736,-0.012983696,0.09298855,-0.047591623,0.06483819,-0.09283414,1.047179,-0.032190677,1.31454435e-05,0.007073301,0.9042678740180241,-0.014655407220055932,-0.4267139921049427,0.0425667041401111,0.9975260511069134,0.05594508970138322,0.4248384254249738,-0.06875315558039426,0.9026545938952324,0.00015523797,-0.013308186,0.1037553,-0.00030238566,0.00017290306,0.0059595173,2.681244e-13,7.200752e-05,-0.021057466,0.0074509066,0.999981261453158,-0.00030432903887672356,-0.006114255996171856,-0.0013670276603541382,0.9624429642572874,-0.2714805182458245,0.005967242070375042,0.2714837894524859,0.962424513448505,left_images/camera_left_40.png,right_images/camera_right_40.png
2025-05-25 16:14:17,2.241884469985962,41,-0.010115635,-0.014812046,0.09887497,0.015399142,0.07005636,0.11971912,1.047179,0.029248677,0.00020385522,0.0020097317,0.9152422252274063,-0.014877933950448004,0.4026292540814091,-0.008693062454551002,0.99835614216985,0.056651955455177136,-0.40281025288086575,-0.055350343026039195,0.9136083623199565,0.0075847586,-0.012986452,0.09298855,-0.047570106,0.064853564,-0.09282746,1.047179,-0.032190964,1.3334735e-05,0.0070732916,0.9042663031627384,-0.014630698848412903,-0.4267181688369992,0.04254452762780256,0.9975264336044746,0.05595513764852211,0.42484399034624676,-0.06875286838776228,0.9026519965939993,0.00015523804,-0.013308186,0.1037553,-0.00030239607,0.00017280996,0.0059595173,2.0554738e-13,7.200752e-05,-0.021057466,0.0074509066,0.999981261453158,-0.00030432903887672356,-0.006114255996171856,-0.0013670276603541382,0.9624429642572874,-0.2714805182458245,0.005967242070375042,0.2714837894524859,0.962424513448505,left_images/camera_left_41.png,right_images/camera_right_41.png
2025-05-25 16:14:17,2.3097939491271973,42,-0.010115933,-0.014810705,0.09887497,0.015412595,0.070047244,0.119723625,1.047179,0.029248642,0.00020404346,0.0020099338,0.9152436150659018,-0.014862305423315498,0.40262667194139506,-0.008707171119994849,0.9983563755104712,0.05664567634588326,-0.40280679022601745,-0.05535033292672699,0.913609889609736,0.007584879,-0.012988187,0.09298855,-0.047554206,0.06486465,-0.092822954,1.047179,-0.032190762,1.3122684e-05,0.0070732487,0.9042650105556875,-0.0146122789686049,-0.4267215391658433,0.0425283267844474,0.997526667282115,0.05596328691161738,0.42484836366124556,-0.068753395293472,0.9026498980944838,0.00015523804,-0.013308186,0.1037553,-0.0003024065,0.00017271686,0.0059595173,1.3828587e-14,7.200752e-05,-0.021057466,0.0074509066,0.999981261453158,-0.00030432903887672356,-0.006114255996171856,-0.0013670276603541382,0.9624429642572874,-0.2714805182458245,0.005967242070375042,0.2714837894524859,0.962424513448505,left_images/camera_left_42.png,right_images/camera_right_42.png
2025-05-25 16:14:17,2.3723971843719482,43,-0.010115903,-0.014809116,0.09887497,0.015422532,0.07003984,0.11972676,1.047179,0.029248772,0.00020400295,0.002009892,0.9152447000968877,-0.01485096578587837,0.4026246238865486,-0.008717334504551671,0.9983565532803516,0.05664097987599139,-0.4028041050233895,-0.055350170165983946,0.9136110833603667,0.0075847628,-0.012989484,0.09298855,-0.047542352,0.06487285,-0.09281933,1.047179,-0.03219079,1.3391196e-05,0.0070733577,0.9042640460673024,-0.014598654093296935,-0.4267240493441353,0.04251585404204616,0.997526919265938,0.05596827221634117,0.4248516648726556,-0.068752633683891,0.9026484023231093,0.00015523804,-0.013308186,0.1037553,-0.0003024169,0.00017262375,0.0059595173,4.5198733e-15,7.2011055e-05,-0.021057459,0.0074509047,0.9999812606563186,-0.00030429115453215784,-0.0061143882026706235,-0.001367102206561358,0.9624428644880328,-0.2714808715685634,0.005967358524213144,0.27148414318881176,0.9624244129433127,left_images/camera_left_43.png,right_images/camera_right_43.png
2025-05-25 16:14:17,2.434300184249878,44,-0.010115968,-0.014807841,0.09887497,0.015429893,0.07003437,0.11972918,1.047179,0.02924877,0.00020388741,0.002009823,0.9152456288669155,-0.01484249344693852,0.40262282502148544,-0.00872512053477436,0.9983566572788106,0.05663794786830701,-0.40280182610268506,-0.05535056689282406,0.9136120640802556,0.0075845094,-0.012989954,0.09298855,-0.0475337,0.06487855,-0.09281648,1.047179,-0.032190766,1.32864225e-05,0.007073488,0.9042633078078236,-0.014588369662171682,-0.4267259654896259,0.04250681185373672,0.9975270492714174,0.05597282302948742,0.4248541409689737,-0.06875293042815789,0.9026472142864324,0.0001552397,-0.013308186,0.1037553,-0.00030241167,0.00017257062,0.0059594894,3.9031983e-13,7.2011055e-05,-0.021057459,0.0074509047,0.9999812606563186,-0.00030429115453215784,-0.0061143882026706235,-0.001367102206561358,0.9624428644880328,-0.2714808715685634,0.005967358524213144,0.27148414318881176,0.9624244129433127,left_images/camera_left_44.png,right_images/camera_right_44.png
2025-05-25 16:14:17,2.4935925006866455,45,-0.010116309,-0.014807184,0.09887497,0.01543537,0.07003055,0.1197313,1.047179,0.029248688,0.00020390825,0.0020096973,0.9152462382731262,-0.01483604541777667,0.40262167736381715,-0.008730971121474976,0.9983567485863758,0.056635436745169694,-0.4028003146351402,-0.05535064867191545,0.9136127255141702,0.007584266,-0.012990684,0.09298855,-0.047527187,0.06488317,-0.09281437,1.047179,-0.03219082,1.3071287e-05,0.0070733456,0.904262559869805,-0.014580555617282368,-0.42672781748510197,0.042499846109080704,0.9975271674108204,0.055976006985577906,0.42485642974822874,-0.06875287394164949,0.9026461413125034,0.00015524145,-0.013308186,0.1037553,-0.00030240644,0.00017251751,0.0059594614,4.0854727e-13,7.2011055e-05,-0.021057459,0.0074509047,0.9999812606563186,-0.00030429115453215784,-0.0061143882026706235,-0.001367102206561358,0.9624428644880328,-0.2714808715685634,0.005967358524213144,0.27148414318881176,0.9624244129433127,left_images/camera_left_45.png,right_images/camera_right_45.png
2025-05-25 16:14:17,2.5621676445007324,46,-0.010116866,-0.014803373,0.09887497,0.015472053,0.07000504,0.119743384,1.047179,0.029248675,0.00020393287,0.0020097792,0.9152505678079074,-0.014793530615384283,0.4026133996518682,-0.00876934310178453,0.9983573715437215,0.05661852440566554,-0.40278964329891404,-0.055350791649654375,0.913617421634948,0.0075841607,-0.012991816,0.09298855,-0.04752239,0.06488716,-0.09281303,1.047179,-0.03219071,1.3125944e-05,0.007073474,0.9042622009874188,-0.014575239027726254,-0.42672875960342016,0.042495179932081746,0.9975272327209415,0.05597838567376264,0.4248576603380583,-0.0687530536586206,0.9026455484101641,0.0001552432,-0.013308186,0.1037553,-0.0003024012,0.0001724644,0.0059594335,4.0988198e-13,7.2011055e-05,-0.021057459,0.0074509047,0.9999812606563186,-0.00030429115453215784,-0.0061143882026706235,-0.001367102206561358,0.9624428644880328,-0.2714808715685634,0.005967358524213144,0.27148414318881176,0.9624244129433127,left_images/camera_left_46.png,right_images/camera_right_46.png
2025-05-25 16:14:17,2.615088701248169,47,-0.010117155,-0.014800352,0.09887497,0.01549923,0.069986194,0.11975217,1.047179,0.029248642,0.00020392681,0.0020098127,0.9152535267489592,-0.01476235693711872,0.40260781734990353,-0.008797436492147214,0.9983578372018904,0.05660595382758124,-0.4027823070651922,-0.05535071558006026,0.9136206605588647,0.0075838976,-0.012992421,0.09298855,-0.047518805,0.06488981,-0.09281181,1.047179,-0.03219101,1.3377867e-05,0.0070735663,0.9042619176573201,-0.014571301683825076,-0.4267294944598337,0.04249161554073977,0.9975272990376257,0.05597990964120479,0.42485861987659407,-0.06875292606092083,0.9026451064923675,0.00015524494,-0.013308186,0.1037553,-0.00030239596,0.00017241128,0.0059594056,4.1229417e-13,7.2011055e-05,-0.021057459,0.0074509047,0.9999812606563186,-0.00030429115453215784,-0.0061143882026706235,-0.001367102206561358,0.9624428644880328,-0.2714808715685634,0.005967358524213144,0.27148414318881176,0.9624244129433127,left_images/camera_left_47.png,right_images/camera_right_47.png
2025-05-25 16:14:17,2.663646697998047,48,-0.010117442,-0.014798187,0.09887497,0.0155193815,0.06997226,0.119758874,1.047179,0.029248614,0.0002039292,0.0020098807,0.9152558889023731,-0.014739192068026475,0.40260329612002543,-0.008818394901216293,0.9983581681119149,0.0565968557040735,-0.40277648111687614,-0.055350920330228835,0.9136232165820347,0.007584021,-0.01299242,0.09298855,-0.047516197,0.06489136,-0.09281114,1.047179,-0.032190945,1.3337703e-05,0.0070734182,0.904261828351663,-0.01456829680109461,-0.42672978629856917,0.04248881131146957,0.9975273605331646,0.05598094230250066,0.42485909040462533,-0.06875267061033184,0.9026449044804392,0.00015524669,-0.013308186,0.1037553,-0.00030239072,0.00017235817,0.0059593776,4.0873682e-13,7.2011055e-05,-0.021057459,0.0074509047,0.9999812606563186,-0.00030429115453215784,-0.0061143882026706235,-0.001367102206561358,0.9624428644880328,-0.2714808715685634,0.005967358524213144,0.27148414318881176,0.9624244129433127,left_images/camera_left_48.png,right_images/camera_right_48.png
2025-05-25 16:14:17,2.722616195678711,49,-0.010117612,-0.014796519,0.09887497,0.0155343795,0.06996182,0.11976375,1.047179,0.029248696,0.00020405173,0.002009714,0.9152577214339515,-0.014721701642083494,0.4025997700648781,-0.008834099193167941,0.9983584331764062,0.05658973049058118,-0.40277197276744137,-0.055350794089270475,0.913625211750809,0.007584254,-0.012992473,0.09298855,-0.047514282,0.0648927,-0.09281069,1.047179,-0.03219081,1.3270648e-05,0.007073451,0.9042614596656876,-0.014565980700361138,-0.42673064662561633,0.04248675926224735,0.9975273965897578,0.055981857241894445,0.42486008032135913,-0.06875263819735732,0.9026444410122024,0.00015524843,-0.013308186,0.1037553,-0.00030238548,0.00017230505,0.0059593497,4.0907528e-13,7.2011055e-05,-0.021057459,0.0074509047,0.9999812606563186,-0.00030429115453215784,-0.0061143882026706235,-0.001367102206561358,0.9624428644880328,-0.2714808715685634,0.005967358524213144,0.27148414318881176,0.9624244129433127,left_images/camera_left_49.png,right_images/camera_right_49.png
2025-05-25 16:14:18,2.788334608078003,50,-0.010117879,-0.014794878,0.09887497,0.015545446,0.06995373,0.11976741,1.047179,0.029248688,0.00020391674,0.0020097904,0.9152589251584873,-0.01470879341256593,0.40259750535004213,-0.00884581610142227,0.9983586140403068,0.056584709144943346,-0.40276898025447605,-0.05535096356762431,0.9136265207276468,0.007584163,-0.012992522,0.09298855,-0.047512844,0.064893596,-0.09281024,1.047179,-0.032190826,1.3256969e-05,0.007073517,0.9042613296046237,-0.014564368983845586,-0.4267309772418458,0.04248547744076332,0.9975273953417163,0.055982852279977555,0.42486048532230986,-0.06875299774463506,0.9026442229986396,0.00015525018,-0.013308186,0.1037553,-0.00030238024,0.00017225194,0.0059593217,4.0865282e-13,7.200691e-05,-0.021057453,0.007450911,0.9999812617787568,-0.00030434915956803585,-0.00611420174305651,-0.0013669985963935436,0.9624427354229448,-0.27148132964614197,0.00596719416503126,0.27148460067412444,0.9624242849131605,left_images/camera_left_50.png,right_images/camera_right_50.png
2025-05-25 16:14:18,2.852365732192993,51,-0.010117989,-0.014793768,0.09887497,0.015553737,0.06994785,0.11977009,1.047179,0.029248763,0.00020391389,0.0020098714,0.9152599272753851,-0.014699391336214491,0.40259557053971856,-0.008854448794201912,0.998358729736272,0.05658131755206928,-0.4027665133304997,-0.05535137445196884,0.9136275833652738,0.0075833406,-0.012996078,0.09298855,-0.04747915,0.064917415,-0.09279965,1.047179,-0.032190662,1.3065524e-05,0.007073338,0.9042588639820759,-0.014525083899160057,-0.42673754094005806,0.04245060189080492,0.9975279368403207,0.05599965734003623,0.42486921906505976,-0.06875345199199416,0.9026400775116462,0.0001552511,-0.013308186,0.1037553,-0.00030240993,0.00017220572,0.0059593217,2.6787313e-13,7.200691e-05,-0.021057453,0.007450911,0.9999812617787568,-0.00030434915956803585,-0.00611420174305651,-0.0013669985963935436,0.9624427354229448,-0.27148132964614197,0.00596719416503126,0.27148460067412444,0.9624242849131605,left_images/camera_left_51.png,right_images/camera_right_51.png
2025-05-25 16:14:18,2.9169952869415283,52,-0.0101182265,-0.014793069,0.09887497,0.015559834,0.06994361,0.11977231,1.047179,0.029248754,0.0002038682,0.0020097177,0.9152606282584415,-0.01469211079744232,0.40259424268148536,-0.00886083659948682,0.9983588615245788,0.056577992100324444,-0.4027647799084725,-0.05535093039563887,0.9136283744332906,0.0075825984,-0.01299949,0.09298855,-0.04745413,0.06493561,-0.09279158,1.047179,-0.03219088,1.3052777e-05,0.007073432,0.90425652240148,-0.014495954727490145,-0.4267434932027907,0.04242477631098546,0.9975283427637505,0.056011996375495025,0.4248767821961381,-0.06875371029656636,0.9026364978611885,0.00015525197,-0.013308186,0.1037553,-0.0003024396,0.0001721595,0.0059593217,1.7540423e-13,7.200691e-05,-0.021057453,0.007450911,0.9999812617787568,-0.00030434915956803585,-0.00611420174305651,-0.0013669985963935436,0.9624427354229448,-0.27148132964614197,0.00596719416503126,0.27148460067412444,0.9624242849131605,left_images/camera_left_52.png,right_images/camera_right_52.png
2025-05-25 16:14:18,2.979008674621582,53,-0.010118534,-0.014792477,0.09887497,0.015564336,0.06994039,0.11977396,1.047179,0.029248679,0.00020384614,0.0020097783,0.9152610502178943,-0.014687149181777104,0.40259346443149024,-0.008865502203001061,0.9983589094542302,0.05657641544008329,-0.4027637183569617,-0.055351382659085714,0.9136288150080434,0.007582276,-0.013002201,0.09298855,-0.047435608,0.0649492,-0.0927859,1.047179,-0.03219079,1.31269335e-05,0.007073395,0.9042549332276054,-0.014474869300731748,-0.4267475763168029,0.042405808716169884,0.9975286780828346,0.056020387266065313,0.42488205789450134,-0.06875328763803994,0.9026340467311735,0.00015525284,-0.013308186,0.1037553,-0.0003024693,0.00017211329,0.0059593217,1.7495597e-13,7.200691e-05,-0.021057453,0.007450911,0.9999812617787568,-0.00030434915956803585,-0.00611420174305651,-0.0013669985963935436,0.9624427354229448,-0.27148132964614197,0.00596719416503126,0.27148460067412444,0.9624242849131605,left_images/camera_left_53.png,right_images/camera_right_53.png
2025-05-25 16:14:18,3.0468320846557617,54,-0.010118201,-0.014795268,0.09887497,0.015535036,0.06996048,0.11976439,1.047179,0.029248683,0.00020389556,0.0020097774,0.9152577127752589,-0.014721002044747062,0.4025998153305587,-0.00883493970880971,0.9983584161716637,0.05658989927141348,-0.4027719740073074,-0.055351286868559606,0.9136251813496885,0.007581925,-0.013004307,0.09298855,-0.047421902,0.064959444,-0.09278158,1.047179,-0.03219085,1.3142591e-05,0.0070734657,0.9042538926338601,-0.014458474962257672,-0.4267503370335839,0.04239133330085568,0.9975288902951532,0.05602756364055395,0.4248857170081003,-0.06875365829020538,0.9026322960952741,0.00015525371,-0.013308186,0.1037553,-0.000302499,0.00017206707,0.0059593217,1.7463014e-13,7.200691e-05,-0.021057453,0.007450911,0.9999812617787568,-0.00030434915956803585,-0.00611420174305651,-0.0013669985963935436,0.9624427354229448,-0.27148132964614197,0.00596719416503126,0.27148460067412444,0.9624242849131605,left_images/camera_left_54.png,right_images/camera_right_54.png
2025-05-25 16:14:18,3.1115283966064453,55,-0.010117824,-0.014797379,0.09887497,0.015513306,0.06997516,0.11975718,1.047179,0.029248672,0.00020379096,0.002009862,0.915255128970848,-0.014746256891107737,0.40260476499944436,-0.008812158694173398,0.998358046615646,0.05659997011430685,-0.402778344442331,-0.05535123002692154,0.9136223763584175,0.0075815357,-0.013005844,0.09298855,-0.04741171,0.064966984,-0.09277826,1.047179,-0.032190766,1.3205397e-05,0.0070733633,0.9042530559931954,-0.014446794374034814,-0.42675250539309234,0.042380934116410314,0.9975290572337399,0.05603245843068626,0.42488853497168816,-0.06875369158583743,0.9026309670861797,0.00015525459,-0.013308186,0.1037553,-0.00030252867,0.00017202085,0.0059593217,1.7680508e-13,7.200691e-05,-0.021057453,0.007450911,0.9999812617787568,-0.00030434915956803585,-0.00611420174305651,-0.0013669985963935436,0.9624427354229448,-0.27148132964614197,0.00596719416503126,0.27148460067412444,0.9624242849131605,left_images/camera_left_55.png,right_images/camera_right_55.png
2025-05-25 16:14:18,3.1735687255859375,56,-0.010117446,-0.014799394,0.09887497,0.015497173,0.0699866,0.119751774,1.047179,0.0292487,0.00020367478,0.0020097839,0.9152533476563984,-0.014764920355578522,0.40260813048254357,-0.00879528955817607,0.9983577752803049,0.05660737954496533,-0.4027827609088344,-0.05535114871665577,0.9136204342342629,0.00758125,-0.013006882,0.09298855,-0.047404166,0.06497252,-0.09277576,1.047179,-0.03219089,1.3225537e-05,0.007073461,0.9042523945268036,-0.014438132924291214,-0.4267542001084496,0.042373287876707695,0.9975291712876586,0.056036210655923555,0.4248907053196855,-0.06875385623961672,0.9026299329100064,0.00015525546,-0.013308186,0.1037553,-0.00030255836,0.00017197464,0.0059593217,1.745947e-13,7.200691e-05,-0.021057453,0.007450911,0.9999812617787568,-0.00030434915956803585,-0.00611420174305651,-0.0013669985963935436,0.9624427354229448,-0.27148132964614197,0.00596719416503126,0.27148460067412444,0.9624242849131605,left_images/camera_left_56.png,right_images/camera_right_56.png
2025-05-25 16:14:18,3.238020896911621,57,-0.010117311,-0.014801107,0.09887497,0.015485269,0.06999512,0.11974791,1.047179,0.029248651,0.00020372344,0.0020098295,0.9152519642258328,-0.014778462470419858,0.40261077857872235,-0.008782839721879983,0.9983576087544019,0.05661224928062802,-0.40278617616196116,-0.05535053829189552,0.9136189655450585,0.00758108,-0.013007785,0.09298855,-0.047398545,0.06497672,-0.092773974,1.047179,-0.03219079,1.3188692e-05,0.0070734043,0.9042518921228653,-0.014431702138263598,-0.4267554821740554,0.04236743977429896,0.9975292838417765,0.056038628865129905,0.4248923577086193,-0.06875357337262593,0.9026291766330766,0.00015525633,-0.013308186,0.1037553,-0.00030258804,0.00017192842,0.0059593217,1.7621242e-13,7.200691e-05,-0.021057453,0.007450911,0.9999812617787568,-0.00030434915956803585,-0.00611420174305651,-0.0013669985963935436,0.9624427354229448,-0.27148132964614197,0.00596719416503126,0.27148460067412444,0.9624242849131605,left_images/camera_left_57.png,right_images/camera_right_57.png
2025-05-25 16:14:18,3.304708957672119,58,-0.010117022,-0.014802366,0.09887497,0.015476497,0.07000154,0.11974485,1.047179,0.029248593,0.00020395801,0.0020097792,0.9152508457155668,-0.014788641337154533,0.4026129475120499,-0.008773753300393266,0.9983574476849251,0.05661649852354,-0.402788915773465,-0.055350724832139035,0.9136177464293223,0.007580887,-0.013008374,0.09298855,-0.04739441,0.06497981,-0.09277263,1.047179,-0.032190833,1.3208075e-05,0.007073435,0.9042516451282824,-0.014426769565897416,-0.42675617230766333,0.04236305111925396,0.9975293515122545,0.056040742066902925,0.4248933209438141,-0.06875362675113338,0.9026287191453104,0.00015526735,-0.013308168,0.1037553,-0.00030255108,0.00017187114,0.005959266,4.9180096e-12,7.2008625e-05,-0.02105745,0.007450911,0.9999812613123229,-0.00030443245612412153,-0.00611427388130646,-0.0013669385412214048,0.9624427114269086,-0.2714814150181281,0.005967286086697337,0.2714846856493019,0.9624242603730745,left_images/camera_left_58.png,right_images/camera_right_58.png
2025-05-25 16:14:18,3.3519375324249268,59,-0.010116792,-0.014802954,0.09887497,0.015469924,0.07000595,0.11974261,1.047179,0.029248778,0.00020389108,0.0020098705,0.9152502226960841,-0.014796135625251597,0.40261408845857294,-0.008766992697863423,0.9983573348627556,0.056619535186817185,-0.4027904786533615,-0.05535075696225644,0.9136170554504229,0.007580738,-0.013008571,0.09298855,-0.047391295,0.06498186,-0.09277156,1.047179,-0.032190748,1.32516725e-05,0.007073288,0.9042514945924439,-0.01442328434438864,-0.4267566090830378,0.04235995067116902,0.9975293987282793,0.056042245243513374,0.4248939504234768,-0.06875367293111607,0.9026284193132929,0.00015527003,-0.013308168,0.1037553,-0.00030258353,0.00017190378,0.005959252,9.419782e-13,7.200691e-05,-0.021057453,0.007450911,0.9999812617787568,-0.00030434915956803585,-0.00611420174305651,-0.0013669985963935436,0.9624427354229448,-0.27148132964614197,0.00596719416503126,0.27148460067412444,0.9624242849131605,left_images/camera_left_59.png,right_images/camera_right_59.png
2025-05-25 16:14:18,3.3986217975616455,60,-0.01011676,-0.014803429,0.09887497,0.015465022,0.07000932,0.11974101,1.047179,0.029248662,0.00020387152,0.0020097904,0.9152496405034815,-0.014801993117937628,0.40261519663070866,-0.008761706214267778,0.9983572488179107,0.05662187065919801,-0.40279191658033875,-0.05535074283574353,0.9136164223595526,0.007580648,-0.0130086895,0.09298855,-0.04738902,0.06498336,-0.092770666,1.047179,-0.032190774,1.3237877e-05,0.0070733503,0.9042512458755205,-0.014420676473778406,-0.42675722421841616,0.042357739079864794,0.9975294194068582,0.05604354876217593,0.4248947002171373,-0.0687539199453741,0.9026280475475678,0.00015527011,-0.013308168,0.1037553,-0.00030259663,0.00017187172,0.0059592254,2.0657404e-12,7.2008625e-05,-0.02105745,0.007450911,0.9999812613123229,-0.00030443245612412153,-0.00611427388130646,-0.0013669385412214048,0.9624427114269086,-0.2714814150181281,0.005967286086697337,0.2714846856493019,0.9624242603730745,left_images/camera_left_60.png,right_images/camera_right_60.png
2025-05-25 16:14:18,3.455019950866699,61,-0.010116821,-0.014803681,0.09887497,0.015461339,0.070011675,0.11973989,1.047179,0.029248778,0.00020395522,0.0020097336,0.9152492230662344,-0.014806091381338255,0.4026159948818003,-0.008757984834780906,0.998357191900189,0.05662344993730915,-0.4027929460383934,-0.055350673339867054,0.9136159727054552,0.0075805285,-0.013008776,0.09298855,-0.047387287,0.064984396,-0.092769995,1.047179,-0.032190736,1.3225654e-05,0.0070732953,0.9042510056398514,-0.014418673893594556,-0.4267578009157746,0.04235583218268904,0.997529470085315,0.05604408792569287,0.4248954015748225,-0.06875360466521799,0.902627741411768,0.0001552824,-0.013308168,0.1037553,-0.0003025958,0.00017192186,0.0059592044,3.315923e-12,7.200691e-05,-0.021057453,0.007450911,0.9999812617787568,-0.00030434915956803585,-0.00611420174305651,-0.0013669985963935436,0.9624427354229448,-0.27148132964614197,0.00596719416503126,0.27148460067412444,0.9624242849131605,left_images/camera_left_61.png,right_images/camera_right_61.png
2025-05-25 16:14:18,3.505296468734741,62,-0.010117033,-0.014803857,0.09887497,0.015458662,0.07001343,0.119739346,1.047179,0.029248707,0.00020383089,0.0020097978,0.9152489715899925,-0.014809094866663935,0.4026164560877901,-0.008755344418218678,0.9983571371876637,0.05662482291867091,-0.4027935748588595,-0.0553508566842702,0.9136156843644585,0.0075804386,-0.013008932,0.09298855,-0.047386058,0.06498529,-0.09276955,1.047179,-0.032190707,1.3145793e-05,0.0070732962,0.9042509431367709,-0.014417400228599555,-0.42675797638346336,0.042354662007130055,0.997529493497918,0.05604455556116845,0.4248956512398333,-0.0687535320724361,0.9026276294159415,0.00015529532,-0.013308151,0.1037553,-0.00030255885,0.00017186458,0.0059591485,5.316984e-12,7.200477e-05,-0.021057451,0.0074509084,0.9999812637404449,-0.0003043314931652643,-0.006113881778791224,-0.0013669298692056972,0.9624426837331231,-0.2714815132404343,0.005966881161498093,0.27148478393995806,0.9624242351573857,left_images/camera_left_62.png,right_images/camera_right_62.png
2025-05-25 16:14:18,3.5517797470092773,63,-0.010116928,-0.014804352,0.09887497,0.015456705,0.07001503,0.1197386,1.047179,0.029248778,0.00020383555,0.0020097615,0.9152489047006248,-0.014811157114967964,0.40261653228502936,-0.00875328411929703,0.998357131560198,0.056625240661918375,-0.4027937716269123,-0.055350406392447066,0.913615624894166,0.007580301,-0.01300922,0.09298855,-0.047385067,0.06498622,-0.0927691,1.047179,-0.03219076,1.3187004e-05,0.0070733884,0.9042506199139767,-0.014416090222491516,-0.4267587055091975,0.0423536215574511,0.9975294966854198,0.05604528511392743,0.4248964428259634,-0.06875376051700871,0.9026272393898894,0.00015529965,-0.013308151,0.1037553,-0.00030257352,0.00017185697,0.0059591206,9.930734e-13,7.200477e-05,-0.021057451,0.0074509084,0.9999812637404449,-0.0003043314931652643,-0.006113881778791224,-0.0013669298692056972,0.9624426837331231,-0.2714815132404343,0.005966881161498093,0.27148478393995806,0.9624242351573857,left_images/camera_left_63.png,right_images/camera_right_63.png
2025-05-25 16:14:18,3.604987859725952,64,-0.010116893,-0.0148046175,0.09887497,0.015455264,0.070016146,0.11973809,1.047179,0.029248817,0.00020380394,0.0020097997,0.9152486015515723,-0.014813052607713477,0.402617151684242,-0.008751758854732273,0.9983570804253823,0.05662637796517659,-0.40279449360044567,-0.05535082146587831,0.9136152814441167,0.0075802775,-0.013009459,0.09298855,-0.04738433,0.06498696,-0.09276888,1.047179,-0.03219082,1.3166049e-05,0.0070733866,0.9042506813902489,-0.014415175499210514,-0.42675860614707933,0.042352768681359336,0.9975295132564027,0.056045634686993355,0.4248963970078992,-0.06875371188358928,0.9026272646624046,0.00015530227,-0.013308151,0.1037553,-0.0003025882,0.00017184937,0.0059590926,6.371174e-13,7.200477e-05,-0.021057451,0.0074509084,0.9999812637404449,-0.0003043314931652643,-0.006113881778791224,-0.0013669298692056972,0.9624426837331231,-0.2714815132404343,0.005966881161498093,0.27148478393995806,0.9624242351573857,left_images/camera_left_64.png,right_images/camera_right_64.png
2025-05-25 16:14:18,3.6508405208587646,65,-0.0101169385,-0.014804851,0.09887497,0.015454163,0.07001704,0.11973786,1.047179,0.02924866,0.00020388438,0.002009891,0.9152484218755731,-0.014814195456963414,0.4026175180829021,-0.00875063938236607,0.998357076995029,0.05662661145028805,-0.40279492619032936,-0.055350577475804116,0.9136151055058264,0.0075803143,-0.013009733,0.09298855,-0.04738388,0.064987406,-0.09276888,1.047179,-0.0321909,1.3246317e-05,0.007073506,0.9042507164182878,-0.01441488623407951,-0.426758541697611,0.04235238348096787,0.9975295368535367,0.05604550578101151,0.4248963608581439,-0.06875343016626079,0.9026273031378338,0.0001553049,-0.013308151,0.1037553,-0.00030260286,0.00017184178,0.0059590647,6.3399085e-13,7.199483e-05,-0.021057438,0.007450915,0.9999812637009935,-0.00030462770589137044,-0.006113873479638416,-0.0013666436041087525,0.9624426349489095,-0.2714816876289442,0.005966953345181377,0.27148495655295724,0.9624241860184185,left_images/camera_left_65.png,right_images/camera_right_65.png
2025-05-25 16:14:18,3.7021305561065674,66,-0.010116704,-0.01480478,0.09887497,0.01545334,0.07001746,0.11973742,1.047179,0.0292486,0.00020398956,0.0020098612,0.9152484087798851,-0.014815113501364559,0.4026175140723885,-0.008749665865821644,0.9983570819052308,0.05662667531215972,-0.40279497709520257,-0.05535024319381054,0.9136151033149907,0.0075803613,-0.013009707,0.09298855,-0.047383543,0.06498763,-0.09276888,1.047179,-0.0321909,1.32471905e-05,0.0070735076,0.9042507553898755,-0.01441437407747436,-0.4267584764205555,0.04235192651404796,0.9975295427073773,0.05604574690874553,0.42489632346889966,-0.06875345261123338,0.9026273190285383,0.0001553067,-0.013308151,0.1037553,-0.00030263604,0.00017175417,0.0059590368,5.2975815e-13,7.199483e-05,-0.021057438,0.007450915,0.9999812637009935,-0.00030462770589137044,-0.006113873479638416,-0.0013666436041087525,0.9624426349489095,-0.2714816876289442,0.005966953345181377,0.27148495655295724,0.9624241860184185,left_images/camera_left_66.png,right_images/camera_right_66.png
2025-05-25 16:14:18,3.7485342025756836,67,-0.010116488,-0.014804645,0.09887497,0.015452767,0.07001768,0.11973697,1.047179,0.029248675,0.00020387961,0.0020098882,0.9152482298534079,-0.014816150835312975,0.4026178826438645,-0.008748710098393984,0.998357070802782,0.056627018725191276,-0.4027954044199334,-0.05535016578578748,0.9136149196054475,0.0075803893,-0.013009652,0.09298855,-0.04738332,0.06498763,-0.09276888,1.047179,-0.032190945,1.324428e-05,0.0070735672,0.9042507280271543,-0.014414025868486112,-0.42675854616003195,0.042351583624191856,0.9975295530426618,0.05604582206579398,0.4248964158790759,-0.0687533756609097,0.9026272813893592,0.00015530844,-0.013308151,0.1037553,-0.0003026692,0.00017166657,0.005959009,3.7695397e-13,7.199483e-05,-0.021057438,0.007450915,0.9999812637009935,-0.00030462770589137044,-0.006113873479638416,-0.0013666436041087525,0.9624426349489095,-0.2714816876289442,0.005966953345181377,0.27148495655295724,0.9624241860184185,left_images/camera_left_67.png,right_images/camera_right_67.png
2025-05-25 16:14:19,3.8115768432617188,68,-0.010116325,-0.014804701,0.09887497,0.015452412,0.07001813,0.11973652,1.047179,0.02924868,0.00020386843,0.0020098602,0.9152481494035937,-0.014816699902076767,0.4026180453200139,-0.008748385964383074,0.9983570396736957,0.056627617617137,-0.4027955942613016,-0.055350580285903936,0.9136148107959384,0.007580383,-0.0130096115,0.09298855,-0.047383096,0.06498763,-0.09276888,1.047179,-0.032190852,1.3135199e-05,0.0070734164,0.9042507587334377,-0.014413727022323469,-0.42675849119065923,0.04235146494389805,0.997529532346722,0.05604628010167705,0.42489636236040873,-0.06875373858530029,0.9026272789382317,0.00015531019,-0.013308151,0.1037553,-0.0003027024,0.00017157897,0.005958981,3.7735142e-13,7.199483e-05,-0.021057438,0.007450915,0.9999812637009935,-0.00030462770589137044,-0.006113873479638416,-0.0013666436041087525,0.9624426349489095,-0.2714816876289442,0.005966953345181377,0.27148495655295724,0.9624241860184185,left_images/camera_left_68.png,right_images/camera_right_68.png
2025-05-25 16:14:19,3.8646328449249268,69,-0.010116209,-0.014804757,0.09887497,0.0154521195,0.07001813,0.11973652,1.047179,0.029248696,0.00020385586,0.0020098593,0.9152480995206657,-0.014816962430972863,0.4026181490545712,-0.008748097860246102,0.9983570433035981,0.05662759812958002,-0.4027957138645312,-0.05535044453675866,0.9136147662893512,0.0075803516,-0.013009803,0.09298855,-0.047382984,0.06498808,-0.09276888,1.047179,-0.032190878,1.3238401e-05,0.0070734145,0.9042507277161672,-0.01441353882640361,-0.42675856326883704,0.042351158657829284,0.9975295578510384,0.05604605761203334,0.4248964588992495,-0.06875340800288916,0.9026272586748457,0.00015531194,-0.013308151,0.1037553,-0.00030273557,0.00017149137,0.005958953,3.7336036e-13,7.199377e-05,-0.021057429,0.007450915,0.9999812642908978,-0.00030468768223127873,-0.006113774005758868,-0.0013665619478059714,0.962442495149194,-0.27148218365011756,0.0059668731861842895,0.2714854520898121,0.962424046731985,left_images/camera_left_69.png,right_images/camera_right_69.png
2025-05-25 16:14:19,3.9128527641296387,70,-0.010116171,-0.014804938,0.09887497,0.015451906,0.07001835,0.11973652,1.047179,0.029248731,0.00020379783,0.0020098565,0.9152482510330631,-0.01481696714234053,0.40261780445681017,-0.008748163537313136,0.9983570306875309,0.05662781040708945,-0.40279536816557837,-0.055350670831342645,0.9136149049916364,0.007580449,-0.0130097605,0.09298855,-0.047382984,0.06498808,-0.09276888,1.047179,-0.032190774,1.319946e-05,0.007073393,0.9042506067304582,-0.014413518875581259,-0.4267588202969231,0.0423511492708733,0.9975295593208605,0.05604603854480746,0.42489671731261286,-0.06875339086003758,0.902627138336873,0.00015531454,-0.013308151,0.1037553,-0.00030271336,0.00017148668,0.005958925,6.417219e-13,7.199377e-05,-0.021057429,0.007450915,0.9999812642908978,-0.00030468768223127873,-0.006113774005758868,-0.0013665619478059714,0.962442495149194,-0.27148218365011756,0.0059668731861842895,0.2714854520898121,0.962424046731985,left_images/camera_left_70.png,right_images/camera_right_70.png
2025-05-25 16:14:19,3.961355447769165,71,-0.010116171,-0.014805008,0.09887497,0.015451714,0.070018575,0.11973652,1.047179,0.029248761,0.00020380417,0.0020098565,0.9152482502306953,-0.01481723132216362,0.4026177965584684,-0.008747899347617745,0.9983570298503458,0.0566278659795686,-0.40279537572650304,-0.055350615211951594,0.9136149050278263,0.0075803516,-0.013009847,0.09298855,-0.047382873,0.0649883,-0.09276888,1.047179,-0.03219088,1.3229204e-05,0.0070734145,0.9042507710658184,-0.014413270746764918,-0.42675848047022247,0.042351096496723015,0.9975295317813018,0.05604656858097529,0.4248963728397761,-0.06875384244212945,0.9026272660943967,0.00015531716,-0.013308151,0.1037553,-0.00030269113,0.000171482,0.005958897,6.719804e-13,7.199377e-05,-0.021057429,0.007450915,0.9999812642908978,-0.00030468768223127873,-0.006113774005758868,-0.0013665619478059714,0.962442495149194,-0.27148218365011756,0.0059668731861842895,0.2714854520898121,0.962424046731985,left_images/camera_left_71.png,right_images/camera_right_71.png
2025-05-25 16:14:19,4.006970405578613,72,-0.010116225,-0.014804937,0.09887497,0.015451558,0.070018575,0.11973652,1.047179,0.029248692,0.00020387163,0.002009862,0.9152481008393157,-0.01481721855636053,0.4026181366310749,-0.008747873535984215,0.9983570380801222,0.05662772487469281,-0.40279571574015566,-0.05535047018895613,0.9136147639083101,0.007580365,-0.013009855,0.09298855,-0.04738276,0.0649883,-0.09276888,1.047179,-0.03219088,1.3229204e-05,0.0070734145,0.9042507710658184,-0.014413270746764918,-0.42675848047022247,0.042351096496723015,0.9975295317813018,0.05604656858097529,0.4248963728397761,-0.06875384244212945,0.9026272660943967,0.00015531978,-0.013308151,0.1037553,-0.0003026689,0.00017147731,0.005958869,6.607308e-13,7.199377e-05,-0.021057429,0.007450915,0.9999812642908978,-0.00030468768223127873,-0.006113774005758868,-0.0013665619478059714,0.962442495149194,-0.27148218365011756,0.0059668731861842895,0.2714854520898121,0.962424046731985,left_images/camera_left_72.png,right_images/camera_right_72.png
2025-05-25 16:14:19,4.062670707702637,73,-0.010116165,-0.014804956,0.09887497,0.015451353,0.070018575,0.11973652,1.047179,0.029248772,0.00020380417,0.0020098276,0.9152482501943019,-0.014817589443345661,0.4026177834613829,-0.008747432152897482,0.9983570436815995,0.0566276943029414,-0.40279538595544884,-0.05535026986768338,0.913614921440415,0.007580378,-0.013009862,0.09298855,-0.04738265,0.0649883,-0.09276888,1.047179,-0.03219088,1.3229204e-05,0.0070734145,0.9042507710658184,-0.014413270746764918,-0.42675848047022247,0.042351096496723015,0.9975295317813018,0.05604656858097529,0.4248963728397761,-0.06875384244212945,0.9026272660943967,0.0001553224,-0.013308151,0.1037553,-0.00030264666,0.00017147262,0.005958841,6.6389846e-13,7.199377e-05,-0.021057429,0.007450915,0.9999812642908978,-0.00030468768223127873,-0.006113774005758868,-0.0013665619478059714,0.962442495149194,-0.27148218365011756,0.0059668731861842895,0.2714854520898121,0.962424046731985,left_images/camera_left_73.png,right_images/camera_right_73.png
2025-05-25 16:14:19,4.124981164932251,74,-0.010116269,-0.014804928,0.09887497,0.015451297,0.070018575,0.11973652,1.047179,0.02924871,0.00020385842,0.0020098602,0.9152481579380103,-0.01481775768135041,0.4026179869906155,-0.008747326584262144,0.9983570363089338,0.056627840591623825,-0.4027955978765246,-0.05535035781039612,0.9136148226805177,0.007580391,-0.0130098695,0.09298855,-0.047382537,0.0649883,-0.09276888,1.047179,-0.03219088,1.3213372e-05,0.0070734443,0.9042507540589585,-0.014413010856101435,-0.42675852528317126,0.042350778492455866,0.9975295494682778,0.056046494080342325,0.424896440729842,-0.06875364030854521,0.9026272495329594,0.00015532502,-0.013308151,0.1037553,-0.00030262442,0.00017146794,0.0059588132,6.608591e-13,7.199377e-05,-0.021057429,0.007450915,0.9999812642908978,-0.00030468768223127873,-0.006113774005758868,-0.0013665619478059714,0.962442495149194,-0.27148218365011756,0.0059668731861842895,0.2714854520898121,0.962424046731985,left_images/camera_left_74.png,right_images/camera_right_74.png
2025-05-25 16:14:19,4.179949760437012,75,-0.010116222,-0.014804994,0.09887497,0.015451241,0.070018575,0.11973652,1.047179,0.02924871,0.00020385842,0.0020098602,0.9152481579380103,-0.01481775768135041,0.4026179869906155,-0.008747326584262144,0.9983570363089338,0.056627840591623825,-0.4027955978765246,-0.05535035781039612,0.9136148226805177,0.0075803516,-0.013009901,0.09298855,-0.047382537,0.0649883,-0.09276888,1.047179,-0.03219088,1.3213372e-05,0.0070734443,0.9042507540589585,-0.014413010856101435,-0.42675852528317126,0.042350778492455866,0.9975295494682778,0.056046494080342325,0.424896440729842,-0.06875364030854521,0.9026272495329594,0.00015532764,-0.013308151,0.1037553,-0.0003026022,0.00017146325,0.0059587853,6.634887e-13,7.199377e-05,-0.021057429,0.007450915,0.9999812642908978,-0.00030468768223127873,-0.006113774005758868,-0.0013665619478059714,0.962442495149194,-0.27148218365011756,0.0059668731861842895,0.2714854520898121,0.962424046731985,left_images/camera_left_75.png,right_images/camera_right_75.png
2025-05-25 16:14:19,4.226882219314575,76,-0.010116217,-0.014804887,0.09887497,0.015451157,0.070018575,0.11973652,1.047179,0.02924871,0.00020385842,0.0020098602,0.9152481579380103,-0.01481775768135041,0.4026179869906155,-0.008747326584262144,0.9983570363089338,0.056627840591623825,-0.4027955978765246,-0.05535035781039612,0.9136148226805177,0.0075804163,-0.013009906,0.09298855,-0.047382537,0.0649883,-0.09276888,1.047179,-0.032190755,1.3200275e-05,0.007073392,0.9042506445340451,-0.014413024643001841,-0.42675875688778114,0.042350801104604194,0.9975295499474978,0.05604646846448929,0.42489667156329,-0.06875363046547403,0.9026271416217523,0.00015531978,-0.013308151,0.1037553,-0.00030263027,0.00017141266,0.0059587993,3.5697933e-12,7.199377e-05,-0.021057429,0.007450915,0.9999812642908978,-0.00030468768223127873,-0.006113774005758868,-0.0013665619478059714,0.962442495149194,-0.27148218365011756,0.0059668731861842895,0.2714854520898121,0.962424046731985,left_images/camera_left_76.png,right_images/camera_right_76.png
2025-05-25 16:14:19,4.277205467224121,77,-0.01011617,-0.014804954,0.09887497,0.015451102,0.070018575,0.11973652,1.047179,0.029248772,0.00020380417,0.0020098276,0.9152482501943019,-0.014817589443345661,0.4026177834613829,-0.008747432152897482,0.9983570436815995,0.0566276943029414,-0.40279538595544884,-0.05535026986768338,0.913614921440415,0.007580372,-0.013009937,0.09298855,-0.047382537,0.0649883,-0.09276888,1.047179,-0.03219088,1.3213372e-05,0.0070734443,0.9042507540589585,-0.014413010856101435,-0.42675852528317126,0.042350778492455866,0.9975295494682778,0.056046494080342325,0.424896440729842,-0.06875364030854521,0.9026272495329594,0.00015532102,-0.013308151,0.1037553,-0.00030260807,0.00017140796,0.0059587713,1.2368331e-12,7.199139e-05,-0.02105743,0.0074509187,0.9999812662161677,-0.00030473399979675804,-0.006113456788072845,-0.0013664306424522612,0.9624425227843509,-0.2714820863405055,0.005966580596089654,0.2714853540684722,0.9624240761963028,left_images/camera_left_77.png,right_images/camera_right_77.png
2025-05-25 16:14:19,4.330682039260864,78,-0.010116277,-0.014804929,0.09887497,0.015451046,0.070018575,0.11973652,1.047179,0.02924871,0.00020385842,0.0020098602,0.9152481579380103,-0.01481775768135041,0.4026179869906155,-0.008747326584262144,0.9983570363089338,0.056627840591623825,-0.4027955978765246,-0.05535035781039612,0.9136148226805177,0.007580347,-0.013009963,0.09298855,-0.047382537,0.0649883,-0.09276888,1.047179,-0.03219088,1.3213372e-05,0.0070734443,0.9042507540589585,-0.014413010856101435,-0.42675852528317126,0.042350778492455866,0.9975295494682778,0.056046494080342325,0.424896440729842,-0.06875364030854521,0.9026272495329594,0.00015532206,-0.013308151,0.1037553,-0.00030262192,0.00017140394,0.005958763,5.5181006e-13,7.199139e-05,-0.02105743,0.0074509187,0.9999812662161677,-0.00030473399979675804,-0.006113456788072845,-0.0013664306424522612,0.9624425227843509,-0.2714820863405055,0.005966580596089654,0.2714853540684722,0.9624240761963028,left_images/camera_left_78.png,right_images/camera_right_78.png
2025-05-25 16:14:19,4.394574880599976,79,-0.01011618,-0.014804996,0.09887497,0.015451018,0.0700188,0.1197363,1.047179,0.029248763,0.00020378636,0.0020098258,0.9152482725632349,-0.014818303970035137,0.4026177063139,-0.008746855347678186,0.9983570220135801,0.05662816541000226,-0.40279534765379427,-0.055350469407471375,0.9136149262379809,0.0075804116,-0.013009967,0.09298855,-0.047382537,0.0649883,-0.09276888,1.047179,-0.032190755,1.3200275e-05,0.007073392,0.9042506445340451,-0.014413024643001841,-0.42675875688778114,0.042350801104604194,0.9975295499474978,0.05604646846448929,0.42489667156329,-0.06875363046547403,0.9026271416217523,0.00015532294,-0.013308151,0.1037553,-0.00030263583,0.00017139992,0.0059587546,2.3312347e-13,7.199139e-05,-0.02105743,0.0074509187,0.9999812662161677,-0.00030473399979675804,-0.006113456788072845,-0.0013664306424522612,0.9624425227843509,-0.2714820863405055,0.005966580596089654,0.2714853540684722,0.9624240761963028,left_images/camera_left_79.png,right_images/camera_right_79.png
2025-05-25 16:14:19,4.4568469524383545,80,-0.010116269,-0.014804975,0.09887497,0.01545099,0.0700188,0.1197363,1.047179,0.029248666,0.00020384724,0.0020098872,0.9152481313363137,-0.014818374504025653,0.4026180247609941,-0.008746797422099686,0.9983570227824343,0.0566281608022956,-0.4027956698131731,-0.05535043665638366,0.913614786188197,0.0075803674,-0.013009998,0.09298855,-0.047382537,0.0649883,-0.09276888,1.047179,-0.03219088,1.3213372e-05,0.0070734443,0.9042507540589585,-0.014413010856101435,-0.42675852528317126,0.042350778492455866,0.9975295494682778,0.056046494080342325,0.424896440729842,-0.06875364030854521,0.9026272495329594,0.00015532381,-0.013308151,0.1037553,-0.00030264974,0.0001713959,0.005958746,2.306912e-13,7.199139e-05,-0.02105743,0.0074509187,0.9999812662161677,-0.00030473399979675804,-0.006113456788072845,-0.0013664306424522612,0.9624425227843509,-0.2714820863405055,0.005966580596089654,0.2714853540684722,0.9624240761963028,left_images/camera_left_80.png,right_images/camera_right_80.png
2025-05-25 16:14:19,4.51806902885437,81,-0.010116161,-0.014805049,0.09887497,0.015451047,0.0700188,0.11973612,1.047179,0.029248755,0.00020396395,0.0020099133,0.9152481080319765,-0.014817840747347868,0.4026180973819649,-0.008747141389437751,0.9983570510389213,0.056627609506156695,-0.40279571529672503,-0.05535006988662995,0.9136147883556529,0.0075803422,-0.013010024,0.09298855,-0.047382537,0.0649883,-0.09276888,1.047179,-0.03219086,1.3264769e-05,0.007073329,0.9042507913064662,-0.014413065606910264,-0.42675844451099093,0.04235079386533082,0.9975295533796645,0.05604641284813154,0.424896359928637,-0.06875357208158604,0.9026272927656332,0.00015532468,-0.013308151,0.1037553,-0.00030266366,0.00017139189,0.005958738,2.2921663e-13,7.199139e-05,-0.02105743,0.0074509187,0.9999812662161677,-0.00030473399979675804,-0.006113456788072845,-0.0013664306424522612,0.9624425227843509,-0.2714820863405055,0.005966580596089654,0.2714853540684722,0.9624240761963028,left_images/camera_left_81.png,right_images/camera_right_81.png
2025-05-25 16:14:19,4.583794355392456,82,-0.010116233,-0.014805058,0.09887497,0.015451019,0.07001902,0.11973612,1.047179,0.029248724,0.00020402129,0.0020097988,0.9152480277460575,-0.014818077613609613,0.4026182711735631,-0.008747023814524711,0.9983570354322313,0.05662790281614178,-0.40279590027871415,-0.055350287973987104,0.913614693587979,0.007580364,-0.013009975,0.09298855,-0.047382537,0.0649883,-0.09276888,1.047179,-0.03219088,1.3213372e-05,0.0070734443,0.9042507540589585,-0.014413010856101435,-0.42675852528317126,0.042350778492455866,0.9975295494682778,0.056046494080342325,0.424896440729842,-0.06875364030854521,0.9026272495329594,0.00015532556,-0.013308151,0.1037553,-0.00030267757,0.00017138787,0.0059587294,2.294992e-13,7.199139e-05,-0.02105743,0.0074509187,0.9999812662161677,-0.00030473399979675804,-0.006113456788072845,-0.0013664306424522612,0.9624425227843509,-0.2714820863405055,0.005966580596089654,0.2714853540684722,0.9624240761963028,left_images/camera_left_82.png,right_images/camera_right_82.png
2025-05-25 16:14:19,4.646103143692017,83,-0.010116274,-0.014804897,0.09887497,0.015451047,0.0700188,0.11973612,1.047179,0.029248703,0.00020385534,0.002009862,0.9152479809739118,-0.014818066032481286,0.40261837792410204,-0.008747066140663336,0.9983570321488304,0.05662795416497044,-0.4027960056369836,-0.055350350297321126,0.913614643361661,0.007580429,-0.013009979,0.09298855,-0.047382537,0.0649883,-0.09276888,1.047179,-0.032190755,1.3200275e-05,0.007073392,0.9042506445340451,-0.014413024643001841,-0.42675875688778114,0.042350801104604194,0.9975295499474978,0.05604646846448929,0.42489667156329,-0.06875363046547403,0.9026271416217523,0.00015532643,-0.013308151,0.1037553,-0.00030269148,0.00017138386,0.005958721,2.3025714e-13,7.199139e-05,-0.02105743,0.0074509187,0.9999812662161677,-0.00030473399979675804,-0.006113456788072845,-0.0013664306424522612,0.9624425227843509,-0.2714820863405055,0.005966580596089654,0.2714853540684722,0.9624240761963028,left_images/camera_left_83.png,right_images/camera_right_83.png
2025-05-25 16:14:19,4.705476522445679,84,-0.010116218,-0.014805009,0.09887497,0.015451047,0.0700188,0.11973612,1.047179,0.029248703,0.00020385534,0.002009862,0.9152479809739118,-0.014818066032481286,0.40261837792410204,-0.008747066140663336,0.9983570321488304,0.05662795416497044,-0.4027960056369836,-0.055350350297321126,0.913614643361661,0.007580441,-0.01300994,0.09298855,-0.047382537,0.0649883,-0.09276888,1.047179,-0.032190755,1.3200275e-05,0.007073392,0.9042506445340451,-0.014413024643001841,-0.42675875688778114,0.042350801104604194,0.9975295499474978,0.05604646846448929,0.42489667156329,-0.06875363046547403,0.9026271416217523,0.0001553273,-0.013308151,0.1037553,-0.0003027054,0.00017137984,0.0059587127,2.2832647e-13,7.199139e-05,-0.02105743,0.0074509187,0.9999812662161677,-0.00030473399979675804,-0.006113456788072845,-0.0013664306424522612,0.9624425227843509,-0.2714820863405055,0.005966580596089654,0.2714853540684722,0.9624240761963028,left_images/camera_left_84.png,right_images/camera_right_84.png
2025-05-25 16:14:19,4.751036167144775,85,-0.010116211,-0.014804902,0.09887497,0.015451019,0.070018604,0.11973612,1.047179,0.029248664,0.00020384951,0.00200989,0.9152480035486498,-0.014818368770710598,0.4026183154641451,-0.008746760268481028,0.9983570311641103,0.056628018771535255,-0.40279596098399045,-0.05535028701062765,0.9136146668825018,0.0075804065,-0.013009961,0.09298855,-0.047382537,0.0649883,-0.09276888,1.047179,-0.032190755,1.3200275e-05,0.007073392,0.9042506445340451,-0.014413024643001841,-0.42675875688778114,0.042350801104604194,0.9975295499474978,0.05604646846448929,0.42489667156329,-0.06875363046547403,0.9026271416217523,0.00015532818,-0.013308151,0.1037553,-0.0003027193,0.00017137582,0.0059587043,2.299327e-13,7.199139e-05,-0.02105743,0.0074509187,0.9999812662161677,-0.00030473399979675804,-0.006113456788072845,-0.0013664306424522612,0.9624425227843509,-0.2714820863405055,0.005966580596089654,0.2714853540684722,0.9624240761963028,left_images/camera_left_85.png,right_images/camera_right_85.png
2025-05-25 16:14:20,4.8089563846588135,86,-0.010116198,-0.014805049,0.09887497,0.015451048,0.07001883,0.11973612,1.047179,0.029248709,0.00020401139,0.0020097997,0.9152480264315839,-0.014817741650062517,0.40261828652643517,-0.008747295824581579,0.9983570453322278,0.056627686260885386,-0.40279589735851073,-0.05535019934829515,0.9136147002447236,0.0075803623,-0.0130099915,0.09298855,-0.047382537,0.0649883,-0.09276888,1.047179,-0.03219088,1.3213372e-05,0.0070734443,0.9042507540589585,-0.014413010856101435,-0.42675852528317126,0.042350778492455866,0.9975295494682778,0.056046494080342325,0.424896440729842,-0.06875364030854521,0.9026272495329594,0.00015532905,-0.013308151,0.1037553,-0.0003027332,0.00017137181,0.005958696,2.3032243e-13,7.199139e-05,-0.02105743,0.0074509187,0.9999812662161677,-0.00030473399979675804,-0.006113456788072845,-0.0013664306424522612,0.9624425227843509,-0.2714820863405055,0.005966580596089654,0.2714853540684722,0.9624240761963028,left_images/camera_left_86.png,right_images/camera_right_86.png
2025-05-25 16:14:20,4.858332872390747,87,-0.01011616,-0.014804916,0.09887497,0.0154510755,0.070018634,0.11973612,1.047179,0.02924877,0.00020379823,0.0020098286,0.9152481222291355,-0.014817971257503823,0.4026180603051145,-0.008747142183368105,0.9983570322993258,0.05662793976569044,-0.4027956830201448,-0.05535037295533348,0.9136147842247521,0.007580337,-0.013010018,0.09298855,-0.047382537,0.0649883,-0.09276888,1.047179,-0.03219086,1.3264769e-05,0.007073329,0.9042507913064662,-0.014413065606910264,-0.42675844451099093,0.04235079386533082,0.9975295533796645,0.05604641284813154,0.424896359928637,-0.06875357208158604,0.9026272927656332,0.00015532992,-0.013308151,0.1037553,-0.00030274712,0.00017136779,0.0059586875,2.3035607e-13,7.199139e-05,-0.02105743,0.0074509187,0.9999812662161677,-0.00030473399979675804,-0.006113456788072845,-0.0013664306424522612,0.9624425227843509,-0.2714820863405055,0.005966580596089654,0.2714853540684722,0.9624240761963028,left_images/camera_left_87.png,right_images/camera_right_87.png
2025-05-25 16:14:20,4.903656959533691,88,-0.010116254,-0.014804896,0.09887497,0.015451021,0.070018664,0.11973612,1.047179,0.029248664,0.00020384951,0.00200989,0.9152480035486498,-0.014818368770710598,0.4026183154641451,-0.008746760268481028,0.9983570311641103,0.056628018771535255,-0.40279596098399045,-0.05535028701062765,0.9136146668825018,0.007580359,-0.013009968,0.09298855,-0.047382537,0.0649883,-0.09276888,1.047179,-0.03219088,1.3213372e-05,0.0070734443,0.9042507540589585,-0.014413010856101435,-0.42675852528317126,0.042350778492455866,0.9975295494682778,0.056046494080342325,0.424896440729842,-0.06875364030854521,0.9026272495329594,0.0001553308,-0.013308151,0.1037553,-0.00030276104,0.00017136378,0.005958679,2.299989e-13,7.199139e-05,-0.02105743,0.0074509187,0.9999812662161677,-0.00030473399979675804,-0.006113456788072845,-0.0013664306424522612,0.9624425227843509,-0.2714820863405055,0.005966580596089654,0.2714853540684722,0.9624240761963028,left_images/camera_left_88.png,right_images/camera_right_88.png
2025-05-25 16:14:20,4.9517316818237305,89,-0.010116239,-0.014805043,0.09887497,0.015451049,0.07001889,0.11973612,1.047179,0.029248709,0.00020401139,0.0020097997,0.9152480264315839,-0.014817741650062517,0.40261828652643517,-0.008747295824581579,0.9983570453322278,0.056627686260885386,-0.40279589735851073,-0.05535019934829515,0.9136147002447236,0.0075804237,-0.013009973,0.09298855,-0.047382537,0.0649883,-0.09276888,1.047179,-0.032190755,1.3200275e-05,0.007073392,0.9042506445340451,-0.014413024643001841,-0.42675875688778114,0.042350801104604194,0.9975295499474978,0.05604646846448929,0.42489667156329,-0.06875363046547403,0.9026271416217523,0.00015533167,-0.013308151,0.1037553,-0.00030277495,0.00017135976,0.0059586708,2.2910867e-13,7.199139e-05,-0.02105743,0.0074509187,0.9999812662161677,-0.00030473399979675804,-0.006113456788072845,-0.0013664306424522612,0.9624425227843509,-0.2714820863405055,0.005966580596089654,0.2714853540684722,0.9624240761963028,left_images/camera_left_89.png,right_images/camera_right_89.png
2025-05-25 16:14:20,5.001285076141357,90,-0.010116201,-0.014804911,0.09887497,0.015451077,0.070018694,0.11973612,1.047179,0.029248703,0.00020385534,0.002009862,0.9152479809739118,-0.014818066032481286,0.40261837792410204,-0.008747066140663336,0.9983570321488304,0.05662795416497044,-0.4027960056369836,-0.055350350297321126,0.913614643361661,0.0075803795,-0.013010004,0.09298855,-0.047382537,0.0649883,-0.09276888,1.047179,-0.03219086,1.3264769e-05,0.007073329,0.9042507913064662,-0.014413065606910264,-0.42675844451099093,0.04235079386533082,0.9975295533796645,0.05604641284813154,0.424896359928637,-0.06875357208158604,0.9026272927656332,0.00015533254,-0.013308151,0.1037553,-0.00030278886,0.00017135574,0.0059586624,2.2898732e-13,7.199139e-05,-0.02105743,0.0074509187,0.9999812662161677,-0.00030473399979675804,-0.006113456788072845,-0.0013664306424522612,0.9624425227843509,-0.2714820863405055,0.005966580596089654,0.2714853540684722,0.9624240761963028,left_images/camera_left_90.png,right_images/camera_right_90.png
2025-05-25 16:14:20,5.047275066375732,91,-0.01011565,-0.014808123,0.09887497,0.015418476,0.0700413,0.119725324,1.047179,0.02924879,0.00020381919,0.0020099236,0.915244235574052,-0.014855373210640075,0.40262551724306034,-0.008713451088083557,0.9983564758452159,0.056642942261648385,-0.4028052445271844,-0.05535038414223929,0.913610567997493,0.00758042,-0.013009949,0.09298855,-0.047382537,0.0649883,-0.09276888,1.047179,-0.032190755,1.3200275e-05,0.007073392,0.9042506445340451,-0.014413024643001841,-0.42675875688778114,0.042350801104604194,0.9975295499474978,0.05604646846448929,0.42489667156329,-0.06875363046547403,0.9026271416217523,0.00015533342,-0.013308151,0.1037553,-0.00030280277,0.00017135173,0.005958654,2.285973e-13,7.199139e-05,-0.02105743,0.0074509187,0.9999812662161677,-0.00030473399979675804,-0.006113456788072845,-0.0013664306424522612,0.9624425227843509,-0.2714820863405055,0.005966580596089654,0.2714853540684722,0.9624240761963028,left_images/camera_left_91.png,right_images/camera_right_91.png
2025-05-25 16:14:20,5.097625732421875,92,-0.010115443,-0.014810944,0.09887497,0.015394256,0.07005833,0.11971758,1.047179,0.029248696,0.0002039207,0.0020099785,0.9152415827818958,-0.01488377582392731,0.40263049855185273,-0.008687900846602065,0.9983560418522587,0.05665451505370988,-0.40281182396470194,-0.055350581878734616,0.9136076551561484,0.00758036,-0.013009981,0.09298855,-0.047382537,0.0649883,-0.09276888,1.047179,-0.03219088,1.3213372e-05,0.0070734443,0.9042507540589585,-0.014413010856101435,-0.42675852528317126,0.042350778492455866,0.9975295494682778,0.056046494080342325,0.424896440729842,-0.06875364030854521,0.9026272495329594,0.00015533429,-0.013308151,0.1037553,-0.00030281668,0.00017134771,0.0059586456,2.3012904e-13,7.199139e-05,-0.02105743,0.0074509187,0.9999812662161677,-0.00030473399979675804,-0.006113456788072845,-0.0013664306424522612,0.9624425227843509,-0.2714820863405055,0.005966580596089654,0.2714853540684722,0.9624240761963028,left_images/camera_left_92.png,right_images/camera_right_92.png
2025-05-25 16:14:20,5.154561519622803,93,-0.01011489,-0.014813002,0.09887497,0.015376362,0.07007083,0.1197113,1.047179,0.02924876,0.00020374812,0.0020098416,0.9152395380827625,-0.014904240067131836,0.4026343894379523,-0.008669186642271917,0.9983557731638033,0.05666211603413547,-0.4028168729497473,-0.05534992157650885,0.9136054690337955,0.007580335,-0.013010007,0.09298855,-0.047382537,0.0649883,-0.09276888,1.047179,-0.03219086,1.3264769e-05,0.007073329,0.9042507913064662,-0.014413065606910264,-0.42675844451099093,0.04235079386533082,0.9975295533796645,0.05604641284813154,0.424896359928637,-0.06875357208158604,0.9026272927656332,0.00015533516,-0.013308151,0.1037553,-0.0003028306,0.0001713437,0.005958637,2.3138005e-13,7.199139e-05,-0.02105743,0.0074509187,0.9999812662161677,-0.00030473399979675804,-0.006113456788072845,-0.0013664306424522612,0.9624425227843509,-0.2714820863405055,0.005966580596089654,0.2714853540684722,0.9624240761963028,left_images/camera_left_93.png,right_images/camera_right_93.png
2025-05-25 16:14:20,5.207656383514404,94,-0.010114373,-0.014818019,0.09887497,0.015330408,0.07010298,0.11969634,1.047179,0.02924876,0.00020374183,0.0020099245,0.915234202262932,-0.014957724415319505,0.40264453490448615,-0.008621128843974259,0.9983549516382314,0.05668391903247645,-0.40283002761163444,-0.05535031183055887,0.9135996452684676,0.0075803567,-0.013009958,0.09298855,-0.047382537,0.0649883,-0.09276888,1.047179,-0.03219088,1.3213372e-05,0.0070734443,0.9042507540589585,-0.014413010856101435,-0.42675852528317126,0.042350778492455866,0.9975295494682778,0.056046494080342325,0.424896440729842,-0.06875364030854521,0.9026272495329594,0.00015533603,-0.013308151,0.1037553,-0.0003028445,0.00017133968,0.005958629,2.2858289e-13,7.199139e-05,-0.02105743,0.0074509187,0.9999812662161677,-0.00030473399979675804,-0.006113456788072845,-0.0013664306424522612,0.9624425227843509,-0.2714820863405055,0.005966580596089654,0.2714853540684722,0.9624240761963028,left_images/camera_left_94.png,right_images/camera_right_94.png
2025-05-25 16:14:20,5.2703375816345215,95,-0.010113928,-0.014822054,0.09887497,0.015296342,0.070126794,0.11968519,1.047179,0.029248811,0.00020379404,0.0020098062,0.9152303885131571,-0.014996864303788661,0.40265174779592,-0.008585607755341227,0.9983543952974275,0.05669910695750956,-0.4028394509994358,-0.05534975565764888,0.9135955238874103,0.0075804214,-0.013009963,0.09298855,-0.047382537,0.0649883,-0.09276888,1.047179,-0.032190755,1.3200275e-05,0.007073392,0.9042506445340451,-0.014413024643001841,-0.42675875688778114,0.042350801104604194,0.9975295499474978,0.05604646846448929,0.42489667156329,-0.06875363046547403,0.9026271416217523,0.00015533691,-0.013308151,0.1037553,-0.00030285842,0.00017133566,0.0059586205,2.276851e-13,7.199139e-05,-0.02105743,0.0074509187,0.9999812662161677,-0.00030473399979675804,-0.006113456788072845,-0.0013664306424522612,0.9624425227843509,-0.2714820863405055,0.005966580596089654,0.2714853540684722,0.9624240761963028,left_images/camera_left_95.png,right_images/camera_right_95.png
2025-05-25 16:14:20,5.333336114883423,96,-0.010113778,-0.014824887,0.09887497,0.015271105,0.07014434,0.119677074,1.047179,0.029248724,0.00020400243,0.0020098072,0.9152273771090768,-0.015025629622175912,0.4026575202880204,-0.008559587324239065,0.9983539777658258,0.056710391851867104,-0.40284684640056334,-0.055349485396079146,0.9135922793081773,0.007580377,-0.013009993,0.09298855,-0.047382537,0.0649883,-0.09276888,1.047179,-0.03219088,1.3213372e-05,0.0070734443,0.9042507540589585,-0.014413010856101435,-0.42675852528317126,0.042350778492455866,0.9975295494682778,0.056046494080342325,0.424896440729842,-0.06875364030854521,0.9026272495329594,0.00015533778,-0.013308151,0.1037553,-0.00030287233,0.00017133165,0.005958612,2.298718e-13,7.199139e-05,-0.02105743,0.0074509187,0.9999812662161677,-0.00030473399979675804,-0.006113456788072845,-0.0013664306424522612,0.9624425227843509,-0.2714820863405055,0.005966580596089654,0.2714853540684722,0.9624240761963028,left_images/camera_left_96.png,right_images/camera_right_96.png
