jiaqis7/OS_Teleop_Extension/rollout_8/teleop_log.csv
Epoch Time (Seconds),Time (Seconds),Frame Number,PSM1_joint_1,PSM1_joint_2,PSM1_joint_3,PSM1_joint_4,PSM1_joint_5,PSM1_joint_6,PSM1_jaw_angle,PSM1_ee_x,PSM1_ee_y,PSM1_ee_z,"PSM1_Orientation_Matrix_[1,1]","PSM1_Orientation_Matrix_[1,2]","PSM1_Orientation_Matrix_[1,3]","PSM1_Orientation_Matrix_[2,1]","PSM1_Orientation_Matrix_[2,2]","PSM1_Orientation_Matrix_[2,3]","PSM1_Orientation_Matrix_[3,1]","PSM1_Orientation_Matrix_[3,2]","PSM1_Orientation_Matrix_[3,3]",PSM2_joint_1,PSM2_joint_2,PSM2_joint_3,PSM2_joint_4,PSM2_joint_5,PSM2_joint_6,PSM2_jaw_angle,PSM2_ee_x,PSM2_ee_y,PSM2_ee_z,"PSM2_Orientation_Matrix_[1,1]","PSM2_Orientation_Matrix_[1,2]","PSM2_Orientation_Matrix_[1,3]","PSM2_Orientation_Matrix_[2,1]","PSM2_Orientation_Matrix_[2,2]","PSM2_Orientation_Matrix_[2,3]","PSM2_Orientation_Matrix_[3,1]","PSM2_Orientation_Matrix_[3,2]","PSM2_Orientation_Matrix_[3,3]",Camera Left,Camera Right
2025-06-02 14:20:25,0.0009479522705078125,1,0.008146905,0.020530783,0.1105778,0.027332775,-0.059493702,0.16914545,0.0012926944,0.045563295,-0.0012816975,0.0007238928,0.9402164288883014,0.042945552870545634,0.33785906283119516,-0.033487503477079975,0.9988682519694938,-0.03377576525085608,-0.33892721041457097,0.020442472845806844,0.9405904801477347,0.01773315,-0.019004393,0.109768175,-0.013019898,-0.023539977,-0.0074093007,0.21929237,-0.042058114,0.0025708412,0.0035286387,0.8605105485794973,-0.03307503949474051,-0.5083577849761264,0.013331672236138533,0.9990104374161749,-0.04243126735004038,0.5092581489763325,0.029735293776315456,0.8600999651233776,left_images/camera_left_1.png,right_images/camera_right_1.png
2025-06-02 14:20:25,0.06371569633483887,2,0.008546775,0.018563716,0.11050978,0.0036375818,-0.048642352,0.19130181,0.0016581836,0.045803588,-0.0012201308,0.00069767144,0.9479408075357866,0.017980495767491653,0.3179385588134225,-0.009288425309574376,0.999541064192353,-0.028833767504213497,-0.31831109085872167,0.02437955629567107,0.947672774047644,0.01801518,-0.019215645,0.11005762,-0.01809021,-0.024374256,-0.008937258,0.24595904,-0.041896604,0.002614992,0.0032895524,0.861022475520201,-0.03796376961530923,-0.5071479555767334,0.018474509621952427,0.9988865774680659,-0.04340849972484264,0.5082312358988702,0.02800638410664611,0.8607651557224988,left_images/camera_left_2.png,right_images/camera_right_2.png
2025-06-02 14:20:25,0.11611580848693848,3,0.009036539,0.017724613,0.110499226,-0.016923614,-0.04291295,0.20937411,0.0019014047,0.04600041,-0.0011911188,0.0006325273,0.9535628512073835,-0.0023154560323695016,0.3011852045845007,0.011317214251241138,0.999539743980936,-0.02814641831772389,-0.3009814104871543,0.030247956391911204,0.9531501726775672,0.017571239,-0.019601382,0.110390216,-0.023921162,-0.024837542,-0.010244447,0.2726255,-0.041781716,0.0026725738,0.0029723868,0.8617405084416424,-0.043381062515377974,-0.505491225963198,0.024367572386209096,0.9987268268104844,-0.044169523713347064,0.5067637689562493,0.02574507378311307,0.861700454711009,left_images/camera_left_3.png,right_images/camera_right_3.png
2025-06-02 14:20:25,0.1706242561340332,4,0.008797652,0.015868157,0.11045443,-0.037668765,-0.03311278,0.2299927,0.0075407075,0.046169434,-0.0011126584,0.00062793586,0.9590022224604262,-0.02425832421507911,0.28235840880384455,0.03273766636963712,0.999142426735981,-0.025350666594881787,-0.28150130109225646,0.033555100989426795,0.9589739687191493,0.017092407,-0.020325758,0.11079748,-0.032727443,-0.024518142,-0.012269454,0.29929197,-0.041639004,0.0027554773,0.0025854418,0.8626870060664201,-0.051118244555123954,-0.503148143828196,0.03326179936672753,0.9984595011008475,-0.04441032947788419,0.5046432227495421,0.021576601563944375,0.8630583224776335,left_images/camera_left_4.png,right_images/camera_right_4.png
2025-06-02 14:20:25,0.22617173194885254,5,0.00911246,0.013244449,0.11039532,-0.07148122,-0.021427875,0.2543281,0.008526025,0.046436377,-0.0009415278,0.0006004609,0.9640266558033941,-0.05810874955090482,0.25937613638527957,0.06707197521670989,0.9974136336605899,-0.025833960759206118,-0.2572041155212218,0.042301496588293006,0.9654307983202821,0.01609775,-0.02051428,0.111169316,-0.04370371,-0.023979194,-0.013958741,0.31934565,-0.041562207,0.002772413,0.002198373,0.8635546879269365,-0.06031828185624071,-0.5006346031122126,0.044296574660571554,0.9980559842247997,-0.04384137117389294,0.5023057977295822,0.015683023527934374,0.8645478172665007,left_images/camera_left_5.png,right_images/camera_right_5.png
2025-06-02 14:20:25,0.28386378288269043,6,0.00762364,0.00811453,0.110384606,-0.12856421,-0.0029729123,0.28622496,0.024716591,0.046582915,-0.00052563543,0.0006095031,0.9663912179978891,-0.11401006780039444,0.23041206178649978,0.12444843181681137,0.9917341464666558,-0.03124052737054929,-0.22494577478782032,0.05886499105752967,0.9725915438830959,0.014891424,-0.02023514,0.11142154,-0.05975226,-0.023465907,-0.017249193,0.32831705,-0.041582312,0.0027321319,0.0018919203,0.8649219680324073,-0.07363892401741184,-0.4964748715539441,0.06044839737761782,0.9972614980196497,-0.042608635534148266,0.4982529282095842,0.006842034577676501,0.8670047324515668,left_images/camera_left_6.png,right_images/camera_right_6.png
2025-06-02 14:20:25,0.349933385848999,7,0.0073838127,0.002478762,0.110379875,-0.16570334,0.015215047,0.3105125,0.037835367,0.046812743,-8.03126e-05,0.00056160986,0.9666528389241169,-0.15213896554940481,0.20600005864441437,0.16239969284184214,0.986147672983462,-0.033750656796248335,-0.1980116884550517,0.06607951445690136,0.9779697689623742,0.014039978,-0.020508757,0.11169371,-0.07849839,-0.021840997,-0.021032263,0.34768596,-0.041561164,0.0027327917,0.0015877681,0.8658933003838851,-0.08898636534663103,-0.49225015909870395,0.07927258869538654,0.9960253778304443,-0.04061161655552677,0.4939075308515102,-0.003856617704280245,0.8695058812153302,left_images/camera_left_7.png,right_images/camera_right_7.png
2025-06-02 14:20:25,0.40631699562072754,8,0.006194677,-0.0038213243,0.11043757,-0.21125019,0.03577614,0.3378789,0.06450011,0.04697246,0.00045174212,0.0005055107,0.9637960226813782,-0.19794929223748547,0.1786429521874139,0.20815255269345267,0.9772734589007998,-0.04011360536359243,-0.16664255600162728,0.07584631982334542,0.9830959232437592,0.0125664845,-0.02176296,0.111535445,-0.10253104,-0.0188954,-0.02406454,0.37369323,-0.041815355,0.0028105634,0.001622919,0.8659184612447421,-0.108675176019463,-0.48823654573646647,0.10327308495760373,0.9939240863484675,-0.038073356822107905,0.48940769139734364,-0.0174532717134274,0.8718804361307918,left_images/camera_left_8.png,right_images/camera_right_8.png
2025-06-02 14:20:25,0.4615623950958252,9,0.00088287605,-0.0075721294,0.1102734,-0.2883683,0.069458105,0.36788648,0.08224635,0.04694541,0.00061911775,0.0008379128,0.9491335887553768,-0.276832576855005,0.15003051385687322,0.2865639132064311,0.9568957389613493,-0.047240537734351364,-0.130485839630807,0.08783091226573597,0.9875521133117038,0.012780251,-0.02253152,0.111507274,-0.12893933,-0.013693114,-0.028071687,0.37498444,-0.041836638,0.0027911102,0.0016419245,0.8648086139453156,-0.12891922201067507,-0.48526888983546485,0.12951190215034103,0.9910457486935095,-0.03248062804075634,0.48511104754208884,-0.03475857006097549,0.8737614739503761,left_images/camera_left_9.png,right_images/camera_right_9.png
2025-06-02 14:20:26,0.5078942775726318,10,-0.0025307979,-0.013179416,0.11020392,-0.34504503,0.09801942,0.38934255,0.094928,0.04700468,0.0010422869,0.0010058321,0.9339909666118951,-0.33401441709416,0.12686703062902652,0.3428731669931726,0.9377515825281173,-0.055316912622483366,-0.10049311241796538,0.09516479726905314,0.9903760880177237,0.013344559,-0.023862926,0.11151683,-0.1603535,-0.008569876,-0.03272627,0.3858381,-0.041806623,0.0028343725,0.0016504778,0.8624443368300203,-0.15361271305247914,-0.48227886150906846,0.1605938086078585,0.9866491114114997,-0.027076919834440914,0.47999936927734504,-0.05409866301078922,0.8755991892149033,left_images/camera_left_10.png,right_images/camera_right_10.png
2025-06-02 14:20:26,0.5649323463439941,11,-0.008626974,-0.017670287,0.11002428,-0.4157842,0.13346039,0.4092641,0.119187854,0.046933595,0.0013256167,0.0013953447,0.9085847760196223,-0.40430712256113693,0.10492595213628779,0.4119554757320439,0.9088745996491786,-0.06511258040448692,-0.06903905271480866,0.1023851198118125,0.9923461575686998,0.014016362,-0.025288185,0.111546315,-0.19648133,0.00048334475,-0.038740102,0.39185578,-0.041748084,0.0028118803,0.0016515637,0.8589840927778787,-0.18011565532374332,-0.4792751600718145,0.1959709412237989,0.9804582449486143,-0.017234271326094553,0.47301344436540416,-0.07912003930472722,0.8774954705467118,left_images/camera_left_11.png,right_images/camera_right_11.png
2025-06-02 14:20:26,0.613347053527832,12,-0.01361943,-0.019587452,0.10983094,-0.47473526,0.16461065,0.42567965,0.1445975,0.046956297,0.0013797546,0.0017458182,0.88255339301286,-0.4624328069542205,0.08517868004335884,0.46842495847572685,0.8804321757968759,-0.07360191640570603,-0.04095810980137983,0.10485744071843232,0.9936434724625722,0.015104073,-0.026912767,0.11160296,-0.23048098,0.0075422567,-0.04387368,0.41312063,-0.04162574,0.0028497945,0.001662069,0.8541903108346133,-0.20563731548451178,-0.47756906030080093,0.22900080699275024,0.9733795475018721,-0.00953346221053663,0.4668163913927357,-0.10122030915470451,0.8785424894344553,left_images/camera_left_12.png,right_images/camera_right_12.png
2025-06-02 14:20:26,0.6619529724121094,13,-0.026994642,-0.02221031,0.10941601,-0.5695961,0.21462661,0.44034213,0.16066094,0.046506207,0.0014603118,0.0026824502,0.8318766342413099,-0.5508682637771048,0.0672712521553455,0.554908573626994,0.8273246431564771,-0.0872376624014135,-0.0075987050610707325,0.10990036755719214,0.9939135620828348,0.017273337,-0.028012877,0.111748934,-0.27781284,0.020895971,-0.051056303,0.39361006,-0.041326202,0.0027084476,0.0016731946,0.845801354655617,-0.23813878739691652,-0.4773991897771187,0.2741917645199524,0.9616557950957453,0.006083422408880032,0.45764499858750574,-0.13604429313975686,0.8786654685214081,left_images/camera_left_13.png,right_images/camera_right_13.png
2025-06-02 14:20:26,0.7121951580047607,14,-0.039135482,-0.025097251,0.1089924,-0.6502679,0.25718534,0.45179084,0.18191816,0.046156216,0.0016895207,0.0035794657,0.782447906733108,-0.6205358670106338,0.05206256814966742,0.6222485466873331,0.7758841105756721,-0.10397400204714809,0.024125078123802435,0.11375009762439568,0.9932164396021449,0.01875715,-0.029478464,0.111843035,-0.3182654,0.031644166,-0.05752504,0.40084392,-0.041113302,0.0026585371,0.0016978523,0.8374557652886767,-0.26596525456669395,-0.4774204902892528,0.31223261360374877,0.9498243717478377,0.01855957531835066,0.4485294150743393,-0.16460907082265874,0.8784789226930673,left_images/camera_left_14.png,right_images/camera_right_14.png
2025-06-02 14:20:26,0.7691364288330078,15,-0.051193655,-0.02880411,0.10880562,-0.72238344,0.29650193,0.459939,0.2085855,0.045678172,0.0020728852,0.004286333,0.7337783861812769,-0.6782341219400868,0.039594896253941754,0.6772539640090284,0.7256125665583039,-0.12171060548172694,0.053817731346262936,0.11612441211403596,0.991775565692113,0.019509079,-0.031338196,0.11195085,-0.37088996,0.04502004,-0.06620303,0.41950342,-0.04094471,0.0026005462,0.0016862964,0.8253114873328283,-0.30176614612227187,-0.4772820360447125,0.36077016346482743,0.9320140109222768,0.03456548275565585,0.4344028522351531,-0.20071640814612418,0.8780700914339823,left_images/camera_left_15.png,right_images/camera_right_15.png
2025-06-02 14:20:26,0.8211987018585205,16,-0.06127443,-0.031901535,0.10858424,-0.78379166,0.32952112,0.4645272,0.2212179,0.045337588,0.0024420465,0.004936493,0.6894622408093207,-0.7236921598219582,0.030190665948591395,0.7199392680985407,0.6801171313607088,-0.13830451142105843,0.07955670146460105,0.11709118430483767,0.9899294852716343,0.02035154,-0.03264588,0.112080134,-0.41335094,0.055809584,-0.07261624,0.41883442,-0.04074274,0.0025385916,0.0016694907,0.813612276028045,-0.32971793970581315,-0.47887487356575537,0.399068392958351,0.9156876387756875,0.047545409190009005,0.4228232278838328,-0.2297873548077875,0.8765947122429707,left_images/camera_left_16.png,right_images/camera_right_16.png
2025-06-02 14:20:26,0.8722085952758789,17,-0.07022797,-0.03351267,0.10854532,-0.8362333,0.35723007,0.4693183,0.24076062,0.044950746,0.002705298,0.0053919535,0.6495510324654177,-0.7599990376305253,0.022020876998554845,0.7532585053298947,0.6393124294408762,-0.154535567784824,0.10336866242378823,0.11696615050124684,0.9877417877490233,0.020772677,-0.033556942,0.111992836,-0.45730448,0.06756401,-0.07996571,0.4317396,-0.04067879,0.0024088828,0.0018256148,0.8007425569448537,-0.35740541369709844,-0.48070024730326866,0.43770981499919726,0.8969600960901885,0.062231052339235426,0.40892722500560696,-0.26023826828867047,0.8746739783298276,left_images/camera_left_17.png,right_images/camera_right_17.png
2025-06-02 14:20:26,0.9208765029907227,18,-0.08041856,-0.036675107,0.1087195,-0.89195246,0.38842347,0.47110924,0.26244563,0.04437812,0.0031553349,0.005742362,0.6055159510813721,-0.7956995830712098,0.014581031730451874,0.7855064231986756,0.5946164720996095,-0.17149609389556822,0.1277892487639109,0.11529711448304893,0.9850768920709886,0.021350512,-0.03507883,0.111888394,-0.51505256,0.08112873,-0.088056505,0.43294513,-0.04056643,0.0023216708,0.0020385263,0.780854280215115,-0.39357339286488136,-0.48514593422861957,0.48724567334466173,0.8697131146795313,0.07868133172065295,0.3909709028516592,-0.2978239120407459,0.8708861409737235,left_images/camera_left_18.png,right_images/camera_right_18.png
2025-06-02 14:20:26,0.9767699241638184,19,-0.09006453,-0.039819807,0.10885478,-0.93798906,0.4148656,0.47140357,0.28064698,0.04381135,0.0036073322,0.006117693,0.568224960291864,-0.8228182115673144,0.009517626514829222,0.8094770832270994,0.5568584611943594,-0.18615989344216294,0.14787577973237193,0.11348499860957954,0.9824733629260014,0.022112904,-0.036777996,0.11181646,-0.5718714,0.09372982,-0.09566562,0.4352651,-0.040402602,0.0022853953,0.0022483636,0.7587209029212141,-0.42793649702973663,-0.49113434616236723,0.5343515519707865,0.8400741343983625,0.09350864998091792,0.37257349661084266,-0.33338536744248426,0.8660503371042646,left_images/camera_left_19.png,right_images/camera_right_19.png
2025-06-02 14:20:26,1.0255506038665771,20,-0.10075615,-0.04285109,0.10900179,-0.9816637,0.43783402,0.47001725,0.30567664,0.043090113,0.0040809177,0.006560066,0.5332243502021683,-0.8459316594276847,0.008451031262470723,0.8296088699979682,0.5209278559858874,-0.20095594462130478,0.16559261810892967,0.114165653485934,0.979563825583591,0.022347031,-0.03807158,0.11171019,-0.62166405,0.10538924,-0.10103698,0.43734992,-0.040293332,0.0022382739,0.0024647592,0.7371735711132414,-0.45629240320062325,-0.49836971099129906,0.5741968907635984,0.8118187290199524,0.10605791743121165,0.3561924433358566,-0.3643454322395565,0.8604529907650991,left_images/camera_left_20.png,right_images/camera_right_20.png
2025-06-02 14:20:26,1.0745680332183838,21,-0.10938051,-0.0457357,0.10924919,-1.0179882,0.4589417,0.4680125,0.32331717,0.042475473,0.004518155,0.0068184203,0.5031104167388143,-0.8642015235260063,0.005969531323849725,0.8450757077451534,0.49050659342497943,-0.21272124949249996,0.1809059334237689,0.1120669823897821,0.977094690759357,0.022204136,-0.03956567,0.111578606,-0.67177993,0.1166224,-0.10672517,0.4467796,-0.040224973,0.0022313679,0.0026893988,0.7140852156023882,-0.4838708981880534,-0.5059162566520047,0.61284543410403,0.7813926410308242,0.11766908872221457,0.3383825922767505,-0.3940742245181228,0.8545190031909803,left_images/camera_left_21.png,right_images/camera_right_21.png
2025-06-02 14:20:26,1.1258502006530762,22,-0.11818565,-0.049018443,0.10972553,-1.0514728,0.47930476,0.46548885,0.33830374,0.0416989,0.0050086146,0.0069180215,0.47523952314923873,-0.8798481363832806,0.0038278636015420253,0.8579462824283601,0.4624358841153951,-0.2237883588343444,0.1951296289758186,0.1096371742853704,0.9746302467656535,0.021988673,-0.04060441,0.111483574,-0.7226237,0.12863712,-0.11147243,0.4608009,-0.040115405,0.002183252,0.0028987834,0.6887864311677856,-0.5097414057480956,-0.515496800673972,0.6504913964990349,0.7484703083592295,0.1290470479529669,0.32005342572745676,-0.42421208937345883,0.8471185914082655,left_images/camera_left_22.png,right_images/camera_right_22.png
2025-06-02 14:20:26,1.1834607124328613,23,-0.12389739,-0.051091664,0.11015209,-1.0782119,0.49516964,0.4626935,0.34657344,0.04116437,0.0053542824,0.006890378,0.45247921467570984,-0.8917738567851456,0.001395937319291926,0.8675547139326405,0.4398271871787811,-0.23216559553830457,0.206425237361392,0.10626115834559675,0.9726752734635259,0.022042675,-0.04177914,0.11118268,-0.7717463,0.13899903,-0.117346324,0.4669935,-0.040100627,0.0021724869,0.0032931361,0.6633836923823617,-0.5338276336676686,-0.5243568767680284,0.6852141421999554,0.7149495985381557,0.1390275184246248,0.3006720073607175,-0.4515253360365368,0.8400721486317524,left_images/camera_left_23.png,right_images/camera_right_23.png
2025-06-02 14:20:26,1.2366280555725098,24,-0.1292837,-0.05341552,0.11064455,-1.1010791,0.5080503,0.45963913,0.36103177,0.04057174,0.0057275044,0.0068040183,0.4336147154651763,-0.9010982669906908,0.0004379023040164548,0.8748610930829979,0.420872691630035,-0.23975872298982526,0.21586186866067025,0.10434601413788251,0.9708324072628913,0.02235371,-0.04281181,0.11094733,-0.81146187,0.146427,-0.12265119,0.46904626,-0.040064182,0.0021926707,0.0036190446,0.6420150146135304,-0.552579306748997,-0.5314817313545087,0.7120883710949077,0.6866924217617069,0.1462315617315323,0.28415994221949925,-0.4723448185889626,0.8343521436359895,left_images/camera_left_24.png,right_images/camera_right_24.png
2025-06-02 14:20:26,1.2952227592468262,25,-0.13475409,-0.056737266,0.11107186,-1.1212647,0.5161824,0.45688313,0.38561055,0.03993921,0.0062276064,0.006794773,0.41908027552605154,-0.9079453173662901,0.0026501580397106095,0.8796791634695416,0.4053073217894635,-0.24877810245554122,0.2248027847303859,0.10658928452935122,0.96855688134512,0.023164473,-0.043965735,0.11072898,-0.85362357,0.15349959,-0.12667927,0.46876645,-0.039955415,0.002252291,0.0039694295,0.6173788074040112,-0.5715473872248492,-0.540533988131042,0.7397086677442731,0.6556210767100966,0.15163143024283057,0.26772092752041954,-0.493451707799195,0.8275451148050265,left_images/camera_left_25.png,right_images/camera_right_25.png
2025-06-02 14:20:26,1.3568284511566162,26,-0.13954929,-0.06015767,0.11156211,-1.1358311,0.5274313,0.45341107,0.3860554,0.03937596,0.006667451,0.006693556,0.4071986771510542,-0.9133389973234106,0.0010551278115003143,0.8837534396796173,0.3937162127523749,-0.2529177765013205,0.23058424746906897,0.10392025685203873,0.9674872014837869,0.023220228,-0.045134526,0.11050159,-0.885976,0.16080119,-0.13218309,0.47748384,-0.039948042,0.0022956566,0.004271064,0.5993763924650106,-0.584436353143475,-0.5469754009825167,0.7595296549391272,0.6309621612626286,0.1581184819141747,0.2527105922269189,-0.5102165228402038,0.822080565636466,left_images/camera_left_26.png,right_images/camera_right_26.png
2025-06-02 14:20:26,1.4151372909545898,27,-0.14486343,-0.06282605,0.112013824,-1.1526047,0.53910863,0.45033598,0.3986678,0.03879416,0.0070507117,0.006657495,0.3933236930643781,-0.9194000248968787,-0.00025825146222803463,0.8882098769532575,0.3800529127261425,-0.258153051523809,0.23744407121863076,0.10130833010169467,0.9661039981777986,0.023195496,-0.046377707,0.11020792,-0.92962533,0.1708638,-0.13759935,0.49078172,-0.03992044,0.0023409135,0.004673728,0.5734198742817788,-0.6003685765980463,-0.5574470557930185,0.785298921893491,0.5966737337813954,0.16518492270267596,0.23344217924700228,-0.532482889536372,0.8136133733533429,left_images/camera_left_27.png,right_images/camera_right_27.png
2025-06-02 14:20:26,1.4668858051300049,28,-0.15020066,-0.06497744,0.11228685,-1.1668442,0.54673177,0.44671565,0.41703063,0.03825075,0.0073683374,0.0067707784,0.38262517088011455,-0.9239022092444367,0.0016390125724479315,0.891665206944217,0.36880882656499253,-0.262513253328056,0.2419320924021655,0.10190562889753814,0.9649269948886847,0.023042236,-0.04731673,0.10993651,-0.9702401,0.18062477,-0.1421988,0.48889405,-0.039893296,0.0023713075,0.005050146,0.5484437018542097,-0.6136092272024106,-0.5680609317568948,0.8080032018483007,0.563783493861388,0.171111068760442,0.2152680461641842,-0.5528398396837069,0.8050017266808488,left_images/camera_left_28.png,right_images/camera_right_28.png
2025-06-02 14:20:27,1.5216009616851807,29,-0.15341952,-0.06678015,0.11246659,-1.174899,0.551935,0.44468224,0.41730046,0.037926663,0.007611109,0.006831603,0.37660879242465434,-0.9263701992355545,0.0020177801471893547,0.8934091928438582,0.36263114824075354,-0.26517666652192134,0.2449200514668598,0.10167056749065286,0.9641977308081571,0.022718007,-0.04844733,0.10972622,-1.0100441,0.1914039,-0.14622405,0.5039088,-0.03983354,0.002432551,0.0053806296,0.523102171113029,-0.6246781592841899,-0.579776953569346,0.8290380930806771,0.5307117159366171,0.17618432049636495,0.19763592486688702,-0.5728195805669771,0.7954984408036778,left_images/camera_left_29.png,right_images/camera_right_29.png
2025-06-02 14:20:27,1.573566198348999,30,-0.15701202,-0.06776457,0.1123536,-1.1816725,0.5523824,0.4418055,0.43657002,0.037667103,0.007753998,0.007145551,0.3730381038668256,-0.927789758778525,0.006981158151048564,0.8947550911047143,0.35774473830268855,-0.26726771065531896,0.24547077220239044,0.10594746680514541,0.9635970289866687,0.021889972,-0.049641483,0.109232314,-1.0560398,0.20400919,-0.15103774,0.5104791,-0.039930582,0.002495827,0.005957945,0.49331598491342216,-0.6359705489243118,-0.5934482285168688,0.8517653081114357,0.4915724490001135,0.18125227524602758,0.17645169006481956,-0.5948932578916493,0.7841981973891093,left_images/camera_left_30.png,right_images/camera_right_30.png
2025-06-02 14:20:27,1.6333801746368408,31,-0.15991281,-0.069382854,0.11240868,-1.1872458,0.55628604,0.43929052,0.4498939,0.03742768,0.007948538,0.0072845146,0.3691421515037603,-0.929338985102954,0.00794498275557906,0.8960721386115257,0.3536343327099204,-0.2683234636273468,0.2465538366915869,0.10616877835136321,0.9632961102984053,0.02119451,-0.050800737,0.10873923,-1.0890032,0.21279995,-0.15539226,0.5209221,-0.040085644,0.0025756,0.0064858627,0.4719108924815978,-0.6432713950900573,-0.6029112885127575,0.8669137524865096,0.46305697558243697,0.18449602465691634,0.1605012626336034,-0.6097377711962235,0.7761824496016908,left_images/camera_left_31.png,right_images/camera_right_31.png
2025-06-02 14:20:27,1.6871087551116943,32,-0.16172682,-0.07281354,0.11262968,-1.1939346,0.56049347,0.43538725,0.4675756,0.037194975,0.008355614,0.0072370414,0.3650965554179115,-0.93093588515386,0.007929877349309264,0.8971476941561665,0.3495448168916518,-0.270082276083521,0.24865743522414419,0.1057203798563969,0.9628045913843419,0.02187699,-0.052278742,0.108495586,-1.1284148,0.21991201,-0.1601597,0.51211953,-0.039986406,0.0027430104,0.0068792677,0.4449871006642941,-0.6521572601684591,-0.6137404893372718,0.8842097165375975,0.42861172775759687,0.1856479571908855,0.14198470841216174,-0.6252862503191767,0.7673704761970563,left_images/camera_left_32.png,right_images/camera_right_32.png
2025-06-02 14:20:27,1.7436716556549072,33,-0.16303328,-0.07670186,0.112988114,-1.1959679,0.56165606,0.4327628,0.4930182,0.036879055,0.008808382,0.007061729,0.3657098524692131,-0.9306875315707059,0.008776239842492345,0.8966327550005049,0.34976796752375877,-0.2714996713708946,0.2496117113982261,0.10715916887100876,0.9623985172784315,0.022880498,-0.053602353,0.10834664,-1.1770531,0.23094249,-0.16656129,0.5254004,-0.039743364,0.0028976966,0.0072738635,0.4119553051599285,-0.659524942810143,-0.6287445239219724,0.903499672316754,0.38518960622223164,0.18792900090693854,0.11824199200837315,-0.645488820251474,0.7545614714894022,left_images/camera_left_33.png,right_images/camera_right_33.png
2025-06-02 14:20:27,1.797454833984375,34,-0.1646303,-0.0792909,0.113367535,-1.1953974,0.56109816,0.4320661,0.51033723,0.036493525,0.009119789,0.0068875523,0.3681963506770343,-0.9296885907838118,0.010515299069662615,0.8955668482331794,0.3515988553310056,-0.2726504452144096,0.24978284107160684,0.10980605218446131,0.9620556965217033,0.02322498,-0.054610956,0.10819719,-1.2236185,0.24197806,-0.172538,0.53309774,-0.03956394,0.0030359398,0.007631073,0.37998676596864644,-0.6646465772737444,-0.6433156185007367,0.9201151476808533,0.34291966555557973,0.18919359921384898,0.09485869858336826,-0.6638155092294438,0.7418563183053197,left_images/camera_left_34.png,right_images/camera_right_34.png
2025-06-02 14:20:27,1.8551230430603027,35,-0.16649522,-0.08220049,0.11360345,-1.1967459,0.55759996,0.4298789,0.51482606,0.036123265,0.009482775,0.0068486063,0.3706924558660567,-0.9286222339454914,0.015743245728775904,0.8945762893453769,0.35244296700155886,-0.27480396203874946,0.24964047289061114,0.11595128991616749,0.9613713812370996,0.024274731,-0.05615028,0.10819456,-1.2689943,0.25191653,-0.17872775,0.5311855,-0.039261106,0.0032620032,0.007896236,0.3482509797790149,-0.6679770083833892,-0.6576685877812123,0.934623487688886,0.3013942728619749,0.1887867276750793,0.07211235222359119,-0.6804176721376212,0.7292678520952379,left_images/camera_left_35.png,right_images/camera_right_35.png
2025-06-02 14:20:27,1.919321060180664,36,-0.16803975,-0.08432945,0.11373319,-1.1993328,0.55561393,0.4280589,0.53947425,0.035872325,0.009756327,0.0068655387,0.37119630180820773,-0.9283486655450462,0.019546373183832524,0.8942005375412628,0.35171100514348963,-0.27695625561065174,0.2502372957511058,0.12028351525328781,0.9606837001706053,0.02481537,-0.056547962,0.10821252,-1.3065023,0.2608587,-0.18235295,0.54523015,-0.039016686,0.0033778534,0.008088821,0.32132516373654846,-0.6689098986250185,-0.6703056665963282,0.9454594040193273,0.2665637073242472,0.18721726760363633,0.05344768003476674,-0.69390441521799,0.7180807809988237,left_images/camera_left_36.png,right_images/camera_right_36.png
2025-06-02 14:20:27,1.9752326011657715,37,-0.1684525,-0.08645108,0.11385025,-1.1967559,0.5513604,0.42743227,0.5459207,0.035700545,0.010000975,0.006823929,0.37595305816313906,-0.9263519088047206,0.02305296318554756,0.8925073362540695,0.3553034539634322,-0.2778310823761815,0.2491785560405404,0.1250263838375966,0.9603532946546524,0.025480496,-0.0573293,0.10842289,-1.3447751,0.26881424,-0.18751052,0.53926766,-0.038677696,0.0035552867,0.008116063,0.2943011248032581,-0.6693915881333226,-0.6821303025638761,0.9551305041521867,0.2309162481896404,0.18548155261375715,0.03335517917095715,-0.706110889349802,0.7073152366265729,left_images/camera_left_37.png,right_images/camera_right_37.png
2025-06-02 14:20:27,2.0297837257385254,38,-0.16811213,-0.088445865,0.11399293,-1.1945912,0.5471285,0.42737225,0.565655,0.035584547,0.010243149,0.0067157997,0.38015264487583544,-0.9245672583387043,0.025677838732241873,0.8907493118528076,0.35848869375500636,-0.2793770210371278,0.2490976315175586,0.12907843064540783,0.9598380742158865,0.026564024,-0.0575347,0.10866292,-1.3808633,0.2766223,-0.19019398,0.5608927,-0.038286187,0.0036974763,0.008139077,0.26747739005437426,-0.6680517559397062,-0.6943793611532352,0.9634393324572786,0.1970198215027304,0.1815704893679177,0.01550801354052117,-0.7175583887886108,0.6963256854339925,left_images/camera_left_38.png,right_images/camera_right_38.png
2025-06-02 14:20:27,2.0860300064086914,39,-0.16824824,-0.090689465,0.11414252,-1.1920898,0.542064,0.42650142,0.5744727,0.035405383,0.010510111,0.0066354945,0.385135370556556,-0.922382829014566,0.029675968145125464,0.8889214546769911,0.36213958875655516,-0.28048808472050224,0.24797055018934572,0.1344054872180423,0.9593986508456609,0.02814415,-0.05746601,0.10902695,-1.4187686,0.28614864,-0.19298322,0.557614,-0.037762664,0.0038321328,0.008113008,0.23947019252239032,-0.664081581704125,-0.7082723203222311,0.970897849215481,0.1612564022716947,0.17706987071532715,-0.0033753936129911066,-0.7300630284898264,0.6833714810776204,left_images/camera_left_39.png,right_images/camera_right_39.png
2025-06-02 14:20:27,2.138725996017456,40,-0.16858445,-0.09247568,0.11438264,-1.1910999,0.53707063,0.42568946,0.5913232,0.03514941,0.010749929,0.0064970795,0.38880374592660305,-0.9206909852786685,0.034055201952655545,0.8874805200665205,0.36434108215084393,-0.28219479506116085,0.24740649477307608,0.13994172174068253,0.9587524919708701,0.02935676,-0.057130545,0.10934481,-1.4504925,0.2936146,-0.19569865,0.55524266,-0.03733716,0.003924122,0.008066816,0.21632321536695037,-0.6602148951526778,-0.7192499973665919,0.9761183916670264,0.13121567934308093,0.17313385268026393,-0.019928671372713147,-0.7395260223366533,0.6728328992731003,left_images/camera_left_40.png,right_images/camera_right_40.png
2025-06-02 14:20:27,2.190476894378662,41,-0.16939731,-0.09423305,0.11456239,-1.1894463,0.53149337,0.42495134,0.60015047,0.034877848,0.010979865,0.0064377645,0.3932499067070776,-0.9185927580854397,0.03926647002035703,0.8858394058458735,0.36709788650106623,-0.2837740100451066,0.2462581124054692,0.1463778894486293,0.9580868726556377,0.03101532,-0.05671914,0.109582394,-1.4808743,0.30076072,-0.1980573,0.56298536,-0.036921434,0.004010322,0.008110754,0.19402160601280172,-0.6553178294405904,-0.7300096977557811,0.9803466641382326,0.10242559371802296,0.16861024839715466,-0.035721625288511805,-0.7483766031676726,0.6623114262323754,left_images/camera_left_41.png,right_images/camera_right_41.png
2025-06-02 14:20:27,2.239654302597046,42,-0.16895863,-0.095981605,0.114612676,-1.1883451,0.5293595,0.42417172,0.59991723,0.034861423,0.011180113,0.0063883234,0.3956792285098583,-0.9174961314194906,0.04048205721195994,0.8848053165470561,0.3690283994145051,-0.28449532902252117,0.2460843350071423,0.14838763174819372,0.9578223273698808,0.031877868,-0.05624411,0.10977458,-1.5050938,0.30624002,-0.1991085,0.5700005,-0.036634084,0.004077583,0.008111104,0.17566404427446775,-0.6513449994459182,-0.7381678909610838,0.9832743394307846,0.07944911497573687,0.16388841187383107,-0.048101111900788585,-0.754610846613252,0.654407176922395,left_images/camera_left_42.png,right_images/camera_right_42.png
2025-06-02 14:20:27,2.2948997020721436,43,-0.16957586,-0.098836094,0.11476758,-1.186329,0.52393126,0.42242762,0.6265855,0.03463122,0.011521419,0.006343768,0.4008228163110976,-0.9150235490594423,0.04552993071708626,0.882910696924003,0.37253455928294044,-0.28580885815005264,0.24456036306321532,0.1547575743106873,0.9572044306269485,0.033896487,-0.055457193,0.109984875,-1.5320597,0.31204832,-0.1994563,0.5717287,-0.03622356,0.004137555,0.008176006,0.1547615016467328,-0.6457487242522137,-0.7477014529440791,0.9860333382115465,0.053816914669511495,0.15761343734227873,-0.06153969079742144,-0.7616510518748681,0.6450585567485054,left_images/camera_left_43.png,right_images/camera_right_43.png
2025-06-02 14:20:27,2.349165201187134,44,-0.1705487,-0.10086083,0.11494619,-1.1838429,0.5181462,0.42068523,0.64731365,0.034340966,0.011770216,0.006298907,0.4060186933171464,-0.9124232010070633,0.051310066663972184,0.8812395175466178,0.3760378220194677,-0.28637819247467045,0.24200358136036187,0.1614913578953356,0.9567417665879749,0.035773553,-0.05488724,0.11032279,-1.5573549,0.31833288,-0.20031802,0.5627232,-0.03575998,0.004221236,0.008129545,0.13559259056713147,-0.6393145956904158,-0.756895961886767,0.9879708710060056,0.029916929451928365,0.1517186058985618,-0.07435191609453667,-0.7683630815372172,0.6356807119173136,left_images/camera_left_44.png,right_images/camera_right_44.png
2025-06-02 14:20:27,2.4043142795562744,45,-0.17130785,-0.10274358,0.11509044,-1.1823555,0.510774,0.4194982,0.6655099,0.034068875,0.012025015,0.006273281,0.41097420733281775,-0.9097921416200282,0.058124521104303536,0.8793688832237362,0.37880105918648366,-0.288478984983373,0.24043828340137757,0.16967031739712346,0.9557203645781325,0.03796987,-0.05435876,0.11068537,-1.58362,0.3236099,-0.2010412,0.57507205,-0.035267137,0.004324023,0.008070063,0.11542299833696257,-0.6328298362130798,-0.7656395560924425,0.9894308441316129,0.005136908933552786,0.1449145156553075,-0.08777320853147336,-0.7742738601845831,0.6267342764672723,left_images/camera_left_45.png,right_images/camera_right_45.png
2025-06-02 14:20:27,2.4577012062072754,46,-0.1719504,-0.10408906,0.115311,-1.1802783,0.5070737,0.41829595,0.6669031,0.033813886,0.012197069,0.006166434,0.41462670711723587,-0.9078903074440997,0.06180520523528929,0.8782024924762334,0.3814234618640268,-0.2885767228107502,0.23842205425180205,0.17392910161534086,0.9554598849023602,0.040571738,-0.053580802,0.11101522,-1.6145597,0.33034742,-0.201892,0.5716931,-0.03473513,0.004429874,0.008090351,0.09188371540245899,-0.6240385452053306,-0.7759724717680743,0.9903462234743253,-0.02395263217179433,0.13653068908558513,-0.10378699578454859,-0.7810263539151912,0.6158133597088982,left_images/camera_left_46.png,right_images/camera_right_46.png
2025-06-02 14:20:28,2.513770341873169,47,-0.17241849,-0.10625697,0.115477465,-1.1803166,0.5008305,0.41598132,0.6815856,0.033572383,0.0124863135,0.0061054425,0.4180749049827316,-0.905864297691936,0.06799447029557215,0.8769380809499681,0.38292532435615323,-0.2904269239353028,0.23705057688912556,0.18104714892488738,0.9544783674147373,0.042587087,-0.052593462,0.111306705,-1.6382933,0.334473,-0.20163529,0.5712445,-0.034317978,0.004482198,0.0080573205,0.07325928413967658,-0.6175692362180204,-0.7830972581770627,0.9905304880381552,-0.04636302171410406,0.12922779300302056,-0.11611386460813433,-0.7851488449298187,0.6083246351670589,left_images/camera_left_47.png,right_images/camera_right_47.png
2025-06-02 14:20:28,2.56101655960083,48,-0.17359792,-0.109030485,0.11556457,-1.1804317,0.4945013,0.41321364,0.69493675,0.033316933,0.012835147,0.006159086,0.42194191441808815,-0.9035138250002772,0.07501859029978852,0.8755357900014762,0.3845944734190281,-0.29244515971722246,0.23537650962593964,0.1890763312763108,0.9533352189379143,0.044832807,-0.051794782,0.11159716,-1.6657226,0.33805376,-0.20234007,0.56944984,-0.03388706,0.0045727035,0.008037385,0.05225946810234561,-0.6105280623142035,-0.7902685829011072,0.9900050221781318,-0.072129179055758,0.12119173895451585,-0.13099238167060334,-0.7887032817578526,0.6006564153396321,left_images/camera_left_48.png,right_images/camera_right_48.png
2025-06-02 14:20:28,2.6120288372039795,49,-0.17514081,-0.11071203,0.11563415,-1.1790407,0.4883488,0.41074684,0.6916579,0.033033647,0.013044826,0.006239999,0.4262393787620704,-0.9008734722273656,0.08213999652747772,0.8743066102709552,0.38695338854310857,-0.2930102836617137,0.2321808416494267,0.19670806321047396,0.9525744037286263,0.04665025,-0.050147656,0.11173387,-1.6911726,0.34622332,-0.20230655,0.5844153,-0.033531036,0.004565552,0.008177616,0.033353784901292316,-0.5999085165086911,-0.7993730648784083,0.9889461859195735,-0.09580780202508593,0.11316495228758117,-0.14447479499167637,-0.7943114231153066,0.5900816864813292,left_images/camera_left_49.png,right_images/camera_right_49.png
2025-06-02 14:20:28,2.6617934703826904,50,-0.17639974,-0.11282269,0.11588844,-1.1785495,0.48263785,0.40790156,0.7135827,0.032668635,0.013327414,0.006166217,0.42985825910414843,-0.8985176561235332,0.0888138430326217,0.8732181149796608,0.3887000082191464,-0.2939428979951776,0.2295909422240317,0.20390763900528072,0.9516878028029851,0.050184328,-0.048135463,0.11182702,-1.7219458,0.35205874,-0.2011559,0.5719317,-0.033067428,0.0045621805,0.008435281,0.009439886230054317,-0.58854043343746,-0.8084126710766045,0.9869292686034208,-0.1245832168316634,0.10222348486425004,-0.16087730517969423,-0.7988111042625293,0.5796717281229076,left_images/camera_left_50.png,right_images/camera_right_50.png
2025-06-02 14:20:28,2.720349073410034,51,-0.17725018,-0.11498682,0.11620277,-1.1790973,0.47979325,0.40495175,0.7230903,0.032349702,0.013613204,0.006011786,0.43163522376031965,-0.8972524626419064,0.09289269019903078,0.8727677865857325,0.3893792269381335,-0.29438105972922723,0.22796364689928117,0.20813898220202728,0.9511628355756359,0.05283538,-0.046925575,0.11205088,-1.7420245,0.35556015,-0.19925088,0.57206845,-0.0326525,0.0045926087,0.008483283,-0.007044938328393702,-0.5807059868627534,-0.8140828739543075,0.98524930375079,-0.14322973327288446,0.09364322167227052,-0.17098005235270208,-0.8014148740373703,0.573149213878143,left_images/camera_left_51.png,right_images/camera_right_51.png
2025-06-02 14:20:28,2.772632598876953,52,-0.17908405,-0.11698579,0.116375975,-1.1805642,0.47215953,0.40144318,0.73076683,0.03194964,0.013901137,0.0060485406,0.4345094771977419,-0.8948463648724982,0.10223256574996448,0.8720012427508204,0.38955217970108225,-0.29641682126890273,0.22542259617520577,0.2179428424257414,0.9495712561830305,0.05618535,-0.044738196,0.11237404,-1.7677892,0.35983282,-0.19716337,0.57614076,-0.032110296,0.004560037,0.008505469,-0.02748940906303171,-0.5704987645709462,-0.820838286151657,0.9823843944926899,-0.16725523835471595,0.0833461858763691,-0.18483839927514095,-0.8040875853201139,0.5650468310569242,left_images/camera_left_52.png,right_images/camera_right_52.png
2025-06-02 14:20:28,2.822754383087158,53,-0.18027757,-0.11886346,0.1164803,-1.1819787,0.46723083,0.3985986,0.73769975,0.031698987,0.014153935,0.006085706,0.4362812559598914,-0.8932495136134089,0.10846184641369652,0.8715108545078498,0.38948642772146547,-0.2979415263030135,0.2238917063516586,0.22451197974758555,0.9484022747635955,0.058983725,-0.043430455,0.11251057,-1.7880191,0.36316624,-0.19596933,0.56924206,-0.03173788,0.004573903,0.008633776,-0.04326751285064134,-0.5620039541071702,-0.8260021052634341,0.979701811706879,-0.18584857181230985,0.07513100886840046,-0.1957352356372723,-0.8059850271085875,0.5586374974943866,left_images/camera_left_53.png,right_images/camera_right_53.png
2025-06-02 14:20:28,2.872824192047119,54,-0.18228225,-0.120321356,0.11668843,-1.1848012,0.46093804,0.39513594,0.7502878,0.031277884,0.014387341,0.006102723,0.43739685351333346,-0.8916131613407924,0.1170895514574786,0.8714673104156662,0.3881407174620647,-0.2998191293512112,0.22187545924126031,0.23317966028775255,0.9467832521831847,0.06172568,-0.04190273,0.11267121,-1.8099964,0.3667868,-0.19626667,0.56385803,-0.031356197,0.0045649824,0.008744419,-0.05897350785885286,-0.5527055548081314,-0.8312873721253424,0.9762195687298829,-0.20594968719101192,0.06767628812786647,-0.20860843463211992,-0.8075278917970328,0.5517075538454921,left_images/camera_left_54.png,right_images/camera_right_54.png
2025-06-02 14:20:28,2.9295763969421387,55,-0.18457018,-0.122054905,0.11680076,-1.1871638,0.45607856,0.39181194,0.7426467,0.030917931,0.014628816,0.006210548,0.43852500477707385,-0.8900347559876118,0.1246352811981406,0.8714037627709099,0.38715701043882916,-0.30127218838911746,0.21988929581488703,0.2407230408626074,0.9453576652166589,0.063872285,-0.040213797,0.11279542,-1.8270403,0.3702631,-0.19527026,0.5612693,-0.031053944,0.0045159534,0.008836876,-0.07173858821777906,-0.5447762548087478,-0.8355072753465849,0.973250135812445,-0.22153459771073264,0.06088181303312801,-0.21826073421845,-0.8087899938882144,0.5460961432611706,left_images/camera_left_55.png,right_images/camera_right_55.png
2025-06-02 14:20:28,2.98781681060791,56,-0.18702808,-0.12326106,0.11693942,-1.1884334,0.45228916,0.3890973,0.74999946,0.030539293,0.014800699,0.006302041,0.43981560307554446,-0.888457431699075,0.13117022280219942,0.8713595487979968,0.3867825094881929,-0.3018804847494576,0.21747361221501482,0.24706817361347755,0.9442788494811551,0.06719003,-0.03831595,0.11312227,-1.8493459,0.37453994,-0.19379179,0.5457644,-0.030527897,0.0044966494,0.008852668,-0.08856077370074678,-0.5338828344931371,-0.8409079072021493,0.9689891387076331,-0.24169800839398126,0.051401573954715785,-0.23068818441386257,-0.8102784655733832,0.5387316305915955,left_images/camera_left_56.png,right_images/camera_right_56.png
2025-06-02 14:20:28,3.0372350215911865,57,-0.19002704,-0.12442885,0.11707329,-1.1922177,0.4440732,0.38395157,0.7402811,0.030034205,0.014999248,0.006454286,0.4405916554245959,-0.886211757361066,0.14320514755142358,0.8719175008545447,0.3844912877140514,-0.3031935378195838,0.21363254638228465,0.2584476171045138,0.9421071936564435,0.07151014,-0.03606662,0.11339188,-1.8732264,0.37908155,-0.19257818,0.5390802,-0.029943367,0.0044465293,0.008989241,-0.10579683511514887,-0.5213044614427108,-0.8467872744435541,0.9638519553870591,-0.2631719060497445,0.04159273930251178,-0.24453310159600128,-0.8117771900873227,0.530303079264839,left_images/camera_left_57.png,right_images/camera_right_57.png
2025-06-02 14:20:28,3.089442253112793,58,-0.19170982,-0.12591027,0.117165744,-1.1936191,0.44191962,0.3817006,0.74583614,0.029789008,0.01519138,0.0065268064,0.4412291964254568,-0.8852043687504193,0.14741106392302386,0.871894165778104,0.38398718676633453,-0.30389867403689114,0.21240847418088135,0.26261581434568687,0.9412308824893614,0.07532545,-0.0344067,0.11387564,-1.8899484,0.3825925,-0.1899646,0.539472,-0.029297203,0.0044301813,0.008897317,-0.11896910062794996,-0.5113876356268823,-0.8510752253612627,0.9599999754406472,-0.27806231007466137,0.03288462969077999,-0.25346873623729926,-0.8131199406261601,0.5240129405905702,left_images/camera_left_58.png,right_images/camera_right_58.png
2025-06-02 14:20:28,3.1406450271606445,59,-0.19330357,-0.12702812,0.11728747,-1.1952895,0.4403872,0.37986878,0.73986006,0.029540803,0.015346402,0.006566003,0.4413030630810928,-0.8845732832239526,0.1509361226533985,0.8720513549725633,0.38308388582072583,-0.3045868853299655,0.21160822480650754,0.26603917574464453,0.9404494224376707,0.078403525,-0.033072017,0.11416124,-1.9018532,0.3857519,-0.18627234,0.5349425,-0.02883411,0.004419073,0.00891223,-0.1296123657649509,-0.5034158705963169,-0.8542675786149003,0.9571425414086591,-0.288551662062875,0.02482123579771406,-0.2589957336841399,-0.8144387021455357,0.5192406093333892,left_images/camera_left_59.png,right_images/camera_right_59.png
2025-06-02 14:20:28,3.1962954998016357,60,-0.1940005,-0.12817699,0.117244355,-1.1970563,0.43733364,0.3765503,0.72242546,0.029454608,0.015483336,0.006670637,0.44139832494904413,-0.8837302910749621,0.15552585434178162,0.8724549239469662,0.38216273067648227,-0.304588333595672,0.2097377515204928,0.27013407766969627,0.9397008330679881,0.082030736,-0.031606212,0.11440403,-1.9166923,0.38803056,-0.18227705,0.517318,-0.028356995,0.0044100545,0.008987315,-0.1426093722604755,-0.4948526613820501,-0.8571950830858603,0.9532688455715399,-0.30172091233463644,0.015588429127341596,-0.2663476581578607,-0.8149143111904813,0.5147558551495716,left_images/camera_left_60.png,right_images/camera_right_60.png
2025-06-02 14:20:28,3.2543551921844482,61,-0.19623125,-0.12964883,0.11714862,-1.200605,0.43219835,0.3719323,0.7196685,0.02922607,0.015668746,0.0069368985,0.441222500832831,-0.8822917407972777,0.1639633766416496,0.8731751566279091,0.37992211768913303,-0.3053265961858392,0.20709382078335506,0.2778857114202052,0.9380254158506782,0.085537955,-0.030161303,0.1146542,-1.934669,0.39161766,-0.17969972,0.5028122,-0.027877517,0.004420877,0.009070452,-0.15664807282113746,-0.4842957322029342,-0.8607665334174228,0.9483091658238796,-0.3172923701450191,0.0059395169983635365,-0.2759911362631801,-0.8153423793829069,0.5089653201214978,left_images/camera_left_61.png,right_images/camera_right_61.png
2025-06-02 14:20:28,3.3071346282958984,62,-0.19778354,-0.13184011,0.117288716,-1.203469,0.42916125,0.367988,0.7456138,0.028950213,0.015954426,0.0069794515,0.4411763923828753,-0.8812649789115075,0.16951527290521914,0.8735412559540441,0.3784221589257968,-0.30614105209881565,0.20564305227812088,0.2831407893222711,0.9367722393792948,0.0896146,-0.029096806,0.11507077,-1.9491167,0.39367992,-0.17770724,0.50361717,-0.027263686,0.004441996,0.009040669,-0.16753983134844153,-0.47530393887141953,-0.8637225078722041,0.9440487800468369,-0.32980181500230454,-0.0016320886203176621,-0.284081512604771,-0.8156696197079425,0.5039650441069161,left_images/camera_left_62.png,right_images/camera_right_62.png
2025-06-02 14:20:28,3.372230291366577,63,-0.19948016,-0.13304597,0.11730266,-1.2052574,0.42583582,0.3654422,0.71894807,0.028734133,0.01611304,0.007118216,0.44162192645595655,-0.8799880687197422,0.17490303880787192,0.8736805572064953,0.37744969102788084,-0.3069430153991214,0.20408909337021822,0.28836215017553113,0.9355185259060703,0.09192047,-0.02793616,0.115339994,-1.9585581,0.39670154,-0.17472728,0.49862623,-0.026884086,0.004426536,0.00901735,-0.17576694361004086,-0.4683699594234011,-0.8658727173457462,0.9411723712551964,-0.33782454146910945,-0.008315453508797421,-0.28861834508543593,-0.8163970604374489,0.5001952524657113,left_images/camera_left_63.png,right_images/camera_right_63.png
2025-06-02 14:20:28,3.421529531478882,64,-0.20216963,-0.1342654,0.11746547,-1.2094947,0.41810554,0.3611427,0.7424443,0.028253704,0.016327757,0.0072416095,0.4416502084154865,-0.8777257482553423,0.18585640762738656,0.8742536550907501,0.3744871813127649,-0.30893348409145377,0.20155803126400482,0.2989261813257919,0.9327472852552071,0.0948982,-0.02673555,0.11558503,-1.9726703,0.39958683,-0.1734537,0.48123887,-0.026461963,0.0044234158,0.009063344,-0.18580435535196332,-0.4595334881995663,-0.8685077516956197,0.9366986396252384,-0.34980173616628846,-0.015310254709769877,-0.2967699446650031,-0.8163747415238846,0.49543907934814907,left_images/camera_left_64.png,right_images/camera_right_64.png
2025-06-02 14:20:28,3.4739811420440674,65,-0.20480719,-0.13541372,0.1176021,-1.2123516,0.41270065,0.35705218,0.720433,0.027831327,0.016505368,0.0073692184,0.44180648538269657,-0.8757460140076074,0.19461744121115274,0.874857819591673,0.37256869703708023,-0.3095421804655968,0.19857196421724013,0.3070203331017014,0.9307565149323572,0.097567946,-0.0254241,0.11572565,-1.983609,0.40377596,-0.17107673,0.46563768,-0.026116889,0.004400325,0.009189874,-0.19426766489130232,-0.45078240632934224,-0.8712377956227613,0.9331381584663403,-0.3588184892914662,-0.02241581933896669,-0.3025115726575231,-0.8173399010733036,0.4903490945456659,left_images/camera_left_65.png,right_images/camera_right_65.png
2025-06-02 14:20:29,3.528174877166748,66,-0.20607254,-0.13688149,0.11769806,-1.2149466,0.41054296,0.35355774,0.70397997,0.02761974,0.016696412,0.007416322,0.4411342915674794,-0.8750835051373762,0.1990713335458966,0.8755199037199317,0.37090963097556007,-0.3096626290655934,0.1971431839894535,0.3108937192772755,0.9297739834607349,0.100206316,-0.024810407,0.11577691,-1.9909014,0.4062263,-0.16912398,0.45445198,-0.025839187,0.0044155186,0.009367188,-0.20011177929225885,-0.4444377266278068,-0.8731725963052167,0.9306965152624362,-0.3647463680614764,-0.027642059697487786,-0.30620135902187606,-0.8181901943532864,0.4866266881268303,left_images/camera_left_66.png,right_images/camera_right_66.png
2025-06-02 14:20:29,3.582387924194336,67,-0.20801388,-0.13809538,0.117787585,-1.2189777,0.40550035,0.34949845,0.7068215,0.02730054,0.016882045,0.007531883,0.440206456067857,-0.8737195005210392,0.20696016632541556,0.8763902372144239,0.36794821648704823,-0.3107318170050277,0.19534182386632828,0.3181640212111767,0.9276924207167537,0.10289493,-0.023837587,0.11585072,-2.0013711,0.4086806,-0.16730072,0.45571977,-0.025548065,0.004411636,0.009526955,-0.20796784968480553,-0.4370763122225011,-0.8750506675567176,0.9270392331182998,-0.37343818550828856,-0.03379618120012706,-0.3120058232740422,-0.8182348189231842,0.48285002572727626,left_images/camera_left_67.png,right_images/camera_right_67.png
2025-06-02 14:20:29,3.6342504024505615,68,-0.21046536,-0.13884678,0.11790524,-1.2232894,0.39957327,0.34538674,0.70716906,0.026896708,0.017024435,0.0076651406,0.43911636145426547,-0.8720329483535958,0.2161836212318176,0.8774418627790983,0.36455065359592065,-0.31176689754612064,0.19306112644940493,0.3265905049883143,0.9252383711809432,0.10536753,-0.023018388,0.11607886,-2.0097394,0.41277927,-0.16558221,0.4449458,-0.025171408,0.004424762,0.009573275,-0.2141626126916914,-0.4291235931039027,-0.8774892119944635,0.9241520781915754,-0.3799520731377659,-0.03974114357320352,-0.3163499829291298,-0.8194445459943644,0.4779469890488162,left_images/camera_left_68.png,right_images/camera_right_68.png
2025-06-02 14:20:29,3.68496036529541,69,-0.21285245,-0.14003053,0.11791724,-1.2282332,0.39231622,0.34015232,0.6909659,0.026549105,0.017206483,0.00788582,0.4379169169269641,-0.8699141285070799,0.2268880404361367,0.8786378697436568,0.3607076911637761,-0.31286651368854834,0.19032673937602962,0.33636196360329673,0.9222994967576548,0.10811839,-0.021774571,0.116229504,-2.0207677,0.4153704,-0.16439757,0.43899938,-0.024830125,0.0043912614,0.009678636,-0.2215994185106789,-0.42137236218611307,-0.8793969695771211,0.9200853260211391,-0.3890755183079819,-0.04542283449928258,-0.3230119046665354,-0.8191859211675152,0.4739174358520972,left_images/camera_left_69.png,right_images/camera_right_69.png
2025-06-02 14:20:29,3.734543800354004,70,-0.2138277,-0.14145516,0.11802818,-1.2297044,0.39070332,0.33746895,0.67787504,0.026366409,0.017389102,0.007901132,0.43780938206520037,-0.8691155908900183,0.230132645766701,0.8789513752056686,0.3599103455028769,-0.3129041757855971,0.1891227775804688,0.33926778932267393,0.9214824697889561,0.110717535,-0.020547997,0.11626995,-2.0265985,0.41820455,-0.16107723,0.43204728,-0.02456316,0.0043395087,0.009864045,-0.22709859393381057,-0.41522703976414804,-0.8809158496031214,0.9177737488844713,-0.3938189142892803,-0.05097066417613688,-0.32575692547025026,-0.8200568079082786,0.47052019862217886,left_images/camera_left_70.png,right_images/camera_right_70.png
2025-06-02 14:20:29,3.7885093688964844,71,-0.21551514,-0.14313778,0.11810429,-1.2321465,0.38576102,0.3339802,0.68702686,0.026089912,0.017618975,0.008018911,0.4380849066139946,-0.8670876748062449,0.23715096203917735,0.879206330813327,0.3583269076636596,-0.3140032724383074,0.1872907965031234,0.34606472146594025,0.9193265829409736,0.112519294,-0.019793028,0.11645241,-2.0340416,0.4220282,-0.1603994,0.43973774,-0.024275523,0.0043425797,0.009898202,-0.23188195015488658,-0.408239839384613,-0.8829331768212089,0.9150615026077207,-0.39946042331392007,-0.0556220877994027,-0.32998970838143926,-0.8208359176748354,0.4661922228193468,left_images/camera_left_71.png,right_images/camera_right_71.png
2025-06-02 14:20:29,3.836731433868408,72,-0.21715829,-0.14488812,0.11815432,-1.2346193,0.3825611,0.32963935,0.6603613,0.025859583,0.017835224,0.008142227,0.4376341372283301,-0.8656797151225853,0.24305347715614894,0.8799231205691213,0.3567248613299885,-0.31381949460956066,0.1849639527592194,0.3512064978532999,0.9178465732600984,0.114584535,-0.019090148,0.116571724,-2.0395186,0.4229112,-0.1575828,0.42084792,-0.024025884,0.0043332074,0.009955078,-0.23723324674063884,-0.4041204046000962,-0.8834065231968518,0.9127536597773358,-0.4040378118638664,-0.0602843524253075,-0.332567501725552,-0.8206339897726108,0.46471358020388387,left_images/camera_left_72.png,right_images/camera_right_72.png
2025-06-02 14:20:29,3.900222063064575,73,-0.2179934,-0.14632845,0.11833482,-1.2375592,0.3792952,0.3248482,0.6530987,0.025610438,0.01803409,0.008107644,0.43640719549896073,-0.8647335573515924,0.24856515143276192,0.8810079169276728,0.3545951592751851,-0.31318895786628365,0.18268500219638872,0.3556657810482562,0.9165849890565736,0.11677397,-0.018346487,0.11648693,-2.0442219,0.42628255,-0.15510906,0.4303168,-0.023866877,0.004324723,0.01022464,-0.241485613834195,-0.3980798439164279,-0.8849955571518957,0.9108793746593233,-0.40747995306997853,-0.06525988558316709,-0.33463930302844286,-0.8218835232035987,0.46100326588330975,left_images/camera_left_73.png,right_images/camera_right_73.png
2025-06-02 14:20:29,3.9533636569976807,74,-0.2200521,-0.14794043,0.11849317,-1.2391043,0.3724626,0.3191459,0.65211546,0.02520667,0.018255338,0.008203856,0.4371272518371625,-0.8614992698833288,0.2583384866638754,0.8816412216119811,0.3536428806042583,-0.31248275048785673,0.17784409480166535,0.3643565849390041,0.9141202092480849,0.1183015,-0.01751714,0.1166115,-2.0502853,0.4293888,-0.15323147,0.41468245,-0.02364615,0.0043134624,0.010271715,-0.24637795571409135,-0.39234560937865953,-0.8862069880899347,0.9084408878375418,-0.41209079043885566,-0.07011657250905756,-0.3376878088458096,-0.8223418408647145,0.4579528802400401,left_images/camera_left_74.png,right_images/camera_right_74.png
2025-06-02 14:20:29,4.007742166519165,75,-0.22199751,-0.14888602,0.118559286,-1.2422928,0.36496553,0.31296578,0.62685704,0.024855837,0.018395852,0.008357605,0.436280742967462,-0.858649824364368,0.26903455620942024,0.8829841772000379,0.3509874218078064,-0.3116837701053447,0.17319946919702645,0.37353488304541166,0.9113032618278721,0.12071889,-0.0163423,0.1167696,-2.054432,0.43346632,-0.14976522,0.4124542,-0.023318417,0.0042690146,0.010371428,-0.25074229324966013,-0.3857948049599825,-0.8878573482501515,0.9066334044101727,-0.4150754998178667,-0.07568486941634173,-0.339329003156998,-0.8239385279963776,0.45385144012070816,left_images/camera_left_75.png,right_images/camera_right_75.png
2025-06-02 14:20:29,4.060628890991211,76,-0.2231817,-0.15045634,0.11873675,-1.2447324,0.36194268,0.30774167,0.6147014,0.024580535,0.018601025,0.008354158,0.43517059601635194,-0.8574034059506037,0.2747470688234491,0.8841139057840688,0.3492543603081319,-0.31042550379277145,0.17020327247738626,0.3779957556244007,0.9100275022041514,0.12319883,-0.015132216,0.11686904,-2.0604284,0.43713528,-0.14724694,0.41314584,-0.023025507,0.0042218715,0.010517674,-0.255570686315925,-0.3788905435363005,-0.8894524047495591,0.904075133542331,-0.4196234707417496,-0.08102034135366182,-0.34253726396762,-0.8248382258488112,0.4497889771572468,left_images/camera_left_76.png,right_images/camera_right_76.png
2025-06-02 14:20:29,4.116023063659668,77,-0.22313604,-0.15226737,0.118877694,-1.2455571,0.36106956,0.3046589,0.5880331,0.02448743,0.01882273,0.008275399,0.4350765819251685,-0.8569032563381317,0.27645103931332604,0.8843837497492123,0.34905770785502743,-0.30987755608710493,0.16903772076029258,0.37930927468768855,0.9096981494408268,0.12451599,-0.014836853,0.116833486,-2.062178,0.43895727,-0.14602818,0.4193341,-0.022922384,0.004223968,0.010667665,-0.2571939848828492,-0.3757348411568922,-0.8903227410781362,0.9033322010681648,-0.42075909288040697,-0.08338297351259444,-0.34328150059889007,-0.8257028005882396,0.44763008885385736,left_images/camera_left_77.png,right_images/camera_right_77.png
2025-06-02 14:20:29,4.1670982837677,78,-0.2242861,-0.15327829,0.11893652,-1.248553,0.35394692,0.2980623,0.5734999,0.024219844,0.018962158,0.0083763,0.4338318568255822,-0.854321113804066,0.28622605491437664,0.8858735923300048,0.3465003885177272,-0.308488993595228,0.16437122137284277,0.387392456387117,0.9071434210304099,0.12679411,-0.013734819,0.116670705,-2.0678306,0.4425334,-0.14369097,0.42714804,-0.022807952,0.0041817757,0.011007918,-0.2617305450244023,-0.36914543649030623,-0.8917560027942679,0.9008734153314872,-0.4249665671255951,-0.0884901484599766,-0.3463007527427726,-0.8265198506653474,0.44378004135598614,left_images/camera_left_78.png,right_images/camera_right_78.png
2025-06-02 14:20:29,4.219575643539429,79,-0.22522461,-0.15463251,0.11916527,-1.2474899,0.3488033,0.2916478,0.56015027,0.023892576,0.019130377,0.008325965,0.43492269322303123,-0.8512279631861787,0.2936889606531625,0.8865440188703885,0.3476487954313181,-0.30525402149733255,0.15774014557101665,0.393130092622103,0.9058514098626613,0.12863034,-0.0126346,0.116622254,-2.074175,0.44799554,-0.14178841,0.4116726,-0.022653213,0.004158438,0.0112516135,-0.2664148548189287,-0.36106634381322594,-0.8936745607306714,0.8982326596078605,-0.42927725563926433,-0.09433518434079136,-0.34957290276221153,-0.8278599719494663,0.4386874200364428,left_images/camera_left_79.png,right_images/camera_right_79.png
2025-06-02 14:20:29,4.266810655593872,80,-0.22525993,-0.1556017,0.119386815,-1.2476119,0.34846005,0.2866013,0.5367439,0.0237274,0.0192414,0.008177435,0.4340279320016016,-0.850883009889865,0.29600313802927336,0.8876698203199642,0.34781074647236443,-0.30177802228038253,0.15382471952041876,0.3937331432824783,0.9062627475215804,0.13035405,-0.011862727,0.11660996,-2.0740733,0.45106837,-0.13802615,0.42682654,-0.022494944,0.004122501,0.011427091,-0.26853005784643497,-0.35726852029080386,-0.8945673884298542,0.8980087875190663,-0.42885874374912475,-0.09828731071943542,-0.34852808433686744,-0.8297224730710516,0.4359917339919776,left_images/camera_left_80.png,right_images/camera_right_80.png
2025-06-02 14:20:29,4.317709445953369,81,-0.22772932,-0.15698536,0.11944158,-1.2495438,0.3384077,0.28070068,0.53048456,0.023305066,0.019441657,0.008412541,0.4345563067858115,-0.8460328842857682,0.3088513800192252,0.8883215823214549,0.3460879442798801,-0.30184085410367106,0.14847754919375086,0.40552619339720924,0.9019439693540761,0.13191101,-0.011018009,0.11672436,-2.079744,0.45467034,-0.13728379,0.41735384,-0.022276238,0.004102141,0.011497315,-0.27202365152984676,-0.3511459432565231,-0.8959350755176712,0.8956266256322714,-0.43289099045707025,-0.10226601507660227,-0.3519319258989153,-0.8302420833200298,0.4322522442018051,left_images/camera_left_81.png,right_images/camera_right_81.png
2025-06-02 14:20:29,4.371086597442627,82,-0.2299132,-0.1570749,0.119625,-1.2505195,0.3294802,0.27369425,0.5097021,0.022818714,0.019484673,0.008507443,0.434133575664627,-0.8416548835112962,0.3211621016593205,0.88975675495178,0.34484054528312763,-0.29902828519475083,0.14092890228169536,0.41557436806234976,0.8985749769002334,0.13432394,-0.010086325,0.11665713,-2.0848248,0.45998287,-0.13498667,0.43259725,-0.02208563,0.0040922943,0.0118001215,-0.27605167251186014,-0.34307228255534544,-0.897828983184253,0.893395587000489,-0.43608293932612957,-0.10805551886291798,-0.35445704850017573,-0.8319453581641933,0.4268806880119967,left_images/camera_left_82.png,right_images/camera_right_82.png
2025-06-02 14:20:29,4.419870376586914,83,-0.23136835,-0.1577704,0.11975473,-1.2521635,0.3218313,0.2672112,0.5014007,0.022465376,0.019592308,0.008587938,0.4332707988149137,-0.8381036448795323,0.3314493857799853,0.8910687822073835,0.3431907344063948,-0.2970127020735817,0.1351770700590058,0.42403113123595343,0.8955025178485096,0.13622046,-0.009469489,0.116544545,-2.0860949,0.46428606,-0.13208263,0.43662506,-0.021969702,0.004087309,0.012088879,-0.27834900132349477,-0.3375355994445562,-0.8992171887646594,0.8927030757310954,-0.4363681189554666,-0.11253480945693944,-0.3544052088252303,-0.8340579019869494,0.4227816979135604,left_images/camera_left_83.png,right_images/camera_right_83.png
2025-06-02 14:20:29,4.473975658416748,84,-0.23314275,-0.15939213,0.12002103,-1.2515516,0.31329334,0.2610408,0.49531546,0.021990763,0.019826848,0.008615962,0.43468485133607543,-0.833024847630176,0.3422260703828045,0.8913567739032713,0.3437037742761085,-0.29555171656600276,0.12857753161298038,0.43351738001962525,0.8919251647897559,0.13831784,-0.0090718595,0.11647116,-2.0907538,0.47049293,-0.1306415,0.43625328,-0.021807104,0.0041377856,0.012391167,-0.2816764168301273,-0.32893313909028354,-0.9013663995345915,0.8908026343516297,-0.4387283431667545,-0.11827133014535474,-0.3565516271648994,-0.836253807710534,0.4165939344922054,left_images/camera_left_84.png,right_images/camera_right_84.png
2025-06-02 14:20:30,4.539616584777832,85,-0.23344325,-0.16072693,0.12017062,-1.2501793,0.3079291,0.25599012,0.4686481,0.02177857,0.019994361,0.008586384,0.43584049351287324,-0.8297554858882974,0.34863863505459425,0.8915397429006087,0.3449623657377532,-0.2935265798072282,0.12328808151306268,0.43875596846412024,0.8901085602857329,0.1401872,-0.009292177,0.116277374,-2.0947428,0.47245103,-0.12950873,0.43475384,-0.021764666,0.004218181,0.012709604,-0.2848515635461916,-0.3242172854695762,-0.90207690279046,0.8890337050039963,-0.4412484435369401,-0.1221428771688921,-0.358439197231772,-0.8367693606239219,0.41393040358117655,left_images/camera_left_85.png,right_images/camera_right_85.png
2025-06-02 14:20:30,4.599407434463501,86,-0.23526298,-0.16063629,0.12042007,-1.25009,0.2991638,0.2501239,0.45813632,0.021286722,0.020028893,0.008612672,0.43579927874289337,-0.8249789971519571,0.3598453041312681,0.8925124253094748,0.3444968284173496,-0.2911073786055345,0.11619190727143046,0.44803079075945007,0.886435474930967,0.14191574,-0.008525016,0.11607355,-2.0997944,0.47874993,-0.12904419,0.4267364,-0.021714838,0.0042213122,0.013088386,-0.2874832721161228,-0.31577259786937845,-0.9042350549985502,0.8869941934435566,-0.443986123947235,-0.12695519894720803,-0.3613788442214375,-0.8385487392973257,0.40772704444523145,left_images/camera_left_86.png,right_images/camera_right_86.png
2025-06-02 14:20:30,4.653529644012451,87,-0.23643193,-0.16166636,0.12071213,-1.2484709,0.29373887,0.24561971,0.44533467,0.020895818,0.020187527,0.008548864,0.43708795141505163,-0.8211978520088163,0.36686265902091936,0.892584701940405,0.3458561548260789,-0.2892681628366275,0.11066468537772894,0.4538916258591088,0.884158198166608,0.14341718,-0.0077106133,0.11579869,-2.1059928,0.48240268,-0.128828,0.43127424,-0.021748241,0.004204885,0.013462227,-0.2908364982576991,-0.3093805854684609,-0.9053716279055755,0.8842879203608603,-0.4482188140295902,-0.13089984206931882,-0.36530672753874155,-0.8386796456842744,0.4039399048495156,left_images/camera_left_87.png,right_images/camera_right_87.png
2025-06-02 14:20:30,4.704781770706177,88,-0.23887223,-0.16313921,0.12089446,-1.2470157,0.28439063,0.2385436,0.41866964,0.020401392,0.020386785,0.008703235,0.43840127028206527,-0.8148910609473116,0.37915285176724806,0.8929394559138034,0.3468885106524698,-0.28692767250593365,0.10229102740432572,0.4643499972708911,0.8797247443076108,0.1454083,-0.0071978974,0.11569242,-2.1117852,0.48679715,-0.1296656,0.43882942,-0.021629404,0.004219722,0.013758656,-0.29289175474827595,-0.3019865054381019,-0.9072037095017631,0.8819536584079803,-0.45178228697355266,-0.1343521849384161,-0.3692860198020711,-0.839462277717248,0.39866141005684835,left_images/camera_left_88.png,right_images/camera_right_88.png
2025-06-02 14:20:30,4.754748582839966,89,-0.2410694,-0.16454905,0.12095135,-1.2456805,0.27486753,0.23300797,0.417271,0.020019084,0.02057367,0.008933671,0.4400358879259705,-0.8085466446639213,0.3906670458842381,0.8928955846000048,0.3477363193290382,-0.2860365837114351,0.09542479939207826,0.4746912424115362,0.8749641890036266,0.14694282,-0.0067472416,0.115573525,-2.1162968,0.49008745,-0.12760507,0.43364763,-0.021569697,0.0042467667,0.0140048005,-0.296923868081071,-0.296358242699171,-0.9077488686569839,0.879734301741567,-0.4545872366828884,-0.13934849329753557,-0.3713539752083617,-0.8399537107658224,0.39569431240248154,left_images/camera_left_89.png,right_images/camera_right_89.png
2025-06-02 14:20:30,4.802082777023315,90,-0.2416488,-0.16599871,0.12111372,-1.242448,0.2698467,0.22790046,0.39888823,0.019780576,0.020748327,0.008922275,0.4420008471957266,-0.8044326845376351,0.39689205979187114,0.8925999535660123,0.35058736928652817,-0.283467492652517,0.08888517296047302,0.4795587060458039,0.8729964911060418,0.1482007,-0.0066954372,0.11540253,-2.1186266,0.49575147,-0.12662551,0.44671148,-0.021546828,0.0043135136,0.014316247,-0.298705968798903,-0.289581737480111,-0.909349856502935,0.8788346858127336,-0.45493846731810816,-0.14380746144301348,-0.37205421542611505,-0.8421243425244577,0.39038731089958256,left_images/camera_left_90.png,right_images/camera_right_90.png
2025-06-02 14:20:30,4.860719919204712,91,-0.24329436,-0.1667285,0.12133464,-1.2388026,0.26116103,0.22219482,0.3778706,0.019339386,0.020863349,0.008977249,0.44421351206065696,-0.7979911258473374,0.40728923232960024,0.8923218257642788,0.353361117505652,-0.2808873081857928,0.0802254010114021,0.48820700906895564,0.8690326813926528,0.14970095,-0.0066724573,0.11525079,-2.1199315,0.5001902,-0.12666799,0.44851667,-0.021493249,0.0043571857,0.014618442,-0.2988284743134053,-0.2840112947562094,-0.9110648316066339,0.8784857639166725,-0.45479625927604994,-0.14636640715769555,-0.37277916456698973,-0.8440959347132373,0.3854059515177778,left_images/camera_left_91.png,right_images/camera_right_91.png
2025-06-02 14:20:30,4.9124650955200195,92,-0.24524152,-0.16736926,0.121432595,-1.2366507,0.25300598,0.21604012,0.35563987,0.018960426,0.020948164,0.009141478,0.44501872963032185,-0.7920856368624318,0.41780219500913357,0.8926151349761686,0.35478449954792046,-0.27814776593028345,0.07208710765241311,0.4967175281352242,0.8649133749419893,0.15151022,-0.0071786735,0.11506976,-2.1231515,0.5033048,-0.12741448,0.4465046,-0.021444365,0.0044602533,0.014947245,-0.2998378944237319,-0.27847640839881493,-0.9124407526151161,0.8773246054007273,-0.45615412003036493,-0.1490803660371866,-0.37469824369217575,-0.8452066662921087,0.381086495994517,left_images/camera_left_92.png,right_images/camera_right_92.png
2025-06-02 14:20:30,4.969660758972168,93,-0.2469083,-0.1685357,0.12166701,-1.2342411,0.24490154,0.21065511,0.33567315,0.01852591,0.021125544,0.009196984,0.4464855659825627,-0.7860411561905054,0.4275394018613067,0.892431844670726,0.35651473811006584,-0.2765187952525401,0.06493105564239435,0.5050114278756516,0.8606668436324009,0.15307355,-0.006966059,0.11497871,-2.1276696,0.5078222,-0.12735806,0.44787383,-0.021358442,0.004510447,0.015200022,-0.30210377912351927,-0.27165742994695374,-0.9137480765473072,0.875432475668885,-0.45843806548774,-0.15314215832390976,-0.37729469540868815,-0.8461895655622765,0.3763136085102301,left_images/camera_left_93.png,right_images/camera_right_93.png
2025-06-02 14:20:30,5.045673131942749,94,-0.24000448,-0.16659598,0.120714225,-1.2307428,0.28508893,0.25067613,0.30898714,0.020526279,0.020781733,0.008963092,0.4556456351099013,-0.8084958432108196,0.3724533886489959,0.8840999161297414,0.3622809917985125,-0.29516067028123816,0.10370339196322528,0.46377468073657435,0.8798628597702085,0.14152518,-0.012901668,0.11525613,-2.081321,0.49617586,-0.13766363,0.47454965,-0.022096384,0.0046392996,0.014049584,-0.26858369317933917,-0.3063487111332811,-0.9132432682177977,0.8976387859035951,-0.4235329908825832,-0.12191970995525447,-0.34943870678513334,-0.8525082244887912,0.38874453999934533,left_images/camera_left_94.png,right_images/camera_right_94.png
2025-06-02 14:20:30,5.101142406463623,95,-0.23344664,-0.1652441,0.119610846,-1.2285105,0.3150978,0.2813975,0.3022732,0.022427285,0.020478543,0.009005189,0.45982316425666386,-0.8247948485516514,0.32905336256547724,0.8776748845055766,0.36574745326965,-0.3097024338536718,0.13509054267827897,0.43121022509841234,0.892080874724632,0.13214651,-0.017619956,0.11558008,-2.04919,0.48792103,-0.1451102,0.50121397,-0.022675155,0.004801719,0.013032852,-0.2451787287143681,-0.3311695609311023,-0.9111608600563937,0.9117210750665679,-0.3983120494637882,-0.10055939802633412,-0.32962413786837297,-0.8553795842575727,0.3995919100405738,left_images/camera_left_95.png,right_images/camera_right_95.png
2025-06-02 14:20:30,5.149292707443237,96,-0.22714135,-0.1644008,0.11882231,-1.2264001,0.33752212,0.30449873,0.3249998,0.02395592,0.020275433,0.008935818,0.46159610465892126,-0.8366255194099896,0.29493520718231553,0.8726398589186024,0.3684795430888009,-0.32050351472579874,0.15946382909685825,0.4053153915126265,0.9001614969619254,0.12580018,-0.021076651,0.11578314,-2.0288723,0.48234853,-0.15125775,0.52787894,-0.02309281,0.0049478626,0.012356441,-0.2291832150270088,-0.34723701157690684,-0.9093412515337809,0.9201832370489742,-0.38190652489812493,-0.0860826143556841,-0.3173922875621828,-0.8564892667344858,0.4070482425519949,left_images/camera_left_96.png,right_images/camera_right_96.png
2025-06-02 14:20:30,5.198645114898682,97,-0.22111669,-0.16451645,0.11829013,-1.2245106,0.35367373,0.3216128,0.35151064,0.025180383,0.020220876,0.008777901,0.4625273114668621,-0.8449786596546562,0.2684763506818736,0.8684522487969561,0.3708236010014423,-0.329060098613965,0.17849139392907884,0.3853581732214112,0.9053396603621817,0.12182751,-0.023701599,0.115919776,-2.0164773,0.47846705,-0.1559945,0.55454445,-0.02335751,0.0050871843,0.011922499,-0.21876366325079627,-0.3573574037185942,-0.9079857629107395,0.9252058392688176,-0.37164485751095316,-0.07664368772799146,-0.31005905022104213,-0.8568405837103941,0.4119315470838041,left_images/camera_left_97.png,right_images/camera_right_97.png
2025-06-02 14:20:30,5.25861668586731,98,-0.21536541,-0.16483177,0.11792281,-1.2225963,0.36579424,0.33550277,0.37817994,0.026198093,0.020216059,0.008561869,0.4631670896812915,-0.8511995923923537,0.24685117165460937,0.8647373845121562,0.3730059906567801,-0.33629717031403816,0.1941790484661968,0.3692232181827749,0.9088282083493653,0.11901288,-0.02575201,0.11598648,-2.009958,0.4759858,-0.15941307,0.5758654,-0.023568882,0.005228063,0.011641018,-0.2130308769351694,-0.3635137401551737,-0.906904408518687,0.9278848094095405,-0.3659946793604889,-0.07125780762017375,-0.3060189960431434,-0.8566829374968372,0.4152670449994036,left_images/camera_left_98.png,right_images/camera_right_98.png
2025-06-02 14:20:30,5.321714401245117,99,-0.21029109,-0.16583249,0.11765381,-1.2209139,0.3753844,0.34616613,0.40484893,0.027046192,0.020298544,0.008356574,0.46364836457150366,-0.8558650674509167,0.22918372618361893,0.8615121624436948,0.37506428711259526,-0.3422332165268439,0.20694682406782416,0.3561204386860696,0.9112361083485896,0.11734697,-0.027090225,0.11597216,-2.006554,0.47476503,-0.16164061,0.5722401,-0.023726247,0.0053281267,0.011521764,-0.2098310045631512,-0.36677073583036107,-0.9063388863236941,0.9293241571321014,-0.36289368666729527,-0.06829921776805259,-0.3038545054705093,-0.8566139150839626,0.41699525175929497,left_images/camera_left_99.png,right_images/camera_right_99.png
2025-06-02 14:20:30,5.3760998249053955,100,-0.20559113,-0.16730642,0.11750223,-1.2194419,0.38204813,0.35358495,0.4315182,0.027730973,0.020449685,0.008119712,0.4641712932564922,-0.8591054821644662,0.21559865730462086,0.8588304702996136,0.37698184087001396,-0.3468355733473714,0.21669156375258336,0.3461538128768991,0.9128101138951324,0.11675196,-0.027959293,0.115907334,-2.0064058,0.47439733,-0.1633596,0.570255,-0.02381936,0.005409302,0.011531569,-0.2088499894700625,-0.36745482043979005,-0.9062883850264862,0.9295737016463785,-0.3624481333673511,-0.06726131002271935,-0.3037670408484177,-0.8565093727181767,0.4172736264612361,left_images/camera_left_100.png,right_images/camera_right_100.png
2025-06-02 14:20:30,5.434886693954468,101,-0.20137256,-0.16878937,0.11742616,-1.2171777,0.38707247,0.3598087,0.45818645,0.028292341,0.020609178,0.007873854,0.46539701439390324,-0.8612190634114171,0.2042237591711667,0.8561735253158363,0.3795304031016342,-0.35060457451345983,0.2244382176490763,0.3380212980542391,0.9139852780653709,0.116841,-0.028856741,0.115919024,-2.007578,0.47388548,-0.16522186,0.5661022,-0.023809364,0.0055041416,0.011528879,-0.20852713220975436,-0.36725500329522304,-0.9064437090558914,0.9293659460932815,-0.363085441575941,-0.06669258097977476,-0.304623330318798,-0.856325127898411,0.4170274594738994,left_images/camera_left_101.png,right_images/camera_right_101.png
2025-06-02 14:20:31,5.492863893508911,102,-0.19675371,-0.17044726,0.11730108,-1.2147554,0.3907962,0.3642986,0.48485446,0.02889877,0.02077349,0.0076460587,0.46666556262521275,-0.8628356422026987,0.19426246988121637,0.853826165149086,0.38223017843304674,-0.35338501722886784,0.23066020975994017,0.3307789975794989,0.9150853088066723,0.11727904,-0.02963817,0.11591024,-2.009206,0.47343993,-0.16556868,0.5546255,-0.023783747,0.005602204,0.0115648545,-0.20973778663614315,-0.3665779303433889,-0.9064384600413472,0.9288863454343714,-0.3641299920968112,-0.06767204830026663,-0.30525434988309186,-0.8561716941365987,0.4168810526237877,left_images/camera_left_102.png,right_images/camera_right_102.png
2025-06-02 14:20:31,5.553681135177612,103,-0.19275592,-0.17156015,0.117240645,-1.213134,0.39311618,0.36762798,0.51152295,0.029372392,0.020891195,0.0074162353,0.4673657747418638,-0.8641156344594411,0.18674421780257297,0.8521104681485389,0.38403097520117885,-0.3555670965622514,0.2355355231628878,0.3253065944133149,0.9158049120634786,0.118066244,-0.030275736,0.115864664,-2.0124161,0.47383523,-0.16681716,0.5619935,-0.023744587,0.005693212,0.0116705485,-0.21105237112607525,-0.3644038530156434,-0.9070097731278395,0.9279426994235717,-0.3663282198229293,-0.06874577767294937,-0.3072120492893409,-0.8561620566625905,0.41546033445170993,left_images/camera_left_103.png,right_images/camera_right_103.png
2025-06-02 14:20:31,5.605961322784424,104,-0.18949516,-0.1725994,0.11724925,-1.2122209,0.39464074,0.37019166,0.53819054,0.029717756,0.02101646,0.0071921386,0.46778272202854687,-0.8651144407087534,0.18098709746483038,0.8507250250084091,0.38518334076813443,-0.35763210960306824,0.23967948764131863,0.32126437473190206,0.9161566158316574,0.11878175,-0.03064958,0.115753524,-2.0154858,0.47508916,-0.16677277,0.5605241,-0.02374683,0.0057673617,0.011831867,-0.2132542720504897,-0.36164793702385684,-0.9075975898483889,0.9269735584152361,-0.3683394423255238,-0.07103574611642532,-0.3086140590627894,-0.8564676437984746,0.41378803471714665,left_images/camera_left_104.png,right_images/camera_right_104.png
2025-06-02 14:20:31,5.663680553436279,105,-0.18674865,-0.17340276,0.11732348,-1.2100984,0.39551628,0.372111,0.5648594,0.02995753,0.02111594,0.006953084,0.4690694693701064,-0.8653559853470092,0.17644503826674623,0.8493552989316053,0.3872718367154061,-0.3586308696471613,0.24201117553049112,0.31808731994718453,0.9166520865667449,0.11958733,-0.030902635,0.115629725,-2.0184436,0.4762139,-0.16737708,0.55575967,-0.023747988,0.005819637,0.012009544,-0.21469372022020394,-0.35898318792698836,-0.9083158466545573,0.9260612959008344,-0.37033881137982,-0.07252338257589219,-0.3103499359311613,-0.8567264648483544,0.41194985337534157,left_images/camera_left_105.png,right_images/camera_right_105.png
2025-06-02 14:20:31,5.715895414352417,106,-0.18401286,-0.17429174,0.117408104,-1.2081265,0.39669013,0.3734217,0.591527,0.030193591,0.021221401,0.006706327,0.47008792321348186,-0.865707985176015,0.17195065818809827,0.8482305758582067,0.38926456241998625,-0.35913505902825965,0.24397179064000515,0.31467885986583405,0.9173085525195152,0.12025739,-0.030881282,0.115578644,-2.0211833,0.47713414,-0.16819018,0.5504179,-0.0237173,0.0058372095,0.012114987,-0.21568043443950172,-0.3567369967373147,-0.9089668120227653,0.9251922445807415,-0.37233219123598316,-0.07340333737004784,-0.3122519187573355,-0.8568007087580243,0.41035507149797723,left_images/camera_left_106.png,right_images/camera_right_106.png
2025-06-02 14:20:31,5.768157482147217,107,-0.18180192,-0.17505333,0.11748896,-1.2062877,0.39670447,0.37378702,0.6181946,0.030360095,0.021312904,0.0065019326,0.47127081065578363,-0.8655756743433721,0.169359307417269,0.8473659993359947,0.39107271447338926,-0.3592116300507629,0.24469304484016646,0.31279527486749453,0.917760551466131,0.12092764,-0.030818691,0.11551282,-2.0236144,0.4788151,-0.16875082,0.5502962,-0.023690505,0.005854656,0.012243592,-0.216599030868968,-0.35394147838618095,-0.909840804594094,0.9244544677310313,-0.3739199758163554,-0.07461761707285808,-0.31379738195013557,-0.8572685002747393,0.40819348539380185,left_images/camera_left_107.png,right_images/camera_right_107.png
2025-06-02 14:20:31,5.817327499389648,108,-0.17938073,-0.17558268,0.11765018,-1.2046795,0.39744553,0.37396184,0.6448612,0.030503001,0.021386886,0.0062150816,0.4718537029861228,-0.8658784431634965,0.16615837217258567,0.8468310906784855,0.39262594774256093,-0.3587784400149243,0.24542042873112796,0.309999011004899,0.918514793749896,0.12168808,-0.030636897,0.11544733,-2.0264149,0.48018393,-0.1696042,0.547173,-0.023657728,0.005856648,0.012373667,-0.21743993856359112,-0.35124014488706523,-0.9106866825298232,0.9235677957280044,-0.37592317752126436,-0.07552675881057619,-0.31582020171543296,-0.8575034257785967,0.4061347990093855,left_images/camera_left_108.png,right_images/camera_right_108.png
2025-06-02 14:20:31,5.866904020309448,109,-0.17731726,-0.17662811,0.11774945,-1.2032907,0.39819956,0.37414345,0.6715267,0.030660026,0.021511843,0.0060085915,0.47265250894094774,-0.8660100659799729,0.16317527819247138,0.8460833263913744,0.394159575125203,-0.3588610234333433,0.2464601602578689,0.30767644524481,0.9190171894187742,0.122637294,-0.030608265,0.11532162,-2.0273905,0.4822977,-0.16959913,0.54105806,-0.02363839,0.005872108,0.012578178,-0.2177135168895331,-0.3482923385727942,-0.9117528565653552,0.9233431543580387,-0.37622465319809617,-0.07676216272434949,-0.31628822909450527,-0.8585729189867721,0.40350253892484417,left_images/camera_left_109.png,right_images/camera_right_109.png
2025-06-02 14:20:31,5.918378829956055,110,-0.17549187,-0.17731744,0.117782615,-1.2025591,0.3979008,0.37393776,0.6981936,0.030814482,0.021592772,0.005868624,0.47313610696522673,-0.8660419013335459,0.16159718258795974,0.8456283969047798,0.39499404201412275,-0.35901576723257983,0.24709277333431273,0.30651448890374217,0.919235567990075,0.12353208,-0.030848067,0.115166746,-2.0282469,0.48427454,-0.16992375,0.537318,-0.023642963,0.0059130853,0.012802274,-0.21777411757368278,-0.34548486752549673,-0.9128059158582911,0.9232109919514575,-0.37633164858580404,-0.07782001421675983,-0.31663211785131584,-0.8596596399643179,0.40091071993825456,left_images/camera_left_110.png,right_images/camera_right_110.png
2025-06-02 14:20:31,5.972307443618774,111,-0.17338267,-0.17796375,0.117964946,-1.2021507,0.39996335,0.37359193,0.72485995,0.030937051,0.021680258,0.0055835918,0.4725358949016572,-0.8670393352121217,0.15796398078173268,0.8456492545651921,0.3956008271899251,-0.3582978143667382,0.24816761731302606,0.3028907009493171,0.9201467584008578,0.12459817,-0.030979117,0.115010954,-2.029097,0.48633978,-0.17119166,0.53778255,-0.023630798,0.0059338273,0.0130435815,-0.21684773276613642,-0.34247733582076634,-0.9141588129221838,0.9231477998120435,-0.376460994434323,-0.07794395019309508,-0.3174510993781079,-0.8608056657101129,0.39779191216639886,left_images/camera_left_111.png,right_images/camera_right_111.png
2025-06-02 14:20:31,6.023998022079468,112,-0.17121817,-0.17846492,0.11817345,-1.2009492,0.40182766,0.3728195,0.75152767,0.031042147,0.02174745,0.0052714692,0.4723801258867913,-0.8677326720872912,0.15458663092075173,0.8457070581897715,0.3968249638088888,-0.35680459613922627,0.24826717140045226,0.29928240491269037,0.921299871765157,0.12555894,-0.03094013,0.11496333,-2.0298164,0.48752987,-0.17236862,0.5321763,-0.023567531,0.0059318743,0.013175941,-0.21589617079444062,-0.3403954987998262,-0.9151610502163624,0.9230490732611346,-0.3767705675518563,-0.07761667203901979,-0.31838538249746706,-0.8614957015699322,0.3955450725119351,left_images/camera_left_112.png,right_images/camera_right_112.png
2025-06-02 14:20:31,6.079816579818726,113,-0.16895816,-0.17857468,0.11828972,-1.1993735,0.40206864,0.37188676,0.77819514,0.031183627,0.0217598,0.005023945,0.47273699283770315,-0.8678973032594978,0.15255820724450425,0.845702648906269,0.39819621201147254,-0.35528412063112896,0.2476020299506561,0.29697482676921644,0.9222251281708327,0.12664284,-0.030998394,0.11485271,-2.0303948,0.48994148,-0.17362425,0.5257466,-0.023524465,0.0059459014,0.013388076,-0.21471190060052736,-0.3371723827198068,-0.9166316512490487,0.9230996552486086,-0.3766320827142764,-0.07768719811015612,-0.3190389101981284,-0.8628227272165208,0.39211110055472287,left_images/camera_left_113.png,right_images/camera_right_113.png
2025-06-02 14:20:31,6.136148691177368,114,-0.16666187,-0.17846394,0.11845375,-1.1970112,0.40299684,0.3705716,0.80486345,0.0313052,0.02174144,0.004728595,0.473237742163678,-0.8680549329958419,0.15008888264428186,0.8458758391110924,0.40017406114480214,-0.352639739103496,0.24604898739870842,0.29383899347850506,0.9236441640110165,0.12776645,-0.031145804,0.11467059,-2.0305936,0.49249503,-0.17617372,0.5240041,-0.023517853,0.0059544807,0.013667074,-0.21209153720427004,-0.3338917660473119,-0.9184407811133697,0.9234094793940912,-0.3761140976249284,-0.0765056790893257,-0.3198939093066057,-0.864323130625111,0.38808943898919,left_images/camera_left_114.png,right_images/camera_right_114.png
2025-06-02 14:20:31,6.184438228607178,115,-0.16407372,-0.1790122,0.11863122,-1.1961453,0.40576547,0.36860666,0.8315292,0.031482518,0.021795299,0.004405249,0.47233060952761174,-0.869216765955222,0.1461711636596611,0.8465204371440022,0.4011430110966488,-0.3499820483193978,0.24557472345663367,0.289044111565447,0.9252818796283321,0.12875333,-0.031131985,0.11460828,-2.0290267,0.49457005,-0.1782041,0.5133146,-0.023450747,0.005934682,0.013832933,-0.20864561648001845,-0.33174902038892107,-0.9200052142214543,0.9242641140621983,-0.37439224217834316,-0.07460761659168835,-0.3196918112502924,-0.8658943564128733,0.3847390145954051,left_images/camera_left_115.png,right_images/camera_right_115.png
2025-06-02 14:20:31,6.2351062297821045,116,-0.16197206,-0.17987761,0.11881998,-1.1966377,0.40808156,0.36633614,0.8581955,0.031604096,0.021900082,0.004116279,0.4708885050307966,-0.870480651650759,0.1432740413736276,0.8473245582456173,0.40106418536583177,-0.3481215480413584,0.24557098530512822,0.2853260491411751,0.926436148289647,0.12954281,-0.030773079,0.11455392,-2.0275524,0.4974553,-0.18001266,0.5071876,-0.023390708,0.0058832495,0.013987551,-0.2052887509016137,-0.32911517526424,-0.921704795563115,0.9250720470357501,-0.3727195589139676,-0.07295093005619818,-0.3195281467200379,-0.8676193473025864,0.380970381578269,left_images/camera_left_116.png,right_images/camera_right_116.png
2025-06-02 14:20:31,6.292226552963257,117,-0.15988782,-0.18071614,0.11907083,-1.1971523,0.41030926,0.36369643,0.8848629,0.031683173,0.02201093,0.003780298,0.469403741151888,-0.8717118614730769,0.14063626260589673,0.8482568162033038,0.40095742817939756,-0.3459675050527115,0.24519482367547252,0.28169410954953716,0.927646445089856,0.13058022,-0.030452617,0.11447561,-2.0263495,0.4998422,-0.18159766,0.5092748,-0.023328312,0.005836184,0.014171749,-0.20230257153941628,-0.3265950562560321,-0.9232601685211261,0.9257327901416059,-0.3713618685581959,-0.0714784151867009,-0.31951912431836765,-0.8691524790335032,0.3774672136553572,left_images/camera_left_117.png,right_images/camera_right_117.png
2025-06-02 14:20:31,6.3555450439453125,118,-0.15729387,-0.18258516,0.11934162,-1.1989187,0.414477,0.36073035,0.9115273,0.03184396,0.022240633,0.003403754,0.46684500529810485,-0.873822475045154,0.13597802445312146,0.8493254623346087,0.40019088319584734,-0.34422887159131593,0.246377758854803,0.2761911278678027,0.9289867926019162,0.13161482,-0.030022359,0.11445878,-2.0234857,0.50261104,-0.18249446,0.49179015,-0.023224378,0.005772804,0.014312614,-0.19866273787634003,-0.3242916762382115,-0.9248610843267693,0.9269365570514534,-0.368660701447196,-0.06984201035235876,-0.3183107534801081,-0.8711625542521169,0.3738369541496044,left_images/camera_left_118.png,right_images/camera_right_118.png
2025-06-02 14:20:31,6.411902666091919,119,-0.15466456,-0.18430002,0.11953262,-1.2015162,0.41774866,0.35727537,0.9381943,0.032041978,0.02244745,0.0030882396,0.4638377267979587,-0.8759809215330118,0.1323328693449879,0.8506680484353774,0.39866648782430975,-0.3426790084860405,0.2474235933981409,0.27151879602709805,0.9300855384500646,0.13284196,-0.029696833,0.11450967,-2.0204377,0.5054106,-0.18303442,0.48317796,-0.023063593,0.005724435,0.014414886,-0.19521414366178264,-0.3218121687394298,-0.9264601265924086,0.9281834002815474,-0.3657586895541067,-0.06852850835562907,-0.3168075339321681,-0.873302644600878,0.37010198240070374,left_images/camera_left_119.png,right_images/camera_right_119.png
2025-06-02 14:20:31,6.462220191955566,120,-0.1525784,-0.18582216,0.119762674,-1.2032952,0.42140728,0.35405135,0.9648621,0.032168563,0.022631986,0.0027747024,0.46135447734342955,-0.8778301255833871,0.12871020493117802,0.8519007093646578,0.3977813379588753,-0.34063938197988813,0.2478249939355675,0.26680381891926114,0.931342307957141,0.13370644,-0.028876927,0.11457076,-2.01717,0.5077752,-0.18342611,0.4681508,-0.022928469,0.005615901,0.014472284,-0.19160224608127716,-0.3201927074851586,-0.9277743310578997,0.9293895290781132,-0.3630336362749471,-0.06664594641050764,-0.3154737430224147,-0.8750332616571286,0.3671418097372109,left_images/camera_left_120.png,right_images/camera_right_120.png
2025-06-02 14:20:32,6.517606735229492,121,-0.1501015,-0.18730292,0.11993857,-1.2054651,0.4244221,0.35065216,0.9915289,0.032356847,0.022808677,0.0024790987,0.4586636384062892,-0.8797237100232189,0.12535493937969994,0.8531914409319283,0.39654754581673374,-0.3388427497043803,0.24837880731738093,0.2623666097843033,0.9324546799420798,0.13435943,-0.028402911,0.11465095,-2.014093,0.51053995,-0.18406633,0.46411598,-0.022798907,0.005549639,0.014506951,-0.18813585741644362,-0.3182550144828842,-0.9291494201207247,0.9306052921745216,-0.3601966615769114,-0.0650550164523952,-0.31397243403036673,-0.8769105488847464,0.3639357085031638,left_images/camera_left_121.png,right_images/camera_right_121.png
2025-06-02 14:20:32,6.570702314376831,122,-0.14811644,-0.18888892,0.11998807,-1.2065514,0.42803803,0.3468057,1.0182769,0.032584023,0.022958132,0.0023112167,0.45668873948373107,-0.8812174714242079,0.12202935419597306,0.8544360826613141,0.3962795676076794,-0.3360081620185121,0.24773852319562423,0.25771742733737674,0.9339204204703179,0.13516103,-0.027638894,0.11476305,-2.0107558,0.5128928,-0.18455741,0.45371962,-0.022638105,0.0054469584,0.01452011,-0.18442846885956668,-0.3166777599904366,-0.9304307261701728,0.931820361700767,-0.3573991178318281,-0.06306095537559386,-0.312565118645647,-0.87862453124214,0.3610013569303613,left_images/camera_left_122.png,right_images/camera_right_122.png
2025-06-02 14:20:32,6.623517036437988,123,-0.14668055,-0.18997131,0.11998126,-1.208003,0.43126222,0.3427565,1.0450122,0.032778595,0.023041598,0.002217397,0.4544368070043432,-0.8826933405698457,0.11974829833172557,0.8559949312409899,0.3955280648207082,-0.3329117415005349,0.24649516451531178,0.25379128521844924,0.9353235362256942,0.13604186,-0.027308688,0.114850305,-2.0073583,0.51536804,-0.18464057,0.44106308,-0.022487301,0.005396604,0.014561836,-0.1812704818905616,-0.31482999789167315,-0.9316775648381218,0.9330821028604643,-0.35431144379231316,-0.06181577565072305,-0.3106425626289121,-0.8805370368277167,0.35798844263189117,left_images/camera_left_123.png,right_images/camera_right_123.png
2025-06-02 14:20:32,6.676764011383057,124,-0.14557749,-0.19058153,0.11992463,-1.2086564,0.43398744,0.33936366,1.0472,0.0329589,0.023061907,0.0021788497,0.4528206175728503,-0.8837704309761408,0.11791231332303088,0.8573206746792478,0.3952672782008146,-0.32979545107723823,0.24485658877894562,0.2504268438406035,0.9366598351672673,0.1367811,-0.026646547,0.11492,-2.0039368,0.5169168,-0.1838563,0.43326354,-0.022365168,0.0053086895,0.0145881055,-0.1788105844063637,-0.3139887878817533,-0.9324364943462917,0.9341812763493349,-0.35158874017869546,-0.06075113742050553,-0.3087589963427497,-0.8819276607886302,0.3561902347248067,left_images/camera_left_124.png,right_images/camera_right_124.png
2025-06-02 14:20:32,6.727526664733887,125,-0.14431973,-0.19136016,0.119889915,-1.2092948,0.43599793,0.33512247,1.0472057,0.033128858,0.023104569,0.002117795,0.45139102656834296,-0.8846407637697093,0.11686256975834063,0.8587353854532045,0.3950623389956151,-0.32634228361928547,0.24252768688154747,0.2476620023020472,0.9379999220211199,0.13740629,-0.026099196,0.11501455,-1.9997754,0.5194541,-0.18283449,0.41791493,-0.022231208,0.0052362345,0.014602756,-0.17607589961311362,-0.3125539889528429,-0.9334384187321083,0.935576000166653,-0.3479985303779741,-0.05995473932006695,-0.30609610498599893,-0.8838591668611218,0.35369216512097623,left_images/camera_left_125.png,right_images/camera_right_125.png
2025-06-02 14:20:32,6.779444456100464,126,-0.14277476,-0.19237392,0.11995825,-1.2103292,0.43930298,0.33200473,1.047204,0.0332932,0.023197496,0.0019601407,0.4495052413378269,-0.8859835174219854,0.11392209999112649,0.8599075318844474,0.39464720193679864,-0.3237477762268857,0.2418761555387798,0.24348879411591387,0.9392598855065397,0.13775271,-0.025911974,0.115016535,-1.9962497,0.5209896,-0.18206881,0.4163931,-0.022185449,0.0051992917,0.014654065,-0.17391467635172125,-0.3119713826137363,-0.9340382978120061,0.9367487798043443,-0.344959190229446,-0.05920203215529907,-0.3037357550314881,-0.8852553380275765,0.3522322779205977,left_images/camera_left_126.png,right_images/camera_right_126.png
2025-06-02 14:20:32,6.835341215133667,127,-0.14116053,-0.19276294,0.12016776,-1.211168,0.441891,0.3279824,1.047207,0.033355214,0.023240043,0.0016787872,0.4475290894370947,-0.8872258043625356,0.1120182403935028,0.8615196251145554,0.3941553457368665,-0.32003983965988847,0.239795015899165,0.23973305049638635,0.9407584253407547,0.13866402,-0.02543163,0.11509746,-1.9927175,0.522589,-0.18118526,0.4008744,-0.022042144,0.005132186,0.014686748,-0.17151452444106077,-0.31088227264465257,-0.9348448964726996,0.9378704585295874,-0.34204915869079733,-0.058321317341253176,-0.30163184666619364,-0.8867663647174566,0.3502336983822776,left_images/camera_left_127.png,right_images/camera_right_127.png
2025-06-02 14:20:32,6.887871503829956,128,-0.13973866,-0.1930001,0.12023277,-1.2104777,0.44442138,0.3236275,1.0472128,0.033480763,0.023222186,0.0015168199,0.44660502560102966,-0.8878931475946369,0.1104070177225736,0.8629734504728289,0.39487668853747765,-0.3151971202734827,0.23626420568279932,0.2360469430095736,0.9425821268244542,0.13937397,-0.024518758,0.115050346,-1.9893883,0.52398366,-0.1794717,0.37463775,-0.021996293,0.0050194035,0.014797299,-0.16986199489496048,-0.3101712824629612,-0.9353826373338274,0.9387990757251659,-0.33956724331097743,-0.05788249033825149,-0.2996718173400341,-0.8879683906567089,0.34886808264250235,left_images/camera_left_128.png,right_images/camera_right_128.png
2025-06-02 14:20:32,6.942363023757935,129,-0.13880424,-0.19352688,0.12030419,-1.2098148,0.44633508,0.3196322,1.0472162,0.033550594,0.023247365,0.001391531,0.44616183293125145,-0.8882214819150624,0.10955463431565252,0.8640866943771623,0.39566279750514655,-0.3111352363052915,0.23301030757409477,0.23348136913897796,0.9440300031403737,0.13972189,-0.023862235,0.11504509,-1.9856795,0.5255316,-0.17741702,0.36895907,-0.021955647,0.0049378546,0.014849981,-0.16849866334118324,-0.3096871594762966,-0.9357895402854945,0.9398625987753884,-0.3366211277077158,-0.057831754287404114,-0.2970967786351908,-0.8892581625356544,0.34778358858391223,left_images/camera_left_129.png,right_images/camera_right_129.png
2025-06-02 14:20:32,6.996986627578735,130,-0.1379723,-0.1934351,0.12036034,-1.2091403,0.44898307,0.31564775,1.0472176,0.03362249,0.02319092,0.001270799,0.4452330009682121,-0.8888426791733254,0.10828788726734381,0.8655475891821068,0.39624864735480775,-0.3062913324443382,0.22933587968279837,0.23009932887661816,0.9457586125120125,0.14028476,-0.023043174,0.115051605,-1.9832125,0.52627057,-0.17592363,0.35604063,-0.021894615,0.004838811,0.014896337,-0.1674049289613517,-0.3094006356638178,-0.936080571537659,0.9404904138226741,-0.33492143511109773,-0.05749272832957214,-0.29572516170779256,-0.8899993701986244,0.3470558309248697,left_images/camera_left_130.png,right_images/camera_right_130.png
2025-06-02 14:20:32,7.0580222606658936,131,-0.1367186,-0.19370416,0.12045071,-1.2082236,0.45177817,0.31127664,1.0472205,0.033721272,0.023177676,0.0011006771,0.44451027952086,-0.8894103451858487,0.10658259368525697,0.8669051567547986,0.3971655937123332,-0.3012224101275802,0.22557938866887894,0.22629345780980847,0.9475786037898151,0.14099652,-0.022575984,0.11505858,-1.9803834,0.526847,-0.17458364,0.34074974,-0.021822017,0.004774821,0.01495367,-0.1660715228951177,-0.3091494761512728,-0.9364010095459585,0.9412721932621264,-0.33279150765713084,-0.05706549415189621,-0.2939845361150866,-0.8908851855467614,0.3462609979459279,left_images/camera_left_131.png,right_images/camera_right_131.png
2025-06-02 14:20:32,7.111898183822632,132,-0.13554613,-0.19337595,0.12011807,-1.2068394,0.45406678,0.30786937,1.0472198,0.03405349,0.02301961,0.0012570173,0.4440832570072863,-0.8898074235760521,0.10503718291514129,0.8680576342140239,0.39823331032333115,-0.29645602411095195,0.22195946595843213,0.2228294852524454,0.949252872512682,0.14148511,-0.02181941,0.11503126,-1.9767576,0.5277642,-0.17225957,0.3284632,-0.021787038,0.0046802424,0.015023543,-0.16495420462563987,-0.30906571748733774,-0.9366261221268386,0.9422219198433721,-0.33010198974872795,-0.05701342061831466,-0.29156125281489764,-0.8919142664168838,0.34566020485303117,left_images/camera_left_132.png,right_images/camera_right_132.png
2025-06-02 14:20:32,7.166834354400635,133,-0.13379367,-0.19308825,0.12031782,-1.2068003,0.4563471,0.30424732,1.0472212,0.034124326,0.022977881,0.000964853,0.4425828906422441,-0.8907819150933203,0.10309202031889783,0.8695172536414995,0.39820183566456313,-0.292190081442058,0.21922620858487604,0.2189586212416605,0.9507875638929295,0.14195693,-0.021304931,0.114947215,-1.9731431,0.52924615,-0.17010312,0.31133083,-0.02178559,0.0046139657,0.015147222,-0.16380242909245257,-0.30842593239561766,-0.9370390645268243,0.9432316161258821,-0.3271738935615228,-0.057195819011094995,-0.2889340453528601,-0.8932136852946708,0.34450896916966345,left_images/camera_left_133.png,right_images/camera_right_133.png
2025-06-02 14:20:32,7.2237629890441895,134,-0.13242914,-0.19282684,0.12019336,-1.2059047,0.459105,0.3008088,1.0472146,0.034359287,0.022868004,0.00094826333,0.4417071074770851,-0.8914587123166833,0.10097621224282251,0.8707661759505876,0.39888939673928525,-0.2874952451595668,0.21601180066055914,0.2149153633495052,0.9524443755788223,0.1425792,-0.020905282,0.11489161,-1.9701681,0.5299486,-0.16849992,0.2971328,-0.02175913,0.0045582335,0.015248865,-0.16266816852663693,-0.3081394670721271,-0.937330857158077,0.9440392307665184,-0.32486431619650613,-0.05703601349968812,-0.2869303011568311,-0.8941550452212872,0.34374082879891976,left_images/camera_left_134.png,right_images/camera_right_134.png
2025-06-02 14:20:32,7.289984226226807,135,-0.13114941,-0.1924101,0.12030656,-1.2054448,0.4610662,0.2965917,1.0472153,0.034426376,0.022788193,0.00075217895,0.4406041562961355,-0.8921143668517401,0.09999966955590175,0.8722821481453563,0.39914245589292285,-0.28250513965358015,0.2121127800993927,0.21170086528043536,0.9540392613294391,0.14357036,-0.020017315,0.114861876,-1.9680678,0.530667,-0.1672967,0.27152967,-0.021685094,0.004451295,0.01535772,-0.16141048002392053,-0.30735948001423824,-0.9378042476891566,0.9445385863111979,-0.32349562738241544,-0.05654589316388303,-0.285995657148306,-0.8949193981079161,0.3425284732434284,left_images/camera_left_135.png,right_images/camera_right_135.png
2025-06-02 14:20:32,7.348534107208252,136,-0.13060346,-0.1919545,0.12033638,-1.2038757,0.46251768,0.29395688,1.0472155,0.0344671,0.02269495,0.0006727334,0.4407369625003738,-0.8921133464847979,0.09942186333819525,0.873047204483081,0.4002795356231485,-0.2785047075106516,0.20866122934129633,0.20954729868220998,0.9552750499122058,0.14420898,-0.019049391,0.114782035,-1.9659667,0.53139514,-0.16565828,0.26326966,-0.021672439,0.0043377727,0.015477056,-0.16061510036437807,-0.3068968419170633,-0.9380922758216667,0.9450013069208925,-0.32216678418952416,-0.05640117979959225,-0.28491282781360716,-0.8955573078180501,0.34176276707818865,left_images/camera_left_136.png,right_images/camera_right_136.png
2025-06-02 14:20:32,7.41240382194519,137,-0.12923849,-0.19135948,0.119872704,-1.2018656,0.46504912,0.29129544,1.0472181,0.03489817,0.022479534,0.0009175008,0.44067256474457106,-0.8923942716568869,0.09716045798274131,0.8738901982107217,0.40173267708032756,-0.2737275609745912,0.20524037651657911,0.20553179822073137,0.9568871760910401,0.14466354,-0.018330155,0.11465908,-1.9640148,0.5314977,-0.16376197,0.24847528,-0.021707147,0.0042523285,0.015605865,-0.1604007167205283,-0.30706589659987304,-0.9380736352871544,0.94540028757471,-0.32096061903936596,-0.056591318057833906,-0.283707430867076,-0.8959323725433651,0.34178250028288487,left_images/camera_left_137.png,right_images/camera_right_137.png
2025-06-02 14:20:32,7.466503620147705,138,-0.12738429,-0.19050099,0.1195063,-1.2011636,0.46703285,0.28943452,1.0472118,0.03531168,0.022273296,0.0010563871,0.4396588037516236,-0.8931661583615134,0.09462742647576927,0.8748376096603185,0.4020009057934606,-0.27028582734774903,0.20336984291558896,0.20161717510909877,0.958118584358698,0.1449366,-0.017751254,0.114549406,-1.9626842,0.53176296,-0.16236666,0.24293369,-0.02174896,0.004185781,0.015713675,-0.16029974573658623,-0.3070535883703493,-0.9380949234409477,0.9456648110489991,-0.3201424720357385,-0.05680548162375615,-0.2828817008228816,-0.8962292627825417,0.3416885304949746,left_images/camera_left_138.png,right_images/camera_right_138.png
2025-06-02 14:20:33,7.518336772918701,139,-0.12606646,-0.18960664,0.119691685,-1.1991364,0.46792057,0.28732014,1.04721,0.03532299,0.022162206,0.0008012075,0.43995813947577245,-0.8931247608088155,0.09362156343072206,0.8754349016987433,0.4033236699565068,-0.2663526799950143,0.20012638106138939,0.1991436137138491,0.9593181186239843,0.14503913,-0.016927851,0.11442027,-1.9606503,0.53209066,-0.15997791,0.2225993,-0.021816172,0.0040934565,0.015821844,-0.1605129469080129,-0.3073709927188428,-0.9379545120686495,0.9460567396839676,-0.3188754531552781,-0.057402880359416764,-0.2814466897539335,-0.8965720931470315,0.3419740379275946,left_images/camera_left_139.png,right_images/camera_right_139.png
2025-06-02 14:20:33,7.57120943069458,140,-0.12506528,-0.18876359,0.119762495,-1.1980411,0.46926132,0.285245,1.0472102,0.035380643,0.022040095,0.0006565554,0.4395726493268278,-0.8934282680063236,0.09253008100620425,0.8762469150932531,0.4039039295205553,-0.2627792980952105,0.1974011898478601,0.19658979028697118,0.9604088840705161,0.14556555,-0.016362505,0.11429293,-1.9597627,0.53228426,-0.15875101,0.20633364,-0.021848794,0.004030449,0.01596212,-0.16052032487562873,-0.30707172824564405,-0.938051266730159,0.9461939158729402,-0.3184182390257866,-0.05767927375364773,-0.2809809581926395,-0.8968370971185069,0.3416620001773622,left_images/camera_left_140.png,right_images/camera_right_140.png
2025-06-02 14:20:33,7.623799085617065,141,-0.124194846,-0.18789332,0.11972482,-1.1967336,0.4704328,0.28310832,1.0472114,0.035486124,0.021893162,0.0006054323,0.43939638316698726,-0.8935970896190764,0.09173363551111738,0.877006170542967,0.4046414913855394,-0.25908577783978504,0.1943990619558905,0.1942923181023965,0.9614881693692684,0.14576751,-0.015950805,0.114202134,-1.9593167,0.5317397,-0.15798695,0.20306915,-0.021890458,0.003981363,0.016037371,-0.1606357875421362,-0.3075800176314288,-0.937864956438062,0.9462067567852108,-0.31838583848804164,-0.05764747404943088,-0.28087170945955175,-0.8966744061275067,0.34217845084276205,left_images/camera_left_141.png,right_images/camera_right_141.png
2025-06-02 14:20:33,7.676884651184082,142,-0.12373573,-0.187216,0.11979133,-1.1957186,0.47210482,0.28114682,1.047211,0.035501048,0.021788698,0.000501859,0.4390879470867388,-0.8938439442771787,0.09080075992065892,0.877750407292326,0.40521203033826025,-0.2556509983694581,0.19171853645724787,0.19195367604753166,0.9624956046811488,0.14606667,-0.015767891,0.11410818,-1.9575051,0.5317548,-0.15703899,0.19821653,-0.021921154,0.0039509395,0.016133659,-0.1599972572010476,-0.30781137780196177,-0.937898199904339,0.9466738608961327,-0.31703063798657494,-0.05744715548949797,-0.2796595766001069,-0.8970750973432954,0.3421210179780916,left_images/camera_left_142.png,right_images/camera_right_142.png
