jiaqis7/OS_Teleop_Extension/demo_5/teleop_log.csv
Epoch Time (Seconds),Time (Seconds),Frame Number,PSM1_joint_1,PSM1_joint_2,PSM1_joint_3,PSM1_joint_4,PSM1_joint_5,PSM1_joint_6,PSM1_jaw_angle,PSM1_ee_x,PSM1_ee_y,PSM1_ee_z,"PSM1_Orientation_Matrix_[1,1]","PSM1_Orientation_Matrix_[1,2]","PSM1_Orientation_Matrix_[1,3]","PSM1_Orientation_Matrix_[2,1]","PSM1_Orientation_Matrix_[2,2]","PSM1_Orientation_Matrix_[2,3]","PSM1_Orientation_Matrix_[3,1]","PSM1_Orientation_Matrix_[3,2]","PSM1_Orientation_Matrix_[3,3]",PSM2_joint_1,PSM2_joint_2,PSM2_joint_3,PSM2_joint_4,PSM2_joint_5,PSM2_joint_6,PSM2_jaw_angle,PSM2_ee_x,PSM2_ee_y,PSM2_ee_z,"PSM2_Orientation_Matrix_[1,1]","PSM2_Orientation_Matrix_[1,2]","PSM2_Orientation_Matrix_[1,3]","PSM2_Orientation_Matrix_[2,1]","PSM2_Orientation_Matrix_[2,2]","PSM2_Orientation_Matrix_[2,3]","PSM2_Orientation_Matrix_[3,1]","PSM2_Orientation_Matrix_[3,2]","PSM2_Orientation_Matrix_[3,3]",PSM3_joint_1,PSM3_joint_2,PSM3_joint_3,PSM3_joint_4,PSM3_joint_5,PSM3_joint_6,PSM3_jaw_angle,PSM3_ee_x,PSM3_ee_y,PSM3_ee_z,"PSM3_Orientation_Matrix_[1,1]","PSM3_Orientation_Matrix_[1,2]","PSM3_Orientation_Matrix_[1,3]","PSM3_Orientation_Matrix_[2,1]","PSM3_Orientation_Matrix_[2,2]","PSM3_Orientation_Matrix_[2,3]","PSM3_Orientation_Matrix_[3,1]","PSM3_Orientation_Matrix_[3,2]","PSM3_Orientation_Matrix_[3,3]",Camera Left,Camera Right
2025-05-30 16:03:32,0.0027403831481933594,1,-0.019356087,-0.013196165,0.11286683,0.022730041,0.07566167,0.08029149,1.04718,0.060868558,0.00012000755,0.001673907,0.8944398500064815,-0.012863971487200908,0.44700321358795514,-0.017647555405825632,0.9977921202540952,0.06402693610532327,-0.4468399249267917,-0.06515675710479547,0.8922380167281629,0.022478385,-0.010081605,0.11228275,-0.04765567,0.070918486,-0.092406355,1.047179,-0.060933452,-0.00018113095,0.0023196489,0.8977198894018197,-0.009010655724524759,-0.44047452622802,0.04182916151171858,0.9970176112398627,0.06485525518248038,0.43857647157549523,-0.07664653260893266,0.8954194478675436,0.002765476,-0.006435113,0.09171622,-0.0010059009,-0.01194715,-0.006483869,4.1908512e-12,0.00020094197,-0.008739393,0.0019234596,0.9999924818173928,-0.0010562717606858243,0.003731031849117642,0.0020468085017037005,0.9610055884422483,-0.2765213726960822,-0.0032934607404531174,0.2765269304656163,0.9610005254127676,left_images/camera_left_1.png,right_images/camera_right_1.png
2025-05-30 16:03:32,0.0742025375366211,2,-0.019409487,-0.013148132,0.11286136,0.02247117,0.07529449,0.08049431,1.04718,0.06086805,0.000121183635,0.0016803294,0.8945130745846847,-0.012923280643715592,0.4468549520979462,-0.01740209931458386,0.9978178101408359,0.06369289367889944,-0.4467029508929837,-0.06475034040952984,0.8923361850112043,0.02247821,-0.010081918,0.11228275,-0.047652606,0.07092075,-0.09240524,1.047179,-0.06093347,-0.0001811499,0.0023194086,0.8977197557063582,-0.009006825424516945,-0.4404748770478162,0.04182575889297585,0.9970176453499099,0.06485692525820154,0.43857706974663324,-0.07664653910447337,0.8954191543270466,0.0027654853,-0.006435125,0.09171622,-0.001005873,-0.011947122,-0.006483855,2.0056277e-12,0.0002009374,-0.008739401,0.0019234624,0.9999924811308633,-0.0010563928755730465,0.0037311815598325792,0.00204696508399344,0.9610056897175818,-0.2765210195706279,-0.0032935718733478245,0.2765265780436432,0.9610006264408926,left_images/camera_left_2.png,right_images/camera_right_2.png
2025-05-30 16:03:32,0.12712955474853516,3,-0.019347684,-0.013277317,0.11286084,0.023121588,0.07635577,0.079922825,1.0471802,0.060869202,0.000116179115,0.0016812338,0.8942692488662951,-0.01284706889916867,0.447344904243708,-0.018012132692826612,0.9977447126520127,0.06466105049261349,-0.4471667179117519,-0.06588202482963253,0.8920210116339072,0.02247821,-0.010082206,0.11228275,-0.047650356,0.07092239,-0.09240447,1.047179,-0.060933467,-0.00018118409,0.0023195967,0.8977195216467535,-0.009003974891762773,-0.44047541235632265,0.04182324850730196,0.9970176703669327,0.06485815955136744,0.4385777882412884,-0.07664654859967719,0.8954188015946152,0.0027654858,-0.006435125,0.09171622,-0.0010058869,-0.011947135,-0.006483855,4.592988e-13,0.0002009374,-0.008739401,0.0019234624,0.9999924811308633,-0.0010563928755730465,0.0037311815598325792,0.00204696508399344,0.9610056897175818,-0.2765210195706279,-0.0032935718733478245,0.2765265780436432,0.9610006264408926,left_images/camera_left_3.png,right_images/camera_right_3.png
2025-05-30 16:03:32,0.18242359161376953,4,-0.019327793,-0.013233718,0.11286661,0.022766858,0.07593869,0.08013493,1.04718,0.060870357,0.00011925836,0.0016735876,0.8943812599451404,-0.01295443827582125,0.4471178193585009,-0.01767527695100312,0.997776318829743,0.0642650929142111,-0.4469560900621542,-0.06538042605799373,0.8921634678940998,0.022478051,-0.010082506,0.11228275,-0.04764865,0.07092373,-0.0924038,1.047179,-0.060933523,-0.00018121605,0.002319388,0.8977192492374931,-0.009002585773746071,-0.44047599593832354,0.041822044213098306,0.9970176832984451,0.0648587373299776,0.43857846067301265,-0.07664654355930034,0.8954184726674467,0.0027654858,-0.006435125,0.09171622,-0.0010059009,-0.0119471485,-0.006483855,5.2689593e-14,0.0002009374,-0.008739401,0.0019234624,0.9999924811308633,-0.0010563928755730465,0.0037311815598325792,0.00204696508399344,0.9610056897175818,-0.2765210195706279,-0.0032935718733478245,0.2765265780436432,0.9610006264408926,left_images/camera_left_4.png,right_images/camera_right_4.png
2025-05-30 16:03:32,0.2516341209411621,5,-0.019447088,-0.013001037,0.11286191,0.021668425,0.074227035,0.08104855,1.0471799,0.06086944,0.00012424868,0.0016779741,0.8947625387268966,-0.013134199968844714,0.44634906976734856,-0.016641266887590687,0.9978922049393473,0.06272332546719525,-0.44623207810216303,-0.06355029592744732,0.8926579929402744,0.022478553,-0.010079678,0.11228275,-0.047679838,0.070901655,-0.09241338,1.047179,-0.060933523,-0.00018114486,0.0023194086,0.8977221668083208,-0.009038931322420143,-0.4404693053341201,0.04185406087025466,0.997017364063815,0.06484298993654923,0.4385694344224672,-0.07664641854510214,0.895422904394659,0.0027654797,-0.006435125,0.09171622,-0.0010059149,-0.011947099,-0.006483855,1.0308949e-12,0.0002009374,-0.008739401,0.0019234624,0.9999924811308633,-0.0010563928755730465,0.0037311815598325792,0.00204696508399344,0.9610056897175818,-0.2765210195706279,-0.0032935718733478245,0.2765265780436432,0.9610006264408926,left_images/camera_left_5.png,right_images/camera_right_5.png
2025-05-30 16:03:32,0.3243429660797119,6,-0.019419301,-0.013068229,0.11285983,0.022140563,0.074890524,0.08068934,1.0471802,0.06086985,0.00011954212,0.0016806023,0.8946036417376455,-0.013037915570838055,0.4466702776627411,-0.017086584655149884,0.9978452361193586,0.06334771802301876,-0.4465337308810667,-0.0643031687513858,0.8924532086748111,0.022478947,-0.010077324,0.11228275,-0.04770288,0.07088532,-0.092420414,1.047179,-0.060933463,-0.00018105164,0.0023193788,0.8977240970424202,-0.009065713866089321,-0.4404648208670805,0.04187786019011384,0.9970170975173556,0.0648317212787462,0.43856321142483945,-0.07664672263160344,0.8954259263024303,0.0027654793,-0.006435125,0.09171622,-0.0010059288,-0.011947111,-0.006483855,5.6309574e-13,0.00020092014,-0.008739399,0.0019234587,0.9999924804618358,-0.0010566836353916899,0.0037312785315045845,0.0020472712664012307,0.9610056938610504,-0.2765210029039438,-0.003293584695546709,0.2765265625330338,0.9610006308601038,left_images/camera_left_6.png,right_images/camera_right_6.png
2025-05-30 16:03:32,0.37561893463134766,7,-0.019368824,-0.0131663075,0.11286677,0.022499615,0.075471625,0.08039808,1.0471802,0.06086847,0.00012009713,0.0016739629,0.8944872912540756,-0.01297851787185138,0.44690496065583846,-0.017423976175454953,0.9978072868103738,0.06385157353078807,-0.4467537250423142,-0.06490128243702503,0.892299799786398,0.022479227,-0.010075433,0.11228275,-0.04771995,0.07087301,-0.09242572,1.047179,-0.060933508,-0.00018126282,0.002319416,0.8977256629334206,-0.009085657714292893,-0.44046121842297165,0.04189528310477483,0.9970169475969178,0.064822769595993,0.43855834203024896,-0.07664631125124767,0.8954283464394321,0.0027654606,-0.006435125,0.09171622,-0.0010059705,-0.011947139,-0.006483883,3.4112713e-12,0.00020092014,-0.008739399,0.0019234587,0.9999924804618358,-0.0010566836353916899,0.0037312785315045845,0.0020472712664012307,0.9610056938610504,-0.2765210029039438,-0.003293584695546709,0.2765265625330338,0.9610006308601038,left_images/camera_left_7.png,right_images/camera_right_7.png
2025-05-30 16:03:33,0.4270486831665039,8,-0.019404069,-0.013138007,0.11286531,0.022358334,0.07515509,0.08057556,1.0471802,0.060867406,0.0001227071,0.0016759662,0.8945541595633539,-0.012952279378834898,0.4467718590811135,-0.017295069484857373,0.9978283291716077,0.0635571087614266,-0.44662482709698936,-0.06458222635904141,0.8923874718187689,0.022479517,-0.010074295,0.11228275,-0.047732692,0.07086412,-0.09242973,1.047179,-0.06093347,-0.00018107536,0.002319498,0.8977265693967609,-0.009100401649452368,-0.4404590665305248,0.04190830581784014,0.997016818077877,0.06481634341231973,0.4385552422473149,-0.07664624687278576,0.8954298701393174,0.0027654576,-0.006435125,0.09171622,-0.0010059635,-0.011947139,-0.0064839167,1.1292463e-12,0.00020092014,-0.008739399,0.0019234587,0.9999924804618358,-0.0010566836353916899,0.0037312785315045845,0.0020472712664012307,0.9610056938610504,-0.2765210029039438,-0.003293584695546709,0.2765265625330338,0.9610006308601038,left_images/camera_left_8.png,right_images/camera_right_8.png
2025-05-30 16:03:33,0.4775407314300537,9,-0.019424912,-0.013089861,0.11286053,0.022272354,0.0748882,0.08070138,1.0471802,0.06086887,0.00012212474,0.0016803341,0.8946036447560444,-0.012913269403527912,0.4466738925239675,-0.01721917570660606,0.9978438107685039,0.06333426638854468,-0.446528631531267,-0.06435042178806617,0.8924523541559582,0.022479637,-0.010073342,0.11228275,-0.047742102,0.07085744,-0.092432626,1.047179,-0.06093362,-0.00018119256,0.0023194803,0.8977275817619839,-0.009111333779694118,-0.4404567771535996,0.04191800920117,0.9970167048554103,0.06481181021905232,0.4385522425531437,-0.07664642089500874,0.8954313243993611,0.0027654576,-0.006435125,0.09171622,-0.0010059566,-0.011947139,-0.00648395,1.1080693e-12,0.00020092014,-0.008739399,0.0019234587,0.9999924804618358,-0.0010566836353916899,0.0037312785315045845,0.0020472712664012307,0.9610056938610504,-0.2765210029039438,-0.003293584695546709,0.2765265625330338,0.9610006308601038,left_images/camera_left_9.png,right_images/camera_right_9.png
2025-05-30 16:03:33,0.5320746898651123,10,-0.019313728,-0.013347815,0.11286503,0.023432491,0.07672894,0.07973716,1.0471802,0.060868494,0.00011751929,0.0016770354,0.8941934554379211,-0.012735633916716086,0.4474995730508913,-0.018310279569575292,0.9977184205858419,0.06498220437763708,-0.4473061568032286,-0.06630050416423991,0.8919200890402083,0.022479873,-0.01007269,0.11228275,-0.047749083,0.070852496,-0.09243497,1.047179,-0.060933586,-0.00018111846,0.002319442,0.8977282169657453,-0.009119568185933707,-0.4404553120801311,0.04192527753988759,0.9970166298545761,0.06480826256447896,0.4385502474822093,-0.07664641719953487,0.8954323018317843,0.0027654576,-0.006435125,0.09171622,-0.0010059496,-0.011947139,-0.0064839837,1.1116025e-12,0.00020092014,-0.008739399,0.0019234587,0.9999924804618358,-0.0010566836353916899,0.0037312785315045845,0.0020472712664012307,0.9610056938610504,-0.2765210029039438,-0.003293584695546709,0.2765265625330338,0.9610006308601038,left_images/camera_left_10.png,right_images/camera_right_10.png
2025-05-30 16:03:33,0.6031644344329834,11,-0.01936378,-0.013198419,0.11286657,0.022642711,0.075483,0.08039186,1.0471799,0.060868897,0.00012345542,0.001673867,0.8944835327219859,-0.012845153304003109,0.44691633638276473,-0.017568805020872824,0.997805368864835,0.06384185895358242,-0.4467555783415965,-0.06495727750689077,0.8922947973173205,0.022480194,-0.010072074,0.11228275,-0.04775428,0.070848696,-0.09243681,1.047179,-0.060933515,-0.00018101625,0.0023194673,0.8977286654332041,-0.009126058375832993,-0.44045426359389445,0.04193103869329458,0.9970165663727498,0.06480551189825005,0.43854877864796343,-0.07664647047851379,0.8954330166514782,0.0027654576,-0.006435125,0.09171622,-0.0010059426,-0.011947139,-0.0064840172,1.1119961e-12,0.00020092014,-0.008739399,0.0019234587,0.9999924804618358,-0.0010566836353916899,0.0037312785315045845,0.0020472712664012307,0.9610056938610504,-0.2765210029039438,-0.003293584695546709,0.2765265625330338,0.9610006308601038,left_images/camera_left_11.png,right_images/camera_right_11.png
2025-05-30 16:03:33,0.6717867851257324,12,-0.019433726,-0.013038246,0.11286065,0.022069313,0.0744725,0.0809114,1.0471799,0.06086973,0.00012385333,0.0016793087,0.894698538610235,-0.01289924264207912,0.44648419294301,-0.017032460502853498,0.9978706929710286,0.06296010958327611,-0.44634562874293837,-0.06393504241634762,0.8925737448823436,0.022480374,-0.010071496,0.11228275,-0.047758095,0.07084576,-0.09243813,1.047179,-0.060933504,-0.00018115237,0.0023195539,0.8977291736213571,-0.009130241808691503,-0.44045314110996037,0.04193472928553711,0.9970165238029004,0.06480377877662404,0.4385473854771734,-0.07664652600409057,0.8954336942189746,0.0027654576,-0.006435125,0.09171622,-0.0010059356,-0.011947139,-0.006484051,1.1098909e-12,0.00020092014,-0.008739399,0.0019234587,0.9999924804618358,-0.0010566836353916899,0.0037312785315045845,0.0020472712664012307,0.9610056938610504,-0.2765210029039438,-0.003293584695546709,0.2765265625330338,0.9610006308601038,left_images/camera_left_12.png,right_images/camera_right_12.png
2025-05-30 16:03:33,0.7373397350311279,13,-0.019380782,-0.013099301,0.11286411,0.022470593,0.07510644,0.080565296,1.0471802,0.06086997,0.00011893071,0.0016758228,0.8945580554721171,-0.012849421747265138,0.44676702849550765,-0.017408688929496218,0.9978264453071248,0.06355566532972176,-0.44661260947234893,-0.0646318606146262,0.8923899930264743,0.02248045,-0.010071198,0.11228275,-0.047760926,0.07084376,-0.092439026,1.047179,-0.06093342,-0.00018127152,0.0023195213,0.8977293241835974,-0.00913337941406514,-0.4404527691834168,0.04193753011284251,0.9970164920507688,0.06480245479002898,0.43854680943873703,-0.07664656521500525,0.895433972982847,0.0027654576,-0.006435125,0.09171622,-0.0010059286,-0.011947139,-0.0064840843,1.1070042e-12,0.00020092014,-0.008739399,0.0019234587,0.9999924804618358,-0.0010566836353916899,0.0037312785315045845,0.0020472712664012307,0.9610056938610504,-0.2765210029039438,-0.003293584695546709,0.2765265625330338,0.9610006308601038,left_images/camera_left_13.png,right_images/camera_right_13.png
2025-05-30 16:03:33,0.8065595626831055,14,-0.019386142,-0.013095287,0.112865366,0.022339176,0.074923664,0.08066953,1.04718,0.060869694,0.0001219791,0.0016741306,0.894605205510191,-0.012869881260045768,0.44667201885770874,-0.01728504905682263,0.9978404348742158,0.06336950062245349,-0.4465229594916394,-0.06441143288569366,0.8924507907780908,0.02248036,-0.010071323,0.11228275,-0.047762994,0.070842646,-0.09243947,1.047179,-0.06093347,-0.00018108555,0.0023195157,0.8977294371350711,-0.009136001487471686,-0.4404524845859871,0.041939736200676134,0.9970164893537125,0.06480106854224132,0.4385463672504493,-0.07664628780064614,0.8954342132942065,0.002765433,-0.006435131,0.09171622,-0.0010059705,-0.011947083,-0.0064841122,4.2572504e-12,0.00020092014,-0.008739399,0.0019234587,0.9999924804618358,-0.0010566836353916899,0.0037312785315045845,0.0020472712664012307,0.9610056938610504,-0.2765210029039438,-0.003293584695546709,0.2765265625330338,0.9610006308601038,left_images/camera_left_14.png,right_images/camera_right_14.png
2025-05-30 16:03:33,0.8742427825927734,15,-0.019417593,-0.013050224,0.11286157,0.022257846,0.07470755,0.08077912,1.04718,0.06086962,0.00012088963,0.0016786056,0.8946423956306911,-0.012852531042290552,0.4465980255061422,-0.017210826297783484,0.9978528259887935,0.06319434408494243,-0.44645130910136815,-0.06422266042438238,0.8925002400502137,0.022480305,-0.010071215,0.11228275,-0.047764584,0.07084153,-0.09243992,1.047179,-0.060933437,-0.00018124888,0.0023194598,0.8977294875226667,-0.009137538565853205,-0.44045235000082356,0.041941232156383214,0.9970164527443056,0.06480066359510732,0.4385461210380212,-0.0766465807855735,0.8954343088001407,0.0027654292,-0.006435131,0.09171622,-0.0010059635,-0.011947139,-0.00648414,2.1127264e-12,0.00020092014,-0.008739399,0.0019234587,0.9999924804618358,-0.0010566836353916899,0.0037312785315045845,0.0020472712664012307,0.9610056938610504,-0.2765210029039438,-0.003293584695546709,0.2765265625330338,0.9610006308601038,left_images/camera_left_15.png,right_images/camera_right_15.png
2025-05-30 16:03:33,0.9328224658966064,16,-0.019365087,-0.013141388,0.11286692,0.02253083,0.075365216,0.08044064,1.0471802,0.060869075,0.000119145785,0.0016731285,0.8945075168866642,-0.01290937408845548,0.4468664792685824,-0.01745906373985895,0.9978116453063915,0.0637738315006979,-0.44671185715915535,-0.06484804200279434,0.8923246315785652,0.02248028,-0.010071165,0.11228275,-0.047765773,0.070840634,-0.09244037,1.047179,-0.06093344,-0.00018121407,0.0023194803,0.8977298282372168,-0.009139140206742176,-0.4404516223258332,0.04194265513342671,0.9970164309205706,0.06480007835462392,0.43854528748298655,-0.07664667370922545,0.8954347090859143,0.0027654292,-0.006435131,0.09171622,-0.0010059566,-0.011947139,-0.0064841737,1.1052926e-12,0.00020092014,-0.008739399,0.0019234587,0.9999924804618358,-0.0010566836353916899,0.0037312785315045845,0.0020472712664012307,0.9610056938610504,-0.2765210029039438,-0.003293584695546709,0.2765265625330338,0.9610006308601038,left_images/camera_left_16.png,right_images/camera_right_16.png
2025-05-30 16:03:33,0.9854834079742432,17,-0.019401815,-0.013128265,0.11286354,0.022317955,0.075107746,0.08059046,1.04718,0.060868595,0.00012243312,0.0016771387,0.8945628659543603,-0.012967066838361163,0.44675399722121184,-0.017256844723010634,0.9978315723365313,0.06351656916593847,-0.44660886709259034,-0.06452912850810104,0.8923993004301706,0.022480179,-0.010071213,0.11228275,-0.047766585,0.07084019,-0.09244037,1.047179,-0.060933426,-0.00018120557,0.002319456,0.8977297512806065,-0.009140221362986974,-0.4404517567442503,0.04194353412850786,0.997016438334285,0.06479939533689998,0.43854536094966434,-0.0766464483498926,0.8954346923951942,0.0027654292,-0.006435131,0.09171622,-0.0010059496,-0.011947139,-0.006484207,1.1114038e-12,0.00020092014,-0.008739399,0.0019234587,0.9999924804618358,-0.0010566836353916899,0.0037312785315045845,0.0020472712664012307,0.9610056938610504,-0.2765210029039438,-0.003293584695546709,0.2765265625330338,0.9610006308601038,left_images/camera_left_17.png,right_images/camera_right_17.png
2025-05-30 16:03:33,1.051246166229248,18,-0.019464051,-0.012993338,0.11285792,0.021762952,0.07424106,0.08104005,1.0471799,0.060869623,0.00012300955,0.0016823169,0.8947494809990844,-0.013065929272691797,0.44637724823753044,-0.016734205608999665,0.9978888195691495,0.06275245127901147,-0.4462547844163741,-0.06361749186450216,0.8926418554573637,0.02248017,-0.010071178,0.11228275,-0.047767144,0.07083974,-0.09244051,1.047179,-0.060933433,-0.00018119533,0.0023194551,0.8977296555749774,-0.009140473528416692,-0.4404519465786351,0.041943729350269854,0.9970164437740152,0.06479918527579899,0.4385455381934969,-0.07664634751827597,0.8954346142196447,0.0027654292,-0.006435131,0.09171622,-0.0010059586,-0.0119471215,-0.006484221,1.6975164e-12,0.00020091844,-0.0087394025,0.0019234605,0.9999924792658121,-0.0010566904909108474,0.003731597113922907,0.0020473656589360223,0.9610057182852525,-0.2765209173225497,-0.003293889140943976,0.2765264776260171,0.9610006542485156,left_images/camera_left_18.png,right_images/camera_right_18.png
2025-05-30 16:03:33,1.1109702587127686,19,-0.019333893,-0.013276284,0.112863354,0.022994343,0.0762997,0.07995567,1.0471802,0.060869608,0.000117333606,0.0016779462,0.8942927498136413,-0.012925625919536554,0.44729565817850764,-0.017887958363414034,0.997751142975549,0.06459626642906181,-0.4471247013712672,-0.0657691788421733,0.8920504002230375,0.022480236,-0.010071061,0.11228275,-0.047767702,0.070839114,-0.092440784,1.047179,-0.060933407,-0.00018120397,0.0023194533,0.8977298195458484,-0.009141619834731319,-0.44045158858264516,0.04194455416387624,0.9970164640455493,0.06479833947026378,0.4385451236465549,-0.07664594711338063,0.8954348515201543,0.0027654292,-0.006435131,0.09171622,-0.0010059738,-0.011947066,-0.006484237,2.3634127e-13,0.00020091844,-0.0087394025,0.0019234605,0.9999924792658121,-0.0010566904909108474,0.003731597113922907,0.0020473656589360223,0.9610057182852525,-0.2765209173225497,-0.003293889140943976,0.2765264776260171,0.9610006542485156,left_images/camera_left_19.png,right_images/camera_right_19.png
2025-05-30 16:03:33,1.1627380847930908,20,-0.019331753,-0.013240909,0.11286689,0.022670776,0.075865425,0.08018154,1.04718,0.060870215,0.00012127578,0.0016731005,0.8944021941974545,-0.012995535082220363,0.4470747488761869,-0.017582628126156852,0.997783517047566,0.0641786903603263,-0.4469178517389477,-0.0652623105330798,0.8921912713207453,0.022480145,-0.010071194,0.11228275,-0.04776815,0.070839114,-0.092440784,1.047179,-0.060933582,-0.00018102943,0.002319445,0.8977300003390326,-0.009142025103935646,-0.44045121167761536,0.041944901396632,0.9970164583322576,0.06479820260955162,0.4385447203400211,-0.07664597309448613,0.8954350468181889,0.0027654292,-0.006435131,0.09171622,-0.0010059889,-0.01194701,-0.006484253,2.2120307e-13,0.00020091844,-0.0087394025,0.0019234605,0.9999924792658121,-0.0010566904909108474,0.003731597113922907,0.0020473656589360223,0.9610057182852525,-0.2765209173225497,-0.003293889140943976,0.2765264776260171,0.9610006542485156,left_images/camera_left_20.png,right_images/camera_right_20.png
2025-05-30 16:03:33,1.2158286571502686,21,-0.01938358,-0.013202309,0.1128619,0.022417339,0.0754814,0.08040137,1.04718,0.06086978,0.00012402999,0.0016789297,0.8944834423383745,-0.013035991937593562,0.44691099146999563,-0.01734400022426369,0.997810769565161,0.06381891409293575,-0.446764543175387,-0.0648361863004277,0.8922991157158588,0.022480164,-0.010071075,0.11228275,-0.04776838,0.07083889,-0.09244101,1.047179,-0.06093342,-0.00018119326,0.0023194514,0.8977297646088186,-0.00914225517524785,-0.44045168736844037,0.04194525878747035,0.9970164357785148,0.06479831828650512,0.4385451687120128,-0.07664623903243875,0.895434804461796,0.0027654292,-0.006435131,0.09171622,-0.001006004,-0.011946954,-0.0064842687,2.1931667e-13,0.00020091844,-0.0087394025,0.0019234605,0.9999924792658121,-0.0010566904909108474,0.003731597113922907,0.0020473656589360223,0.9610057182852525,-0.2765209173225497,-0.003293889140943976,0.2765264776260171,0.9610006542485156,left_images/camera_left_21.png,right_images/camera_right_21.png
2025-05-30 16:03:33,1.278167724609375,22,-0.01936089,-0.013237618,0.11286064,0.02269561,0.07583538,0.080202274,1.0471802,0.060870744,0.0001213919,0.0016799849,0.8943983101654952,-0.012962102244172486,0.4470834896062684,-0.01760848145073017,0.9977846218840561,0.06415442083512696,-0.4469246067896754,-0.06525206691824328,0.8921886367852884,0.022480201,-0.010071038,0.11228275,-0.047768604,0.07083867,-0.09244123,1.047179,-0.060933422,-0.00018118575,0.002319445,0.897729998267423,-0.009142580115462214,-0.4404512043797871,0.04194539868757723,0.9970164531241743,0.06479796083698278,0.43854467701673544,-0.07664597464005082,0.8954350679037335,0.0027654292,-0.006435131,0.09171622,-0.0010060192,-0.011946898,-0.0064842845,2.2037945e-13,0.00020091844,-0.0087394025,0.0019234605,0.9999924792658121,-0.0010566904909108474,0.003731597113922907,0.0020473656589360223,0.9610057182852525,-0.2765209173225497,-0.003293889140943976,0.2765264776260171,0.9610006542485156,left_images/camera_left_22.png,right_images/camera_right_22.png
2025-05-30 16:03:33,1.3484477996826172,23,-0.019319547,-0.013276356,0.11286691,0.022925101,0.07614778,0.08003521,1.0471802,0.060869973,0.000120127515,0.0016734581,0.8943364279846001,-0.012905159979279553,0.44720891138891167,-0.01782610712953171,0.9977622569575683,0.06444151220716306,-0.4470398007832778,-0.0656043858049802,0.8921050841009699,0.022480117,-0.010071129,0.11228275,-0.047768828,0.07083867,-0.09244123,1.047179,-0.060933582,-0.0001810033,0.002319443,0.8977301804136069,-0.009142963485517581,-0.44045082517036505,0.041945752727599775,0.9970164429642595,0.06479788798263812,0.43854427028826637,-0.07664606107033782,0.8954352597031983,0.0027654292,-0.006435131,0.09171622,-0.0010060343,-0.011946842,-0.0064843004,2.2022754e-13,0.00020091844,-0.0087394025,0.0019234605,0.9999924792658121,-0.0010566904909108474,0.003731597113922907,0.0020473656589360223,0.9610057182852525,-0.2765209173225497,-0.003293889140943976,0.2765264776260171,0.9610006542485156,left_images/camera_left_23.png,right_images/camera_right_23.png
2025-05-30 16:03:34,1.4139795303344727,24,-0.01943315,-0.01303296,0.11286175,0.021856247,0.07433425,0.080989696,1.0471799,0.060870018,0.00012584083,0.0016777162,0.8947382194733331,-0.013012087264944456,0.44640139358955727,-0.016826184435663572,0.9978834963074988,0.0628124773787725,-0.4462739048286673,-0.06371195635146708,0.8926255589477831,0.022480179,-0.0100709805,0.11228275,-0.047768828,0.070838444,-0.09244123,1.047179,-0.060933407,-0.00018117236,0.0023194486,0.8977299898139389,-0.009142931918744112,-0.44045121430709483,0.04194583270086272,0.9970164292437479,0.06479804732457518,0.4385446528093763,-0.07664624331287125,0.8954350567619785,0.0027654292,-0.006435131,0.09171622,-0.0010060495,-0.011946786,-0.006484316,2.1932971e-13,0.00020091844,-0.0087394025,0.0019234605,0.9999924792658121,-0.0010566904909108474,0.003731597113922907,0.0020473656589360223,0.9610057182852525,-0.2765209173225497,-0.003293889140943976,0.2765264776260171,0.9610006542485156,left_images/camera_left_24.png,right_images/camera_right_24.png
2025-05-30 16:03:34,1.4778456687927246,25,-0.019438546,-0.012994805,0.11285909,0.021902055,0.07429794,0.08099311,1.0471799,0.06087096,0.000121979916,0.001680267,0.8947366331781937,-0.012974128618562052,0.446405677871081,-0.01687150366259529,0.9978823982640332,0.06281776499513791,-0.4462753741952533,-0.06373689058473397,0.8926230442720355,0.022480214,-0.01007087,0.11228275,-0.047768828,0.07083822,-0.09244123,1.047179,-0.060933407,-0.00018116637,0.0023194533,0.8977298861213265,-0.009143046342165596,-0.4404514232786348,0.04194581354430161,0.9970164520916049,0.06479770817532882,0.4385448669072491,-0.07664593245732876,0.8954349785143809,0.0027654292,-0.0064351438,0.09171622,-0.001006064,-0.011946786,-0.006484352,2.4279003e-12,0.00020091844,-0.0087394025,0.0019234605,0.9999924792658121,-0.0010566904909108474,0.003731597113922907,0.0020473656589360223,0.9610057182852525,-0.2765209173225497,-0.003293889140943976,0.2765264776260171,0.9610006542485156,left_images/camera_left_25.png,right_images/camera_right_25.png
2025-05-30 16:03:34,1.5344150066375732,26,-0.019338543,-0.013189942,0.11286641,0.022746593,0.07567213,0.080271944,1.0471802,0.06087039,0.00011904468,0.0016732989,0.8944388265390456,-0.012857335671938436,0.44700545242633727,-0.017663849648159192,0.9977907158650283,0.06404432644006672,-0.44684132977496904,-0.06517956929110302,0.892235646985685,0.022480123,-0.010070941,0.11228275,-0.047768828,0.070838444,-0.09244123,1.047179,-0.060933582,-0.0001810033,0.002319443,0.8977301804136069,-0.009142963485517581,-0.44045082517036505,0.041945752727599775,0.9970164429642595,0.06479788798263812,0.43854427028826637,-0.07664606107033782,0.8954352597031983,0.0027654292,-0.006435158,0.09171622,-0.0010060786,-0.011946786,-0.006484388,2.4398292e-12,0.00020090611,-0.008739477,0.0019235229,0.9999924797986243,-0.0010566480877108211,0.0037314663360336468,0.0020472906474899013,0.9610055587184076,-0.27652147242723474,-0.0032937740060477263,0.2765270323262085,0.9610004950288304,left_images/camera_left_26.png,right_images/camera_right_26.png
2025-05-30 16:03:34,1.5867938995361328,27,-0.019369163,-0.013158953,0.11286642,0.022545323,0.07531421,0.08047185,1.0471799,0.060869217,0.00012209837,0.0016737208,0.8945193813292052,-0.012862050513092499,0.4468440937094446,-0.01747674674453324,0.9978155840206634,0.06370732774752136,-0.4466874071984162,-0.06479682046290014,0.8923405920993706,0.022480227,-0.010070656,0.11228275,-0.047768828,0.07083822,-0.09244123,1.047179,-0.060933452,-0.00018106494,0.0023194486,0.8977299670359418,-0.009142831490619497,-0.4404512628180113,0.04194568253630582,0.9970164412995532,0.06479795903373642,0.43854471380032634,-0.0766460984702318,0.8954350392893284,0.0027654292,-0.0064351596,0.09171622,-0.0010060786,-0.011946786,-0.0064844214,1.0099137e-12,0.00020090611,-0.008739477,0.0019235229,0.9999924797986243,-0.0010566480877108211,0.0037314663360336468,0.0020472906474899013,0.9610055587184076,-0.27652147242723474,-0.0032937740060477263,0.2765270323262085,0.9610004950288304,left_images/camera_left_27.png,right_images/camera_right_27.png
2025-05-30 16:03:34,1.6362998485565186,28,-0.019407138,-0.013108952,0.112863354,0.02240044,0.075024664,0.08062929,1.0471799,0.06086847,0.00012172811,0.0016774694,0.894576486865144,-0.01286365569140037,0.446729711917922,-0.017342047234064087,0.9978336789336676,0.06346024411734937,-0.4465782826624555,-0.06451725000304327,0.8924154648515996,0.022480227,-0.010070433,0.11228275,-0.047768828,0.07083822,-0.09244123,1.047179,-0.060933437,-0.00018114244,0.0023194533,0.8977299191277152,-0.009142696953838018,-0.4404513632574616,0.04194579249895075,0.997016403519994,0.06479846914620417,0.43854480135395635,-0.07664660595529908,0.8954349529703161,0.0027654292,-0.0064351596,0.09171622,-0.0010060786,-0.011946786,-0.006484455,6.2582594e-13,0.00020090611,-0.008739477,0.0019235229,0.9999924797986243,-0.0010566480877108211,0.0037314663360336468,0.0020472906474899013,0.9610055587184076,-0.27652147242723474,-0.0032937740060477263,0.2765270323262085,0.9610004950288304,left_images/camera_left_28.png,right_images/camera_right_28.png
2025-05-30 16:03:34,1.6915152072906494,29,-0.019301081,-0.013362598,0.11286761,0.02352734,0.0768306,0.079683565,1.0471802,0.06086791,0.0001172772,0.0016744193,0.8941730381031574,-0.012698953180730124,0.4475414109526435,-0.018401498599773906,0.9977106580771599,0.06507555307888566,-0.4473432270401015,-0.06642423764977637,0.8918922905115808,0.02248012,-0.010070412,0.11228275,-0.047768828,0.07083822,-0.09244123,1.047179,-0.060933538,-0.00018114003,0.002319416,0.8977301723187522,-0.009142766716748442,-0.44045084575387783,0.04194583155071908,0.9970164004479254,0.06479849113506098,0.4385442793197306,-0.07664663759503734,0.8954352059313464,0.0027654292,-0.0064351596,0.09171622,-0.0010060786,-0.011946786,-0.0064844885,6.137782e-13,0.00020090611,-0.008739477,0.0019235229,0.9999924797986243,-0.0010566480877108211,0.0037314663360336468,0.0020472906474899013,0.9610055587184076,-0.27652147242723474,-0.0032937740060477263,0.2765270323262085,0.9610004950288304,left_images/camera_left_29.png,right_images/camera_right_29.png
2025-05-30 16:03:34,1.7496223449707031,30,-0.01931573,-0.01329989,0.11287024,0.023126153,0.076218806,0.080005705,1.0471799,0.06086803,0.000121408724,0.0016707629,0.8943203724738465,-0.01275828872691973,0.44724523188850296,-0.018024177440394633,0.9977546715983555,0.06450383191140474,-0.44706397797836206,-0.0657483183999267,0.8920823718815121,0.022480177,-0.010070395,0.11228275,-0.047768828,0.07083822,-0.09244123,1.047179,-0.060933437,-0.00018114244,0.0023194533,0.8977299191277152,-0.009142696953838018,-0.4404513632574616,0.04194579249895075,0.997016403519994,0.06479846914620417,0.43854480135395635,-0.07664660595529908,0.8954349529703161,0.0027654292,-0.0064351596,0.09171622,-0.0010060786,-0.011946786,-0.006484522,6.103978e-13,0.00020090611,-0.008739477,0.0019235229,0.9999924797986243,-0.0010566480877108211,0.0037314663360336468,0.0020472906474899013,0.9610055587184076,-0.27652147242723474,-0.0032937740060477263,0.2765270323262085,0.9610004950288304,left_images/camera_left_30.png,right_images/camera_right_30.png
2025-05-30 16:03:34,1.802901268005371,31,-0.01937889,-0.013228951,0.11286349,0.02282522,0.07567606,0.08030013,1.0471799,0.060868133,0.0001234755,0.0016781297,0.8944312519280156,-0.012774846173602012,0.44702297354803083,-0.017743353727321175,0.9977910921266445,0.0640164812468256,-0.44685334168269325,-0.06519002820952621,0.8922288670789863,0.022480205,-0.010070377,0.11228275,-0.047768828,0.07083822,-0.09244123,1.047179,-0.060933437,-0.00018114244,0.0023194533,0.8977299191277152,-0.009142696953838018,-0.4404513632574616,0.04194579249895075,0.997016403519994,0.06479846914620417,0.43854480135395635,-0.07664660595529908,0.8954349529703161,0.0027654292,-0.0064351596,0.09171622,-0.0010060786,-0.011946786,-0.0064845555,6.1300953e-13,0.00020090611,-0.008739477,0.0019235229,0.9999924797986243,-0.0010566480877108211,0.0037314663360336468,0.0020472906474899013,0.9610055587184076,-0.27652147242723474,-0.0032937740060477263,0.2765270323262085,0.9610004950288304,left_images/camera_left_31.png,right_images/camera_right_31.png
2025-05-30 16:03:34,1.8565528392791748,32,-0.019359322,-0.01324428,0.112861335,0.023035094,0.07594516,0.080139965,1.04718,0.06086961,0.000120108714,0.0016801264,0.8943635676003426,-0.01272569941769282,0.4471597762808256,-0.017942552926107587,0.9977704350685691,0.06428237470389693,-0.4469808427032207,-0.06551500192634442,0.8921411944187477,0.02248012,-0.010070377,0.11228275,-0.047768828,0.07083822,-0.09244123,1.047179,-0.060933538,-0.00018114003,0.002319416,0.8977301723187522,-0.009142766716748442,-0.44045084575387783,0.04194583155071908,0.9970164004479254,0.06479849113506098,0.4385442793197306,-0.07664663759503734,0.8954352059313464,0.0027654292,-0.0064351596,0.09171622,-0.0010060786,-0.011946786,-0.006484589,6.1870555e-13,0.00020090611,-0.008739477,0.0019235229,0.9999924797986243,-0.0010566480877108211,0.0037314663360336468,0.0020472906474899013,0.9610055587184076,-0.27652147242723474,-0.0032937740060477263,0.2765270323262085,0.9610004950288304,left_images/camera_left_32.png,right_images/camera_right_32.png
2025-05-30 16:03:34,1.9219107627868652,33,-0.01931744,-0.013286244,0.11286731,0.02311178,0.07627441,0.07996793,1.04718,0.060869236,0.000118911674,0.0016735699,0.8943030142205282,-0.012806339804101747,0.44727856690981754,-0.018006952597561927,0.9977506406871973,0.06457095838251835,-0.44709939433444484,-0.06580012666484493,0.8920608022532227,0.022480177,-0.010070359,0.11228275,-0.047768828,0.07083822,-0.09244123,1.047179,-0.060933437,-0.00018114244,0.0023194533,0.8977299191277152,-0.009142696953838018,-0.4404513632574616,0.04194579249895075,0.997016403519994,0.06479846914620417,0.43854480135395635,-0.07664660595529908,0.8954349529703161,0.0027654292,-0.0064351712,0.09171622,-0.001006082,-0.011946758,-0.0064845574,7.381199e-12,0.0002009109,-0.008739487,0.0019235238,0.9999924806513415,-0.001056636545638448,0.0037312410785981954,0.002047215710993204,0.9610056893357772,-0.2765210190421337,-0.0032935616904591243,0.2765265784395378,0.9610006263618734,left_images/camera_left_33.png,right_images/camera_right_33.png
2025-05-30 16:03:34,1.9864528179168701,34,-0.019430595,-0.013046882,0.112862065,0.0219297,0.07447341,0.08091827,1.0471799,0.060869444,0.00012504106,0.0016777394,0.8947057657112798,-0.013014056820707727,0.44646637849681375,-0.01689374670007859,0.9978742164053741,0.06294163610674998,-0.4463364136225347,-0.06385673463643705,0.892583958693044,0.022480205,-0.010070342,0.11228275,-0.047768828,0.07083822,-0.09244123,1.047179,-0.060933437,-0.00018114244,0.0023194533,0.8977299191277152,-0.009142696953838018,-0.4404513632574616,0.04194579249895075,0.997016403519994,0.06479846914620417,0.43854480135395635,-0.07664660595529908,0.8954349529703161,0.0027654292,-0.0064351717,0.09171622,-0.001006082,-0.011946758,-0.0064845853,1.4938925e-12,0.0002009109,-0.008739487,0.0019235238,0.9999924806513415,-0.001056636545638448,0.0037312410785981954,0.002047215710993204,0.9610056893357772,-0.2765210190421337,-0.0032935616904591243,0.2765265784395378,0.9610006263618734,left_images/camera_left_34.png,right_images/camera_right_34.png
2025-05-30 16:03:34,2.0528624057769775,35,-0.019443609,-0.013003326,0.11285956,0.021891143,0.07443803,0.080926985,1.0471799,0.060869638,0.00012054114,0.001680566,0.8947051653811453,-0.01305190517297169,0.4464664766941107,-0.016854000814343406,0.9978745783214866,0.06294655348996539,-0.4463391196129321,-0.06384335291219218,0.8925835628063524,0.02248012,-0.010070342,0.11228275,-0.047768828,0.07083822,-0.09244123,1.047179,-0.060933538,-0.00018114003,0.002319416,0.8977301723187522,-0.009142766716748442,-0.44045084575387783,0.04194583155071908,0.9970164004479254,0.06479849113506098,0.4385442793197306,-0.07664663759503734,0.8954352059313464,0.0027654292,-0.0064351717,0.09171622,-0.0010060673,-0.011946758,-0.0064845434,7.386136e-12,0.0002009109,-0.008739487,0.0019235238,0.9999924806513415,-0.001056636545638448,0.0037312410785981954,0.002047215710993204,0.9610056893357772,-0.2765210190421337,-0.0032935616904591243,0.2765265784395378,0.9610006263618734,left_images/camera_left_35.png,right_images/camera_right_35.png
2025-05-30 16:03:34,2.1161792278289795,36,-0.01935267,-0.013188452,0.1128651,0.022679305,0.07578782,0.08021647,1.0471802,0.06086937,0.000116663636,0.0016756086,0.894409002450622,-0.012976281222748168,0.4470616875341825,-0.01759113765072968,0.9977848953576081,0.06415492555026518,-0.44690389147045473,-0.06524506664748793,0.8921995253679127,0.022480177,-0.010070324,0.11228275,-0.047768828,0.07083822,-0.09244123,1.047179,-0.060933437,-0.00018114244,0.0023194533,0.8977299191277152,-0.009142696953838018,-0.4404513632574616,0.04194579249895075,0.997016403519994,0.06479846914620417,0.43854480135395635,-0.07664660595529908,0.8954349529703161,0.0027654292,-0.0064351717,0.09171622,-0.0010060673,-0.011946758,-0.0064845714,1.6942528e-12,0.0002009109,-0.008739487,0.0019235238,0.9999924806513415,-0.001056636545638448,0.0037312410785981954,0.002047215710993204,0.9610056893357772,-0.2765210190421337,-0.0032935616904591243,0.2765265784395378,0.9610006263618734,left_images/camera_left_36.png,right_images/camera_right_36.png
2025-05-30 16:03:34,2.168095827102661,37,-0.019383172,-0.013169827,0.11286438,0.022426333,0.075446695,0.08041328,1.04718,0.060868464,0.00012105011,0.0016766395,0.8944890128848213,-0.013027280214130911,0.44690009599300873,-0.01735239110283994,0.9978106803976131,0.06381802729218737,-0.44675306417679106,-0.06483930948641266,0.8923046360935111,0.02248064,-0.010067324,0.11228275,-0.047801297,0.07081516,-0.0924511,1.047179,-0.060933363,-0.00018125624,0.0023193453,0.8977329935698147,-0.009180690653664666,-0.44044430655339456,0.04197922093286041,0.9970160708733808,0.06478193752949712,0.438535309030013,-0.07664639156103364,0.8954396201836412,0.0027654292,-0.0064351717,0.09171622,-0.0010060673,-0.011946758,-0.0064845993,3.0492628e-13,0.000200906,-0.008739487,0.0019235238,0.9999924788550922,-0.0010566677255131177,0.003731713623227061,0.002047376345391005,0.9610056892189914,-0.2765210182587062,-0.003294007187037223,0.2765265787262578,0.9610006247524517,left_images/camera_left_37.png,right_images/camera_right_37.png
2025-05-30 16:03:34,2.2335915565490723,38,-0.019374805,-0.013202157,0.11286111,0.022736691,0.07575377,0.08023987,1.0471802,0.06086933,0.000118833326,0.0016802019,0.894408227166496,-0.012904034927305266,0.447065329744413,-0.01765058467568437,0.9977865975802244,0.06411210922973941,-0.4469030991585226,-0.06523336241429249,0.892200778071076,0.022480967,-0.010065194,0.11228275,-0.047825374,0.070798345,-0.092458256,1.047179,-0.060933545,-0.00018097603,0.002319321,0.8977349097199052,-0.00920893312184308,-0.44043981134878213,0.04200419418942389,0.997015810429951,0.06476975701054345,0.43852899509689275,-0.0766463913270879,0.8954427123807777,0.0027654292,-0.0064351717,0.09171622,-0.0010060462,-0.011946758,-0.0064845993,2.3980094e-13,0.000200906,-0.008739487,0.0019235238,0.9999924788550922,-0.0010566677255131177,0.003731713623227061,0.002047376345391005,0.9610056892189914,-0.2765210182587062,-0.003294007187037223,0.2765265787262578,0.9610006247524517,left_images/camera_left_38.png,right_images/camera_right_38.png
2025-05-30 16:03:34,2.29654598236084,39,-0.01929307,-0.013351147,0.11286679,0.023365619,0.07674554,0.079718634,1.0471802,0.060869686,0.00011762488,0.0016744193,0.8941958050581358,-0.012798252280815495,0.4474930915164936,-0.01824397361561062,0.9977191028092747,0.06499037864306424,-0.44730416904288434,-0.06627817610656285,0.8919227453814833,0.02248145,-0.010063232,0.11228275,-0.04784321,0.07078547,-0.092463836,1.047179,-0.06093345,-0.0001811331,0.002319444,0.8977365841297018,-0.009229542337515474,-0.4404359670410387,0.04202220262092785,0.9970156503867086,0.0647605386856397,0.43852384199952077,-0.07664599423458841,0.8954452700002222,0.0027654292,-0.0064351717,0.09171622,-0.001006025,-0.011946758,-0.0064845993,1.8580981e-13,0.000200906,-0.008739487,0.0019235238,0.9999924788550922,-0.0010566677255131177,0.003731713623227061,0.002047376345391005,0.9610056892189914,-0.2765210182587062,-0.003294007187037223,0.2765265787262578,0.9610006247524517,left_images/camera_left_39.png,right_images/camera_right_39.png
2025-05-30 16:03:34,2.3491697311401367,40,-0.019343542,-0.013284227,0.11286508,0.023000894,0.076103054,0.08007012,1.04718,0.06086875,0.00012179848,0.0016763303,0.8943396896319682,-0.012815104249828013,0.44720497833997835,-0.017903280159010562,0.997763835283474,0.06439566413944635,-0.4470301914955436,-0.06559803429584181,0.8921103663717729,0.02248167,-0.010061992,0.11228275,-0.047856446,0.07077614,-0.09246784,1.047179,-0.060933493,-0.00018099468,0.0023195203,0.8977376125713096,-0.009245330115090614,-0.44043353964682197,0.04203625338733625,0.9970154894066346,0.06475389783175133,0.4385203899203791,-0.07664618551703813,0.8954469441958953,0.0027654292,-0.0064351717,0.09171622,-0.0010060038,-0.011946758,-0.0064845993,1.8449279e-13,0.000200906,-0.008739487,0.0019235238,0.9999924788550922,-0.0010566677255131177,0.003731713623227061,0.002047376345391005,0.9610056892189914,-0.2765210182587062,-0.003294007187037223,0.2765265787262578,0.9610006247524517,left_images/camera_left_40.png,right_images/camera_right_40.png
2025-05-30 16:03:35,2.4116909503936768,41,-0.019412816,-0.013112923,0.11285927,0.022335019,0.074945025,0.08066567,1.0471799,0.060870223,0.00012360513,0.0016810847,0.8945916076392398,-0.012876775190308533,0.4466990532809968,-0.017281129801532517,0.9978403004491617,0.0633726861692756,-0.4465503533692736,-0.06441213752255986,0.8924370333225488,0.022493133,-0.010045972,0.1122809,-0.047879905,0.070728816,-0.09248734,1.047179,-0.060933415,-0.00018214254,0.0023214705,0.8977407232383978,-0.009280732678375668,-0.44042645451919776,0.04206107193221545,0.9970162758879312,0.06472566602572519,0.4385116418834412,-0.07663167501440413,0.8954524701608542,0.0027654292,-0.0064351717,0.09171622,-0.0010059826,-0.011946758,-0.0064845993,1.8139986e-13,0.000200906,-0.008739487,0.0019235238,0.9999924788550922,-0.0010566677255131177,0.003731713623227061,0.002047376345391005,0.9610056892189914,-0.2765210182587062,-0.003294007187037223,0.2765265787262578,0.9610006247524517,left_images/camera_left_41.png,right_images/camera_right_41.png
2025-05-30 16:03:35,2.4737300872802734,42,-0.01933323,-0.01324333,0.11286823,0.0230083,0.0761825,0.08001858,1.0471802,0.06086768,0.00011569273,0.0016733464,0.8943212793986555,-0.012869905298813182,0.4472402204099624,-0.017904784400124916,0.9977561059174369,0.0645148959547917,-0.4470669613272012,-0.06570478401206517,0.8920840842922773,0.02246478,-0.009985368,0.1122804,-0.047915667,0.070672445,-0.09246193,1.047179,-0.060936127,-0.00018811555,0.0023201983,0.897741832453885,-0.009311567430979491,-0.44042354271123973,0.04209816198668288,0.9970142965399942,0.06473204192827284,0.4385058118425387,-0.07665368358297589,0.8954534414325946,0.0027654292,-0.0064351717,0.09171622,-0.0010059614,-0.011946758,-0.0064845993,1.8313935e-13,0.000200906,-0.008739487,0.0019235238,0.9999924788550922,-0.0010566677255131177,0.003731713623227061,0.002047376345391005,0.9610056892189914,-0.2765210182587062,-0.003294007187037223,0.2765265787262578,0.9610006247524517,left_images/camera_left_42.png,right_images/camera_right_42.png
2025-05-30 16:03:35,2.541306257247925,43,-0.01932385,-0.0132150585,0.1128705,0.022746997,0.0757391,0.080239154,1.04718,0.06086941,0.00012072158,0.0016691461,0.8944304009992003,-0.012877551512770381,0.4470217292654188,-0.01766331010141796,0.9977880734842246,0.06408562934777604,-0.44685821604248316,-0.06521601858190465,0.8922245264929977,0.022524133,-0.009877695,0.11227628,-0.047451437,0.06998628,-0.092792645,1.0471791,-0.06093599,-0.00018771618,0.0023247525,0.8978818151521815,-0.009213679163925483,-0.4401401528323543,0.04166812979425259,0.9970712409359811,0.06413039418116942,0.43826021149366645,-0.07592133174969401,0.8956360524269218,0.0027654292,-0.0064351717,0.09171622,-0.0010059403,-0.011946758,-0.0064845993,1.821564e-13,0.000200906,-0.008739487,0.0019235238,0.9999924788550922,-0.0010566677255131177,0.003731713623227061,0.002047376345391005,0.9610056892189914,-0.2765210182587062,-0.003294007187037223,0.2765265787262578,0.9610006247524517,left_images/camera_left_43.png,right_images/camera_right_43.png
2025-05-30 16:03:35,2.608582019805908,44,-0.019369805,-0.013147707,0.11286092,0.022536304,0.075296074,0.08045721,1.04718,0.060871985,0.000121034565,0.0016784789,0.8945128056785034,-0.012865955822974041,0.4468571445752362,-0.017469441709687308,0.9978162228193266,0.0636993256237783,-0.4467008608493206,-0.06478620732326891,0.8923346279603537,0.022518674,-0.009751709,0.11227125,-0.047120675,0.06905307,-0.09231059,1.0471791,-0.06093578,-0.00018468339,0.0023293048,0.8976870545273201,-0.009353908156627917,-0.4405342853130292,0.041444216538444614,0.997134931014198,0.06327958807407719,0.43868021273996227,-0.0750628653430426,0.895502784583562,0.0027654292,-0.0064351717,0.09171622,-0.0010059191,-0.011946758,-0.0064845993,1.8401948e-13,0.00020090927,-0.008739466,0.0019235238,0.999992479570018,-0.0010562532998792044,0.003731639368121386,0.0020469571573343065,0.9610057225060801,-0.27652090567796717,-0.0032940506679856856,0.27652646462777064,0.9610006574350838,left_images/camera_left_44.png,right_images/camera_right_44.png
2025-05-30 16:03:35,2.669987201690674,45,-0.019324977,-0.013287929,0.1128588,0.023254631,0.07630304,0.0799316,1.0471802,0.060872324,0.00011833018,0.0016815485,0.8942802733336214,-0.012698983758949296,0.4473270934538094,-0.018149318363847276,0.9977456597313814,0.06460805468452024,-0.4471391226109285,-0.06589639063469399,0.8920337834028758,0.022505967,-0.0096438425,0.11226804,-0.04691121,0.068335116,-0.0919579,1.0471791,-0.06093593,-0.0001837629,0.0023314431,0.897547177144677,-0.009495104888833587,-0.4408161836670381,0.04131427052819981,0.997180642911879,0.06264101254429337,0.43897858245060717,-0.07443526304784344,0.895408954480942,0.0027654292,-0.0064351717,0.09171622,-0.0010058911,-0.011946758,-0.0064846114,2.1016163e-13,0.00020090927,-0.008739466,0.0019235238,0.999992479570018,-0.0010562532998792044,0.003731639368121386,0.0020469571573343065,0.9610057225060801,-0.27652090567796717,-0.0032940506679856856,0.27652646462777064,0.9610006574350838,left_images/camera_left_45.png,right_images/camera_right_45.png
2025-05-30 16:03:35,2.729172706604004,46,-0.019330269,-0.013260782,0.11286917,0.02283422,0.075961724,0.0801487,1.04718,0.06086876,0.000121885096,0.0016713468,0.8943846011712038,-0.012895460499921048,0.44711284066365353,-0.01774154181054957,0.9977750301115654,0.0642668419953024,-0.44694677857884957,-0.06541174500316911,0.8921658370132927,0.022460835,-0.009559701,0.11226963,-0.046761986,0.06784339,-0.09165676,1.0471791,-0.060937487,-0.00018388184,0.0023280792,0.8974413968181474,-0.00958416219902214,-0.4410295716979025,0.04122162452840893,0.9972114437518381,0.06221024129203612,0.439203502887137,-0.07401000125197482,0.8953339057392785,0.0027654292,-0.0064351717,0.09171622,-0.0010058632,-0.011946758,-0.0064846235,2.074011e-13,0.00020090927,-0.008739466,0.0019235238,0.999992479570018,-0.0010562532998792044,0.003731639368121386,0.0020469571573343065,0.9610057225060801,-0.27652090567796717,-0.0032940506679856856,0.27652646462777064,0.9610006574350838,left_images/camera_left_46.png,right_images/camera_right_46.png
2025-05-30 16:03:35,2.787260055541992,47,-0.019437458,-0.013242771,0.11286754,0.022491215,0.07559176,0.08042173,1.04718,0.06086171,0.00012676517,0.0016773362,0.8944665445866249,-0.013012768418802159,0.4469454871383552,-0.01741068820081731,0.9978047534270391,0.06389477267178684,-0.4467957794693644,-0.0649333650482094,0.8922764087164239,0.022398176,-0.009480861,0.11227005,-0.046629753,0.067474835,-0.09139874,1.0471791,-0.06094135,-0.00018626387,0.0023243902,0.8973615838972009,-0.009627030123792454,-0.44119101082921275,0.04113219707104733,0.9972343963906313,0.06190073520986607,0.43937493113469217,-0.0736944973957284,0.8952758183621267,0.0027654292,-0.0064351717,0.09171622,-0.0010058352,-0.011946758,-0.0064846356,2.1132948e-13,0.00020090927,-0.008739466,0.0019235238,0.999992479570018,-0.0010562532998792044,0.003731639368121386,0.0020469571573343065,0.9610057225060801,-0.27652090567796717,-0.0032940506679856856,0.27652646462777064,0.9610006574350838,left_images/camera_left_47.png,right_images/camera_right_47.png
2025-05-30 16:03:35,2.840449094772339,48,-0.01944688,-0.013153728,0.1128602,0.022358183,0.0751942,0.080576144,1.04718,0.060865782,0.00012375193,0.0016828189,0.8945351967655282,-0.012967353260128645,0.4468093883269295,-0.017292887600267943,0.9978268901913545,0.06358028978775723,-0.4466628905406206,-0.06460143156678277,0.8923670305728579,0.022419415,-0.00945163,0.112270735,-0.046449672,0.06725087,-0.09126004,1.0471792,-0.0609381,-0.00018508104,0.002325167,0.8972987457780663,-0.00957411062511132,-0.44131994882493947,0.04097964102532697,0.9972539971984709,0.061685768967464936,0.43951749663300593,-0.07343569620702355,0.8952271045249051,0.0027654292,-0.0064351717,0.09171622,-0.0010058073,-0.011946758,-0.0064846477,2.1657375e-13,0.00020090927,-0.008739466,0.0019235238,0.999992479570018,-0.0010562532998792044,0.003731639368121386,0.0020469571573343065,0.9610057225060801,-0.27652090567796717,-0.0032940506679856856,0.27652646462777064,0.9610006574350838,left_images/camera_left_48.png,right_images/camera_right_48.png
2025-05-30 16:03:35,2.8995373249053955,49,-0.01943671,-0.01321338,0.11286316,0.022616265,0.07567666,0.08035159,1.0471802,0.060863256,0.00012176001,0.0016814778,0.8944329865396489,-0.01296501131260613,0.4470140278239916,-0.01753065344523692,0.9977948301693432,0.06401681870504472,-0.4468582647546617,-0.0650952023500623,0.8922333247819525,0.02238151,-0.00942057,0.11227163,-0.046365153,0.06707501,-0.09110654,1.0471792,-0.06094029,-0.00018545942,0.0023226663,0.8972513944138122,-0.009580641360404641,-0.44141606963679203,0.04091852665135162,0.9972662100636598,0.06152869608521912,0.4396198464573142,-0.07326880356869446,0.8951905233102391,0.0027654292,-0.0064351717,0.09171622,-0.0010057794,-0.011946758,-0.00648466,2.1242932e-13,0.00020090927,-0.008739466,0.0019235238,0.999992479570018,-0.0010562532998792044,0.003731639368121386,0.0020469571573343065,0.9610057225060801,-0.27652090567796717,-0.0032940506679856856,0.27652646462777064,0.9610006574350838,left_images/camera_left_49.png,right_images/camera_right_49.png
2025-05-30 16:03:35,2.9605045318603516,50,-0.019360283,-0.0132883135,0.11286398,0.022844015,0.07602573,0.08012689,1.0471802,0.060868274,0.00012391951,0.0016778745,0.8943607406328135,-0.0129078653218144,0.44716020912818216,-0.017749918704929042,0.9977725225770202,0.06430344917854981,-0.446994190119619,-0.06544753779267658,0.8921394587149378,0.02242607,-0.0094064,0.11227222,-0.046236377,0.066954195,-0.09105778,1.0471792,-0.060935143,-0.00018481197,0.0023246575,0.8972154768030746,-0.009523081287844702,-0.4414903159841865,0.040802770867445375,0.9972782975887333,0.0614095354815253,0.43970390272838206,-0.07311161386061085,0.8951620913801738,0.0027654292,-0.0064351717,0.09171622,-0.0010057514,-0.011946758,-0.006484672,2.1151504e-13,0.00020090927,-0.008739466,0.0019235238,0.999992479570018,-0.0010562532998792044,0.003731639368121386,0.0020469571573343065,0.9610057225060801,-0.27652090567796717,-0.0032940506679856856,0.27652646462777064,0.9610006574350838,left_images/camera_left_50.png,right_images/camera_right_50.png
2025-05-30 16:03:35,3.0280582904815674,51,-0.019287793,-0.013280204,0.11286199,0.023119641,0.07615969,0.07997999,1.0471802,0.060874946,0.00012027909,0.0016762586,0.8943217042709355,-0.012741206204139644,0.44724305576989437,-0.018022910837671213,0.9977572925515927,0.0644636319567287,-0.4470613648648993,-0.06571184691194439,0.8920863687001133,0.022450488,-0.009402151,0.11227484,-0.046162266,0.06688144,-0.09101091,1.0471792,-0.06093113,-0.00018385821,0.002323744,0.8971870401812141,-0.009493903920389445,-0.4415487297221258,0.0407380749558346,0.997285648086299,0.06133306913878775,0.43976792081706606,-0.07301508001393225,0.8951385221912829,0.0027654292,-0.0064351717,0.09171622,-0.0010057235,-0.011946758,-0.006484684,2.1367095e-13,0.00020090927,-0.008739466,0.0019235238,0.999992479570018,-0.0010562532998792044,0.003731639368121386,0.0020469571573343065,0.9610057225060801,-0.27652090567796717,-0.0032940506679856856,0.27652646462777064,0.9610006574350838,left_images/camera_left_51.png,right_images/camera_right_51.png
2025-05-30 16:03:35,3.080852508544922,52,-0.01928227,-0.013320114,0.11286132,0.023235682,0.076342896,0.07989828,1.0471802,0.060875043,0.00012133701,0.0016771369,0.8942844541236789,-0.012716276807949808,0.44731824400180414,-0.018132187532277813,0.997745597547118,0.06461382476404676,-0.44713145593662756,-0.06589399729480849,0.892037803140934,0.02246911,-0.009386773,0.11227431,-0.04616056,0.06675753,-0.090995364,1.0471792,-0.060929533,-0.00018332415,0.0023254221,0.8971721558528172,-0.009547514162861065,-0.4415778161725502,0.040746837185099416,0.9972919768353798,0.061224245190867166,0.43979747386930224,-0.07292158742848642,0.895131623877232,0.0027654292,-0.0064351717,0.09171622,-0.0010056956,-0.011946758,-0.006484696,2.1526273e-13,0.00020090927,-0.008739466,0.0019235238,0.999992479570018,-0.0010562532998792044,0.003731639368121386,0.0020469571573343065,0.9610057225060801,-0.27652090567796717,-0.0032940506679856856,0.27652646462777064,0.9610006574350838,left_images/camera_left_52.png,right_images/camera_right_52.png
2025-05-30 16:03:35,3.1331822872161865,53,-0.019249538,-0.013354576,0.1128632,0.023333695,0.076503895,0.07980394,1.0471802,0.060876604,0.0001224511,0.001674301,0.8942544639858797,-0.012695531121947181,0.44737878484664273,-0.01822619857229722,0.9977353665168984,0.06474522443388028,-0.44718761088264747,-0.06605272054141303,0.8919979141131149,0.022476168,-0.009372216,0.1122755,-0.04617118,0.06668008,-0.09097792,1.0471792,-0.060927927,-0.00018354564,0.002324812,0.8971612090533234,-0.00958930795041497,-0.44159915097632463,0.04076461346266101,0.9972950734410918,0.06116193897651316,0.4398181570367673,-0.0728737378152033,0.8951253583033062,0.0027654292,-0.0064351717,0.09171622,-0.0010056676,-0.011946758,-0.0064847083,2.1447914e-13,0.00020090927,-0.008739466,0.0019235238,0.999992479570018,-0.0010562532998792044,0.003731639368121386,0.0020469571573343065,0.9610057225060801,-0.27652090567796717,-0.0032940506679856856,0.27652646462777064,0.9610006574350838,left_images/camera_left_53.png,right_images/camera_right_53.png
2025-05-30 16:03:35,3.1893150806427,54,-0.019276315,-0.013360302,0.11286576,0.023387322,0.076598816,0.079784945,1.0471802,0.060872406,0.00012134138,0.0016738959,0.8942325244186485,-0.012698061218425136,0.4474225648233941,-0.018273575383445605,0.9977284667137384,0.06483813038450648,-0.4472295481232839,-0.06615637497887758,0.8919692064948753,0.022466779,-0.0093927905,0.112273246,-0.046091538,0.06667783,-0.090929136,1.0471792,-0.06092974,-0.0001811359,0.0023261681,0.8971463552560712,-0.009533967674971708,-0.4416305251124749,0.04069035979873352,0.997300049104363,0.061130243545116425,0.4398553306147345,-0.07281288015734738,0.895112044725684,0.0027654292,-0.0064351717,0.09171622,-0.0010056397,-0.011946758,-0.0064847204,2.1109381e-13,0.00020090927,-0.008739466,0.0019235238,0.999992479570018,-0.0010562532998792044,0.003731639368121386,0.0020469571573343065,0.9610057225060801,-0.27652090567796717,-0.0032940506679856856,0.27652646462777064,0.9610006574350838,left_images/camera_left_54.png,right_images/camera_right_54.png
2025-05-30 16:03:35,3.254290819168091,55,-0.01932616,-0.013379573,0.11286958,0.023337647,0.07674073,0.079770364,1.0471802,0.06086523,0.000120914716,0.0016735569,0.8942044942931918,-0.012807602360784352,0.44747546045300096,-0.018214927517195133,0.9977218608274979,0.06495617632264308,-0.447287981955027,-0.06623483787768339,0.8919340824578443,0.022442052,-0.00938083,0.11227157,-0.04607294,0.06664426,-0.09088377,1.0471792,-0.060932785,-0.00018192167,0.0023262221,0.8971381882565148,-0.00953094101265695,-0.441647180830164,0.04067629681638299,0.9973021447643385,0.061105408318380725,0.4398732886288094,-0.07278456712699317,0.8951055226837853,0.0027654292,-0.0064351717,0.09171622,-0.0010056117,-0.011946758,-0.0064847325,2.1125433e-13,0.00020090927,-0.008739466,0.0019235238,0.999992479570018,-0.0010562532998792044,0.003731639368121386,0.0020469571573343065,0.9610057225060801,-0.27652090567796717,-0.0032940506679856856,0.27652646462777064,0.9610006574350838,left_images/camera_left_55.png,right_images/camera_right_55.png
2025-05-30 16:03:35,3.3219923973083496,56,-0.019273382,-0.013381355,0.11286663,0.023435652,0.07674136,0.07970688,1.0471802,0.060871508,0.000121071294,0.0016735084,0.8941975839867071,-0.012719449767700942,0.4474917836004843,-0.018317115697411082,0.9977196683633781,0.06496111631890474,-0.4472976235850839,-0.06628483203929499,0.8919255333135491,0.022459596,-0.009371144,0.11227385,-0.046068855,0.06662248,-0.0908909,1.0471792,-0.060929872,-0.00018246975,0.002325424,0.8971339396442308,-0.009532575045362692,-0.4416557758610501,0.04067303464180605,0.997303007801009,0.061093492976642565,0.4398822553723303,-0.0727725267121127,0.8951020951626059,0.0027654292,-0.0064351717,0.09171622,-0.0010055838,-0.011946758,-0.0064847446,2.1388047e-13,0.00020090927,-0.008739466,0.0019235238,0.999992479570018,-0.0010562532998792044,0.003731639368121386,0.0020469571573343065,0.9610057225060801,-0.27652090567796717,-0.0032940506679856856,0.27652646462777064,0.9610006574350838,left_images/camera_left_56.png,right_images/camera_right_56.png
2025-05-30 16:03:36,3.3830487728118896,57,-0.019266367,-0.013366193,0.112862416,0.023526933,0.07669908,0.079707794,1.0471802,0.06087428,0.000120087,0.0016765166,0.894199347983719,-0.01262706568703824,0.4474908750775003,-0.018410193976353253,0.9977192436768606,0.06494132393650648,-0.4472902757977696,-0.06630888333404841,0.8919274304380075,0.02244289,-0.009380766,0.11227415,-0.04612948,0.066577375,-0.09088263,1.0471792,-0.060931396,-0.00018064209,0.0023240643,0.897135186448129,-0.009613841207405268,-0.4416514817069224,0.04073861018444448,0.9973033686630466,0.061043889895546544,0.4398736442172015,-0.07275688909360081,0.8951075981201928,0.0027654292,-0.0064351717,0.09171622,-0.0010055559,-0.011946758,-0.0064847567,2.0980575e-13,0.00020090927,-0.008739466,0.0019235238,0.999992479570018,-0.0010562532998792044,0.003731639368121386,0.0020469571573343065,0.9610057225060801,-0.27652090567796717,-0.0032940506679856856,0.27652646462777064,0.9610006574350838,left_images/camera_left_57.png,right_images/camera_right_57.png
2025-05-30 16:03:36,3.4387876987457275,58,-0.019283956,-0.013366395,0.11286348,0.023535509,0.076740555,0.07970802,1.0471802,0.060872015,0.00011932093,0.0016768407,0.8941914040625509,-0.012642413662757888,0.44750631534920665,-0.018415219540085927,0.9977164414321019,0.06498293764792229,-0.44730594964736864,-0.0663481112982354,0.8919166527973468,0.022430519,-0.009353253,0.11227479,-0.046161003,0.066530034,-0.090871885,1.0471792,-0.06093218,-0.00018287549,0.0023228405,0.8971350148378938,-0.009652340319570352,-0.4416509905775914,0.04077289056165378,0.9973030229638745,0.06102664813313565,0.4398708180216777,-0.07275653038369367,0.8951090161200853,0.00276546,-0.00643522,0.09171622,-0.0010055613,-0.011946702,-0.0064848014,6.1175665e-12,0.00020090927,-0.008739466,0.0019235238,0.999992479570018,-0.0010562532998792044,0.003731639368121386,0.0020469571573343065,0.9610057225060801,-0.27652090567796717,-0.0032940506679856856,0.27652646462777064,0.9610006574350838,left_images/camera_left_58.png,right_images/camera_right_58.png
2025-05-30 16:03:36,3.4921674728393555,59,-0.01920892,-0.013387669,0.11287434,0.021909667,0.07665625,0.078803025,1.0471802,0.060868096,0.0001247683,0.0016656015,0.893853787933408,-0.013969979477750428,0.4481408768127379,-0.016862149739222527,0.9977599307392584,0.06473629984299818,-0.44804137499038005,-0.06542140540053966,0.8916159296536531,0.022417614,-0.0093767205,0.11227464,-0.04616998,0.06653715,-0.09085934,1.0471792,-0.060933203,-0.00018040798,0.002322195,0.8971344492162915,-0.009669230957795065,-0.44165177006558687,0.04078390382626391,0.997303547981055,0.061010707036466084,0.4398709506412889,-0.07274709036851064,0.8951097182048938,0.0027654958,-0.006435277,0.09171622,-0.0010055668,-0.0119466465,-0.006484846,6.2112225e-12,0.00020090927,-0.008739466,0.0019235238,0.999992479570018,-0.0010562532998792044,0.003731639368121386,0.0020469571573343065,0.9610057225060801,-0.27652090567796717,-0.0032940506679856856,0.27652646462777064,0.9610006574350838,left_images/camera_left_59.png,right_images/camera_right_59.png
2025-05-30 16:03:36,3.5442752838134766,60,-0.018896572,-0.013341134,0.112911716,0.009714781,0.07610471,0.07435061,1.0471799,0.06085746,0.00013891543,0.0016241809,0.8921813042354872,-0.024098253923007754,0.4510341389856507,-0.0050280423031073985,0.9979839678175713,0.06326704331399631,-0.45164946492082014,-0.05871349194996976,0.8902614709734313,0.022368096,-0.00938288,0.11228033,-0.046222214,0.06657111,-0.09081473,1.0471792,-0.060934722,-0.00018028673,0.0023147976,0.8971344858412288,-0.009702643790624407,-0.4416509628857005,0.04083596406936353,0.9972995511259749,0.061041210361973935,0.4398660459195729,-0.07279741772481604,0.8951080368423014,0.002765501,-0.006435286,0.09171622,-0.0010055389,-0.0119466465,-0.006484858,9.0206727e-13,0.00020088666,-0.008739496,0.0019235238,0.9999924798612088,-0.0010560864679167031,0.0037316085542560113,0.002046788309887644,0.9610057227659888,-0.2765209060245426,-0.003294067188813959,0.2765264643617166,0.9610006574550113,left_images/camera_left_60.png,right_images/camera_right_60.png
2025-05-30 16:03:36,3.6003315448760986,61,-0.018656338,-0.013281659,0.11292366,0.0012412787,0.07588259,0.07082064,1.0471799,0.06085615,0.00014185393,0.0016083894,0.8907520918871918,-0.03123588507778559,0.4534148545008195,0.003188818334979823,0.9980404494523536,0.062490740870715066,-0.4544783187746347,-0.05421790055278545,0.8891062237007624,0.0219566,-0.010013093,0.11234502,-0.045523573,0.070747204,-0.08880303,1.0471797,-0.06092503,-0.00018237252,0.002248508,0.8964427075418737,-0.007288848229558831,-0.44309970072939725,0.039949558508501376,0.9971228903697916,0.06442029397300662,0.44135530456761335,-0.075450740169194,0.8941547298638811,0.002765501,-0.006435286,0.09171622,-0.0010055582,-0.011946591,-0.006484858,1.6325941e-13,0.00020090927,-0.008739466,0.0019235238,0.999992479570018,-0.0010562532998792044,0.003731639368121386,0.0020469571573343065,0.9610057225060801,-0.27652090567796717,-0.0032940506679856856,0.27652646462777064,0.9610006574350838,left_images/camera_left_61.png,right_images/camera_right_61.png
2025-05-30 16:03:36,3.6616878509521484,62,-0.018496241,-0.013014956,0.11292407,-0.005345495,0.07488386,0.06858035,1.0471799,0.0608606,0.00013352727,0.0016025249,0.8898124824761393,-0.03647622110337674,0.4548661685855168,0.009569368698873768,0.9980724767939531,0.061316867574012876,-0.45622601110891875,-0.0502077320778542,0.8884464026756161,0.021591133,-0.01045741,0.112402916,-0.04206217,0.07394397,-0.087074056,1.0471797,-0.06092037,-0.00018594402,0.0021864371,0.8959585862289969,-0.0029345760440619185,-0.44412790953280434,0.03637622347368091,0.9971034055037082,0.06679497809491816,0.44264543613182106,-0.07600123022918373,0.8934701063131998,0.0027655317,-0.006435334,0.09171622,-0.0010055637,-0.011946535,-0.006484903,6.123818e-12,0.00020090927,-0.008739466,0.0019235238,0.999992479570018,-0.0010562532998792044,0.003731639368121386,0.0020469571573343065,0.9610057225060801,-0.27652090567796717,-0.0032940506679856856,0.27652646462777064,0.9610006574350838,left_images/camera_left_62.png,right_images/camera_right_62.png
2025-05-30 16:03:36,3.7117769718170166,63,-0.018601043,-0.012872846,0.11292758,-0.016704094,0.07475993,0.06659861,1.0471799,0.06084519,0.00012648437,0.001605955,0.888780899795746,-0.04619184239963864,0.45599871255738306,0.020779758127890822,0.9979465016049567,0.06058862588452013,-0.45786102019107316,-0.0443744704774596,0.8879156449570166,0.021915516,-0.010118214,0.11235659,-0.04481528,0.07181908,-0.08730403,1.0471798,-0.0609113,-0.00018873467,0.002243488,0.8958213872096595,-0.006184937624296439,-0.44437122855147293,0.03925683459308579,0.9970957301424923,0.06526105936423257,0.4426770190053838,-0.07590686054761023,0.893462481230361,0.0027655675,-0.006435391,0.09171622,-0.0010055691,-0.011946479,-0.0064849476,6.2072604e-12,0.00020090927,-0.008739466,0.0019235238,0.999992479570018,-0.0010562532998792044,0.003731639368121386,0.0020469571573343065,0.9610057225060801,-0.27652090567796717,-0.0032940506679856856,0.27652646462777064,0.9610006574350838,left_images/camera_left_63.png,right_images/camera_right_63.png
2025-05-30 16:03:36,3.7716805934906006,64,-0.01842827,-0.01312142,0.11296551,-0.024373882,0.07643637,0.0640907,1.0471799,0.06083248,0.0001293497,0.001569951,0.8875967510789241,-0.05346804115517746,0.45750756939002307,0.02837001057529963,0.9977001397841297,0.06155951246302519,-0.4597468324785891,-0.04166052867830911,0.8870722915163949,0.022039302,-0.009656923,0.11228022,-0.03712939,0.06875508,-0.08426002,1.04718,-0.06092225,-0.0001796456,0.0023191795,0.8946857399270387,-0.0009861696108013837,-0.44669503494073665,0.032020204907378946,0.9975666710064042,0.06193095651521882,0.4455470045336369,-0.06971201020411899,0.8925402525289289,0.0027655726,-0.0064354,0.09171622,-0.0010055412,-0.011946479,-0.0064849597,9.01486e-13,0.00020088666,-0.008739496,0.0019235238,0.9999924798612088,-0.0010560864679167031,0.0037316085542560113,0.002046788309887644,0.9610057227659888,-0.2765209060245426,-0.003294067188813959,0.2765264643617166,0.9610006574550113,left_images/camera_left_64.png,right_images/camera_right_64.png
2025-05-30 16:03:36,3.839329957962036,65,-0.018069178,-0.012798048,0.11302079,-0.033013567,0.07321774,0.059052415,1.0471799,0.060804892,0.00015534315,0.0015147189,0.8852654143274773,-0.05934836330887352,0.461283988415117,0.036508334222891424,0.997631903342127,0.05829002458598318,-0.4636510409002329,-0.03476143274554178,0.8853357301417398,0.021784825,-0.0094964495,0.112273425,-0.030641029,0.067710795,-0.08132379,1.0471802,-0.060933694,-0.00017354675,0.002316704,0.89367544819162,0.004065397086631341,-0.4486955157409478,0.025809380625316458,0.9978377452080378,0.06044592715706122,0.44797105840806795,-0.06559959439407549,0.8916381687905067,0.0027655726,-0.0064354,0.09171622,-0.0010055605,-0.011946423,-0.0064849597,1.6338686e-13,0.00020090927,-0.008739466,0.0019235238,0.999992479570018,-0.0010562532998792044,0.003731639368121386,0.0020469571573343065,0.9610057225060801,-0.27652090567796717,-0.0032940506679856856,0.27652646462777064,0.9610006574350838,left_images/camera_left_65.png,right_images/camera_right_65.png
2025-05-30 16:03:36,3.899656057357788,66,-0.017284922,-0.011991151,0.113016285,-0.036344748,0.066197924,0.050064113,1.0471799,0.060807385,0.00018933605,0.0015048189,0.8813707064053584,-0.05898782791941773,0.46872818781023673,0.038997115114529454,0.9978722780260578,0.05225075846176725,-0.47081302329402863,-0.027773240798202974,0.8817957497018805,0.021584999,-0.009345076,0.1123542,-0.031694535,0.06628277,-0.07984675,1.0471802,-0.060898013,-0.0001643642,0.0022408674,0.8930756845200798,0.002489994831971867,-0.4498995683980241,0.027050547866763752,0.9978783993840055,0.05921965807841119,0.44909251783914134,-0.06505766648560923,0.8911135788732817,0.0027656031,-0.0064354492,0.09171622,-0.0010055836,-0.011946339,-0.006484938,1.0297243e-11,0.00020090974,-0.00873947,0.0019235192,0.9999924795563793,-0.0010562670715505672,0.0037316391248924997,0.0020469697838715085,0.9610057678899406,-0.27652074785984826,-0.0032940469621405674,0.27652630685368695,0.961000702847023,left_images/camera_left_66.png,right_images/camera_right_66.png
2025-05-30 16:03:36,3.9553120136260986,67,-0.016572103,-0.011031729,0.11301001,-0.03869896,0.05936636,0.04144973,1.0471799,0.060806025,0.00020138227,0.0015015593,0.8775709487305192,-0.057978661385000296,0.47592825590441634,0.0406537159461072,0.9980847658665396,0.046626982798671765,-0.4777201119107185,-0.021570233404807626,0.8782472429258588,0.021271247,-0.009171286,0.11242743,-0.03255055,0.06515033,-0.07859256,1.0471802,-0.06087972,-0.00016317613,0.0021643369,0.892631128263498,0.0012419563649202475,-0.4507861204600492,0.02805244242148274,0.9979050191871254,0.05829779717392455,0.44991413550723625,-0.06468408015524596,0.8907262432673946,0.0027656083,-0.0064354707,0.09171622,-0.0010055625,-0.011946283,-0.006484938,1.8749349e-12,0.00020090974,-0.00873947,0.0019235192,0.9999924795563793,-0.0010562670715505672,0.0037316391248924997,0.0020469697838715085,0.9610057678899406,-0.27652074785984826,-0.0032940469621405674,0.27652630685368695,0.961000702847023,left_images/camera_left_67.png,right_images/camera_right_67.png
2025-05-30 16:03:36,4.011368274688721,68,-0.015664676,-0.009975389,0.11299903,-0.04081816,0.05212462,0.03064122,1.04718,0.060808066,0.00020865272,0.0015019746,0.8727438566467632,-0.05661235549361913,0.4848847305193249,0.04207483179210824,0.998280117564188,0.04082297644338466,-0.4863618706426317,-0.015226558425837167,0.8736247951515026,0.021034101,-0.008908637,0.112451755,-0.03768227,0.0632593,-0.07728013,1.0471802,-0.06087443,-0.00016173068,0.002135913,0.8919936432683482,-0.003995831934679079,-0.45203027962295694,0.03336844356971963,0.9978149215144664,0.057025690498350774,0.4508146929089526,-0.06595010030492035,0.8901779018416361,0.0027656083,-0.006435489,0.09171622,-0.0010055415,-0.011946227,-0.006484938,1.7098149e-13,0.00020088471,-0.0087395,0.0019235192,0.9999924796918899,-0.0010560039863015498,0.0037316772698501397,0.002046727505163241,0.9610057682871296,-0.27652074827286227,-0.0032941563692407217,0.27652630647814497,0.9610007025800607,left_images/camera_left_68.png,right_images/camera_right_68.png
2025-05-30 16:03:36,4.063353538513184,69,-0.014775515,-0.009729589,0.11294353,-0.04140643,0.049834676,0.021780353,1.0471796,0.060851227,0.00021836103,0.0015362948,0.8688312395038161,-0.056059370501884746,0.4919244090723645,0.04225461142894354,0.998339905553469,0.03914052621618341,-0.49330196135354215,-0.013220437149472812,0.8697576645056514,0.02074174,-0.008759288,0.11245946,-0.043023344,0.061428588,-0.07559923,1.0471802,-0.060880214,-0.00014845663,0.002120017,0.891179831085927,-0.00944378915507673,-0.4535518972643076,0.03891320454007415,0.9976897226239959,0.05568644254103749,0.4519781755550603,-0.06727579220528267,0.8894884465832429,0.0027656083,-0.0064355168,0.09171622,-0.0010055217,-0.0119461715,-0.006484938,1.4753904e-13,0.00020088471,-0.0087395,0.0019235192,0.9999924796918899,-0.0010560039863015498,0.0037316772698501397,0.002046727505163241,0.9610057682871296,-0.27652074827286227,-0.0032941563692407217,0.27652630647814497,0.9610007025800607,left_images/camera_left_69.png,right_images/camera_right_69.png
2025-05-30 16:03:36,4.121723413467407,70,-0.014254166,-0.009223199,0.11291174,-0.04251051,0.04614769,0.016260598,1.0471795,0.060871884,0.0002253075,0.001556946,0.8663194041330224,-0.05537675049152317,0.4964112262304356,0.043089744774266386,0.9984159305900245,0.036178770561531085,-0.4976283391426715,-0.009952137913780858,0.867333264110775,0.020356039,-0.00862942,0.11247871,-0.048651423,0.060052596,-0.07428999,1.0471802,-0.060892366,-0.00014098026,0.002088056,0.8905380097914753,-0.014917784825805892,-0.45466417586228286,0.044686403659533816,0.9974970431002247,0.05479757598913958,0.45270871257864603,-0.06911663115487675,0.8889756536897877,0.0027656083,-0.0064348816,0.09171622,-0.0010055043,-0.011946861,-0.006484896,3.749642e-12,0.00020093993,-0.008739377,0.0019234894,0.9999924787637396,-0.001055970236555519,0.0037319355315199427,0.002046767362098575,0.9610056948573676,-0.2765210031716822,-0.003294413349499452,0.2765265617957297,0.9610006282319046,left_images/camera_left_70.png,right_images/camera_right_70.png
2025-05-30 16:03:36,4.179195165634155,71,-0.0141899185,-0.008445531,0.11286656,-0.036532756,0.043882865,0.011726359,1.0471796,0.06085833,0.00017378386,0.0016148025,0.864255946430011,-0.049491902642418824,0.5006118362895539,0.03693517270339881,0.9987056081818578,0.03497000433908368,-0.5016945804747505,-0.011732849566016078,0.8649652525756889,0.020101,-0.008664113,0.11249319,-0.059990678,0.060488597,-0.07286261,1.0471802,-0.060886994,-0.0001512577,0.0020736363,0.8894701361014532,-0.024395139457488682,-0.4563417076648949,0.056030255961285316,0.9968618547050639,0.055920059467897576,0.4535454634329127,-0.0753081655919863,0.8880457154868744,0.0027656332,-0.006434837,0.09171622,-0.0010054666,-0.011946805,-0.0064849462,5.4726887e-12,0.00020093993,-0.008739377,0.0019234894,0.9999924787637396,-0.001055970236555519,0.0037319355315199427,0.002046767362098575,0.9610056948573676,-0.2765210031716822,-0.003294413349499452,0.2765265617957297,0.9610006282319046,left_images/camera_left_71.png,right_images/camera_right_71.png
2025-05-30 16:03:36,4.236678600311279,72,-0.014373317,-0.007687886,0.11279413,-0.032309152,0.041510776,0.009669607,1.0471798,0.060855847,0.00012800249,0.0016986364,0.8632285849561054,-0.045048382148488365,0.5027992177604135,0.0326277428992826,0.9989066482856989,0.03348041821616743,-0.503757720048019,-0.012496050433433648,0.8637545995336794,0.020187005,-0.008579974,0.11243728,-0.06987441,0.060809996,-0.07182176,1.0471802,-0.060888957,-0.00017259037,0.0021374235,0.888404442143174,-0.03259909644238401,-0.45790266006151925,0.0658993508099865,0.9962007047635894,0.05693356998599156,0.4543069697276253,-0.08075552451484427,0.8871773906706789,0.002765638,-0.0064348476,0.09171622,-0.0010054125,-0.011946805,-0.006484974,7.5319015e-13,0.00020093741,-0.0087393755,0.0019234894,0.99999247764064,-0.001055835913365578,0.0037322744617827876,0.0020467319992336676,0.9610056950135005,-0.27652100289081527,-0.003294776207474717,0.27652656176603185,0.9610006269964655,left_images/camera_left_72.png,right_images/camera_right_72.png
2025-05-30 16:03:36,4.302214622497559,73,-0.014747592,-0.0072531523,0.11272151,-0.02979073,0.040184896,0.009937297,1.0471802,0.060855385,0.00010163197,0.0017823689,0.8632265853200711,-0.04243798020857739,0.5030297011434479,0.03011069110977894,0.9990144808736405,0.03261001817941968,-0.5039178590579436,-0.013003262690071115,0.8636536959232395,0.020343177,-0.008590023,0.11234924,-0.076992944,0.06098856,-0.071090765,1.0471802,-0.060905665,-0.000179039,0.0022296794,0.8875475325226154,-0.03855822803771003,-0.45909981546893347,0.07301178222715415,0.9956706534994948,0.0575259021302897,0.45489411643703576,-0.08457666823942052,0.8865202366672109,0.002765638,-0.0064348476,0.09171622,-0.0010054195,-0.011946805,-0.006485002,5.1968775e-13,0.00020093741,-0.0087393755,0.0019234894,0.99999247764064,-0.001055835913365578,0.0037322744617827876,0.0020467319992336676,0.9610056950135005,-0.27652100289081527,-0.003294776207474717,0.27652656176603185,0.9610006269964655,left_images/camera_left_73.png,right_images/camera_right_73.png
2025-05-30 16:03:36,4.358567476272583,74,-0.015135179,-0.007040697,0.11264529,-0.02620491,0.040306315,0.012294712,1.0471802,0.060872853,7.443386e-05,0.0018610992,0.8642870274974089,-0.039539978221665606,0.501442443578446,0.02660766491596651,0.9991037253184949,0.032920787086959,-0.5022947006164932,-0.015110796700884149,0.8645644554084164,0.020519176,-0.0086009335,0.11227138,-0.08525733,0.0608722,-0.07078051,1.0467472,-0.060918003,-0.00018081034,0.0023126807,0.8867465261042149,-0.045640864646761134,-0.45999729337943174,0.08125802511721807,0.9950088529804946,0.057918182330682466,0.4550579433392593,-0.08873721859928138,0.8860293303492311,0.002765638,-0.0064348476,0.09171622,-0.0010054265,-0.011946805,-0.00648503,5.379383e-13,0.00020093741,-0.0087393755,0.0019234894,0.99999247764064,-0.001055835913365578,0.0037322744617827876,0.0020467319992336676,0.9610056950135005,-0.27652100289081527,-0.003294776207474717,0.27652656176603185,0.9610006269964655,left_images/camera_left_74.png,right_images/camera_right_74.png
2025-05-30 16:03:37,4.419578552246094,75,-0.015413913,-0.0070570414,0.11257795,-0.023432918,0.041326273,0.01534532,1.0471799,0.060903296,5.7283498e-05,0.0019225143,0.8657233490498658,-0.03768223345767729,0.49910232637358587,0.023952764261111887,0.9991385818285332,0.033887451747207045,-0.4999493454282503,-0.01738227785155878,0.865880192880375,0.020691674,-0.008533863,0.11219609,-0.09141179,0.060544092,-0.070595816,1.0467184,-0.060932532,-0.00018650552,0.0023911148,0.8861169322354714,-0.050993892972577184,-0.46064781046380604,0.08740420508929751,0.9944804574285219,0.058044161855143564,0.4551453474861687,-0.09169647033697333,0.8856830527843669,0.002765638,-0.0064348476,0.09171622,-0.0010054335,-0.011946805,-0.006485058,5.350892e-13,0.00020093741,-0.0087393755,0.0019234894,0.99999247764064,-0.001055835913365578,0.0037322744617827876,0.0020467319992336676,0.9610056950135005,-0.27652100289081527,-0.003294776207474717,0.27652656176603185,0.9610006269964655,left_images/camera_left_75.png,right_images/camera_right_75.png
2025-05-30 16:03:37,4.474962949752808,76,-0.015428852,-0.007058776,0.11256579,-0.023433872,0.041326385,0.015345534,1.0471802,0.060907952,5.739773e-05,0.0019338122,0.8657160052111846,-0.037682224377046936,0.49911506517754584,0.02395364372639347,0.9991386303533679,0.033885399331052946,-0.49996201983092375,-0.017379508094126313,0.865872930299238,0.020701367,-0.008529891,0.11218177,-0.091412686,0.06054418,-0.07059572,1.0471494,-0.06093903,-0.0001870654,0.0024040472,0.8861125498782726,-0.05099202972629746,-0.46065644666347433,0.08740511676621507,0.9944801502229144,0.05804805229888388,0.45515370427066754,-0.091700838147762,0.8856783060297275,0.002765638,-0.0064348476,0.09171622,-0.0010054405,-0.011946805,-0.006485086,5.3284064e-13,0.00020093741,-0.0087393755,0.0019234894,0.99999247764064,-0.001055835913365578,0.0037322744617827876,0.0020467319992336676,0.9610056950135005,-0.27652100289081527,-0.003294776207474717,0.27652656176603185,0.9610006269964655,left_images/camera_left_76.png,right_images/camera_right_76.png
2025-05-30 16:03:37,4.528965711593628,77,-0.015428565,-0.007058697,0.11256629,-0.023433927,0.041326273,0.015345564,1.0471802,0.06090763,5.746502e-05,0.0019333884,0.8657162364629553,-0.03768244789557,0.4991146471954258,0.02395355640673061,0.999138611597139,0.03388601409447561,-0.4999616235871372,-0.017380101735579002,0.8658731471779078,0.020701084,-0.008530068,0.11218234,-0.091412686,0.060544293,-0.07059572,1.047178,-0.06093869,-0.00018712704,0.002403535,0.8861127255729597,-0.050991983383751875,-0.46065611382923416,0.0874050803067446,0.9944801472682687,0.05804815781620312,0.45515336922210375,-0.09170089596004213,0.8856784722267407,0.002765638,-0.0064348476,0.09171622,-0.0010054475,-0.011946805,-0.006485114,5.3613163e-13,0.00020093741,-0.0087393755,0.0019234894,0.99999247764064,-0.001055835913365578,0.0037322744617827876,0.0020467319992336676,0.9610056950135005,-0.27652100289081527,-0.003294776207474717,0.27652656176603185,0.9610006269964655,left_images/camera_left_77.png,right_images/camera_right_77.png
2025-05-30 16:03:37,4.597017288208008,78,-0.01542869,-0.0070587355,0.11256629,-0.023433927,0.041326385,0.015345783,1.0471802,0.060907684,5.739773e-05,0.0019333651,0.8657160052111846,-0.037682224377046936,0.49911506517754584,0.02395364372639347,0.9991386303533679,0.033885399331052946,-0.49996201983092375,-0.017379508094126313,0.865872930299238,0.020701082,-0.008530081,0.11218234,-0.091412686,0.060544293,-0.07059572,1.0471792,-0.06093869,-0.00018712704,0.002403535,0.8861127255729597,-0.050991983383751875,-0.46065611382923416,0.0874050803067446,0.9944801472682687,0.05804815781620312,0.45515336922210375,-0.09170089596004213,0.8856784722267407,0.002765638,-0.0064348476,0.09171622,-0.0010054545,-0.011946805,-0.006485142,5.397817e-13,0.00020093741,-0.0087393755,0.0019234894,0.99999247764064,-0.001055835913365578,0.0037322744617827876,0.0020467319992336676,0.9610056950135005,-0.27652100289081527,-0.003294776207474717,0.27652656176603185,0.9610006269964655,left_images/camera_left_78.png,right_images/camera_right_78.png
2025-05-30 16:03:37,4.651805400848389,79,-0.015428709,-0.007058744,0.11256625,-0.023433916,0.041326385,0.015345783,1.0399005,0.060907714,5.739773e-05,0.0019334247,0.8657160052111846,-0.037682224377046936,0.49911506517754584,0.02395364372639347,0.9991386303533679,0.033885399331052946,-0.49996201983092375,-0.017379508094126313,0.865872930299238,0.020701082,-0.008530081,0.11218234,-0.091412686,0.060544293,-0.07059572,1.0471792,-0.06093869,-0.00018712704,0.002403535,0.8861127255729597,-0.050991983383751875,-0.46065611382923416,0.0874050803067446,0.9944801472682687,0.05804815781620312,0.45515336922210375,-0.09170089596004213,0.8856784722267407,0.002765638,-0.0064348476,0.09171622,-0.0010054614,-0.011946805,-0.0064851698,5.414355e-13,0.00020093741,-0.0087393755,0.0019234894,0.99999247764064,-0.001055835913365578,0.0037322744617827876,0.0020467319992336676,0.9610056950135005,-0.27652100289081527,-0.003294776207474717,0.27652656176603185,0.9610006269964655,left_images/camera_left_79.png,right_images/camera_right_79.png
2025-05-30 16:03:37,4.706826210021973,80,-0.015395126,-0.006684363,0.11256501,0.015844299,0.03834483,0.01854747,1.0364721,0.060911756,6.287664e-05,0.0019309651,0.8673410387334259,-0.0026674159777435383,0.49770715026089685,-0.015253760642233962,0.9993734352241883,0.03193837432422476,-0.4974804974218494,-0.03529336850183818,0.8667569052650821,0.020400357,-0.00850529,0.11218106,-0.12024931,0.059493877,-0.07015848,1.0423121,-0.060937822,-0.00018593282,0.002404075,0.8834221611208735,-0.07602976843899825,-0.46236864032029434,0.11611706471215161,0.9914922063302972,0.0588220372727202,0.45396267745615326,-0.10565358061794022,0.8847345411926952,0.002765638,-0.0064348476,0.09171622,-0.0010054684,-0.011946805,-0.0064851977,5.349548e-13,0.00020093741,-0.0087393755,0.0019234894,0.99999247764064,-0.001055835913365578,0.0037322744617827876,0.0020467319992336676,0.9610056950135005,-0.27652100289081527,-0.003294776207474717,0.27652656176603185,0.9610006269964655,left_images/camera_left_80.png,right_images/camera_right_80.png
2025-05-30 16:03:37,4.767369985580444,81,-0.017939342,-0.0066387337,0.11229764,0.10780986,0.041443713,0.021712583,1.0242269,0.06076244,-1.5909085e-05,0.002334726,0.8625410555970535,0.07415233743016258,0.5005240835995446,-0.10682304970483125,0.9935936349906844,0.03688528917817581,-0.4945824132147035,-0.0852825853245656,0.8649364815864101,0.020270268,-0.009956023,0.112009384,-0.2238858,0.068293646,-0.071760036,1.0379367,-0.06092078,-0.00022846193,0.002625918,0.8689456917893594,-0.15921109499659328,-0.4685992018246476,0.21737882905675496,0.9734004816446892,0.07237366241804118,0.44461199871193885,-0.16475232794674627,0.8804412763140436,0.002765638,-0.0064348476,0.09171622,-0.0010054754,-0.011946805,-0.0064852256,5.3706714e-13,0.00020093741,-0.0087393755,0.0019234894,0.99999247764064,-0.001055835913365578,0.0037322744617827876,0.0020467319992336676,0.9610056950135005,-0.27652100289081527,-0.003294776207474717,0.27652656176603185,0.9610006269964655,left_images/camera_left_81.png,right_images/camera_right_81.png
2025-05-30 16:03:37,4.822938680648804,82,-0.023869164,-0.007479302,0.1116385,0.21127565,0.055149235,0.02429143,1.0244024,0.06043303,-0.00018344118,0.0033170832,0.8465678110681032,0.15386507274430072,0.5095571416953663,-0.20851187993818793,0.976662655698177,0.05150585296087433,-0.48974047942558646,-0.14985191474911336,0.8588938621611063,0.021828247,-0.013153842,0.111582704,-0.31628135,0.09205757,-0.07356141,1.025349,-0.060792986,-0.00031477056,0.0032371134,0.8479043040316934,-0.22350533019883184,-0.48073241889562723,0.3047083868152885,0.9475017714055645,0.09691848217828242,0.4338330211140621,-0.22866079803068273,0.8714947786619363,0.002765638,-0.0064348476,0.09171622,-0.0010054824,-0.011946805,-0.0064852536,5.348239e-13,0.00020093741,-0.0087393755,0.0019234894,0.99999247764064,-0.001055835913365578,0.0037322744617827876,0.0020467319992336676,0.9610056950135005,-0.27652100289081527,-0.003294776207474717,0.27652656176603185,0.9610006269964655,left_images/camera_left_82.png,right_images/camera_right_82.png
2025-05-30 16:03:37,4.878802061080933,83,-0.03303865,-0.00840732,0.11062235,0.31729144,0.06932204,0.028654927,1.0316088,0.059955187,-0.00034077594,0.004823461,0.8204780478488503,0.23183037493541994,0.522561432039758,-0.3102099841125014,0.9483509263690202,0.06633465317572054,-0.48019323064268793,-0.21652990027320504,0.8500172136684142,0.024681447,-0.0164791,0.11101279,-0.42408362,0.11620642,-0.081598304,0.99935615,-0.060570173,-0.00038014457,0.004091858,0.8172143143026432,-0.2960933534010961,-0.49445878551255845,0.4027824782736539,0.907057156937332,0.12252995243816045,0.4122220757002156,-0.29929256609621613,0.8605213072230972,0.002765638,-0.0064348476,0.09171622,-0.0010054894,-0.011946805,-0.0064852815,5.32984e-13,0.00020093741,-0.0087393755,0.0019234894,0.99999247764064,-0.001055835913365578,0.0037322744617827876,0.0020467319992336676,0.9610056950135005,-0.27652100289081527,-0.003294776207474717,0.27652656176603185,0.9610006269964655,left_images/camera_left_83.png,right_images/camera_right_83.png
2025-05-30 16:03:37,4.9315454959869385,84,-0.04399449,-0.00979488,0.10943456,0.433732,0.08163043,0.035663154,1.0393493,0.059396755,-0.00040182285,0.0066019865,0.7824779319690165,0.31405355799209755,0.5376789457417834,-0.41768291689741266,0.905137381103277,0.07916629498448449,-0.4618108562101595,-0.2865251891928623,0.8394248322776936,0.029277716,-0.019460041,0.110397294,-0.54075503,0.13575128,-0.099775344,1.0136924,-0.060222026,-0.0004076492,0.005091628,0.7784985788462845,-0.3716101112109576,-0.5058121073878081,0.5024915202841013,0.8519056032227,0.14750971235935809,0.3760880678469983,-0.3690023962571892,0.8499382311553966,0.002765638,-0.0064348476,0.09171622,-0.0010054964,-0.011946805,-0.0064853095,5.3277456e-13,0.00020093741,-0.0087393755,0.0019234894,0.99999247764064,-0.001055835913365578,0.0037322744617827876,0.0020467319992336676,0.9610056950135005,-0.27652100289081527,-0.003294776207474717,0.27652656176603185,0.9610006269964655,left_images/camera_left_84.png,right_images/camera_right_84.png
2025-05-30 16:03:37,4.984378337860107,85,-0.05628742,-0.011682771,0.10820804,0.5503979,0.09039247,0.04500184,1.0466615,0.05876917,-0.0003381389,0.008492606,0.7351767002771517,0.39164431825423524,0.5532901113780855,-0.519523812986507,0.8498334451279186,0.08875879270232265,-0.4354425646506781,-0.3527007846903494,0.8282462975282484,0.034454785,-0.022770382,0.109830804,-0.65742624,0.1522893,-0.123432085,1.0270426,-0.05979675,-0.0003422849,0.0060971393,0.7332757661162014,-0.4414093850747422,-0.5171696100841927,0.5942652533724193,0.7856575694784527,0.17202032483234303,0.33038683306226396,-0.43347426485219226,0.8384179162267105,0.002765638,-0.0064348476,0.09171622,-0.0010055033,-0.011946805,-0.0064853374,5.3348233e-13,0.00020093741,-0.0087393755,0.0019234894,0.99999247764064,-0.001055835913365578,0.0037322744617827876,0.0020467319992336676,0.9610056950135005,-0.27652100289081527,-0.003294776207474717,0.27652656176603185,0.9610006269964655,left_images/camera_left_85.png,right_images/camera_right_85.png
2025-05-30 16:03:37,5.038622856140137,86,-0.07000269,-0.015583646,0.10704118,0.6670607,0.098374896,0.05436014,1.0471458,0.057995133,-2.1297252e-05,0.010438182,0.6778318919060689,0.4621645615441138,0.5717935329887672,-0.6143407162990381,0.7832809217157132,0.09516555034973362,-0.40389282069903665,-0.41578229366931907,0.814859296847533,0.03956029,-0.02736014,0.10941362,-0.7740913,0.16738673,-0.14926738,1.0185666,-0.05927732,-8.5667125e-05,0.007003326,0.6809159361177238,-0.5041375963297289,-0.531223843504607,0.6773353474591511,0.7093568905153931,0.1950118687688616,0.2785144790191614,-0.4926033757955949,0.8244826251240648,0.0027656439,-0.0064348476,0.09171622,-0.0010055103,-0.011946805,-0.0064853095,6.422954e-12,0.00020093741,-0.0087393755,0.0019234894,0.99999247764064,-0.001055835913365578,0.0037322744617827876,0.0020467319992336676,0.9610056950135005,-0.27652100289081527,-0.003294776207474717,0.27652656176603185,0.9610006269964655,left_images/camera_left_86.png,right_images/camera_right_86.png
2025-05-30 16:03:37,5.0883283615112305,87,-0.08386947,-0.021612301,0.10609052,0.78373003,0.103386216,0.06747212,1.0303011,0.05715464,0.0005648411,0.012200752,0.613849514531223,0.5262408415755025,0.5884380597545408,-0.7006774644701109,0.7065692806190252,0.09905020176279097,-0.3636479950357464,-0.4731072059728322,0.8024523084664047,0.04395014,-0.034622677,0.10928176,-0.89075464,0.18338484,-0.17768437,1.0270184,-0.05863558,0.0004946131,0.0076777698,0.6224817163593697,-0.5580750587834115,-0.5486973132449122,0.7506054526908562,0.624223230281975,0.2166490553108677,0.2216031750427967,-0.5467152709959988,0.8074617299109126,0.0027656443,-0.0064348476,0.09171622,-0.0010055172,-0.011946805,-0.0064853374,1.5345867e-12,0.00020093741,-0.0087393755,0.0019234894,0.99999247764064,-0.001055835913365578,0.0037322744617827876,0.0020467319992336676,0.9610056950135005,-0.27652100289081527,-0.003294776207474717,0.27652656176603185,0.9610006269964655,left_images/camera_left_87.png,right_images/camera_right_87.png
2025-05-30 16:03:37,5.139897108078003,88,-0.09914575,-0.0291375,0.10546028,0.9004216,0.094120234,0.09830982,1.0361109,0.056270946,0.0013637578,0.013630065,0.5518449984469556,0.5892917853284291,0.5900866795933563,-0.7765927116640302,0.6210052454749497,0.1060954536391914,-0.3039257440221015,-0.5168052600709769,0.8003383442542172,0.047722846,-0.04221885,0.10941155,-1.0074114,0.19232091,-0.20432337,1.0259085,-0.057937607,0.0012627107,0.008073605,0.5566211213020548,-0.606653127151527,-0.5675781097238657,0.8148399857341349,0.5318054150109802,0.23069199859074857,0.16189108983893477,-0.5908933777613965,0.7903393518916348,0.0027656502,-0.0064348476,0.09171622,-0.0010055242,-0.011946805,-0.0064853095,6.4214302e-12,0.00020093741,-0.0087393755,0.0019234894,0.99999247764064,-0.001055835913365578,0.0037322744617827876,0.0020467319992336676,0.9610056950135005,-0.27652100289081527,-0.003294776207474717,0.27652656176603185,0.9610006269964655,left_images/camera_left_88.png,right_images/camera_right_88.png
2025-05-30 16:03:37,5.187576532363892,89,-0.116063796,-0.038007118,0.105194904,1.017108,0.0673306,0.14183228,1.0464423,0.05531916,0.0023337337,0.014698614,0.4892213470234814,0.6525393262985176,0.5786664853353853,-0.8418032012368343,0.5268146705868249,0.11761663675651404,-0.2281005129410035,-0.5446638692701882,0.807038676587237,0.051975105,-0.05063961,0.10986615,-1.1240658,0.18798666,-0.22857672,1.0274565,-0.05714309,0.002311984,0.0081181,0.4823144132816354,-0.6532051975801519,-0.5836915080717437,0.8702774717989054,0.43332381699211225,0.23419562700164145,0.0999496314155155,-0.6209294963855889,0.7774680904694685,0.0027656506,-0.0064348476,0.09171622,-0.001005531,-0.011946805,-0.0064853374,1.5312592e-12,0.00020093741,-0.0087393755,0.0019234894,0.99999247764064,-0.001055835913365578,0.0037322744617827876,0.0020467319992336676,0.9610056950135005,-0.27652100289081527,-0.003294776207474717,0.27652656176603185,0.9610006269964655,left_images/camera_left_89.png,right_images/camera_right_89.png
2025-05-30 16:03:37,5.241912126541138,90,-0.133531,-0.048464313,0.10526602,1.1337802,0.02653107,0.1854487,1.0471314,0.054325648,0.0034707054,0.015440691,0.41900198471050953,0.7133108384257164,0.561805112644105,-0.8963000665903257,0.4238769763673848,0.13028622158855227,-0.14520167849867233,-0.5581361452997333,0.8169458463515946,0.056670226,-0.05931827,0.110534705,-1.2407172,0.17548692,-0.24709474,1.0298004,-0.05627262,0.0035140298,0.007942806,0.3990480241458454,-0.6937130969916265,-0.599602212710713,0.9161313434746277,0.3289287125942386,0.22914899854564222,0.038262722441964436,-0.6407558357856626,0.7667906643784511,0.0027656564,-0.0064348476,0.09171622,-0.001005538,-0.011946805,-0.0064853095,6.4269766e-12,0.00020093741,-0.0087393755,0.0019234894,0.99999247764064,-0.001055835913365578,0.0037322744617827876,0.0020467319992336676,0.9610056950135005,-0.27652100289081527,-0.003294776207474717,0.27652656176603185,0.9610006269964655,left_images/camera_left_90.png,right_images/camera_right_90.png
2025-05-30 16:03:37,5.29305362701416,91,-0.149786,-0.06016435,0.10560361,1.2504466,-0.020597946,0.21737954,1.0471768,0.05334442,0.004721888,0.01590018,0.33648248949218607,0.7663036241307671,0.5473191846712417,-0.939473185564016,0.3130237677596378,0.1393063330353652,-0.0645729654835571,-0.5610658396851587,0.8252487235173691,0.061958928,-0.06795943,0.11131704,-1.3573806,0.15565561,-0.26228908,1.0266173,-0.055386275,0.004769162,0.007637967,0.3093614770116116,-0.7268920117282588,-0.6131259901739928,0.950609778470488,0.2192834723996367,0.21967204603373555,-0.02522945931810605,-0.650801630312957,0.758828513146754,0.002765657,-0.0064348476,0.09171622,-0.0010055449,-0.011946805,-0.0064853374,1.5323133e-12,0.00020093741,-0.0087393755,0.0019234894,0.99999247764064,-0.001055835913365578,0.0037322744617827876,0.0020467319992336676,0.9610056950135005,-0.27652100289081527,-0.003294776207474717,0.27652656176603185,0.9610006269964655,left_images/camera_left_91.png,right_images/camera_right_91.png
2025-05-30 16:03:37,5.342967510223389,92,-0.16366853,-0.072385535,0.106137194,1.3668256,-0.065405935,0.23625739,1.0471796,0.052391004,0.005970317,0.016134331,0.2446135043558278,0.8058601570912666,0.5392157645132427,-0.969556123902409,0.196870573261184,0.14561215604182812,0.011187318271075941,-0.5584186463547328,0.8294838511467537,0.06769712,-0.076550916,0.11213263,-1.4740498,0.1295802,-0.27512032,1.0305078,-0.054538127,0.006019092,0.007272008,0.21524027249721034,-0.7515426626224991,-0.6235825938507353,0.9723073089866897,0.10538779912779717,0.20859508308217867,-0.09105010700920996,-0.6512119762821347,0.7534141224853221,0.0027656627,-0.0064348476,0.09171622,-0.0010055519,-0.011946805,-0.0064853095,6.418605e-12,0.00020092678,-0.008739401,0.0019234624,0.9999924765724406,-0.001056358509799057,0.003732412787453005,0.002047272426040786,0.961005697750786,-0.2765209893771875,-0.003294764654833585,0.2765265502573375,0.9610006303476839,left_images/camera_left_92.png,right_images/camera_right_92.png
2025-05-30 16:03:38,5.393115043640137,93,-0.17507803,-0.08453941,0.10679196,1.4787248,-0.109711155,0.24507278,1.0471797,0.051552355,0.0071637044,0.016156856,0.15002541797837748,0.8328949064805384,0.5327085964382292,-0.9853583418710288,0.08181693462988698,0.14958251005029136,0.08100192630789615,-0.5473500378793664,0.8329745638180474,0.073467776,-0.08521305,0.11294675,-1.5907179,0.10012827,-0.2848197,1.0290487,-0.053746507,0.007243937,0.006883027,0.1181176790992951,-0.7656108294049677,-0.6323671969528728,0.9803925478628062,-0.011240904699035659,0.1967335613377201,-0.1577297244633085,-0.6432057990716382,0.7492714021376661,0.0027656509,-0.0064348006,0.09171622,-0.0010056086,-0.011946833,-0.0064853323,4.222748e-12,0.00020092678,-0.008739401,0.0019234624,0.9999924765724406,-0.001056358509799057,0.003732412787453005,0.002047272426040786,0.961005697750786,-0.2765209893771875,-0.003294764654833585,0.2765265502573375,0.9610006303476839,left_images/camera_left_93.png,right_images/camera_right_93.png
2025-05-30 16:03:38,5.444908142089844,94,-0.18431921,-0.096777245,0.10753844,1.5745506,-0.1554155,0.25012413,1.0471799,0.05087752,0.008310575,0.015976805,0.06555964321021868,0.8503999205867734,0.5220363093197238,-0.9878271300191632,-0.01864824515634378,0.15443381802795614,0.1410655676635932,-0.5258062552106035,0.8388255406228101,0.07872307,-0.093625516,0.11373392,-1.7073827,0.07073984,-0.28957245,1.0300009,-0.053023566,0.008407075,0.0064920783,0.01922211043619182,-0.7671179840079367,-0.6412179887386018,0.9746464655828737,-0.12861815138738286,0.1830891538581804,-0.22292325494930096,-0.6284802063273681,0.7451965194883279,0.0027656548,-0.0064347945,0.09171622,-0.0010055836,-0.011946805,-0.006485327,4.5428036e-12,0.00020092678,-0.008739401,0.0019234624,0.9999924765724406,-0.001056358509799057,0.003732412787453005,0.002047272426040786,0.961005697750786,-0.2765209893771875,-0.003294764654833585,0.2765265502573375,0.9610006303476839,left_images/camera_left_94.png,right_images/camera_right_94.png
2025-05-30 16:03:38,5.496780633926392,95,-0.19147274,-0.10815646,0.108299114,1.6521358,-0.20015137,0.25373334,1.0471799,0.050373826,0.009317564,0.01567268,-0.00454172646286255,0.861388742733476,0.5079259853687133,-0.9816684751325325,-0.10062394942730069,0.1618697801710391,0.19054232509262872,-0.4978797592729532,0.8460551800294123,0.08332355,-0.10120838,0.11448543,-1.8149704,0.045435652,-0.28802422,1.0315902,-0.05234535,0.0094558215,0.0061165188,-0.07283713135936781,-0.7564092906808176,-0.650030566409827,0.9573789165020953,-0.23568050541793956,0.166973978820709,-0.2795002013105039,-0.6101636537337233,0.7413365990760883,0.002765655,-0.0064347945,0.09171622,-0.0010055752,-0.011946749,-0.006485345,7.9781803e-13,0.00020092858,-0.008739408,0.0019234559,0.9999924758328347,-0.00105641709344838,0.003732594358187336,0.0020473773659291736,0.9610058292464023,-0.2765205316072508,-0.00329492392015093,0.27652609304975145,0.9610007613623421,left_images/camera_left_95.png,right_images/camera_right_95.png
2025-05-30 16:03:38,5.545518636703491,96,-0.19591364,-0.11810917,0.108986005,1.7139084,-0.23842788,0.2562481,1.04718,0.050061263,0.010153823,0.015304432,-0.06079890618184797,0.8670817585330325,0.49444182370260203,-0.9713307615097785,-0.16545349356655598,0.17070938231818303,0.22982611851555257,-0.46988760941940766,0.8522825762399402,0.08745839,-0.10725063,0.115215845,-1.8993877,0.025006102,-0.28197765,1.0291675,-0.05169808,0.0103021525,0.005734662,-0.14571088790733305,-0.7407856458990585,-0.6557476374148605,0.9359032111062124,-0.3180786372492646,0.151364328580849,-0.32070783680218523,-0.5916608888168674,0.7396511853962633,0.002765655,-0.0064347945,0.09171622,-0.0010055987,-0.011946784,-0.006485345,1.631484e-13,0.00020092264,-0.0087394,0.0019234624,0.9999924750610165,-0.0010564694336318678,0.003732786315628589,0.002047482411643473,0.9610056893659511,-0.2765210169626302,-0.0032950928843286224,0.27652657897317756,0.9610006209593597,left_images/camera_left_96.png,right_images/camera_right_96.png
