jiaqis7/OS_Teleop_Extension/demo_5/teleop_log.csv
Epoch Time (Seconds),Time (Seconds),Frame Number,PSM1_joint_1,PSM1_joint_2,PSM1_joint_3,PSM1_joint_4,PSM1_joint_5,PSM1_joint_6,PSM1_jaw_angle,PSM1_ee_x,PSM1_ee_y,PSM1_ee_z,"PSM1_Orientation_Matrix_[1,1]","PSM1_Orientation_Matrix_[1,2]","PSM1_Orientation_Matrix_[1,3]","PSM1_Orientation_Matrix_[2,1]","PSM1_Orientation_Matrix_[2,2]","PSM1_Orientation_Matrix_[2,3]","PSM1_Orientation_Matrix_[3,1]","PSM1_Orientation_Matrix_[3,2]","PSM1_Orientation_Matrix_[3,3]",PSM2_joint_1,PSM2_joint_2,PSM2_joint_3,PSM2_joint_4,PSM2_joint_5,PSM2_joint_6,PSM2_jaw_angle,PSM2_ee_x,PSM2_ee_y,PSM2_ee_z,"PSM2_Orientation_Matrix_[1,1]","PSM2_Orientation_Matrix_[1,2]","PSM2_Orientation_Matrix_[1,3]","PSM2_Orientation_Matrix_[2,1]","PSM2_Orientation_Matrix_[2,2]","PSM2_Orientation_Matrix_[2,3]","PSM2_Orientation_Matrix_[3,1]","PSM2_Orientation_Matrix_[3,2]","PSM2_Orientation_Matrix_[3,3]",Camera Left,Camera Right
2025-05-02 13:31:34,0.0009305477142333984,1,-0.06551878,-0.00060238305,0.11403263,-2.1847838e-07,-0.00022508751,0.012635541,0.7999763,0.035163507,7.443435e-05,0.0028100968,0.8382766363351483,0.00045989044140896457,0.5452449628152576,-1.0593464712076043e-05,0.9999996578390992,-0.0008271695491834851,-0.545245156661119,0.0006876208740953724,0.8382763543814924,-0.0009013044,1.2440738e-05,0.1070866,0.00073887274,0.00013642275,-0.014071469,0.80597985,-0.04523728,-3.9370134e-06,0.0047322614,0.8733168921133707,0.0007141951975226404,-0.48715202542395625,-0.0007406049137338541,0.9999997161775954,0.00013838023810623483,0.48715198598979853,0.00023993738429153622,0.8733171731829431,left_images/camera_left_1.png,right_images/camera_right_1.png
2025-05-02 13:31:34,0.04912281036376953,2,-0.06551878,-0.00060238654,0.11403263,-2.1329822e-07,-0.00022512377,0.012635513,0.7999763,0.035163507,7.443435e-05,0.0028100968,0.8382766363351483,0.00045989044140896457,0.5452449628152576,-1.0593464712076043e-05,0.9999996578390992,-0.0008271695491834851,-0.545245156661119,0.0006876208740953724,0.8382763543814924,-0.0009013009,1.2440301e-05,0.1070866,0.00073888357,0.00013642543,-0.014071469,0.80597985,-0.04523728,-3.9370134e-06,0.0047322614,0.8733168921133707,0.0007141951975226404,-0.48715202542395625,-0.0007406049137338541,0.9999997161775954,0.00013838023810623483,0.48715198598979853,0.00023993738429153622,0.8733171731829431,left_images/camera_left_2.png,right_images/camera_right_2.png
2025-05-02 13:31:34,0.0942831039428711,3,-0.06551878,-0.00060239004,0.11403263,-2.2259565e-07,-0.00022509131,0.012635513,0.7999763,0.035163507,7.443435e-05,0.0028100968,0.8382766363351483,0.00045989044140896457,0.5452449628152576,-1.0593464712076043e-05,0.9999996578390992,-0.0008271695491834851,-0.545245156661119,0.0006876208740953724,0.8382763543814924,-0.00090129743,1.2439865e-05,0.1070866,0.0007388944,0.0001364281,-0.014071469,0.80597985,-0.04523728,-3.9370134e-06,0.0047322614,0.8733168921133707,0.0007141951975226404,-0.48715202542395625,-0.0007406049137338541,0.9999997161775954,0.00013838023810623483,0.48715198598979853,0.00023993738429153622,0.8733171731829431,left_images/camera_left_3.png,right_images/camera_right_3.png
2025-05-02 13:31:34,0.14475083351135254,4,-0.06551878,-0.0006023935,0.11403263,-2.1741549e-07,-0.00022512757,0.012635485,0.7999763,0.035163507,7.443338e-05,0.0028100992,0.8382764931937327,0.00045999007719206184,0.5452451828012301,-1.0714640644086113e-05,0.99999965784103,-0.0008271656543580888,-0.5452453767286931,0.0006875514178289636,0.8382762112985395,-0.00090129394,1.2439428e-05,0.1070866,0.0007389052,0.00013643078,-0.014071469,0.80597985,-0.045237254,-3.9405613e-06,0.004732293,0.8733169064763845,0.0007145024217536341,-0.4871519992248898,-0.0007409936742550653,0.999999715898773,0.00013831394626487135,0.4871519596500587,0.0002401846421517735,0.8733171878077547,left_images/camera_left_4.png,right_images/camera_right_4.png
2025-05-02 13:31:35,0.18630623817443848,5,-0.06551878,-0.000602397,0.11403263,-1.9880552e-07,-0.00022509728,0.012635485,0.7999763,0.035163507,7.443338e-05,0.0028100992,0.8382764931937327,0.00045999007719206184,0.5452451828012301,-1.0714640644086113e-05,0.99999965784103,-0.0008271656543580888,-0.5452453767286931,0.0006875514178289636,0.8382762112985395,-0.00090129714,1.2438992e-05,0.1070866,0.0007389157,0.0001364334,-0.014071413,0.80597985,-0.045237254,-3.9405613e-06,0.004732293,0.8733169064763845,0.0007145024217536341,-0.4871519992248898,-0.0007409936742550653,0.999999715898773,0.00013831394626487135,0.4871519596500587,0.0002401846421517735,0.8733171878077547,left_images/camera_left_5.png,right_images/camera_right_5.png
2025-05-02 13:31:35,0.2270047664642334,6,-0.06551878,-0.0006024005,0.11403263,-1.801945e-07,-0.00022506698,0.012635485,0.7999763,0.035163507,7.442677e-05,0.0028100936,0.8382765613272259,0.0004597916383068466,0.5452450782180894,-1.0676203491011196e-05,0.9999996580934254,-0.0008268609620906258,-0.545245271978969,0.0006873170165895231,0.8382762796237876,-0.00090130063,1.2438555e-05,0.1070866,0.0007389262,0.00013643602,-0.014071357,0.80597985,-0.045237254,-3.9405613e-06,0.004732293,0.8733169064763845,0.0007145024217536341,-0.4871519992248898,-0.0007409936742550653,0.999999715898773,0.00013831394626487135,0.4871519596500587,0.0002401846421517735,0.8733171878077547,left_images/camera_left_6.png,right_images/camera_right_6.png
2025-05-02 13:31:35,0.27246975898742676,7,-0.06551878,-0.0006023927,0.11403263,-1.9091179e-07,-0.00022506446,0.012635513,0.7999763,0.035163507,7.4426935e-05,0.002810096,0.8382767298111535,0.0004596857511329276,0.5452448192749094,-1.0582717123228531e-05,0.9999996581358296,-0.0008268108793399924,-0.5452450129484218,0.0006873261484201209,0.838276448099099,-0.0009013027,1.2437796e-05,0.1070866,0.0007389034,0.00013645575,-0.014071385,0.80597985,-0.045237254,-3.9405613e-06,0.004732293,0.8733169064763845,0.0007145024217536341,-0.4871519992248898,-0.0007409936742550653,0.999999715898773,0.00013831394626487135,0.4871519596500587,0.0002401846421517735,0.8733171878077547,left_images/camera_left_7.png,right_images/camera_right_7.png
2025-05-02 13:31:35,0.32486653327941895,8,-0.06551878,-0.00060238066,0.11403263,-1.7432383e-07,-0.00022508323,0.012635563,0.7999763,0.035163507,7.443435e-05,0.0028100968,0.8382766363351483,0.00045989044140896457,0.5452449628152576,-1.0593464712076043e-05,0.9999996578390992,-0.0008271695491834851,-0.545245156661119,0.0006876208740953724,0.8382763543814924,-0.0009013061,1.2437317e-05,0.1070866,0.0007389139,0.00013645839,-0.0140713295,0.80597985,-0.04523725,-3.938711e-06,0.004732293,0.8733167232310827,0.0007145128493071878,-0.4871523277131217,-0.0007410341199200758,0.9999997158758435,0.00013826302996844563,0.48715228809208905,0.00024024908015786556,0.8733170045791058,left_images/camera_left_8.png,right_images/camera_right_8.png
2025-05-02 13:31:35,0.36720800399780273,9,-0.06551878,-0.00060238346,0.11403263,-1.6914197e-07,-0.0002251195,0.012635535,0.7999763,0.035163507,7.443435e-05,0.0028100968,0.8382766363351483,0.00045989044140896457,0.5452449628152576,-1.0593464712076043e-05,0.9999996578390992,-0.0008271695491834851,-0.545245156661119,0.0006876208740953724,0.8382763543814924,-0.0009013063,1.2436856e-05,0.1070866,0.0007389069,0.00013646115,-0.0140713295,0.80597985,-0.04523725,-3.938711e-06,0.004732293,0.8733167232310827,0.0007145128493071878,-0.4871523277131217,-0.0007410341199200758,0.9999997158758435,0.00013826302996844563,0.48715228809208905,0.00024024908015786556,0.8733170045791058,left_images/camera_left_9.png,right_images/camera_right_9.png
2025-05-02 13:31:35,0.4115738868713379,10,-0.06551878,-0.00060238695,0.11403263,-1.7843941e-07,-0.00022508703,0.012635535,0.7999763,0.035163507,7.443435e-05,0.0028100968,0.8382766363351483,0.00045989044140896457,0.5452449628152576,-1.0593464712076043e-05,0.9999996578390992,-0.0008271695491834851,-0.545245156661119,0.0006876208740953724,0.8382763543814924,-0.0009013063,1.2436392e-05,0.1070866,0.0007388999,0.00013646392,-0.0140713295,0.80597985,-0.04523728,-3.937473e-06,0.004732264,0.8733167651046568,0.0007141846931165205,-0.48715225312766597,-0.0007405751866095264,0.9999997161952021,0.00013841209541362484,0.4871522137233192,0.00023989526734928855,0.8733170461606312,left_images/camera_left_10.png,right_images/camera_right_10.png
2025-05-02 13:31:35,0.4592137336730957,11,-0.06551878,-0.00060239044,0.11403263,-1.7325925e-07,-0.0002251233,0.012635507,0.7999763,0.035163507,7.443435e-05,0.0028100968,0.8382766363351483,0.00045989044140896457,0.5452449628152576,-1.0593464712076043e-05,0.9999996578390992,-0.0008271695491834851,-0.545245156661119,0.0006876208740953724,0.8382763543814924,-0.000901355,1.2425905e-05,0.1070866,0.00073882623,0.00013652764,-0.014071274,0.80597985,-0.04523728,-3.937473e-06,0.004732264,0.8733167651046568,0.0007141846931165205,-0.48715225312766597,-0.0007405751866095264,0.9999997161952021,0.00013841209541362484,0.4871522137233192,0.00023989526734928855,0.8733170461606312,left_images/camera_left_11.png,right_images/camera_right_11.png
2025-05-02 13:31:35,0.504817008972168,12,-0.06551878,-0.00060239393,0.11403263,-1.825567e-07,-0.00022509083,0.012635507,0.7999763,0.035163507,7.443435e-05,0.0028100968,0.8382766363351483,0.00045989044140896457,0.5452449628152576,-1.0593464712076043e-05,0.9999996578390992,-0.0008271695491834851,-0.545245156661119,0.0006876208740953724,0.8382763543814924,-0.0009013661,1.2418647e-05,0.1070866,0.0007388367,0.00013656978,-0.014071274,0.80597985,-0.04523728,-3.937473e-06,0.004732264,0.8733167651046568,0.0007141846931165205,-0.48715225312766597,-0.0007405751866095264,0.9999997161952021,0.00013841209541362484,0.4871522137233192,0.00023989526734928855,0.8733170461606312,left_images/camera_left_12.png,right_images/camera_right_12.png
2025-05-02 13:31:35,0.545936107635498,13,-0.06551878,-0.0006023974,0.11403263,-1.7737655e-07,-0.00022512709,0.012635479,0.7999763,0.035163507,7.443338e-05,0.0028100992,0.8382764931937327,0.00045999007719206184,0.5452451828012301,-1.0714640644086113e-05,0.99999965784103,-0.0008271656543580888,-0.5452453767286931,0.0006875514178289636,0.8382762112985395,-0.0009013696,1.2412085e-05,0.1070866,0.0007388472,0.00013661192,-0.014071274,0.80597985,-0.04523728,-3.937473e-06,0.004732264,0.8733167651046568,0.0007141846931165205,-0.48715225312766597,-0.0007405751866095264,0.9999997161952021,0.00013841209541362484,0.4871522137233192,0.00023989526734928855,0.8733170461606312,left_images/camera_left_13.png,right_images/camera_right_13.png
2025-05-02 13:31:35,0.5966579914093018,14,-0.06551878,-0.0006024009,0.11403263,-1.5876658e-07,-0.0002250968,0.012635479,0.7999763,0.035163507,7.443338e-05,0.0028100992,0.8382764931937327,0.00045999007719206184,0.5452451828012301,-1.0714640644086113e-05,0.99999965784103,-0.0008271656543580888,-0.5452453767286931,0.0006875514178289636,0.8382762112985395,-0.0009013731,1.2405524e-05,0.1070866,0.00073885766,0.00013665407,-0.014071274,0.80597985,-0.04523728,-3.937473e-06,0.004732264,0.8733167651046568,0.0007141846931165205,-0.48715225312766597,-0.0007405751866095264,0.9999997161952021,0.00013841209541362484,0.4871522137233192,0.00023989526734928855,0.8733170461606312,left_images/camera_left_14.png,right_images/camera_right_14.png
2025-05-02 13:31:35,0.640139102935791,15,-0.06551878,-0.0006024044,0.11403263,-1.4015556e-07,-0.0002250665,0.012635479,0.7999763,0.035163507,7.442677e-05,0.0028100936,0.8382765613272259,0.0004597916383068466,0.5452450782180894,-1.0676203491011196e-05,0.9999996580934254,-0.0008268609620906258,-0.545245271978969,0.0006873170165895231,0.8382762796237876,-0.0009013766,1.2398963e-05,0.1070866,0.00073886814,0.00013669621,-0.014071274,0.80597985,-0.04523728,-3.946025e-06,0.004732265,0.8733166672438779,0.0007143783281473992,-0.4871524282785118,-0.0007405672882720137,0.9999997161439769,0.00013882383701183684,0.4871523891701013,0.00023953198211215936,0.873316948392903,left_images/camera_left_15.png,right_images/camera_right_15.png
2025-05-02 13:31:35,0.6877486705780029,16,-0.06551878,-0.0006023966,0.11403263,-1.5087285e-07,-0.00022506398,0.012635507,0.7999763,0.035163507,7.4426935e-05,0.002810096,0.8382767298111535,0.0004596857511329276,0.5452448192749094,-1.0582717123228531e-05,0.9999996581358296,-0.0008268108793399924,-0.5452450129484218,0.0006873261484201209,0.838276448099099,-0.0009013801,1.239815e-05,0.1070866,0.00073889806,0.00013669884,-0.014071274,0.80597985,-0.04523728,-3.946025e-06,0.004732265,0.8733166672438779,0.0007143783281473992,-0.4871524282785118,-0.0007405672882720137,0.9999997161439769,0.00013882383701183684,0.4871523891701013,0.00023953198211215936,0.873316948392903,left_images/camera_left_16.png,right_images/camera_right_16.png
2025-05-02 13:31:35,0.7325615882873535,17,-0.06551878,-0.00060238456,0.11403263,-1.3428489e-07,-0.00022508275,0.012635556,0.7999763,0.035163507,7.443435e-05,0.0028100968,0.8382766363351483,0.00045989044140896457,0.5452449628152576,-1.0593464712076043e-05,0.9999996578390992,-0.0008271695491834851,-0.545245156661119,0.0006876208740953724,0.8382763543814924,-0.0009014277,1.239277e-05,0.1070866,0.0007388444,0.0001367074,-0.014071235,0.80597985,-0.04523728,-3.946025e-06,0.004732265,0.8733166672438779,0.0007143783281473992,-0.4871524282785118,-0.0007405672882720137,0.9999997161439769,0.00013882383701183684,0.4871523891701013,0.00023953198211215936,0.873316948392903,left_images/camera_left_17.png,right_images/camera_right_17.png
2025-05-02 13:31:35,0.7766380310058594,18,-0.06551878,-0.00060238736,0.11403263,-1.2910303e-07,-0.00022511902,0.012635528,0.7999763,0.035163507,7.443435e-05,0.0028100968,0.8382766363351483,0.00045989044140896457,0.5452449628152576,-1.0593464712076043e-05,0.9999996578390992,-0.0008271695491834851,-0.545245156661119,0.0006876208740953724,0.8382763543814924,-0.00090143847,1.2391564e-05,0.1070866,0.0007388743,0.00013671003,-0.014071235,0.80597985,-0.045237243,-4.063533e-06,0.004732291,0.8733168919670802,0.0007144805038343655,-0.4871520252678511,-0.0007407186775704175,0.99999971604044,0.00013876195546116352,0.4871519860790882,0.00023965944426553563,0.8733171732094536,left_images/camera_left_18.png,right_images/camera_right_18.png
2025-05-02 13:31:35,0.819847583770752,19,-0.06551878,-0.00060239085,0.11403263,-1.3840048e-07,-0.00022508655,0.012635528,0.7999763,0.035163507,7.443435e-05,0.0028100968,0.8382766363351483,0.00045989044140896457,0.5452449628152576,-1.0593464712076043e-05,0.9999996578390992,-0.0008271695491834851,-0.545245156661119,0.0006876208740953724,0.8382763543814924,-0.00090137974,1.2541262e-05,0.1070866,0.00073891773,0.00013653847,-0.014071354,0.80597985,-0.045237254,-3.9405613e-06,0.004732293,0.8733169064763845,0.0007145024217536341,-0.4871519992248898,-0.0007409936742550653,0.999999715898773,0.00013831394626487135,0.4871519596500587,0.0002401846421517735,0.8733171878077547,left_images/camera_left_19.png,right_images/camera_right_19.png
2025-05-02 13:31:35,0.8638126850128174,20,-0.06551878,-0.00060239434,0.11403263,-1.3322033e-07,-0.00022512281,0.0126355,0.7999763,0.035163507,7.443435e-05,0.0028100968,0.8382766363351483,0.00045989044140896457,0.5452449628152576,-1.0593464712076043e-05,0.9999996578390992,-0.0008271695491834851,-0.545245156661119,0.0006876208740953724,0.8382763543814924,-0.00090137235,1.2564918e-05,0.1070866,0.00073889503,0.00013655829,-0.014071382,0.80597985,-0.04523728,-3.9370134e-06,0.0047322614,0.8733168921133707,0.0007141951975226404,-0.48715202542395625,-0.0007406049137338541,0.9999997161775954,0.00013838023810623483,0.48715198598979853,0.00023993738429153622,0.8733171731829431,left_images/camera_left_20.png,right_images/camera_right_20.png
2025-05-02 13:31:35,0.9072825908660889,21,-0.06551878,-0.00060239783,0.11403263,-1.4251778e-07,-0.00022509035,0.0126355,0.7999763,0.035163507,7.443435e-05,0.0028100968,0.8382766363351483,0.00045989044140896457,0.5452449628152576,-1.0593464712076043e-05,0.9999996578390992,-0.0008271695491834851,-0.545245156661119,0.0006876208740953724,0.8382763543814924,-0.00090136926,1.25644465e-05,0.1070866,0.0007389058,0.00013656096,-0.014071382,0.80597985,-0.045237254,-3.9405613e-06,0.004732293,0.8733169064763845,0.0007145024217536341,-0.4871519992248898,-0.0007409936742550653,0.999999715898773,0.00013831394626487135,0.4871519596500587,0.0002401846421517735,0.8733171878077547,left_images/camera_left_21.png,right_images/camera_right_21.png
2025-05-02 13:31:35,0.9507200717926025,22,-0.06551878,-0.0006024013,0.11403263,-1.3733762e-07,-0.00022512661,0.012635472,0.7999763,0.035163507,7.443338e-05,0.0028100992,0.8382764931937327,0.00045999007719206184,0.5452451828012301,-1.0714640644086113e-05,0.99999965784103,-0.0008271656543580888,-0.5452453767286931,0.0006875514178289636,0.8382762112985395,-0.00090137246,1.256401e-05,0.1070866,0.0007389163,0.00013656358,-0.014071326,0.80597985,-0.04523725,-3.938711e-06,0.004732293,0.8733167232310827,0.0007145128493071878,-0.4871523277131217,-0.0007410341199200758,0.9999997158758435,0.00013826302996844563,0.48715228809208905,0.00024024908015786556,0.8733170045791058,left_images/camera_left_22.png,right_images/camera_right_22.png
2025-05-02 13:31:35,0.99332594871521,23,-0.06551878,-0.0006024048,0.11403263,-1.18727655e-07,-0.00022509632,0.012635472,0.7999763,0.035163507,7.443338e-05,0.0028100992,0.8382764931937327,0.00045999007719206184,0.5452451828012301,-1.0714640644086113e-05,0.99999965784103,-0.0008271656543580888,-0.5452453767286931,0.0006875514178289636,0.8382762112985395,-0.00090137264,1.2563549e-05,0.1070866,0.0007389093,0.00013656635,-0.014071326,0.80597985,-0.04523725,-3.938711e-06,0.004732293,0.8733167232310827,0.0007145128493071878,-0.4871523277131217,-0.0007410341199200758,0.9999997158758435,0.00013826302996844563,0.48715228809208905,0.00024024908015786556,0.8733170045791058,left_images/camera_left_23.png,right_images/camera_right_23.png
2025-05-02 13:31:35,1.0417520999908447,24,-0.06551878,-0.0006024083,0.11403263,-1.00116615e-07,-0.00022506602,0.012635472,0.7999763,0.035163507,7.442677e-05,0.0028100936,0.8382765613272259,0.0004597916383068466,0.5452450782180894,-1.0676203491011196e-05,0.9999996580934254,-0.0008268609620906258,-0.545245271978969,0.0006873170165895231,0.8382762796237876,-0.00090137264,1.2563085e-05,0.1070866,0.0007389023,0.00013656911,-0.014071326,0.80597985,-0.04523728,-3.937473e-06,0.004732264,0.8733167651046568,0.0007141846931165205,-0.48715225312766597,-0.0007405751866095264,0.9999997161952021,0.00013841209541362484,0.4871522137233192,0.00023989526734928855,0.8733170461606312,left_images/camera_left_24.png,right_images/camera_right_24.png
2025-05-02 13:31:35,1.0870883464813232,25,-0.06551878,-0.0006024005,0.11403263,-1.1083388e-07,-0.0002250635,0.0126355,0.7999763,0.035163507,7.4426935e-05,0.002810096,0.8382767298111535,0.0004596857511329276,0.5452448192749094,-1.0582717123228531e-05,0.9999996581358296,-0.0008268108793399924,-0.5452450129484218,0.0006873261484201209,0.838276448099099,-0.00090142136,1.2552598e-05,0.1070866,0.0007388286,0.00013663284,-0.01407127,0.80597985,-0.04523728,-3.937473e-06,0.004732264,0.8733167651046568,0.0007141846931165205,-0.48715225312766597,-0.0007405751866095264,0.9999997161952021,0.00013841209541362484,0.4871522137233192,0.00023989526734928855,0.8733170461606312,left_images/camera_left_25.png,right_images/camera_right_25.png
2025-05-02 13:31:35,1.1316049098968506,26,-0.06551878,-0.00060238846,0.11403263,-9.424592e-08,-0.00022508227,0.0126355495,0.7999763,0.035163507,7.443435e-05,0.0028100968,0.8382766363351483,0.00045989044140896457,0.5452449628152576,-1.0593464712076043e-05,0.9999996578390992,-0.0008271695491834851,-0.545245156661119,0.0006876208740953724,0.8382763543814924,-0.0009014325,1.254534e-05,0.1070866,0.0007388391,0.00013667498,-0.01407127,0.80597985,-0.04523728,-3.937473e-06,0.004732264,0.8733167651046568,0.0007141846931165205,-0.48715225312766597,-0.0007405751866095264,0.9999997161952021,0.00013841209541362484,0.4871522137233192,0.00023989526734928855,0.8733170461606312,left_images/camera_left_26.png,right_images/camera_right_26.png
2025-05-02 13:31:36,1.1752357482910156,27,-0.06551878,-0.00060239126,0.11403263,-8.906411e-08,-0.00022511854,0.012635522,0.7999763,0.035163507,7.443435e-05,0.0028100968,0.8382766363351483,0.00045989044140896457,0.5452449628152576,-1.0593464712076043e-05,0.9999996578390992,-0.0008271695491834851,-0.545245156661119,0.0006876208740953724,0.8382763543814924,-0.00090143434,1.253578e-05,0.1070866,0.0007388496,0.00013667096,-0.014071298,0.80597985,-0.04523728,-3.937473e-06,0.004732264,0.8733167651046568,0.0007141846931165205,-0.48715225312766597,-0.0007405751866095264,0.9999997161952021,0.00013841209541362484,0.4871522137233192,0.00023989526734928855,0.8733170461606312,left_images/camera_left_27.png,right_images/camera_right_27.png
2025-05-02 13:31:36,1.2201151847839355,28,-0.06551878,-0.00060239475,0.11403263,-9.836157e-08,-0.00022508607,0.012635522,0.7999763,0.035163507,7.443435e-05,0.0028100968,0.8382766363351483,0.00045989044140896457,0.5452449628152576,-1.0593464712076043e-05,0.9999996578390992,-0.0008271695491834851,-0.545245156661119,0.0006876208740953724,0.8382763543814924,-0.0009014376,1.2528707e-05,0.1070866,0.00073886005,0.0001367131,-0.014071298,0.80597985,-0.04523728,-3.946025e-06,0.004732265,0.8733166672438779,0.0007143783281473992,-0.4871524282785118,-0.0007405672882720137,0.9999997161439769,0.00013882383701183684,0.4871523891701013,0.00023953198211215936,0.873316948392903,left_images/camera_left_28.png,right_images/camera_right_28.png
2025-05-02 13:31:36,1.2637355327606201,29,-0.06551878,-0.00060239824,0.11403263,-9.3181434e-08,-0.00022512233,0.012635494,0.7999763,0.035163507,7.443435e-05,0.0028100968,0.8382766363351483,0.00045989044140896457,0.5452449628152576,-1.0593464712076043e-05,0.9999996578390992,-0.0008271695491834851,-0.545245156661119,0.0006876208740953724,0.8382763543814924,-0.0009014943,1.2377753e-05,0.1070866,0.0007388565,0.00013689013,-0.01407117,0.80597985,-0.045237243,-4.063533e-06,0.004732291,0.8733168919670802,0.0007144805038343655,-0.4871520252678511,-0.0007407186775704175,0.99999971604044,0.00013876195546116352,0.4871519860790882,0.00023965944426553563,0.8733171732094536,left_images/camera_left_29.png,right_images/camera_right_29.png
2025-05-02 13:31:36,1.3109045028686523,30,-0.06551878,-0.00060240173,0.11403263,-1.0247889e-07,-0.00022508987,0.012635494,0.7999763,0.035163507,7.443435e-05,0.0028100968,0.8382766363351483,0.00045989044140896457,0.5452449628152576,-1.0593464712076043e-05,0.9999996578390992,-0.0008271695491834851,-0.545245156661119,0.0006876208740953724,0.8382763543814924,-0.0009013877,1.2641384e-05,0.1070866,0.00073888304,0.0001366076,-0.01407131,0.80597985,-0.04523728,-3.937473e-06,0.004732264,0.8733167651046568,0.0007141846931165205,-0.48715225312766597,-0.0007405751866095264,0.9999997161952021,0.00013841209541362484,0.4871522137233192,0.00023989526734928855,0.8733170461606312,left_images/camera_left_30.png,right_images/camera_right_30.png
2025-05-02 13:31:36,1.3659288883209229,31,-0.06551878,-0.0006024052,0.11403263,-9.729876e-08,-0.00022512613,0.012635466,0.7999763,0.035163507,7.443338e-05,0.0028100992,0.8382764931937327,0.00045999007719206184,0.5452451828012301,-1.0714640644086113e-05,0.99999965784103,-0.0008271656543580888,-0.5452453767286931,0.0006875514178289636,0.8382762112985395,-0.00090137223,1.2682175e-05,0.1070866,0.0007388935,0.00013664977,-0.01407131,0.80597985,-0.04523728,-3.937473e-06,0.004732264,0.8733167651046568,0.0007141846931165205,-0.48715225312766597,-0.0007405751866095264,0.9999997161952021,0.00013841209541362484,0.4871522137233192,0.00023989526734928855,0.8733170461606312,left_images/camera_left_31.png,right_images/camera_right_31.png
2025-05-02 13:31:36,1.4105029106140137,32,-0.06551878,-0.0006024087,0.11403263,-7.8688814e-08,-0.00022509584,0.012635466,0.7999763,0.035163507,7.443338e-05,0.0028100992,0.8382764931937327,0.00045999007719206184,0.5452451828012301,-1.0714640644086113e-05,0.99999965784103,-0.0008271656543580888,-0.5452453767286931,0.0006875514178289636,0.8382762112985395,-0.0009013757,1.26756295e-05,0.1070866,0.000738904,0.00013669192,-0.01407131,0.80597985,-0.04523725,-3.938711e-06,0.004732293,0.8733167232310827,0.0007145128493071878,-0.4871523277131217,-0.0007410341199200758,0.9999997158758435,0.00013826302996844563,0.48715228809208905,0.00024024908015786556,0.8733170045791058,left_images/camera_left_32.png,right_images/camera_right_32.png
2025-05-02 13:31:36,1.4542453289031982,33,-0.06551878,-0.0006024122,0.11403263,-6.0077774e-08,-0.00022506554,0.012635466,0.7999763,0.035163507,7.442677e-05,0.0028100936,0.8382765613272259,0.0004597916383068466,0.5452450782180894,-1.0676203491011196e-05,0.9999996580934254,-0.0008268609620906258,-0.545245271978969,0.0006873170165895231,0.8382762796237876,-0.00090133055,1.2679091e-05,0.1070866,0.000738981,0.00013667314,-0.014071366,0.80597985,-0.045237254,-3.9405613e-06,0.004732293,0.8733169064763845,0.0007145024217536341,-0.4871519992248898,-0.0007409936742550653,0.999999715898773,0.00013831394626487135,0.4871519596500587,0.0002401846421517735,0.8733171878077547,left_images/camera_left_33.png,right_images/camera_right_33.png
2025-05-02 13:31:36,1.4980182647705078,34,-0.06551878,-0.0006024044,0.11403263,-7.079504e-08,-0.00022506302,0.012635494,0.7999763,0.035163507,7.4426935e-05,0.002810096,0.8382767298111535,0.0004596857511329276,0.5452448192749094,-1.0582717123228531e-05,0.9999996581358296,-0.0008268108793399924,-0.5452450129484218,0.0006873261484201209,0.838276448099099,-0.00090132497,1.2679024e-05,0.1070866,0.0007389583,0.00013669288,-0.014071394,0.80597985,-0.045237254,-3.9405613e-06,0.004732293,0.8733169064763845,0.0007145024217536341,-0.4871519992248898,-0.0007409936742550653,0.999999715898773,0.00013831394626487135,0.4871519596500587,0.0002401846421517735,0.8733171878077547,left_images/camera_left_34.png,right_images/camera_right_34.png
2025-05-02 13:31:36,1.5409824848175049,35,-0.06551878,-0.00060239236,0.11403263,-5.420707e-08,-0.00022508179,0.012635543,0.7999763,0.035163507,7.443435e-05,0.0028100968,0.8382766363351483,0.00045989044140896457,0.5452449628152576,-1.0593464712076043e-05,0.9999996578390992,-0.0008271695491834851,-0.545245156661119,0.0006876208740953724,0.8382763543814924,-0.0009013284,1.2678545e-05,0.1070866,0.0007389688,0.00013669551,-0.014071338,0.80597985,-0.04523725,-3.9498327e-06,0.004732295,0.8733166388234757,0.0007147812656759803,-0.4871524786366266,-0.0007410409986759555,0.9999997157961124,0.00013880177419506767,0.4871524393989062,0.00023978206037358137,0.8733169203057148,left_images/camera_left_35.png,right_images/camera_right_35.png
2025-05-02 13:31:36,1.5879287719726562,36,-0.06551878,-0.00060239516,0.11403263,-4.9025253e-08,-0.00022511806,0.012635515,0.7999763,0.035163507,7.443435e-05,0.0028100968,0.8382766363351483,0.00045989044140896457,0.5452449628152576,-1.0593464712076043e-05,0.9999996578390992,-0.0008271695491834851,-0.545245156661119,0.0006876208740953724,0.8382763543814924,-0.0009013285,1.2678109e-05,0.1070866,0.00073897926,0.00013669822,-0.014071338,0.80597985,-0.04523725,-3.9498327e-06,0.004732295,0.8733166388234757,0.0007147812656759803,-0.4871524786366266,-0.0007410409986759555,0.9999997157961124,0.00013880177419506767,0.4871524393989062,0.00023978206037358137,0.8733169203057148,left_images/camera_left_36.png,right_images/camera_right_36.png
2025-05-02 13:31:36,1.6292638778686523,37,-0.06551878,-0.00060239865,0.11403263,-5.8322712e-08,-0.00022508559,0.012635515,0.7999763,0.035163507,7.443435e-05,0.0028100968,0.8382766363351483,0.00045989044140896457,0.5452449628152576,-1.0593464712076043e-05,0.9999996578390992,-0.0008271695491834851,-0.545245156661119,0.0006876208740953724,0.8382763543814924,-0.0009013285,1.2677672e-05,0.1070866,0.00073898974,0.00013670092,-0.014071338,0.80597985,-0.04523725,-3.9498327e-06,0.004732295,0.8733166388234757,0.0007147812656759803,-0.4871524786366266,-0.0007410409986759555,0.9999997157961124,0.00013880177419506767,0.4871524393989062,0.00023978206037358137,0.8733169203057148,left_images/camera_left_37.png,right_images/camera_right_37.png
2025-05-02 13:31:36,1.6738874912261963,38,-0.06551878,-0.00060240214,0.11403263,-5.314257e-08,-0.00022512185,0.012635487,0.7999763,0.035163507,7.443338e-05,0.0028100992,0.8382764931937327,0.00045999007719206184,0.5452451828012301,-1.0714640644086113e-05,0.99999965784103,-0.0008271656543580888,-0.5452453767286931,0.0006875514178289636,0.8382762112985395,-0.0009013285,1.2677236e-05,0.1070866,0.0007390002,0.00013670363,-0.014071338,0.80597985,-0.04523725,-3.9498327e-06,0.004732295,0.8733166388234757,0.0007147812656759803,-0.4871524786366266,-0.0007410409986759555,0.9999997157961124,0.00013880177419506767,0.4871524393989062,0.00023978206037358137,0.8733169203057148,left_images/camera_left_38.png,right_images/camera_right_38.png
2025-05-02 13:31:36,1.7176768779754639,39,-0.06551878,-0.00060240563,0.11403263,-3.453264e-08,-0.00022509156,0.012635487,0.7999763,0.035163507,7.443338e-05,0.0028100992,0.8382764931937327,0.00045999007719206184,0.5452451828012301,-1.0714640644086113e-05,0.99999965784103,-0.0008271656543580888,-0.5452453767286931,0.0006875514178289636,0.8382762112985395,-0.0009013285,1.2676799e-05,0.1070866,0.0007390107,0.00013670634,-0.014071338,0.80597985,-0.04523725,-3.9498327e-06,0.004732295,0.8733166388234757,0.0007147812656759803,-0.4871524786366266,-0.0007410409986759555,0.9999997157961124,0.00013880177419506767,0.4871524393989062,0.00023978206037358137,0.8733169203057148,left_images/camera_left_39.png,right_images/camera_right_39.png
2025-05-02 13:31:36,1.763885736465454,40,-0.06551878,-0.00060241064,0.11403263,-3.4980008e-08,-0.00022510906,0.012635487,0.7999763,0.035163507,7.443338e-05,0.0028100992,0.8382764931937327,0.00045999007719206184,0.5452451828012301,-1.0714640644086113e-05,0.99999965784103,-0.0008271656543580888,-0.5452453767286931,0.0006875514178289636,0.8382762112985395,-0.0009013285,1.26763625e-05,0.1070866,0.00073902117,0.00013670904,-0.014071338,0.80597985,-0.04523725,-3.9498327e-06,0.004732295,0.8733166388234757,0.0007147812656759803,-0.4871524786366266,-0.0007410409986759555,0.9999997157961124,0.00013880177419506767,0.4871524393989062,0.00023978206037358137,0.8733169203057148,left_images/camera_left_40.png,right_images/camera_right_40.png
2025-05-02 13:31:36,1.8199408054351807,41,-0.06551878,-0.0006024144,0.11403263,-1.6373534e-08,-0.00022507877,0.012635487,0.7999763,0.035163507,7.443338e-05,0.0028100992,0.8382764931937327,0.00045999007719206184,0.5452451828012301,-1.0714640644086113e-05,0.99999965784103,-0.0008271656543580888,-0.5452453767286931,0.0006875514178289636,0.8382762112985395,-0.0009013285,1.2675926e-05,0.1070866,0.00073903165,0.00013671175,-0.014071338,0.80597985,-0.04523725,-3.9498327e-06,0.004732295,0.8733166388234757,0.0007147812656759803,-0.4871524786366266,-0.0007410409986759555,0.9999997157961124,0.00013880177419506767,0.4871524393989062,0.00023978206037358137,0.8733169203057148,left_images/camera_left_41.png,right_images/camera_right_41.png
2025-05-02 13:31:36,1.8616900444030762,42,-0.06551878,-0.00060241943,0.11403263,-1.6820893e-08,-0.00022509627,0.012635487,0.7999763,0.035163507,7.443338e-05,0.0028100992,0.8382764931937327,0.00045999007719206184,0.5452451828012301,-1.0714640644086113e-05,0.99999965784103,-0.0008271656543580888,-0.5452453767286931,0.0006875514178289636,0.8382762112985395,-0.0009013285,1.2675489e-05,0.1070866,0.0007390421,0.00013671446,-0.014071338,0.80597985,-0.04523725,-3.9498327e-06,0.004732295,0.8733166388234757,0.0007147812656759803,-0.4871524786366266,-0.0007410409986759555,0.9999997157961124,0.00013880177419506767,0.4871524393989062,0.00023978206037358137,0.8733169203057148,left_images/camera_left_42.png,right_images/camera_right_42.png
2025-05-02 13:31:36,1.906771183013916,43,-0.06551878,-0.0006024232,0.11403263,1.7855769e-09,-0.00022506597,0.012635487,0.7999763,0.035163507,7.442677e-05,0.0028100936,0.8382765613272259,0.0004597916383068466,0.5452450782180894,-1.0676203491011196e-05,0.9999996580934254,-0.0008268609620906258,-0.545245271978969,0.0006873170165895231,0.8382762796237876,-0.0009013285,1.2675053e-05,0.1070866,0.0007390526,0.00013671716,-0.014071338,0.80597985,-0.04523725,-3.9498327e-06,0.004732295,0.8733166388234757,0.0007147812656759803,-0.4871524786366266,-0.0007410409986759555,0.9999997157961124,0.00013880177419506767,0.4871524393989062,0.00023978206037358137,0.8733169203057148,left_images/camera_left_43.png,right_images/camera_right_43.png
2025-05-02 13:31:36,1.951148271560669,44,-0.06551878,-0.0006024154,0.11403263,-8.931702e-09,-0.00022506346,0.012635515,0.7999763,0.035163507,7.4426935e-05,0.002810096,0.8382767298111535,0.0004596857511329276,0.5452448192749094,-1.0582717123228531e-05,0.9999996581358296,-0.0008268108793399924,-0.5452450129484218,0.0006873261484201209,0.838276448099099,-0.0009013285,1.2674616e-05,0.1070866,0.0007390631,0.00013671987,-0.014071338,0.80597985,-0.04523725,-3.9498327e-06,0.004732295,0.8733166388234757,0.0007147812656759803,-0.4871524786366266,-0.0007410409986759555,0.9999997157961124,0.00013880177419506767,0.4871524393989062,0.00023978206037358137,0.8733169203057148,left_images/camera_left_44.png,right_images/camera_right_44.png
2025-05-02 13:31:36,1.994206190109253,45,-0.06551878,-0.00060240336,0.11403263,7.6562605e-09,-0.00022508223,0.012635564,0.7999763,0.035163507,7.443435e-05,0.0028100968,0.8382766363351483,0.00045989044140896457,0.5452449628152576,-1.0593464712076043e-05,0.9999996578390992,-0.0008271695491834851,-0.545245156661119,0.0006876208740953724,0.8382763543814924,-0.0009013285,1.267418e-05,0.1070866,0.00073907356,0.00013672258,-0.014071338,0.80597985,-0.04523725,-3.9498327e-06,0.004732295,0.8733166388234757,0.0007147812656759803,-0.4871524786366266,-0.0007410409986759555,0.9999997157961124,0.00013880177419506767,0.4871524393989062,0.00023978206037358137,0.8733169203057148,left_images/camera_left_45.png,right_images/camera_right_45.png
2025-05-02 13:31:36,2.0420656204223633,46,-0.06551878,-0.00060240616,0.11403263,1.2838073e-08,-0.00022511849,0.0126355365,0.7999763,0.035163507,7.443435e-05,0.0028100968,0.8382766363351483,0.00045989044140896457,0.5452449628152576,-1.0593464712076043e-05,0.9999996578390992,-0.0008271695491834851,-0.545245156661119,0.0006876208740953724,0.8382763543814924,-0.0009013285,1.2673743e-05,0.1070866,0.00073908403,0.00013672528,-0.014071338,0.80597985,-0.04523725,-3.9498327e-06,0.004732295,0.8733166388234757,0.0007147812656759803,-0.4871524786366266,-0.0007410409986759555,0.9999997157961124,0.00013880177419506767,0.4871524393989062,0.00023978206037358137,0.8733169203057148,left_images/camera_left_46.png,right_images/camera_right_46.png
2025-05-02 13:31:36,2.0818655490875244,47,-0.06551878,-0.00060240965,0.11403263,3.5406182e-09,-0.00022508603,0.0126355365,0.7999763,0.035163507,7.443435e-05,0.0028100968,0.8382766363351483,0.00045989044140896457,0.5452449628152576,-1.0593464712076043e-05,0.9999996578390992,-0.0008271695491834851,-0.545245156661119,0.0006876208740953724,0.8382763543814924,-0.0009013285,1.2673307e-05,0.1070866,0.0007390945,0.00013672799,-0.014071338,0.80597985,-0.04523725,-3.9498327e-06,0.004732295,0.8733166388234757,0.0007147812656759803,-0.4871524786366266,-0.0007410409986759555,0.9999997157961124,0.00013880177419506767,0.4871524393989062,0.00023978206037358137,0.8733169203057148,left_images/camera_left_47.png,right_images/camera_right_47.png
2025-05-02 13:31:36,2.1263840198516846,48,-0.06551878,-0.00060241314,0.11403263,8.720755e-09,-0.00022512229,0.012635509,0.7999763,0.035163507,7.443435e-05,0.0028100968,0.8382766363351483,0.00045989044140896457,0.5452449628152576,-1.0593464712076043e-05,0.9999996578390992,-0.0008271695491834851,-0.545245156661119,0.0006876208740953724,0.8382763543814924,-0.0009013285,1.267287e-05,0.1070866,0.000739105,0.0001367307,-0.014071338,0.80597985,-0.04523725,-3.9498327e-06,0.004732295,0.8733166388234757,0.0007147812656759803,-0.4871524786366266,-0.0007410409986759555,0.9999997157961124,0.00013880177419506767,0.4871524393989062,0.00023978206037358137,0.8733169203057148,left_images/camera_left_48.png,right_images/camera_right_48.png
2025-05-02 13:31:36,2.166466236114502,49,-0.06551878,-0.00060241664,0.11403263,-5.7670047e-10,-0.00022508983,0.012635509,0.7999763,0.035163507,7.443435e-05,0.0028100968,0.8382766363351483,0.00045989044140896457,0.5452449628152576,-1.0593464712076043e-05,0.9999996578390992,-0.0008271695491834851,-0.545245156661119,0.0006876208740953724,0.8382763543814924,-0.0009013285,1.26724335e-05,0.1070866,0.00073911546,0.0001367334,-0.014071338,0.80597985,-0.04523725,-3.9498327e-06,0.004732295,0.8733166388234757,0.0007147812656759803,-0.4871524786366266,-0.0007410409986759555,0.9999997157961124,0.00013880177419506767,0.4871524393989062,0.00023978206037358137,0.8733169203057148,left_images/camera_left_49.png,right_images/camera_right_49.png
2025-05-02 13:31:37,2.2078871726989746,50,-0.06551878,-0.0006024201,0.11403263,4.6034376e-09,-0.00022512609,0.012635481,0.7999763,0.035163507,7.443338e-05,0.0028100992,0.8382764931937327,0.00045999007719206184,0.5452451828012301,-1.0714640644086113e-05,0.99999965784103,-0.0008271656543580888,-0.5452453767286931,0.0006875514178289636,0.8382762112985395,-0.0009013285,1.2671997e-05,0.1070866,0.00073912594,0.00013673611,-0.014071338,0.80597985,-0.04523725,-3.9498327e-06,0.004732295,0.8733166388234757,0.0007147812656759803,-0.4871524786366266,-0.0007410409986759555,0.9999997157961124,0.00013880177419506767,0.4871524393989062,0.00023978206037358137,0.8733169203057148,left_images/camera_left_50.png,right_images/camera_right_50.png
2025-05-02 13:31:37,2.250281810760498,51,-0.06551878,-0.0006024236,0.11403263,2.3213385e-08,-0.00022509579,0.012635481,0.7999763,0.035163507,7.443338e-05,0.0028100992,0.8382764931937327,0.00045999007719206184,0.5452451828012301,-1.0714640644086113e-05,0.99999965784103,-0.0008271656543580888,-0.5452453767286931,0.0006875514178289636,0.8382762112985395,-0.0009013285,1.267156e-05,0.1070866,0.0007391364,0.00013673882,-0.014071338,0.80597985,-0.04523725,-3.9498327e-06,0.004732295,0.8733166388234757,0.0007147812656759803,-0.4871524786366266,-0.0007410409986759555,0.9999997157961124,0.00013880177419506767,0.4871524393989062,0.00023978206037358137,0.8733169203057148,left_images/camera_left_51.png,right_images/camera_right_51.png
2025-05-02 13:31:37,2.2938289642333984,52,-0.06551878,-0.0006024271,0.11403263,4.182441e-08,-0.0002250655,0.012635481,0.7999763,0.035163507,7.442677e-05,0.0028100936,0.8382765613272259,0.0004597916383068466,0.5452450782180894,-1.0676203491011196e-05,0.9999996580934254,-0.0008268609620906258,-0.545245271978969,0.0006873170165895231,0.8382762796237876,-0.0009013285,1.2671124e-05,0.1070866,0.0007391469,0.00013674152,-0.014071338,0.80597985,-0.04523725,-3.9498327e-06,0.004732295,0.8733166388234757,0.0007147812656759803,-0.4871524786366266,-0.0007410409986759555,0.9999997157961124,0.00013880177419506767,0.4871524393989062,0.00023978206037358137,0.8733169203057148,left_images/camera_left_52.png,right_images/camera_right_52.png
2025-05-02 13:31:37,2.3364577293395996,53,-0.06551878,-0.0006024193,0.11403263,3.1107138e-08,-0.00022506298,0.012635509,0.7999763,0.035163507,7.4426935e-05,0.002810096,0.8382767298111535,0.0004596857511329276,0.5452448192749094,-1.0582717123228531e-05,0.9999996581358296,-0.0008268108793399924,-0.5452450129484218,0.0006873261484201209,0.838276448099099,-0.0009013285,1.2670687e-05,0.1070866,0.0007391574,0.00013674423,-0.014071338,0.80597985,-0.04523725,-3.9498327e-06,0.004732295,0.8733166388234757,0.0007147812656759803,-0.4871524786366266,-0.0007410409986759555,0.9999997157961124,0.00013880177419506767,0.4871524393989062,0.00023978206037358137,0.8733169203057148,left_images/camera_left_53.png,right_images/camera_right_53.png
2025-05-02 13:31:37,2.3792362213134766,54,-0.06551878,-0.00060240726,0.11403263,4.7695103e-08,-0.00022508175,0.012635558,0.7999763,0.035163507,7.443435e-05,0.0028100968,0.8382766363351483,0.00045989044140896457,0.5452449628152576,-1.0593464712076043e-05,0.9999996578390992,-0.0008271695491834851,-0.545245156661119,0.0006876208740953724,0.8382763543814924,-0.0009013285,1.2670251e-05,0.1070866,0.00073916785,0.00013674694,-0.014071338,0.80597985,-0.04523725,-3.9498327e-06,0.004732295,0.8733166388234757,0.0007147812656759803,-0.4871524786366266,-0.0007410409986759555,0.9999997157961124,0.00013880177419506767,0.4871524393989062,0.00023978206037358137,0.8733169203057148,left_images/camera_left_54.png,right_images/camera_right_54.png
2025-05-02 13:31:37,2.4204957485198975,55,-0.06551878,-0.00060241006,0.11403263,5.287692e-08,-0.00022511801,0.01263553,0.7999763,0.035163507,7.443435e-05,0.0028100968,0.8382766363351483,0.00045989044140896457,0.5452449628152576,-1.0593464712076043e-05,0.9999996578390992,-0.0008271695491834851,-0.545245156661119,0.0006876208740953724,0.8382763543814924,-0.0009013285,1.2669814e-05,0.1070866,0.00073917833,0.00013674964,-0.014071338,0.80597985,-0.04523725,-3.9498327e-06,0.004732295,0.8733166388234757,0.0007147812656759803,-0.4871524786366266,-0.0007410409986759555,0.9999997157961124,0.00013880177419506767,0.4871524393989062,0.00023978206037358137,0.8733169203057148,left_images/camera_left_55.png,right_images/camera_right_55.png
2025-05-02 13:31:37,2.4616570472717285,56,-0.06551878,-0.00060241355,0.11403263,4.3579465e-08,-0.00022508555,0.01263553,0.7999763,0.035163507,7.443435e-05,0.0028100968,0.8382766363351483,0.00045989044140896457,0.5452449628152576,-1.0593464712076043e-05,0.9999996578390992,-0.0008271695491834851,-0.545245156661119,0.0006876208740953724,0.8382763543814924,-0.0009013285,1.2669378e-05,0.1070866,0.0007391888,0.00013675235,-0.014071338,0.80597985,-0.04523725,-3.9498327e-06,0.004732295,0.8733166388234757,0.0007147812656759803,-0.4871524786366266,-0.0007410409986759555,0.9999997157961124,0.00013880177419506767,0.4871524393989062,0.00023978206037358137,0.8733169203057148,left_images/camera_left_56.png,right_images/camera_right_56.png
2025-05-02 13:31:37,2.501863718032837,57,-0.06551878,-0.00060241704,0.11403263,4.875961e-08,-0.00022512181,0.012635502,0.7999763,0.035163507,7.443435e-05,0.0028100968,0.8382766363351483,0.00045989044140896457,0.5452449628152576,-1.0593464712076043e-05,0.9999996578390992,-0.0008271695491834851,-0.545245156661119,0.0006876208740953724,0.8382763543814924,-0.0009013285,1.2668941e-05,0.1070866,0.0007391993,0.00013675506,-0.014071338,0.80597985,-0.04523725,-3.9498327e-06,0.004732295,0.8733166388234757,0.0007147812656759803,-0.4871524786366266,-0.0007410409986759555,0.9999997157961124,0.00013880177419506767,0.4871524393989062,0.00023978206037358137,0.8733169203057148,left_images/camera_left_57.png,right_images/camera_right_57.png
2025-05-02 13:31:37,2.543470859527588,58,-0.06551878,-0.00060242054,0.11403263,3.9462158e-08,-0.00022508934,0.012635502,0.7999763,0.035163507,7.443435e-05,0.0028100968,0.8382766363351483,0.00045989044140896457,0.5452449628152576,-1.0593464712076043e-05,0.9999996578390992,-0.0008271695491834851,-0.545245156661119,0.0006876208740953724,0.8382763543814924,-0.0009013285,1.26685045e-05,0.1070866,0.00073920976,0.00013675776,-0.014071338,0.80597985,-0.04523725,-3.9498327e-06,0.004732295,0.8733166388234757,0.0007147812656759803,-0.4871524786366266,-0.0007410409986759555,0.9999997157961124,0.00013880177419506767,0.4871524393989062,0.00023978206037358137,0.8733169203057148,left_images/camera_left_58.png,right_images/camera_right_58.png
2025-05-02 13:31:37,2.5840373039245605,59,-0.06551878,-0.000602424,0.11403263,4.4642306e-08,-0.00022512561,0.012635474,0.7999763,0.035163507,7.443338e-05,0.0028100992,0.8382764931937327,0.00045999007719206184,0.5452451828012301,-1.0714640644086113e-05,0.99999965784103,-0.0008271656543580888,-0.5452453767286931,0.0006875514178289636,0.8382762112985395,-0.0009013285,1.2668068e-05,0.1070866,0.00073922024,0.00013676047,-0.014071338,0.80597985,-0.04523725,-3.9498327e-06,0.004732295,0.8733166388234757,0.0007147812656759803,-0.4871524786366266,-0.0007410409986759555,0.9999997157961124,0.00013880177419506767,0.4871524393989062,0.00023978206037358137,0.8733169203057148,left_images/camera_left_59.png,right_images/camera_right_59.png
2025-05-02 13:31:37,2.6270413398742676,60,-0.06551878,-0.0006024275,0.11403263,6.325224e-08,-0.00022509531,0.012635474,0.7999763,0.035163507,7.443338e-05,0.0028100992,0.8382764931937327,0.00045999007719206184,0.5452451828012301,-1.0714640644086113e-05,0.99999965784103,-0.0008271656543580888,-0.5452453767286931,0.0006875514178289636,0.8382762112985395,-0.0009013285,1.2667631e-05,0.1070866,0.0007392307,0.00013676318,-0.014071338,0.80597985,-0.04523725,-3.9498327e-06,0.004732295,0.8733166388234757,0.0007147812656759803,-0.4871524786366266,-0.0007410409986759555,0.9999997157961124,0.00013880177419506767,0.4871524393989062,0.00023978206037358137,0.8733169203057148,left_images/camera_left_60.png,right_images/camera_right_60.png
2025-05-02 13:31:37,2.6706702709198,61,-0.06551878,-0.000602431,0.11403263,8.186326e-08,-0.00022506501,0.012635474,0.7999763,0.035163507,7.442677e-05,0.0028100936,0.8382765613272259,0.0004597916383068466,0.5452450782180894,-1.0676203491011196e-05,0.9999996580934254,-0.0008268609620906258,-0.545245271978969,0.0006873170165895231,0.8382762796237876,-0.0009013285,1.2667195e-05,0.1070866,0.0007392412,0.00013676588,-0.014071338,0.80597985,-0.04523725,-3.9498327e-06,0.004732295,0.8733166388234757,0.0007147812656759803,-0.4871524786366266,-0.0007410409986759555,0.9999997157961124,0.00013880177419506767,0.4871524393989062,0.00023978206037358137,0.8733169203057148,left_images/camera_left_61.png,right_images/camera_right_61.png
2025-05-02 13:31:37,2.7141411304473877,62,-0.06551878,-0.0006024232,0.11403263,7.1146e-08,-0.0002250625,0.012635502,0.7999763,0.035163507,7.4426935e-05,0.002810096,0.8382767298111535,0.0004596857511329276,0.5452448192749094,-1.0582717123228531e-05,0.9999996581358296,-0.0008268108793399924,-0.5452450129484218,0.0006873261484201209,0.838276448099099,-0.0009013285,1.2666758e-05,0.1070866,0.00073925167,0.00013676859,-0.014071338,0.80597985,-0.04523725,-3.9498327e-06,0.004732295,0.8733166388234757,0.0007147812656759803,-0.4871524786366266,-0.0007410409986759555,0.9999997157961124,0.00013880177419506767,0.4871524393989062,0.00023978206037358137,0.8733169203057148,left_images/camera_left_62.png,right_images/camera_right_62.png
2025-05-02 13:31:37,2.7537484169006348,63,-0.06551878,-0.00060241116,0.11403263,8.773396e-08,-0.00022508127,0.012635551,0.7999763,0.035163507,7.443435e-05,0.0028100968,0.8382766363351483,0.00045989044140896457,0.5452449628152576,-1.0593464712076043e-05,0.9999996578390992,-0.0008271695491834851,-0.545245156661119,0.0006876208740953724,0.8382763543814924,-0.0009013285,1.2666322e-05,0.1070866,0.00073926215,0.0001367713,-0.014071338,0.80597985,-0.04523725,-3.9498327e-06,0.004732295,0.8733166388234757,0.0007147812656759803,-0.4871524786366266,-0.0007410409986759555,0.9999997157961124,0.00013880177419506767,0.4871524393989062,0.00023978206037358137,0.8733169203057148,left_images/camera_left_63.png,right_images/camera_right_63.png
2025-05-02 13:31:37,2.7979443073272705,64,-0.06551878,-0.00060241396,0.11403263,9.291577e-08,-0.00022511753,0.012635523,0.7999763,0.035163507,7.443435e-05,0.0028100968,0.8382766363351483,0.00045989044140896457,0.5452449628152576,-1.0593464712076043e-05,0.9999996578390992,-0.0008271695491834851,-0.545245156661119,0.0006876208740953724,0.8382763543814924,-0.0009013285,1.2665885e-05,0.1070866,0.0007392726,0.000136774,-0.014071338,0.80597985,-0.04523725,-3.9498327e-06,0.004732295,0.8733166388234757,0.0007147812656759803,-0.4871524786366266,-0.0007410409986759555,0.9999997157961124,0.00013880177419506767,0.4871524393989062,0.00023978206037358137,0.8733169203057148,left_images/camera_left_64.png,right_images/camera_right_64.png
2025-05-02 13:31:37,2.839233160018921,65,-0.06551878,-0.00060241745,0.11403263,8.361831e-08,-0.00022508507,0.012635523,0.7999763,0.035163507,7.443435e-05,0.0028100968,0.8382766363351483,0.00045989044140896457,0.5452449628152576,-1.0593464712076043e-05,0.9999996578390992,-0.0008271695491834851,-0.545245156661119,0.0006876208740953724,0.8382763543814924,-0.0009013285,1.2691086e-05,0.1070866,0.0007392499,0.00013674705,-0.014071338,0.80597985,-0.04523725,-3.9498327e-06,0.004732295,0.8733166388234757,0.0007147812656759803,-0.4871524786366266,-0.0007410409986759555,0.9999997157961124,0.00013880177419506767,0.4871524393989062,0.00023978206037358137,0.8733169203057148,left_images/camera_left_65.png,right_images/camera_right_65.png
2025-05-02 13:31:37,2.8794445991516113,66,-0.06551878,-0.00060242094,0.11403263,8.879844e-08,-0.00022512133,0.0126354955,0.7999763,0.035163507,7.443435e-05,0.0028100968,0.8382766363351483,0.00045989044140896457,0.5452449628152576,-1.0593464712076043e-05,0.9999996578390992,-0.0008271695491834851,-0.545245156661119,0.0006876208740953724,0.8382763543814924,-0.0009013285,1.2694818e-05,0.1070866,0.0007392604,0.00013674979,-0.014071338,0.80597985,-0.04523725,-3.9498327e-06,0.004732295,0.8733166388234757,0.0007147812656759803,-0.4871524786366266,-0.0007410409986759555,0.9999997157961124,0.00013880177419506767,0.4871524393989062,0.00023978206037358137,0.8733169203057148,left_images/camera_left_66.png,right_images/camera_right_66.png
2025-05-02 13:31:37,2.9213082790374756,67,-0.06551878,-0.00060242444,0.11403263,7.9500985e-08,-0.00022508886,0.0126354955,0.7999763,0.035163507,7.443435e-05,0.0028100968,0.8382766363351483,0.00045989044140896457,0.5452449628152576,-1.0593464712076043e-05,0.9999996578390992,-0.0008271695491834851,-0.545245156661119,0.0006876208740953724,0.8382763543814924,-0.0009013285,1.2694381e-05,0.1070866,0.0007392709,0.0001367525,-0.014071338,0.80597985,-0.04523725,-3.9498327e-06,0.004732295,0.8733166388234757,0.0007147812656759803,-0.4871524786366266,-0.0007410409986759555,0.9999997157961124,0.00013880177419506767,0.4871524393989062,0.00023978206037358137,0.8733169203057148,left_images/camera_left_67.png,right_images/camera_right_67.png
2025-05-02 13:31:37,2.9656708240509033,68,-0.06551878,-0.0006024279,0.11403263,8.468112e-08,-0.00022512513,0.012635468,0.7999763,0.035163507,7.443338e-05,0.0028100992,0.8382764931937327,0.00045999007719206184,0.5452451828012301,-1.0714640644086113e-05,0.99999965784103,-0.0008271656543580888,-0.5452453767286931,0.0006875514178289636,0.8382762112985395,-0.0009013285,1.2693945e-05,0.1070866,0.00073928136,0.0001367552,-0.014071338,0.80597985,-0.04523725,-3.9297247e-06,0.0047322977,0.8733166801976441,0.0007150603920777648,-0.48715240405565247,-0.0007413501212977208,0.9999997155643866,0.00013882054431071152,0.4871523647572325,0.0002399161969364737,0.8733169619053869,left_images/camera_left_68.png,right_images/camera_right_68.png
2025-05-02 13:31:37,3.0105230808258057,69,-0.06551878,-0.0006024314,0.11403263,1.03291065e-07,-0.00022509483,0.012635468,0.7999763,0.035163507,7.443338e-05,0.0028100992,0.8382764931937327,0.00045999007719206184,0.5452451828012301,-1.0714640644086113e-05,0.99999965784103,-0.0008271656543580888,-0.5452453767286931,0.0006875514178289636,0.8382762112985395,-0.00090132194,1.2693508e-05,0.1070866,0.00073928834,0.00013675797,-0.014071338,0.80597985,-0.04523725,-3.9297247e-06,0.0047322977,0.8733166801976441,0.0007150603920777648,-0.48715240405565247,-0.0007413501212977208,0.9999997155643866,0.00013882054431071152,0.4871523647572325,0.0002399161969364737,0.8733169619053869,left_images/camera_left_69.png,right_images/camera_right_69.png
2025-05-02 13:31:37,3.052635669708252,70,-0.06551878,-0.0006024349,0.11403263,1.2190213e-07,-0.00022506453,0.012635468,0.7999763,0.035163507,7.442677e-05,0.0028100936,0.8382765613272259,0.0004597916383068466,0.5452450782180894,-1.0676203491011196e-05,0.9999996580934254,-0.0008268609620906258,-0.545245271978969,0.0006873170165895231,0.8382762796237876,-0.00090131495,1.2693072e-05,0.1070866,0.0007392953,0.00013676073,-0.014071338,0.80597985,-0.04523725,-3.9297247e-06,0.0047322977,0.8733166801976441,0.0007150603920777648,-0.48715240405565247,-0.0007413501212977208,0.9999997155643866,0.00013882054431071152,0.4871523647572325,0.0002399161969364737,0.8733169619053869,left_images/camera_left_70.png,right_images/camera_right_70.png
2025-05-02 13:31:37,3.0952296257019043,71,-0.06551878,-0.0006024271,0.11403263,1.1118486e-07,-0.00022506202,0.0126354955,0.7999763,0.035163507,7.4426935e-05,0.002810096,0.8382767298111535,0.0004596857511329276,0.5452448192749094,-1.0582717123228531e-05,0.9999996581358296,-0.0008268108793399924,-0.5452450129484218,0.0006873261484201209,0.838276448099099,-0.00090130797,1.2692635e-05,0.1070866,0.0007393023,0.0001367635,-0.014071338,0.80597985,-0.04523725,-3.9297247e-06,0.0047322977,0.8733166801976441,0.0007150603920777648,-0.48715240405565247,-0.0007413501212977208,0.9999997155643866,0.00013882054431071152,0.4871523647572325,0.0002399161969364737,0.8733169619053869,left_images/camera_left_71.png,right_images/camera_right_71.png
2025-05-02 13:31:37,3.137467861175537,72,-0.06551878,-0.00060241506,0.11403263,1.2777286e-07,-0.00022508079,0.012635545,0.7999763,0.035163507,7.443435e-05,0.0028100968,0.8382766363351483,0.00045989044140896457,0.5452449628152576,-1.0593464712076043e-05,0.9999996578390992,-0.0008271695491834851,-0.545245156661119,0.0006876208740953724,0.8382763543814924,-0.000901301,1.2692199e-05,0.1070866,0.0007393093,0.00013676626,-0.014071338,0.80597985,-0.04523725,-3.9297247e-06,0.0047322977,0.8733166801976441,0.0007150603920777648,-0.48715240405565247,-0.0007413501212977208,0.9999997155643866,0.00013882054431071152,0.4871523647572325,0.0002399161969364737,0.8733169619053869,left_images/camera_left_72.png,right_images/camera_right_72.png
2025-05-02 13:31:38,3.1789984703063965,73,-0.06551878,-0.00060241786,0.11403263,1.3295472e-07,-0.00022511705,0.012635517,0.7999763,0.035163507,7.443435e-05,0.0028100968,0.8382766363351483,0.00045989044140896457,0.5452449628152576,-1.0593464712076043e-05,0.9999996578390992,-0.0008271695491834851,-0.545245156661119,0.0006876208740953724,0.8382763543814924,-0.000901294,1.2691762e-05,0.1070866,0.0007393163,0.00013676903,-0.014071338,0.80597985,-0.04523725,-3.9297247e-06,0.0047322977,0.8733166801976441,0.0007150603920777648,-0.48715240405565247,-0.0007413501212977208,0.9999997155643866,0.00013882054431071152,0.4871523647572325,0.0002399161969364737,0.8733169619053869,left_images/camera_left_73.png,right_images/camera_right_73.png
2025-05-02 13:31:38,3.2197346687316895,74,-0.06551878,-0.00060242135,0.11403263,1.2365727e-07,-0.00022508459,0.012635517,0.7999763,0.035163507,7.443435e-05,0.0028100968,0.8382766363351483,0.00045989044140896457,0.5452449628152576,-1.0593464712076043e-05,0.9999996578390992,-0.0008271695491834851,-0.545245156661119,0.0006876208740953724,0.8382763543814924,-0.000901287,1.26913255e-05,0.1070866,0.00073932327,0.00013677179,-0.014071338,0.80597985,-0.04523725,-3.9297247e-06,0.0047322977,0.8733166801976441,0.0007150603920777648,-0.48715240405565247,-0.0007413501212977208,0.9999997155643866,0.00013882054431071152,0.4871523647572325,0.0002399161969364737,0.8733169619053869,left_images/camera_left_74.png,right_images/camera_right_74.png
2025-05-02 13:31:38,3.259140968322754,75,-0.06551878,-0.00060242484,0.11403263,1.2883744e-07,-0.00022512085,0.012635489,0.7999763,0.035163507,7.443338e-05,0.0028100992,0.8382764931937327,0.00045999007719206184,0.5452451828012301,-1.0714640644086113e-05,0.99999965784103,-0.0008271656543580888,-0.5452453767286931,0.0006875514178289636,0.8382762112985395,-0.00090128003,1.2690889e-05,0.1070866,0.00073933025,0.00013677456,-0.014071338,0.80597985,-0.04523725,-3.9297247e-06,0.0047322977,0.8733166801976441,0.0007150603920777648,-0.48715240405565247,-0.0007413501212977208,0.9999997155643866,0.00013882054431071152,0.4871523647572325,0.0002399161969364737,0.8733169619053869,left_images/camera_left_75.png,right_images/camera_right_75.png
2025-05-02 13:31:38,3.3028109073638916,76,-0.06551878,-0.00060242834,0.11403263,1.4744741e-07,-0.00022509055,0.012635489,0.7999763,0.035163507,7.443338e-05,0.0028100992,0.8382764931937327,0.00045999007719206184,0.5452451828012301,-1.0714640644086113e-05,0.99999965784103,-0.0008271656543580888,-0.5452453767286931,0.0006875514178289636,0.8382762112985395,-0.00090127304,1.2690452e-05,0.1070866,0.00073933724,0.00013677732,-0.014071338,0.80597985,-0.04523725,-3.9297247e-06,0.0047322977,0.8733166801976441,0.0007150603920777648,-0.48715240405565247,-0.0007413501212977208,0.9999997155643866,0.00013882054431071152,0.4871523647572325,0.0002399161969364737,0.8733169619053869,left_images/camera_left_76.png,right_images/camera_right_76.png
2025-05-02 13:31:38,3.3442695140838623,77,-0.06551878,-0.00060243334,0.11403263,1.4700005e-07,-0.00022510806,0.012635489,0.7999763,0.035163507,7.443338e-05,0.0028100992,0.8382764931937327,0.00045999007719206184,0.5452451828012301,-1.0714640644086113e-05,0.99999965784103,-0.0008271656543580888,-0.5452453767286931,0.0006875514178289636,0.8382762112985395,-0.00090126606,1.2690016e-05,0.1070866,0.0007393442,0.00013678009,-0.014071338,0.80597985,-0.04523725,-3.9297247e-06,0.0047322977,0.8733166801976441,0.0007150603920777648,-0.48715240405565247,-0.0007413501212977208,0.9999997155643866,0.00013882054431071152,0.4871523647572325,0.0002399161969364737,0.8733169619053869,left_images/camera_left_77.png,right_images/camera_right_77.png
2025-05-02 13:31:38,3.3871960639953613,78,-0.06551878,-0.0006024371,0.11403263,1.6560651e-07,-0.00022507776,0.012635489,0.7999763,0.035163507,7.442677e-05,0.0028100936,0.8382765613272259,0.0004597916383068466,0.5452450782180894,-1.0676203491011196e-05,0.9999996580934254,-0.0008268609620906258,-0.545245271978969,0.0006873170165895231,0.8382762796237876,-0.0009012591,1.2689579e-05,0.1070866,0.0007393512,0.00013678285,-0.014071338,0.80597985,-0.04523725,-3.9297247e-06,0.0047322977,0.8733166801976441,0.0007150603920777648,-0.48715240405565247,-0.0007413501212977208,0.9999997155643866,0.00013882054431071152,0.4871523647572325,0.0002399161969364737,0.8733169619053869,left_images/camera_left_78.png,right_images/camera_right_78.png
2025-05-02 13:31:38,3.435014486312866,79,-0.06551878,-0.0006024293,0.11403263,1.5488921e-07,-0.00022507524,0.012635517,0.7999763,0.035163507,7.4426935e-05,0.002810096,0.8382767298111535,0.0004596857511329276,0.5452448192749094,-1.0582717123228531e-05,0.9999996581358296,-0.0008268108793399924,-0.5452450129484218,0.0006873261484201209,0.838276448099099,-0.0009012521,1.2689143e-05,0.1070866,0.0007393582,0.00013678562,-0.014071338,0.80597985,-0.04523725,-3.9297247e-06,0.0047322977,0.8733166801976441,0.0007150603920777648,-0.48715240405565247,-0.0007413501212977208,0.9999997155643866,0.00013882054431071152,0.4871523647572325,0.0002399161969364737,0.8733169619053869,left_images/camera_left_79.png,right_images/camera_right_79.png
2025-05-02 13:31:38,3.4845268726348877,80,-0.06551878,-0.0006024173,0.11403263,1.7147717e-07,-0.00022509402,0.012635566,0.7999763,0.035163507,7.443435e-05,0.0028100968,0.8382766363351483,0.00045989044140896457,0.5452449628152576,-1.0593464712076043e-05,0.9999996578390992,-0.0008271695491834851,-0.545245156661119,0.0006876208740953724,0.8382763543814924,-0.0009012451,1.2688706e-05,0.1070866,0.0007393652,0.00013678838,-0.014071338,0.80597985,-0.04523725,-3.9297247e-06,0.0047322977,0.8733166801976441,0.0007150603920777648,-0.48715240405565247,-0.0007413501212977208,0.9999997155643866,0.00013882054431071152,0.4871523647572325,0.0002399161969364737,0.8733169619053869,left_images/camera_left_80.png,right_images/camera_right_80.png
2025-05-02 13:31:38,3.527559518814087,81,-0.06551878,-0.00060242007,0.11403263,1.7665903e-07,-0.00022513028,0.012635538,0.7999763,0.035163507,7.443435e-05,0.0028100968,0.8382766363351483,0.00045989044140896457,0.5452449628152576,-1.0593464712076043e-05,0.9999996578390992,-0.0008271695491834851,-0.545245156661119,0.0006876208740953724,0.8382763543814924,-0.0009012381,1.268827e-05,0.1070866,0.00073937216,0.00013679115,-0.014071338,0.80597985,-0.04523725,-3.9297247e-06,0.0047322977,0.8733166801976441,0.0007150603920777648,-0.48715240405565247,-0.0007413501212977208,0.9999997155643866,0.00013882054431071152,0.4871523647572325,0.0002399161969364737,0.8733169619053869,left_images/camera_left_81.png,right_images/camera_right_81.png
2025-05-02 13:31:38,3.5693750381469727,82,-0.06551878,-0.00060242356,0.11403263,1.6736158e-07,-0.00022509781,0.012635538,0.7999763,0.035163507,7.443435e-05,0.0028100968,0.8382766363351483,0.00045989044140896457,0.5452449628152576,-1.0593464712076043e-05,0.9999996578390992,-0.0008271695491834851,-0.545245156661119,0.0006876208740953724,0.8382763543814924,-0.00090123113,1.2687833e-05,0.1070866,0.00073937915,0.00013679391,-0.014071338,0.80597985,-0.04523725,-3.9297247e-06,0.0047322977,0.8733166801976441,0.0007150603920777648,-0.48715240405565247,-0.0007413501212977208,0.9999997155643866,0.00013882054431071152,0.4871523647572325,0.0002399161969364737,0.8733169619053869,left_images/camera_left_82.png,right_images/camera_right_82.png
2025-05-02 13:31:38,3.6091864109039307,83,-0.06551878,-0.00060242706,0.11403263,1.5806256e-07,-0.00022506533,0.012635538,0.7999763,0.035163507,7.4426935e-05,0.002810096,0.8382767298111535,0.0004596857511329276,0.5452448192749094,-1.0582717123228531e-05,0.9999996581358296,-0.0008268108793399924,-0.5452450129484218,0.0006873261484201209,0.838276448099099,-0.00090122415,1.26873965e-05,0.1070866,0.00073938613,0.00013679668,-0.014071338,0.80597985,-0.04523725,-3.9297247e-06,0.0047322977,0.8733166801976441,0.0007150603920777648,-0.48715240405565247,-0.0007413501212977208,0.9999997155643866,0.00013882054431071152,0.4871523647572325,0.0002399161969364737,0.8733169619053869,left_images/camera_left_83.png,right_images/camera_right_83.png
2025-05-02 13:31:38,3.653228282928467,84,-0.06551878,-0.0006024162,0.11403263,1.7464852e-07,-0.00022508412,0.012635588,0.7999763,0.035163507,7.443435e-05,0.0028100968,0.8382766363351483,0.00045989044140896457,0.5452449628152576,-1.0593464712076043e-05,0.9999996578390992,-0.0008271695491834851,-0.545245156661119,0.0006876208740953724,0.8382763543814924,-0.00090121716,1.268696e-05,0.1070866,0.0007393931,0.00013679944,-0.014071338,0.80597985,-0.04523725,-3.9297247e-06,0.0047322977,0.8733166801976441,0.0007150603920777648,-0.48715240405565247,-0.0007413501212977208,0.9999997155643866,0.00013882054431071152,0.4871523647572325,0.0002399161969364737,0.8733169619053869,left_images/camera_left_84.png,right_images/camera_right_84.png
2025-05-02 13:31:38,3.695607900619507,85,-0.06551878,-0.000602419,0.11403263,1.7983038e-07,-0.00022512038,0.01263556,0.7999763,0.035163507,7.443435e-05,0.0028100968,0.8382766363351483,0.00045989044140896457,0.5452449628152576,-1.0593464712076043e-05,0.9999996578390992,-0.0008271695491834851,-0.545245156661119,0.0006876208740953724,0.8382763543814924,-0.0009012102,1.2686523e-05,0.1070866,0.0007394001,0.0001368022,-0.014071338,0.80597985,-0.04523725,-3.9297247e-06,0.0047322977,0.8733166801976441,0.0007150603920777648,-0.48715240405565247,-0.0007413501212977208,0.9999997155643866,0.00013882054431071152,0.4871523647572325,0.0002399161969364737,0.8733169619053869,left_images/camera_left_85.png,right_images/camera_right_85.png
2025-05-02 13:31:38,3.736875534057617,86,-0.06551878,-0.0006024225,0.11403263,1.7053293e-07,-0.00022508792,0.01263556,0.7999763,0.035163507,7.443435e-05,0.0028100968,0.8382766363351483,0.00045989044140896457,0.5452449628152576,-1.0593464712076043e-05,0.9999996578390992,-0.0008271695491834851,-0.545245156661119,0.0006876208740953724,0.8382763543814924,-0.0009012032,1.2686087e-05,0.1070866,0.0007394071,0.00013680497,-0.014071338,0.80597985,-0.04523725,-3.9297247e-06,0.0047322977,0.8733166801976441,0.0007150603920777648,-0.48715240405565247,-0.0007413501212977208,0.9999997155643866,0.00013882054431071152,0.4871523647572325,0.0002399161969364737,0.8733169619053869,left_images/camera_left_86.png,right_images/camera_right_86.png
2025-05-02 13:31:38,3.7775754928588867,87,-0.06551878,-0.000602426,0.11403263,1.7571308e-07,-0.00022512418,0.012635532,0.7999763,0.035163507,7.443435e-05,0.0028100968,0.8382766363351483,0.00045989044140896457,0.5452449628152576,-1.0593464712076043e-05,0.9999996578390992,-0.0008271695491834851,-0.545245156661119,0.0006876208740953724,0.8382763543814924,-0.0009011962,1.268565e-05,0.1070866,0.00073941407,0.00013680774,-0.014071338,0.80597985,-0.04523725,-3.9297247e-06,0.0047322977,0.8733166801976441,0.0007150603920777648,-0.48715240405565247,-0.0007413501212977208,0.9999997155643866,0.00013882054431071152,0.4871523647572325,0.0002399161969364737,0.8733169619053869,left_images/camera_left_87.png,right_images/camera_right_87.png
2025-05-02 13:31:38,3.82150936126709,88,-0.06551878,-0.0006024295,0.11403263,1.6641563e-07,-0.00022509172,0.012635532,0.7999763,0.035163507,7.443435e-05,0.0028100968,0.8382766363351483,0.00045989044140896457,0.5452449628152576,-1.0593464712076043e-05,0.9999996578390992,-0.0008271695491834851,-0.545245156661119,0.0006876208740953724,0.8382763543814924,-0.0009011892,1.2685214e-05,0.1070866,0.00073942106,0.0001368105,-0.014071338,0.80597985,-0.04523725,-3.9297247e-06,0.0047322977,0.8733166801976441,0.0007150603920777648,-0.48715240405565247,-0.0007413501212977208,0.9999997155643866,0.00013882054431071152,0.4871523647572325,0.0002399161969364737,0.8733169619053869,left_images/camera_left_88.png,right_images/camera_right_88.png
2025-05-02 13:31:38,3.8632290363311768,89,-0.06551878,-0.000602433,0.11403263,1.7159579e-07,-0.00022512798,0.012635504,0.7999763,0.035163507,7.443435e-05,0.0028100968,0.8382766363351483,0.00045989044140896457,0.5452449628152576,-1.0593464712076043e-05,0.9999996578390992,-0.0008271695491834851,-0.545245156661119,0.0006876208740953724,0.8382763543814924,-0.00090118224,1.2684777e-05,0.1070866,0.00073942804,0.00013681327,-0.014071338,0.80597985,-0.04523725,-3.9297247e-06,0.0047322977,0.8733166801976441,0.0007150603920777648,-0.48715240405565247,-0.0007413501212977208,0.9999997155643866,0.00013882054431071152,0.4871523647572325,0.0002399161969364737,0.8733169619053869,left_images/camera_left_89.png,right_images/camera_right_89.png
2025-05-02 13:31:38,3.9047296047210693,90,-0.06551878,-0.0006024365,0.11403263,1.6229833e-07,-0.00022509551,0.012635504,0.7999763,0.035163507,7.443435e-05,0.0028100968,0.8382766363351483,0.00045989044140896457,0.5452449628152576,-1.0593464712076043e-05,0.9999996578390992,-0.0008271695491834851,-0.545245156661119,0.0006876208740953724,0.8382763543814924,-0.00090117526,1.2684341e-05,0.1070866,0.000739435,0.00013681603,-0.014071338,0.80597985,-0.04523725,-3.9297247e-06,0.0047322977,0.8733166801976441,0.0007150603920777648,-0.48715240405565247,-0.0007413501212977208,0.9999997155643866,0.00013882054431071152,0.4871523647572325,0.0002399161969364737,0.8733169619053869,left_images/camera_left_90.png,right_images/camera_right_90.png
2025-05-02 13:31:38,3.946976900100708,91,-0.06551878,-0.00060244,0.11403263,1.5299932e-07,-0.00022506304,0.012635504,0.7999763,0.035163507,7.4426935e-05,0.002810096,0.8382767298111535,0.0004596857511329276,0.5452448192749094,-1.0582717123228531e-05,0.9999996581358296,-0.0008268108793399924,-0.5452450129484218,0.0006873261484201209,0.838276448099099,-0.00090116827,1.2683904e-05,0.1070866,0.000739442,0.0001368188,-0.014071338,0.80597985,-0.04523725,-3.9297247e-06,0.0047322977,0.8733166801976441,0.0007150603920777648,-0.48715240405565247,-0.0007413501212977208,0.9999997155643866,0.00013882054431071152,0.4871523647572325,0.0002399161969364737,0.8733169619053869,left_images/camera_left_91.png,right_images/camera_right_91.png
2025-05-02 13:31:38,3.991316556930542,92,-0.06551878,-0.00060242915,0.11403263,1.6958526e-07,-0.00022508182,0.012635553,0.7999763,0.035163507,7.443435e-05,0.0028100968,0.8382766363351483,0.00045989044140896457,0.5452449628152576,-1.0593464712076043e-05,0.9999996578390992,-0.0008271695491834851,-0.545245156661119,0.0006876208740953724,0.8382763543814924,-0.0009011613,1.26834675e-05,0.1070866,0.000739449,0.00013682156,-0.014071338,0.80597985,-0.04523725,-3.9297247e-06,0.0047322977,0.8733166801976441,0.0007150603920777648,-0.48715240405565247,-0.0007413501212977208,0.9999997155643866,0.00013882054431071152,0.4871523647572325,0.0002399161969364737,0.8733169619053869,left_images/camera_left_92.png,right_images/camera_right_92.png
2025-05-02 13:31:38,4.031442642211914,93,-0.06551878,-0.00060243194,0.11403263,1.7476712e-07,-0.00022511808,0.012635525,0.7999763,0.035163507,7.443435e-05,0.0028100968,0.8382766363351483,0.00045989044140896457,0.5452449628152576,-1.0593464712076043e-05,0.9999996578390992,-0.0008271695491834851,-0.545245156661119,0.0006876208740953724,0.8382763543814924,-0.0009011543,1.2683031e-05,0.1070866,0.000739456,0.00013682432,-0.014071338,0.80597985,-0.04523725,-3.9297247e-06,0.0047322977,0.8733166801976441,0.0007150603920777648,-0.48715240405565247,-0.0007413501212977208,0.9999997155643866,0.00013882054431071152,0.4871523647572325,0.0002399161969364737,0.8733169619053869,left_images/camera_left_93.png,right_images/camera_right_93.png
2025-05-02 13:31:38,4.073055982589722,94,-0.06551878,-0.00060243544,0.11403263,1.6546967e-07,-0.00022508562,0.012635525,0.7999763,0.035163507,7.443435e-05,0.0028100968,0.8382766363351483,0.00045989044140896457,0.5452449628152576,-1.0593464712076043e-05,0.9999996578390992,-0.0008271695491834851,-0.545245156661119,0.0006876208740953724,0.8382763543814924,-0.0009011473,1.2682594e-05,0.1070866,0.00073946296,0.00013682709,-0.014071338,0.80597985,-0.04523725,-3.9297247e-06,0.0047322977,0.8733166801976441,0.0007150603920777648,-0.48715240405565247,-0.0007413501212977208,0.9999997155643866,0.00013882054431071152,0.4871523647572325,0.0002399161969364737,0.8733169619053869,left_images/camera_left_94.png,right_images/camera_right_94.png
2025-05-02 13:31:38,4.113620042800903,95,-0.06551878,-0.00060243893,0.11403263,1.7064983e-07,-0.00022512188,0.012635497,0.7999763,0.035163507,7.443435e-05,0.0028100968,0.8382766363351483,0.00045989044140896457,0.5452449628152576,-1.0593464712076043e-05,0.9999996578390992,-0.0008271695491834851,-0.545245156661119,0.0006876208740953724,0.8382763543814924,-0.00090114033,1.2682158e-05,0.1070866,0.00073946995,0.00013682985,-0.014071338,0.80597985,-0.04523725,-3.9297247e-06,0.0047322977,0.8733166801976441,0.0007150603920777648,-0.48715240405565247,-0.0007413501212977208,0.9999997155643866,0.00013882054431071152,0.4871523647572325,0.0002399161969364737,0.8733169619053869,left_images/camera_left_95.png,right_images/camera_right_95.png
2025-05-02 13:31:38,4.162384748458862,96,-0.06551878,-0.0006024424,0.11403263,1.6135238e-07,-0.00022508942,0.012635497,0.7999763,0.035163507,7.443435e-05,0.0028100968,0.8382766363351483,0.00045989044140896457,0.5452449628152576,-1.0593464712076043e-05,0.9999996578390992,-0.0008271695491834851,-0.545245156661119,0.0006876208740953724,0.8382763543814924,-0.00090113335,1.2681721e-05,0.1070866,0.00073947693,0.00013683262,-0.014071338,0.80597985,-0.04523725,-3.9297247e-06,0.0047322977,0.8733166801976441,0.0007150603920777648,-0.48715240405565247,-0.0007413501212977208,0.9999997155643866,0.00013882054431071152,0.4871523647572325,0.0002399161969364737,0.8733169619053869,left_images/camera_left_96.png,right_images/camera_right_96.png
2025-05-02 13:31:39,4.205773830413818,97,-0.06551878,-0.0006024459,0.11403263,1.6653253e-07,-0.00022512568,0.012635469,0.7999763,0.035163507,7.443338e-05,0.0028100992,0.8382764931937327,0.00045999007719206184,0.5452451828012301,-1.0714640644086113e-05,0.99999965784103,-0.0008271656543580888,-0.5452453767286931,0.0006875514178289636,0.8382762112985395,-0.00090112636,1.2681285e-05,0.1070866,0.0007394839,0.00013683538,-0.014071338,0.80597985,-0.04523725,-3.9297247e-06,0.0047322977,0.8733166801976441,0.0007150603920777648,-0.48715240405565247,-0.0007413501212977208,0.9999997155643866,0.00013882054431071152,0.4871523647572325,0.0002399161969364737,0.8733169619053869,left_images/camera_left_97.png,right_images/camera_right_97.png
2025-05-02 13:31:39,4.246842622756958,98,-0.06551878,-0.0006024494,0.11403263,1.851425e-07,-0.00022509538,0.012635469,0.7999763,0.035163507,7.443338e-05,0.0028100992,0.8382764931937327,0.00045999007719206184,0.5452451828012301,-1.0714640644086113e-05,0.99999965784103,-0.0008271656543580888,-0.5452453767286931,0.0006875514178289636,0.8382762112985395,-0.0009011194,1.2680848e-05,0.1070866,0.0007394909,0.00013683815,-0.014071338,0.80597985,-0.04523725,-3.9297247e-06,0.0047322977,0.8733166801976441,0.0007150603920777648,-0.48715240405565247,-0.0007413501212977208,0.9999997155643866,0.00013882054431071152,0.4871523647572325,0.0002399161969364737,0.8733169619053869,left_images/camera_left_98.png,right_images/camera_right_98.png
2025-05-02 13:31:39,4.2872865200042725,99,-0.06551878,-0.0006024529,0.11403263,2.0375352e-07,-0.00022506509,0.012635469,0.7999763,0.035163507,7.442677e-05,0.0028100936,0.8382765613272259,0.0004597916383068466,0.5452450782180894,-1.0676203491011196e-05,0.9999996580934254,-0.0008268609620906258,-0.545245271978969,0.0006873170165895231,0.8382762796237876,-0.0009011124,1.2680412e-05,0.1070866,0.0007394979,0.00013684091,-0.014071338,0.80597985,-0.04523725,-3.9297247e-06,0.0047322977,0.8733166801976441,0.0007150603920777648,-0.48715240405565247,-0.0007413501212977208,0.9999997155643866,0.00013882054431071152,0.4871523647572325,0.0002399161969364737,0.8733169619053869,left_images/camera_left_99.png,right_images/camera_right_99.png
2025-05-02 13:31:39,4.333014249801636,100,-0.06551878,-0.0006024451,0.11403263,1.9303623e-07,-0.00022506257,0.012635497,0.7999763,0.035163507,7.4426935e-05,0.002810096,0.8382767298111535,0.0004596857511329276,0.5452448192749094,-1.0582717123228531e-05,0.9999996581358296,-0.0008268108793399924,-0.5452450129484218,0.0006873261484201209,0.838276448099099,-0.0009011054,1.2679975e-05,0.1070866,0.0007395049,0.00013684368,-0.014071338,0.80597985,-0.04523725,-3.9297247e-06,0.0047322977,0.8733166801976441,0.0007150603920777648,-0.48715240405565247,-0.0007413501212977208,0.9999997155643866,0.00013882054431071152,0.4871523647572325,0.0002399161969364737,0.8733169619053869,left_images/camera_left_100.png,right_images/camera_right_100.png
2025-05-02 13:31:39,4.373960971832275,101,-0.06551878,-0.00060243305,0.11403263,2.0962419e-07,-0.00022508134,0.012635547,0.7999763,0.035163507,7.443435e-05,0.0028100968,0.8382766363351483,0.00045989044140896457,0.5452449628152576,-1.0593464712076043e-05,0.9999996578390992,-0.0008271695491834851,-0.545245156661119,0.0006876208740953724,0.8382763543814924,-0.0009010984,1.26795385e-05,0.1070866,0.00073951186,0.00013684644,-0.014071338,0.80597985,-0.04523725,-3.9297247e-06,0.0047322977,0.8733166801976441,0.0007150603920777648,-0.48715240405565247,-0.0007413501212977208,0.9999997155643866,0.00013882054431071152,0.4871523647572325,0.0002399161969364737,0.8733169619053869,left_images/camera_left_101.png,right_images/camera_right_101.png
2025-05-02 13:31:39,4.415750741958618,102,-0.06551878,-0.00060243584,0.11403263,2.1480605e-07,-0.0002251176,0.012635519,0.7999763,0.035163507,7.443435e-05,0.0028100968,0.8382766363351483,0.00045989044140896457,0.5452449628152576,-1.0593464712076043e-05,0.9999996578390992,-0.0008271695491834851,-0.545245156661119,0.0006876208740953724,0.8382763543814924,-0.00090109144,1.2679102e-05,0.1070866,0.00073951884,0.00013684921,-0.014071338,0.80597985,-0.04523725,-3.9297247e-06,0.0047322977,0.8733166801976441,0.0007150603920777648,-0.48715240405565247,-0.0007413501212977208,0.9999997155643866,0.00013882054431071152,0.4871523647572325,0.0002399161969364737,0.8733169619053869,left_images/camera_left_102.png,right_images/camera_right_102.png
2025-05-02 13:31:39,4.471169471740723,103,-0.06551878,-0.00060243934,0.11403263,2.0550861e-07,-0.00022508514,0.012635519,0.7999763,0.035163507,7.443435e-05,0.0028100968,0.8382766363351483,0.00045989044140896457,0.5452449628152576,-1.0593464712076043e-05,0.9999996578390992,-0.0008271695491834851,-0.545245156661119,0.0006876208740953724,0.8382763543814924,-0.00090108445,1.2678665e-05,0.1070866,0.0007395258,0.00013685197,-0.014071338,0.80597985,-0.04523725,-3.9297247e-06,0.0047322977,0.8733166801976441,0.0007150603920777648,-0.48715240405565247,-0.0007413501212977208,0.9999997155643866,0.00013882054431071152,0.4871523647572325,0.0002399161969364737,0.8733169619053869,left_images/camera_left_103.png,right_images/camera_right_103.png
2025-05-02 13:31:39,4.518339157104492,104,-0.06551878,-0.00060244283,0.11403263,2.1068877e-07,-0.0002251214,0.012635491,0.7999763,0.035163507,7.443338e-05,0.0028100992,0.8382764931937327,0.00045999007719206184,0.5452451828012301,-1.0714640644086113e-05,0.99999965784103,-0.0008271656543580888,-0.5452453767286931,0.0006875514178289636,0.8382762112985395,-0.00090107747,1.2678229e-05,0.1070866,0.0007395328,0.00013685474,-0.014071338,0.80597985,-0.04523725,-3.9297247e-06,0.0047322977,0.8733166801976441,0.0007150603920777648,-0.48715240405565247,-0.0007413501212977208,0.9999997155643866,0.00013882054431071152,0.4871523647572325,0.0002399161969364737,0.8733169619053869,left_images/camera_left_104.png,right_images/camera_right_104.png
2025-05-02 13:31:39,4.566166400909424,105,-0.06551878,-0.0006024463,0.11403263,2.2929873e-07,-0.0002250911,0.012635491,0.7999763,0.035163507,7.443338e-05,0.0028100992,0.8382764931937327,0.00045999007719206184,0.5452451828012301,-1.0714640644086113e-05,0.99999965784103,-0.0008271656543580888,-0.5452453767286931,0.0006875514178289636,0.8382762112985395,-0.0009010705,1.2677792e-05,0.1070866,0.0007395398,0.0001368575,-0.014071338,0.80597985,-0.04523725,-3.9297247e-06,0.0047322977,0.8733166801976441,0.0007150603920777648,-0.48715240405565247,-0.0007413501212977208,0.9999997155643866,0.00013882054431071152,0.4871523647572325,0.0002399161969364737,0.8733169619053869,left_images/camera_left_105.png,right_images/camera_right_105.png
2025-05-02 13:31:39,4.606834411621094,106,-0.06551878,-0.0006024513,0.11403263,2.2885139e-07,-0.00022510861,0.012635491,0.7999763,0.035163507,7.443338e-05,0.0028100992,0.8382764931937327,0.00045999007719206184,0.5452451828012301,-1.0714640644086113e-05,0.99999965784103,-0.0008271656543580888,-0.5452453767286931,0.0006875514178289636,0.8382762112985395,-0.0009010635,1.2677356e-05,0.1070866,0.0007395468,0.00013686027,-0.014071338,0.80597985,-0.045237254,-4.006052e-06,0.004732361,0.8733164271730927,0.0007152024919785949,-0.4871528574431437,-0.0007415030149290232,0.9999997154485479,0.00013883840297229533,0.4871528181206625,0.00023997545448719662,0.8733167089944393,left_images/camera_left_106.png,right_images/camera_right_106.png
2025-05-02 13:31:39,4.648863315582275,107,-0.06551878,-0.0006024551,0.11403263,2.4745788e-07,-0.00022507831,0.012635491,0.7999763,0.035163507,7.442677e-05,0.0028100936,0.8382765613272259,0.0004597916383068466,0.5452450782180894,-1.0676203491011196e-05,0.9999996580934254,-0.0008268609620906258,-0.545245271978969,0.0006873170165895231,0.8382762796237876,-0.00090105995,1.267694e-05,0.1070866,0.000739574,0.00013686289,-0.014071338,0.80597985,-0.045237254,-4.006052e-06,0.004732361,0.8733164271730927,0.0007152024919785949,-0.4871528574431437,-0.0007415030149290232,0.9999997154485479,0.00013883840297229533,0.4871528181206625,0.00023997545448719662,0.8733167089944393,left_images/camera_left_107.png,right_images/camera_right_107.png
2025-05-02 13:31:39,4.695651054382324,108,-0.06551878,-0.0006024473,0.11403263,2.367406e-07,-0.0002250758,0.012635519,0.7999763,0.035163507,7.4426935e-05,0.002810096,0.8382767298111535,0.0004596857511329276,0.5452448192749094,-1.0582717123228531e-05,0.9999996581358296,-0.0008268108793399924,-0.5452450129484218,0.0006873261484201209,0.838276448099099,-0.00090105645,1.2676527e-05,0.1070866,0.00073960127,0.0001368655,-0.014071338,0.80597985,-0.045237254,-4.006052e-06,0.004732361,0.8733164271730927,0.0007152024919785949,-0.4871528574431437,-0.0007415030149290232,0.9999997154485479,0.00013883840297229533,0.4871528181206625,0.00023997545448719662,0.8733167089944393,left_images/camera_left_108.png,right_images/camera_right_108.png
2025-05-02 13:31:39,4.739120721817017,109,-0.06551878,-0.00060243526,0.11403263,2.533286e-07,-0.00022509457,0.012635568,0.7999763,0.035163507,7.443435e-05,0.0028100968,0.8382766363351483,0.00045989044140896457,0.5452449628152576,-1.0593464712076043e-05,0.9999996578390992,-0.0008271695491834851,-0.545245156661119,0.0006876208740953724,0.8382763543814924,-0.00090105296,1.2676114e-05,0.1070866,0.0007396285,0.00013686813,-0.014071338,0.80597985,-0.045237254,-4.006052e-06,0.004732361,0.8733164271730927,0.0007152024919785949,-0.4871528574431437,-0.0007415030149290232,0.9999997154485479,0.00013883840297229533,0.4871528181206625,0.00023997545448719662,0.8733167089944393,left_images/camera_left_109.png,right_images/camera_right_109.png
2025-05-02 13:31:39,4.785033464431763,110,-0.06551878,-0.00060243806,0.11403263,2.5851037e-07,-0.00022513083,0.01263554,0.7999763,0.035163507,7.443435e-05,0.0028100968,0.8382766363351483,0.00045989044140896457,0.5452449628152576,-1.0593464712076043e-05,0.9999996578390992,-0.0008271695491834851,-0.545245156661119,0.0006876208740953724,0.8382763543814924,-0.00090104947,1.2675701e-05,0.1070866,0.00073965575,0.00013687075,-0.014071338,0.80597985,-0.04523723,-4.030355e-06,0.004732363,0.8733164685129958,0.000715528488284146,-0.4871527828545909,-0.0007418590074755151,0.9999997151802162,0.00013886936157479865,0.4871527434688249,0.00024012177954228444,0.8733167505964422,left_images/camera_left_110.png,right_images/camera_right_110.png
2025-05-02 13:31:39,4.836145401000977,111,-0.06551878,-0.00060244155,0.11403263,2.4921286e-07,-0.00022509837,0.01263554,0.7999763,0.035163507,7.443435e-05,0.0028100968,0.8382766363351483,0.00045989044140896457,0.5452449628152576,-1.0593464712076043e-05,0.9999996578390992,-0.0008271695491834851,-0.545245156661119,0.0006876208740953724,0.8382763543814924,-0.0009010444,1.2674131e-05,0.1070866,0.000739691,0.00013689093,-0.014071304,0.80597985,-0.04523723,-4.030355e-06,0.004732363,0.8733164685129958,0.000715528488284146,-0.4871527828545909,-0.0007418590074755151,0.9999997151802162,0.00013886936157479865,0.4871527434688249,0.00024012177954228444,0.8733167505964422,left_images/camera_left_111.png,right_images/camera_right_111.png
2025-05-02 13:31:39,4.883273124694824,112,-0.06551878,-0.00060244504,0.11403263,2.3991373e-07,-0.00022506589,0.01263554,0.7999763,0.035163507,7.4426935e-05,0.002810096,0.8382767298111535,0.0004596857511329276,0.5452448192749094,-1.0582717123228531e-05,0.9999996581358296,-0.0008268108793399924,-0.5452450129484218,0.0006873261484201209,0.838276448099099,-0.0009010376,1.266833e-05,0.1070866,0.00073972665,0.00013693306,-0.014071349,0.80597985,-0.04523723,-4.030355e-06,0.004732363,0.8733164685129958,0.000715528488284146,-0.4871527828545909,-0.0007418590074755151,0.9999997151802162,0.00013886936157479865,0.4871527434688249,0.00024012177954228444,0.8733167505964422,left_images/camera_left_112.png,right_images/camera_right_112.png
2025-05-02 13:31:39,4.927778482437134,113,-0.06551878,-0.0006024342,0.11403263,2.5649962e-07,-0.00022508467,0.01263559,0.7999763,0.035163507,7.443435e-05,0.0028100968,0.8382766363351483,0.00045989044140896457,0.5452449628152576,-1.0593464712076043e-05,0.9999996578390992,-0.0008271695491834851,-0.545245156661119,0.0006876208740953724,0.8382763543814924,-0.00090103224,1.266635e-05,0.1070866,0.0007397619,0.00013695325,-0.0140713155,0.80597985,-0.04523723,-4.030355e-06,0.004732363,0.8733164685129958,0.000715528488284146,-0.4871527828545909,-0.0007418590074755151,0.9999997151802162,0.00013886936157479865,0.4871527434688249,0.00024012177954228444,0.8733167505964422,left_images/camera_left_113.png,right_images/camera_right_113.png
2025-05-02 13:31:39,4.972780466079712,114,-0.06551878,-0.000602437,0.11403263,2.6168138e-07,-0.00022512094,0.012635562,0.7999763,0.035163507,7.443435e-05,0.0028100968,0.8382766363351483,0.00045989044140896457,0.5452449628152576,-1.0593464712076043e-05,0.9999996578390992,-0.0008271695491834851,-0.545245156661119,0.0006876208740953724,0.8382763543814924,-0.0009010254,1.2660549e-05,0.1070866,0.00073979754,0.00013699538,-0.01407136,0.80597985,-0.045237232,-4.028868e-06,0.004732361,0.8733166798724461,0.0007154573542097629,-0.48715240405579663,-0.0007418478558771297,0.9999997152060125,0.0001387431190403424,0.48715236458250566,0.0002402262863587224,0.8733169619176105,left_images/camera_left_114.png,right_images/camera_right_114.png
2025-05-02 13:31:39,5.015537738800049,115,-0.06551878,-0.0006024405,0.11403263,2.5238387e-07,-0.00022508847,0.012635562,0.7999763,0.035163507,7.443435e-05,0.0028100968,0.8382766363351483,0.00045989044140896457,0.5452449628152576,-1.0593464712076043e-05,0.9999996578390992,-0.0008271695491834851,-0.545245156661119,0.0006876208740953724,0.8382763543814924,-0.00090102496,1.2671128e-05,0.1070866,0.000739808,0.00013691973,-0.01407136,0.80597985,-0.045237232,-4.028868e-06,0.004732361,0.8733166798724461,0.0007154573542097629,-0.48715240405579663,-0.0007418478558771297,0.9999997152060125,0.0001387431190403424,0.48715236458250566,0.0002402262863587224,0.8733169619176105,left_images/camera_left_115.png,right_images/camera_right_115.png
2025-05-02 13:31:39,5.059574365615845,116,-0.06551878,-0.000602444,0.11403263,2.5756393e-07,-0.00022512474,0.012635534,0.7999763,0.035163507,7.443435e-05,0.0028100968,0.8382766363351483,0.00045989044140896457,0.5452449628152576,-1.0593464712076043e-05,0.9999996578390992,-0.0008271695491834851,-0.545245156661119,0.0006876208740953724,0.8382763543814924,-0.00090102496,1.2682948e-05,0.1070866,0.0007398185,0.00013684406,-0.01407136,0.80597985,-0.045237232,-4.028868e-06,0.004732361,0.8733166798724461,0.0007154573542097629,-0.48715240405579663,-0.0007418478558771297,0.9999997152060125,0.0001387431190403424,0.48715236458250566,0.0002402262863587224,0.8733169619176105,left_images/camera_left_116.png,right_images/camera_right_116.png
2025-05-02 13:31:39,5.101975202560425,117,-0.06551878,-0.0006024475,0.11403263,2.4826642e-07,-0.00022509227,0.012635534,0.7999763,0.035163507,7.443435e-05,0.0028100968,0.8382766363351483,0.00045989044140896457,0.5452449628152576,-1.0593464712076043e-05,0.9999996578390992,-0.0008271695491834851,-0.545245156661119,0.0006876208740953724,0.8382763543814924,-0.00090102496,1.2694768e-05,0.1070866,0.000739829,0.00013676839,-0.01407136,0.80597985,-0.045237232,-4.028868e-06,0.004732361,0.8733166798724461,0.0007154573542097629,-0.48715240405579663,-0.0007418478558771297,0.9999997152060125,0.0001387431190403424,0.48715236458250566,0.0002402262863587224,0.8733169619176105,left_images/camera_left_117.png,right_images/camera_right_117.png
2025-05-02 13:31:39,5.143041133880615,118,-0.06551878,-0.000602451,0.11403263,2.5344647e-07,-0.00022512853,0.012635506,0.7999763,0.035163507,7.443435e-05,0.0028100968,0.8382766363351483,0.00045989044140896457,0.5452449628152576,-1.0593464712076043e-05,0.9999996578390992,-0.0008271695491834851,-0.545245156661119,0.0006876208740953724,0.8382763543814924,-0.00090102496,1.2706588e-05,0.1070866,0.00073983945,0.00013669272,-0.01407136,0.80597985,-0.04523723,-4.024516e-06,0.0047323583,0.8733166383754556,0.0007152775299466821,-0.4871524787113871,-0.0007417795757445711,0.9999997152908587,0.0001384964333431671,0.4871524390780101,0.00024040851938720396,0.8733169203124883,left_images/camera_left_118.png,right_images/camera_right_118.png
2025-05-02 13:31:40,5.183066368103027,119,-0.06551878,-0.0006024545,0.11403263,2.4414896e-07,-0.00022509607,0.012635506,0.7999763,0.035163507,7.443435e-05,0.0028100968,0.8382766363351483,0.00045989044140896457,0.5452449628152576,-1.0593464712076043e-05,0.9999996578390992,-0.0008271695491834851,-0.545245156661119,0.0006876208740953724,0.8382763543814924,-0.00090101844,1.2703138e-05,0.1070866,0.0007398052,0.00013668253,-0.01407136,0.80597985,-0.04523723,-4.024516e-06,0.0047323583,0.8733166383754556,0.0007152775299466821,-0.4871524787113871,-0.0007417795757445711,0.9999997152908587,0.0001384964333431671,0.4871524390780101,0.00024040851938720396,0.8733169203124883,left_images/camera_left_119.png,right_images/camera_right_119.png
2025-05-02 13:31:40,5.228213787078857,120,-0.06551878,-0.00060245796,0.11403263,2.3484988e-07,-0.00022506359,0.012635506,0.7999763,0.035163507,7.4426935e-05,0.002810096,0.8382767298111535,0.0004596857511329276,0.5452448192749094,-1.0582717123228531e-05,0.9999996581358296,-0.0008268108793399924,-0.5452450129484218,0.0006873261484201209,0.838276448099099,-0.00090101163,1.2699232e-05,0.1070866,0.00073977094,0.00013667234,-0.01407136,0.80597985,-0.04523723,-4.024516e-06,0.0047323583,0.8733166383754556,0.0007152775299466821,-0.4871524787113871,-0.0007417795757445711,0.9999997152908587,0.0001384964333431671,0.4871524390780101,0.00024040851938720396,0.8733169203124883,left_images/camera_left_120.png,right_images/camera_right_120.png
2025-05-02 13:31:40,5.269212245941162,121,-0.06551878,-0.00060244714,0.11403263,2.5143575e-07,-0.00022508237,0.012635555,0.7999763,0.035163507,7.443435e-05,0.0028100968,0.8382766363351483,0.00045989044140896457,0.5452449628152576,-1.0593464712076043e-05,0.9999996578390992,-0.0008271695491834851,-0.545245156661119,0.0006876208740953724,0.8382763543814924,-0.0009010048,1.26953255e-05,0.1070866,0.00073973666,0.00013666216,-0.01407136,0.80597985,-0.04523723,-4.024516e-06,0.0047323583,0.8733166383754556,0.0007152775299466821,-0.4871524787113871,-0.0007417795757445711,0.9999997152908587,0.0001384964333431671,0.4871524390780101,0.00024040851938720396,0.8733169203124883,left_images/camera_left_121.png,right_images/camera_right_121.png
2025-05-02 13:31:40,5.310915470123291,122,-0.06551878,-0.00060244993,0.11403263,2.566175e-07,-0.00022511864,0.012635527,0.7999763,0.035163507,7.443435e-05,0.0028100968,0.8382766363351483,0.00045989044140896457,0.5452449628152576,-1.0593464712076043e-05,0.9999996578390992,-0.0008271695491834851,-0.545245156661119,0.0006876208740953724,0.8382763543814924,-0.000900998,1.2691419e-05,0.1070866,0.0007397024,0.00013665197,-0.01407136,0.80597985,-0.04523723,-4.024516e-06,0.0047323583,0.8733166383754556,0.0007152775299466821,-0.4871524787113871,-0.0007417795757445711,0.9999997152908587,0.0001384964333431671,0.4871524390780101,0.00024040851938720396,0.8733169203124883,left_images/camera_left_122.png,right_images/camera_right_122.png
2025-05-02 13:31:40,5.358478546142578,123,-0.06551878,-0.0006024534,0.11403263,2.4732e-07,-0.00022508617,0.012635527,0.7999763,0.035163507,7.443435e-05,0.0028100968,0.8382766363351483,0.00045989044140896457,0.5452449628152576,-1.0593464712076043e-05,0.9999996578390992,-0.0008271695491834851,-0.545245156661119,0.0006876208740953724,0.8382763543814924,-0.000900991,1.2679837e-05,0.1070866,0.00073965127,0.00013673346,-0.01407136,0.80597985,-0.045237258,-4.005461e-06,0.004732361,0.8733166238875129,0.0007152063852570009,-0.4871525047883293,-0.000741496119912897,0.9999997154508624,0.00013885855663825714,0.4871524654820304,0.00023995420622517942,0.8733169057087802,left_images/camera_left_123.png,right_images/camera_right_123.png
2025-05-02 13:31:40,5.40817666053772,124,-0.06785547,-0.0021634623,0.114037305,0.073855735,0.009687356,0.047869038,0.8266434,0.035199646,4.1968473e-05,0.0027919486,0.8534352424441645,0.057043198058237723,0.5180679110981098,-0.07334491901716005,0.9972457494797069,0.011019891062254573,-0.5160124124559763,-0.04740241238530365,0.8552684967256874,0.0003477109,-0.0026753412,0.10709001,-0.08256814,0.017210893,-0.033123918,0.8326465,-0.045249775,-4.711005e-05,0.004728414,0.8788319853442658,-0.0641122222725029,-0.4728043617513877,0.08194890765861337,0.9964881008366341,0.017200041411518655,0.47004118763084574,-0.05386174752344264,0.8809995426129941,left_images/camera_left_124.png,right_images/camera_right_124.png
2025-05-02 13:31:40,5.4547553062438965,125,-0.08099907,-0.004123948,0.113873556,0.16346237,0.016023336,0.13415152,0.85330963,0.034678724,-1.1384196e-05,0.003421316,0.8803118459579542,0.12705478355976305,0.45706469546518336,-0.15970912104029347,0.9866007350741253,0.033346457199116546,-0.44670353762046244,-0.10235268206440604,0.8888081221228723,0.0036250744,-0.0057443916,0.106883444,-0.16728927,0.03652496,-0.07034234,0.85931337,-0.04527212,-0.00014089257,0.004981952,0.8851835051285056,-0.12825624754419918,-0.44721415140209275,0.16396799261613793,0.9855756704715875,0.041893856016306366,0.43539023834469115,-0.11041255698679374,0.8934452460077176,left_images/camera_left_125.png,right_images/camera_right_125.png
2025-05-02 13:31:40,5.500577688217163,126,-0.100170836,-0.0023846866,0.11347652,0.24695113,0.0007904438,0.22198313,0.8799768,0.033805683,-0.00023790749,0.004660476,0.8959710284669579,0.19927543987378382,0.39689446356805175,-0.2388062062239532,0.9696610579616985,0.052240104723498285,-0.37444293559471026,-0.1415864814723118,0.9163764271561694,0.00782939,-0.008255912,0.10650904,-0.23307501,0.051088184,-0.11917461,0.8859806,-0.045370694,-0.00026470228,0.0054142764,0.893191282463981,-0.17701280673790848,-0.41337126071017205,0.22439707263461622,0.9720799606969849,0.06860396347415706,0.3896861387365016,-0.15403576293223778,0.9079745024032998,left_images/camera_left_126.png,right_images/camera_right_126.png
2025-05-02 13:31:40,5.550666332244873,127,-0.12258027,0.0029184127,0.11295368,0.31815013,-0.027631035,0.29434022,0.90664405,0.03269752,-0.00070851354,0.006286056,0.8988048280961102,0.2645828082247301,0.34949366029019374,-0.3061225547553288,0.9495296565963691,0.06842815731883925,-0.31374968121289365,-0.168491450334718,0.9344366049673518,0.011461531,-0.009475181,0.10608465,-0.2957477,0.05665443,-0.16500534,0.9126475,-0.045534197,-0.0004049513,0.005879186,0.8962464926705693,-0.22602344949186073,-0.3816485617102505,0.280140202278559,0.9555434905097888,0.09196795535237592,0.3438948842931959,-0.18934106269948117,0.9197207568239395,left_images/camera_left_127.png,right_images/camera_right_127.png
2025-05-02 13:31:40,5.5969483852386475,128,-0.14994347,0.012571071,0.11243621,0.3944595,-0.07532983,0.35856852,0.9333111,0.031266082,-0.00145772,0.008251371,0.8889880551769788,0.33921370113605037,0.30762688880238487,-0.379820171435203,0.9214596500210431,0.0815398721732469,-0.25580632346286036,-0.1893308700256742,0.9480068283149312,0.013951174,-0.00867204,0.10564458,-0.36146268,0.05403475,-0.199812,0.9393139,-0.045741785,-0.00063455955,0.0063282046,0.8906541747539585,-0.27977376546282634,-0.35841565416719345,0.33828534805987703,0.9344486883152721,0.11121453229626072,0.30380612943348206,-0.22030045180303104,0.9269139909689719,left_images/camera_left_128.png,right_images/camera_right_128.png
2025-05-02 13:31:40,5.650986671447754,129,-0.18125181,0.024083696,0.112168394,0.48328647,-0.13784947,0.4205327,0.9599776,0.029556897,-0.002369322,0.010298142,0.8651315421665717,0.42588210613619604,0.264899691244606,-0.4640021849978069,0.880127563850977,0.10038647153379668,-0.19039271799559643,-0.20976153847343573,0.9590363444163662,0.015140253,-0.006762341,0.105226725,-0.41813108,0.051980354,-0.22421342,0.9637641,-0.045978088,-0.00097371254,0.006725586,0.8813249301396158,-0.3245280906816175,-0.34343541732463406,0.38682493123677486,0.9129458009172225,0.12998629605183684,0.27135371766030053,-0.24740954497786713,0.9301374505769451,left_images/camera_left_129.png,right_images/camera_right_129.png
2025-05-02 13:31:40,5.694153547286987,130,-0.21529302,0.03545355,0.11227399,0.5730168,-0.212107,0.47956106,0.9866446,0.027611881,-0.0032858173,0.0122841755,0.8291298296020171,0.5138342776332558,0.22026815655750193,-0.5462867278498085,0.8283843095564793,0.12389611235137324,-0.11880461539552817,-0.22305553301755351,0.9675389876128897,0.015267284,-0.00367279,0.104821704,-0.47693053,0.049584284,-0.2430475,0.9696053,-0.046255324,-0.0014315782,0.00707989,0.8672800991114822,-0.36970114870799076,-0.3333860979842591,0.4358448497246171,0.8874925038331553,0.14965400966390113,0.24055040356171475,-0.27509655810996475,0.9308369282867688,left_images/camera_left_130.png,right_images/camera_right_130.png
2025-05-02 13:31:40,5.746865272521973,131,-0.24878576,0.045063484,0.11273577,0.6525618,-0.2885764,0.5235988,1.0133245,0.025538113,-0.0040628593,0.014064465,0.7851820714508682,0.5913454460667692,0.18384688762178636,-0.6166864491880034,0.7737240682335481,0.14508235462667385,-0.056452972109676855,-0.22729194805848651,0.9721889900054219,0.014252367,-0.00045100632,0.10442792,-0.52595866,0.04957072,-0.25774872,0.9721532,-0.046592094,-0.00191747,0.007384537,0.8539206009154319,-0.4053855063361058,-0.32631610224573104,0.4746488795712617,0.8638032232526094,0.16897465082120483,0.21337302653796977,-0.2991765076857161,0.9300351438494167,left_images/camera_left_131.png,right_images/camera_right_131.png
2025-05-02 13:31:40,5.7900025844573975,132,-0.28384265,0.05265688,0.11358838,0.7389851,-0.367247,0.52359885,1.0362713,0.022921488,-0.0045816903,0.015779585,0.7228815653482026,0.6673788891107053,0.17901860475686152,-0.6904421667701384,0.7078071842460172,0.1493271719262153,-0.027052852446443898,-0.23154785315153714,0.9724472915667077,0.011578919,0.002586192,0.10400888,-0.5650911,0.049814068,-0.26837334,0.95842457,-0.047070794,-0.0023558922,0.007630037,0.8422237678880913,-0.43347781325508566,-0.3205559392991742,0.5044865594729167,0.8433606947649277,0.1850298620136708,0.19013793970579923,-0.3175527104926169,0.9289821526505374,left_images/camera_left_132.png,right_images/camera_right_132.png
2025-05-02 13:31:40,5.832397699356079,133,-0.315762,0.057388093,0.114686124,0.82702476,-0.4368053,0.5235988,1.0471979,0.020421375,-0.0050859917,0.017201705,0.6576126691724055,0.7334817743938201,0.171901320460424,-0.7532706102180889,0.6367516618592065,0.16471402156831183,0.01135628132850032,-0.2378062399341776,0.9712462237366775,0.008371066,0.0052521164,0.1036051,-0.59918237,0.049198475,-0.2754205,0.96582127,-0.04757344,-0.002716377,0.007836064,0.830513728724209,-0.4582363989418625,-0.31664862084873335,0.5302336044654566,0.8245283209138392,0.19749777899149767,0.17058508462400934,-0.33192235642661816,0.9277544277490787,left_images/camera_left_133.png,right_images/camera_right_133.png
2025-05-02 13:31:40,5.874429941177368,134,-0.34411576,0.05867672,0.115960024,0.92187214,-0.49648324,0.52359873,1.0452917,0.018040434,-0.0055389605,0.018345773,0.5878176564613224,0.7918775383976023,0.16553056193245014,-0.806707545076731,0.5583845177268517,0.19346748326069055,0.06077285141074903,-0.24725835586346787,0.9670418636166181,0.0051634395,0.007951494,0.103238665,-0.63383657,0.04638569,-0.2801998,0.96867794,-0.04805366,-0.0030374757,0.008005549,0.8167099434947966,-0.48412116255081994,-0.314024789096607,0.5565961542926585,0.8045008701907386,0.2073139428233597,0.15226814907704445,-0.3441003484926842,0.9265038375224702,left_images/camera_left_134.png,right_images/camera_right_134.png
2025-05-02 13:31:40,5.9176859855651855,135,-0.36745566,0.056331374,0.11731788,1.0122132,-0.5389074,0.5235988,1.0471988,0.015777927,-0.0058346316,0.019190874,0.5230898578313279,0.8360311977813895,0.16561653592022804,-0.844847777728269,0.4830427407082319,0.23000422412791696,0.11229084157493133,-0.26023363922693565,0.958993858120634,0.002263196,0.010790791,0.10291357,-0.6663406,0.04329901,-0.2834074,0.9688327,-0.048478376,-0.0033575187,0.008156922,0.8025890399628143,-0.5080489132180466,-0.3126293887489307,0.580892271029511,0.7848396121859944,0.21584937480084365,0.13570188793729182,-0.35484233811891697,0.9250253578624507,left_images/camera_left_135.png,right_images/camera_right_135.png
