jiaqis7/OS_Teleop_Extension/demo_5/teleop_log.csv
Epoch Time (Seconds),Time (Seconds),Frame Number,PSM1_joint_1,PSM1_joint_2,PSM1_joint_3,PSM1_joint_4,PSM1_joint_5,PSM1_joint_6,PSM1_jaw_angle,PSM1_ee_x,PSM1_ee_y,PSM1_ee_z,"PSM1_Orientation_Matrix_[1,1]","PSM1_Orientation_Matrix_[1,2]","PSM1_Orientation_Matrix_[1,3]","PSM1_Orientation_Matrix_[2,1]","PSM1_Orientation_Matrix_[2,2]","PSM1_Orientation_Matrix_[2,3]","PSM1_Orientation_Matrix_[3,1]","PSM1_Orientation_Matrix_[3,2]","PSM1_Orientation_Matrix_[3,3]",PSM2_joint_1,PSM2_joint_2,PSM2_joint_3,PSM2_joint_4,PSM2_joint_5,PSM2_joint_6,PSM2_jaw_angle,PSM2_ee_x,PSM2_ee_y,PSM2_ee_z,"PSM2_Orientation_Matrix_[1,1]","PSM2_Orientation_Matrix_[1,2]","PSM2_Orientation_Matrix_[1,3]","PSM2_Orientation_Matrix_[2,1]","PSM2_Orientation_Matrix_[2,2]","PSM2_Orientation_Matrix_[2,3]","PSM2_Orientation_Matrix_[3,1]","PSM2_Orientation_Matrix_[3,2]","PSM2_Orientation_Matrix_[3,3]",PSM3_joint_1,PSM3_joint_2,PSM3_joint_3,PSM3_joint_4,PSM3_joint_5,PSM3_joint_6,PSM3_jaw_angle,PSM3_ee_x,PSM3_ee_y,PSM3_ee_z,"PSM3_Orientation_Matrix_[1,1]","PSM3_Orientation_Matrix_[1,2]","PSM3_Orientation_Matrix_[1,3]","PSM3_Orientation_Matrix_[2,1]","PSM3_Orientation_Matrix_[2,2]","PSM3_Orientation_Matrix_[2,3]","PSM3_Orientation_Matrix_[3,1]","PSM3_Orientation_Matrix_[3,2]","PSM3_Orientation_Matrix_[3,3]",Camera Left,Camera Right
2025-06-27 14:58:00,0.0017580986022949219,1,-0.026666353,-0.00023923791,0.11362935,-0.00013995203,0.00013870996,-0.016062602,1.047179,0.058971144,2.5031279e-05,0.0018484965,0.8437703778878877,-6.651595870805094e-05,0.5367043366459398,0.00014114001347626665,0.9999999852419871,-9.795673556155011e-05,-0.5367043222095641,0.00015840344908841172,0.843770374823577,0.050760012,0.00053620985,0.11225049,0.0007793418,2.9328316e-06,-0.015323306,1.047179,-0.057594392,-6.181043e-05,0.004346356,0.8476608086276104,0.0009468138080232204,-0.5305377055972541,-0.0007873115515395795,0.999999551357731,0.0005267113607091249,0.5305379662732032,-2.8774113788023077e-05,0.8476611737685901,0.0027022206,-0.006501041,0.09171576,-0.00013698032,-0.011969499,-0.006168542,1.0502882e-13,0.00019806191,-0.008733099,0.001925623,0.9999939664929667,-0.00018640417190328597,0.0034687506609840163,0.0011386347186707233,0.9609811026923939,-0.276611684097198,-0.0032818422632444784,0.2766139647985895,0.9609755168524138,left_images/camera_left_1.png,right_images/camera_right_1.png
2025-06-27 14:58:00,0.05270862579345703,2,-0.026666353,-0.00023923878,0.11362935,-0.00013996384,0.00013871692,-0.016062602,1.047179,0.058971144,2.5031279e-05,0.0018484965,0.8437703778878877,-6.651595870805094e-05,0.5367043366459398,0.00014114001347626665,0.9999999852419871,-9.795673556155011e-05,-0.5367043222095641,0.00015840344908841172,0.843770374823577,0.050760012,0.00053621037,0.11225049,0.0007793554,2.9214818e-06,-0.015323306,1.047179,-0.057594407,-6.180081e-05,0.0043463847,0.847660795506472,0.000946962994121673,-0.5305377262951457,-0.0007875712177039694,0.9999995512236621,0.0005265776784264421,0.5305379868519428,-2.8523010654745828e-05,0.8476611608971628,0.0027022206,-0.006501041,0.09171576,-0.00013697858,-0.011969499,-0.006168542,1.0492379e-13,0.00019806191,-0.008733099,0.001925623,0.9999939664929667,-0.00018640417190328597,0.0034687506609840163,0.0011386347186707233,0.9609811026923939,-0.276611684097198,-0.0032818422632444784,0.2766139647985895,0.9609755168524138,left_images/camera_left_2.png,right_images/camera_right_2.png
2025-06-27 14:58:01,0.10762143135070801,3,-0.026666353,-0.00023923966,0.11362935,-0.00013997566,0.00013872387,-0.016062602,1.047179,0.058971144,2.5031279e-05,0.0018484965,0.8437703778878877,-6.651595870805094e-05,0.5367043366459398,0.00014114001347626665,0.9999999852419871,-9.795673556155011e-05,-0.5367043222095641,0.00015840344908841172,0.843770374823577,0.050760012,0.00053620077,0.11225049,0.00077934633,2.98674e-06,-0.015323306,1.047179,-0.057594392,-6.181043e-05,0.004346356,0.8476608086276104,0.0009468138080232204,-0.5305377055972541,-0.0007873115515395795,0.999999551357731,0.0005267113607091249,0.5305379662732032,-2.8774113788023077e-05,0.8476611737685901,0.0027022206,-0.006501041,0.09171576,-0.00013697683,-0.011969499,-0.006168542,1.0549283e-13,0.00019806191,-0.008733099,0.001925623,0.9999939664929667,-0.00018640417190328597,0.0034687506609840163,0.0011386347186707233,0.9609811026923939,-0.276611684097198,-0.0032818422632444784,0.2766139647985895,0.9609755168524138,left_images/camera_left_3.png,right_images/camera_right_3.png
2025-06-27 14:58:01,0.1617412567138672,4,-0.026666353,-0.00023924053,0.11362935,-0.00013998747,0.00013873083,-0.016062602,1.047179,0.058971144,2.5031279e-05,0.0018484965,0.8437703778878877,-6.651595870805094e-05,0.5367043366459398,0.00014114001347626665,0.9999999852419871,-9.795673556155011e-05,-0.5367043222095641,0.00015840344908841172,0.843770374823577,0.050760012,0.0005362103,0.11225049,0.0007793105,2.9792136e-06,-0.015323306,1.047179,-0.057594392,-6.181043e-05,0.004346356,0.8476608086276104,0.0009468138080232204,-0.5305377055972541,-0.0007873115515395795,0.999999551357731,0.0005267113607091249,0.5305379662732032,-2.8774113788023077e-05,0.8476611737685901,0.0027022206,-0.006501041,0.09171576,-0.00013697508,-0.011969499,-0.006168542,1.0553595e-13,0.00019806191,-0.008733099,0.001925623,0.9999939664929667,-0.00018640417190328597,0.0034687506609840163,0.0011386347186707233,0.9609811026923939,-0.276611684097198,-0.0032818422632444784,0.2766139647985895,0.9609755168524138,left_images/camera_left_4.png,right_images/camera_right_4.png
2025-06-27 14:58:01,0.21823716163635254,5,-0.026666353,-0.0002392414,0.11362935,-0.00013999929,0.00013873779,-0.016062602,1.047179,0.058971144,2.5031279e-05,0.0018484965,0.8437703778878877,-6.651595870805094e-05,0.5367043366459398,0.00014114001347626665,0.9999999852419871,-9.795673556155011e-05,-0.5367043222095641,0.00015840344908841172,0.843770374823577,0.050760012,0.0005362125,0.11225049,0.0007793241,2.967869e-06,-0.015323306,1.047179,-0.057594392,-6.181043e-05,0.004346356,0.8476608086276104,0.0009468138080232204,-0.5305377055972541,-0.0007873115515395795,0.999999551357731,0.0005267113607091249,0.5305379662732032,-2.8774113788023077e-05,0.8476611737685901,0.0027022206,-0.006501041,0.09171576,-0.00013697334,-0.011969499,-0.006168542,1.04579993e-13,0.00019806191,-0.008733099,0.001925623,0.9999939664929667,-0.00018640417190328597,0.0034687506609840163,0.0011386347186707233,0.9609811026923939,-0.276611684097198,-0.0032818422632444784,0.2766139647985895,0.9609755168524138,left_images/camera_left_5.png,right_images/camera_right_5.png
2025-06-27 14:58:01,0.28081321716308594,6,-0.026666353,-0.00023924228,0.11362935,-0.0001400111,0.00013874474,-0.016062602,1.047179,0.058971144,2.5031279e-05,0.0018484965,0.8437703778878877,-6.651595870805094e-05,0.5367043366459398,0.00014114001347626665,0.9999999852419871,-9.795673556155011e-05,-0.5367043222095641,0.00015840344908841172,0.843770374823577,0.050760012,0.00053621305,0.11225049,0.0007793377,2.9565192e-06,-0.015323306,1.047179,-0.057594392,-6.181043e-05,0.004346356,0.8476608086276104,0.0009468138080232204,-0.5305377055972541,-0.0007873115515395795,0.999999551357731,0.0005267113607091249,0.5305379662732032,-2.8774113788023077e-05,0.8476611737685901,0.0027022206,-0.006501041,0.09171576,-0.00013697159,-0.011969499,-0.006168542,1.0498823e-13,0.00019806191,-0.008733099,0.001925623,0.9999939664929667,-0.00018640417190328597,0.0034687506609840163,0.0011386347186707233,0.9609811026923939,-0.276611684097198,-0.0032818422632444784,0.2766139647985895,0.9609755168524138,left_images/camera_left_6.png,right_images/camera_right_6.png
2025-06-27 14:58:01,0.3453831672668457,7,-0.026666353,-0.00023924315,0.11362935,-0.00014002292,0.0001387517,-0.016062602,1.047179,0.058971144,2.5031279e-05,0.0018484965,0.8437703778878877,-6.651595870805094e-05,0.5367043366459398,0.00014114001347626665,0.9999999852419871,-9.795673556155011e-05,-0.5367043222095641,0.00015840344908841172,0.843770374823577,0.050760012,0.00053621357,0.11225049,0.00077935134,2.9451694e-06,-0.015323306,1.047179,-0.057594407,-6.180081e-05,0.0043463847,0.847660795506472,0.000946962994121673,-0.5305377262951457,-0.0007875712177039694,0.9999995512236621,0.0005265776784264421,0.5305379868519428,-2.8523010654745828e-05,0.8476611608971628,0.0027022206,-0.006501041,0.09171576,-0.00013696984,-0.011969499,-0.006168542,1.04791094e-13,0.00019806191,-0.008733099,0.001925623,0.9999939664929667,-0.00018640417190328597,0.0034687506609840163,0.0011386347186707233,0.9609811026923939,-0.276611684097198,-0.0032818422632444784,0.2766139647985895,0.9609755168524138,left_images/camera_left_7.png,right_images/camera_right_7.png
2025-06-27 14:58:01,0.40005040168762207,8,-0.026666353,-0.00023924402,0.11362935,-0.00014003474,0.00013875865,-0.016062602,1.047179,0.058971144,2.5031279e-05,0.0018484965,0.8437703778878877,-6.651595870805094e-05,0.5367043366459398,0.00014114001347626665,0.9999999852419871,-9.795673556155011e-05,-0.5367043222095641,0.00015840344908841172,0.843770374823577,0.050760012,0.00053619774,0.11225049,0.000779376,2.9869768e-06,-0.015323334,1.047179,-0.05759441,-6.1801315e-05,0.0043463847,0.8476609170185684,0.0009470382146550424,-0.530537532016218,-0.0007876464966019989,0.9999995511530406,0.000526599196332006,0.5305377925956227,-2.8501529255584295e-05,0.8476612824798752,0.0027022206,-0.006501041,0.09171576,-0.0001369681,-0.011969499,-0.006168542,1.0517612e-13,0.00019806191,-0.008733099,0.001925623,0.9999939664929667,-0.00018640417190328597,0.0034687506609840163,0.0011386347186707233,0.9609811026923939,-0.276611684097198,-0.0032818422632444784,0.2766139647985895,0.9609755168524138,left_images/camera_left_8.png,right_images/camera_right_8.png
2025-06-27 14:58:01,0.4522378444671631,9,-0.026666353,-0.0002392449,0.11362935,-0.00014004656,0.00013876561,-0.016062602,1.047179,0.058971144,2.5031279e-05,0.0018484965,0.8437703778878877,-6.651595870805094e-05,0.5367043366459398,0.00014114001347626665,0.9999999852419871,-9.795673556155011e-05,-0.5367043222095641,0.00015840344908841172,0.843770374823577,0.050760012,0.0005361911,0.11225049,0.0007793621,2.9481387e-06,-0.015323334,1.047179,-0.05759441,-6.1801315e-05,0.0043463847,0.8476609170185684,0.0009470382146550424,-0.530537532016218,-0.0007876464966019989,0.9999995511530406,0.000526599196332006,0.5305377925956227,-2.8501529255584295e-05,0.8476612824798752,0.0027022206,-0.006501041,0.09171576,-0.00013696635,-0.011969499,-0.006168542,1.0515646e-13,0.00019806191,-0.008733099,0.001925623,0.9999939664929667,-0.00018640417190328597,0.0034687506609840163,0.0011386347186707233,0.9609811026923939,-0.276611684097198,-0.0032818422632444784,0.2766139647985895,0.9609755168524138,left_images/camera_left_9.png,right_images/camera_right_9.png
2025-06-27 14:58:01,0.4992806911468506,10,-0.026666353,-0.00023924577,0.11362935,-0.00014005837,0.00013877256,-0.016062602,1.047179,0.058971144,2.5031279e-05,0.0018484965,0.8437703778878877,-6.651595870805094e-05,0.5367043366459398,0.00014114001347626665,0.9999999852419871,-9.795673556155011e-05,-0.5367043222095641,0.00015840344908841172,0.843770374823577,0.050760012,0.0005361874,0.11225049,0.0007793464,2.9740586e-06,-0.015323334,1.047179,-0.057594396,-6.1810446e-05,0.004346353,0.8476609779863168,0.0009468805043976904,-0.5305374348871073,-0.0007873994320261015,0.9999995512962689,0.0005266966825276333,0.5305376955518011,-2.871535011482923e-05,0.8476613432108445,0.0027022206,-0.006501041,0.09171576,-0.0001369646,-0.011969499,-0.006168542,1.04277074e-13,0.00019806191,-0.008733099,0.001925623,0.9999939664929667,-0.00018640417190328597,0.0034687506609840163,0.0011386347186707233,0.9609811026923939,-0.276611684097198,-0.0032818422632444784,0.2766139647985895,0.9609755168524138,left_images/camera_left_10.png,right_images/camera_right_10.png
2025-06-27 14:58:01,0.5552399158477783,11,-0.026666353,-0.00023924664,0.11362935,-0.00014007019,0.00013877952,-0.016062602,1.047179,0.058971174,2.5064028e-05,0.0018485291,0.843770298540179,-6.68459331863174e-05,0.5367044613500417,0.0001415033196340855,0.9999999851949234,-9.791304123545714e-05,-0.5367044468590024,0.00015856157897767314,0.8437702955070165,0.050760012,0.00053619663,0.11225049,0.0007793467,2.9686075e-06,-0.015323334,1.047179,-0.057594396,-6.1810446e-05,0.004346353,0.8476609779863168,0.0009468805043976904,-0.5305374348871073,-0.0007873994320261015,0.9999995512962689,0.0005266966825276333,0.5305376955518011,-2.871535011482923e-05,0.8476613432108445,0.0027022206,-0.006501041,0.09171576,-0.00013696286,-0.011969499,-0.006168542,1.0442191e-13,0.00019806191,-0.008733099,0.001925623,0.9999939664929667,-0.00018640417190328597,0.0034687506609840163,0.0011386347186707233,0.9609811026923939,-0.276611684097198,-0.0032818422632444784,0.2766139647985895,0.9609755168524138,left_images/camera_left_11.png,right_images/camera_right_11.png
2025-06-27 14:58:01,0.6120953559875488,12,-0.026666353,-0.0002392841,0.11362935,-0.00014010689,0.00013881334,-0.016062658,1.047179,0.05897117,2.5064808e-05,0.001848531,0.8437701270798366,-6.685367436973978e-05,0.5367047309072863,0.00014155637815154603,0.9999999851806656,-9.798193825118869e-05,-0.5367047164032268,0.00015864821033376977,0.843770124039289,0.050760012,0.000536208,0.11225049,0.00077934697,2.9631592e-06,-0.015323334,1.047179,-0.057594396,-6.1810446e-05,0.004346353,0.8476609779863168,0.0009468805043976904,-0.5305374348871073,-0.0007873994320261015,0.9999995512962689,0.0005266966825276333,0.5305376955518011,-2.871535011482923e-05,0.8476613432108445,0.0027022206,-0.006501041,0.09171576,-0.00013696111,-0.011969499,-0.006168542,1.06042264e-13,0.00019806191,-0.008733099,0.001925623,0.9999939664929667,-0.00018640417190328597,0.0034687506609840163,0.0011386347186707233,0.9609811026923939,-0.276611684097198,-0.0032818422632444784,0.2766139647985895,0.9609755168524138,left_images/camera_left_12.png,right_images/camera_right_12.png
2025-06-27 14:58:01,0.6606206893920898,13,-0.026666353,-0.00023929155,0.11362935,-0.00014012908,0.00013882067,-0.016062602,1.047179,0.058971174,2.5064028e-05,0.0018485291,0.843770298540179,-6.68459331863174e-05,0.5367044613500417,0.0001415033196340855,0.9999999851949234,-9.791304123545714e-05,-0.5367044468590024,0.00015856157897767314,0.8437702955070165,0.050760012,0.00053621933,0.11225049,0.00077934726,2.9577109e-06,-0.015323334,1.047179,-0.057594396,-6.1810446e-05,0.004346353,0.8476609779863168,0.0009468805043976904,-0.5305374348871073,-0.0007873994320261015,0.9999995512962689,0.0005266966825276333,0.5305376955518011,-2.871535011482923e-05,0.8476613432108445,0.0027022206,-0.006501041,0.09171576,-0.00013695937,-0.011969499,-0.006168542,1.0445502e-13,0.00019806191,-0.008733099,0.001925623,0.9999939664929667,-0.00018640417190328597,0.0034687506609840163,0.0011386347186707233,0.9609811026923939,-0.276611684097198,-0.0032818422632444784,0.2766139647985895,0.9609755168524138,left_images/camera_left_13.png,right_images/camera_right_13.png
2025-06-27 14:58:01,0.7110762596130371,14,-0.026666353,-0.00023928702,0.11362935,-0.00014011517,0.0001387879,-0.016062602,1.047179,0.058971174,2.5064028e-05,0.0018485291,0.843770298540179,-6.68459331863174e-05,0.5367044613500417,0.0001415033196340855,0.9999999851949234,-9.791304123545714e-05,-0.5367044468590024,0.00015856157897767314,0.8437702955070165,0.050760012,0.0005362307,0.11225049,0.00077934755,2.9522625e-06,-0.015323334,1.047179,-0.057594396,-6.1810446e-05,0.004346353,0.8476609779863168,0.0009468805043976904,-0.5305374348871073,-0.0007873994320261015,0.9999995512962689,0.0005266966825276333,0.5305376955518011,-2.871535011482923e-05,0.8476613432108445,0.0027022206,-0.006501041,0.09171576,-0.00013695762,-0.011969499,-0.006168542,1.0604661e-13,0.00019806191,-0.008733099,0.001925623,0.9999939664929667,-0.00018640417190328597,0.0034687506609840163,0.0011386347186707233,0.9609811026923939,-0.276611684097198,-0.0032818422632444784,0.2766139647985895,0.9609755168524138,left_images/camera_left_14.png,right_images/camera_right_14.png
2025-06-27 14:58:01,0.762671709060669,15,-0.026666353,-0.00023928205,0.11362935,-0.00014010126,0.00013875513,-0.016062602,1.047179,0.058971174,2.5064028e-05,0.0018485291,0.843770298540179,-6.68459331863174e-05,0.5367044613500417,0.0001415033196340855,0.9999999851949234,-9.791304123545714e-05,-0.5367044468590024,0.00015856157897767314,0.8437702955070165,0.050760012,0.00053624203,0.11225049,0.00077934784,2.9468142e-06,-0.015323334,1.047179,-0.057594396,-6.1810446e-05,0.004346353,0.8476609779863168,0.0009468805043976904,-0.5305374348871073,-0.0007873994320261015,0.9999995512962689,0.0005266966825276333,0.5305376955518011,-2.871535011482923e-05,0.8476613432108445,0.0027022206,-0.006501041,0.09171576,-0.00013695587,-0.011969499,-0.006168542,1.0533013e-13,0.00019806191,-0.008733099,0.001925623,0.9999939664929667,-0.00018640417190328597,0.0034687506609840163,0.0011386347186707233,0.9609811026923939,-0.276611684097198,-0.0032818422632444784,0.2766139647985895,0.9609755168524138,left_images/camera_left_15.png,right_images/camera_right_15.png
2025-06-27 14:58:01,0.8119101524353027,16,-0.026666353,-0.00023927707,0.11362935,-0.00014008734,0.00013872236,-0.016062602,1.047179,0.058971174,2.5064028e-05,0.0018485291,0.843770298540179,-6.68459331863174e-05,0.5367044613500417,0.0001415033196340855,0.9999999851949234,-9.791304123545714e-05,-0.5367044468590024,0.00015856157897767314,0.8437702955070165,0.050760012,0.0005362534,0.11225049,0.00077934813,2.941366e-06,-0.015323334,1.047179,-0.057594396,-6.1810446e-05,0.004346353,0.8476609779863168,0.0009468805043976904,-0.5305374348871073,-0.0007873994320261015,0.9999995512962689,0.0005266966825276333,0.5305376955518011,-2.871535011482923e-05,0.8476613432108445,0.0027022206,-0.006501041,0.09171576,-0.00013695413,-0.011969499,-0.006168542,1.0495054e-13,0.00019806191,-0.008733099,0.001925623,0.9999939664929667,-0.00018640417190328597,0.0034687506609840163,0.0011386347186707233,0.9609811026923939,-0.276611684097198,-0.0032818422632444784,0.2766139647985895,0.9609755168524138,left_images/camera_left_16.png,right_images/camera_right_16.png
2025-06-27 14:58:01,0.8636257648468018,17,-0.026666353,-0.00023927209,0.11362935,-0.00014007343,0.00013868959,-0.016062602,1.047179,0.058971174,2.5064028e-05,0.0018485291,0.843770298540179,-6.68459331863174e-05,0.5367044613500417,0.0001415033196340855,0.9999999851949234,-9.791304123545714e-05,-0.5367044468590024,0.00015856157897767314,0.8437702955070165,0.050760012,0.00053626474,0.11225049,0.0007793484,2.9359176e-06,-0.015323334,1.047179,-0.057594396,-6.1810446e-05,0.004346353,0.8476609779863168,0.0009468805043976904,-0.5305374348871073,-0.0007873994320261015,0.9999995512962689,0.0005266966825276333,0.5305376955518011,-2.871535011482923e-05,0.8476613432108445,0.0027022206,-0.006501041,0.09171576,-0.00013695238,-0.011969499,-0.006168542,1.05322475e-13,0.00019806191,-0.008733099,0.001925623,0.9999939664929667,-0.00018640417190328597,0.0034687506609840163,0.0011386347186707233,0.9609811026923939,-0.276611684097198,-0.0032818422632444784,0.2766139647985895,0.9609755168524138,left_images/camera_left_17.png,right_images/camera_right_17.png
2025-06-27 14:58:01,0.9354455471038818,18,-0.026666353,-0.00023926712,0.11362935,-0.00014005952,0.00013865682,-0.016062602,1.047179,0.058971144,2.5031279e-05,0.0018484965,0.8437703778878877,-6.651595870805094e-05,0.5367043366459398,0.00014114001347626665,0.9999999852419871,-9.795673556155011e-05,-0.5367043222095641,0.00015840344908841172,0.843770374823577,0.050760012,0.0005362761,0.11225049,0.0007793487,2.9304692e-06,-0.015323334,1.047179,-0.057594396,-6.1810446e-05,0.004346353,0.8476609779863168,0.0009468805043976904,-0.5305374348871073,-0.0007873994320261015,0.9999995512962689,0.0005266966825276333,0.5305376955518011,-2.871535011482923e-05,0.8476613432108445,0.0027022206,-0.006501041,0.09171576,-0.00013695064,-0.011969499,-0.006168542,1.0512165e-13,0.00019806191,-0.008733099,0.001925623,0.9999939664929667,-0.00018640417190328597,0.0034687506609840163,0.0011386347186707233,0.9609811026923939,-0.276611684097198,-0.0032818422632444784,0.2766139647985895,0.9609755168524138,left_images/camera_left_18.png,right_images/camera_right_18.png
2025-06-27 14:58:01,0.9959571361541748,19,-0.026666353,-0.00023926765,0.11362935,-0.00014007132,0.00013866376,-0.016062602,1.047179,0.058971174,2.5064028e-05,0.0018485291,0.843770298540179,-6.68459331863174e-05,0.5367044613500417,0.0001415033196340855,0.9999999851949234,-9.791304123545714e-05,-0.5367044468590024,0.00015856157897767314,0.8437702955070165,0.050760012,0.00053628744,0.11225049,0.000779349,2.925021e-06,-0.015323334,1.047179,-0.057594396,-6.1810446e-05,0.004346353,0.8476609779863168,0.0009468805043976904,-0.5305374348871073,-0.0007873994320261015,0.9999995512962689,0.0005266966825276333,0.5305376955518011,-2.871535011482923e-05,0.8476613432108445,0.0027022206,-0.006501041,0.09171576,-0.00013694889,-0.011969499,-0.006168542,1.05489544e-13,0.00019806191,-0.008733099,0.001925623,0.9999939664929667,-0.00018640417190328597,0.0034687506609840163,0.0011386347186707233,0.9609811026923939,-0.276611684097198,-0.0032818422632444784,0.2766139647985895,0.9609755168524138,left_images/camera_left_19.png,right_images/camera_right_19.png
2025-06-27 14:58:01,1.0518910884857178,20,-0.026666353,-0.00023930511,0.11362935,-0.00014010802,0.00013869758,-0.016062658,1.047179,0.05897117,2.5064808e-05,0.001848531,0.8437701270798366,-6.685367436973978e-05,0.5367047309072863,0.00014155637815154603,0.9999999851806656,-9.798193825118869e-05,-0.5367047164032268,0.00015864821033376977,0.843770124039289,0.050760012,0.0005362988,0.11225049,0.0007793493,2.9195726e-06,-0.015323334,1.047179,-0.057594366,-6.189739e-05,0.004346353,0.8476609950171772,0.0009474476278705356,-0.5305374066637347,-0.0007878231489990932,0.999999550756017,0.0005270886545319396,0.5305376677118925,-2.8822842983173137e-05,0.8476613606317495,0.0027022206,-0.006501041,0.09171576,-0.00013694714,-0.011969499,-0.006168542,1.05963917e-13,0.00019806191,-0.008733099,0.001925623,0.9999939664929667,-0.00018640417190328597,0.0034687506609840163,0.0011386347186707233,0.9609811026923939,-0.276611684097198,-0.0032818422632444784,0.2766139647985895,0.9609755168524138,left_images/camera_left_20.png,right_images/camera_right_20.png
2025-06-27 14:58:02,1.1035900115966797,21,-0.026666405,-0.00023947755,0.11362935,-0.0001400964,0.0001389615,-0.016062519,1.047179,0.058971204,2.508701e-05,0.0018486222,0.8437702192266703,-6.684295916290837e-05,0.5367045860417027,0.00014154564278130906,0.9999999851818777,-9.798507640040482e-05,-0.536704571539136,0.0001586450850102608,0.8437702161849097,0.050760012,0.00053629966,0.11225049,0.0007794237,2.9305077e-06,-0.015323362,1.047179,-0.057594366,-6.189739e-05,0.004346353,0.8476609950171772,0.0009474476278705356,-0.5305374066637347,-0.0007878231489990932,0.999999550756017,0.0005270886545319396,0.5305376677118925,-2.8822842983173137e-05,0.8476613606317495,-0.001183873,-0.008769662,0.091713935,-0.06709419,0.0020852366,0.04266889,8.0448774e-07,0.00028651033,-0.008752039,0.0019290354,0.9968864554593082,-0.06703564319067154,-0.041516472198273015,0.05353584504405826,0.9619856323058915,-0.2678013378093037,0.057890484686134606,0.2647449069935949,0.962579256998486,left_images/camera_left_21.png,right_images/camera_right_21.png
2025-06-27 14:58:02,1.1518428325653076,22,-0.026666412,-0.00023951053,0.11362935,-0.00014010076,0.00013900716,-0.016062519,1.047179,0.058971204,2.508701e-05,0.0018486222,0.8437702192266703,-6.684295916290837e-05,0.5367045860417027,0.00014154564278130906,0.9999999851818777,-9.798507640040482e-05,-0.536704571539136,0.0001586450850102608,0.8437702161849097,0.050760012,0.00053629646,0.11225049,0.0007794167,2.9569649e-06,-0.015323362,1.047179,-0.057594366,-6.189739e-05,0.004346353,0.8476609950171772,0.0009474476278705356,-0.5305374066637347,-0.0007878231489990932,0.999999550756017,0.0005270886545319396,0.5305376677118925,-2.8822842983173137e-05,0.8476613606317495,-0.004634899,-0.010947478,0.091730215,-0.12837425,0.016665881,0.078432515,6.866476e-07,0.0003239546,-0.008746244,0.0019350285,0.9889143040919669,-0.12802905058574662,-0.07521343874876069,0.10423977496372519,0.9593132911683835,-0.2623967962898876,0.10574766417190107,0.251647713269557,0.9620243551638338,left_images/camera_left_22.png,right_images/camera_right_22.png
2025-06-27 14:58:02,1.2015511989593506,23,-0.026666412,-0.0002395174,0.11362935,-0.00014010513,0.00013905282,-0.016062519,1.047179,0.058971204,2.508701e-05,0.0018486222,0.8437702192266703,-6.684295916290837e-05,0.5367045860417027,0.00014154564278130906,0.9999999851818777,-9.798507640040482e-05,-0.536704571539136,0.0001586450850102608,0.8437702161849097,0.050760012,0.00053629297,0.11225049,0.0007794097,2.9834248e-06,-0.015323362,1.047179,-0.05759441,-6.1801315e-05,0.0043463847,0.8476609170185684,0.0009470382146550424,-0.530537532016218,-0.0007876464966019989,0.9999995511530406,0.000526599196332006,0.5305377925956227,-2.8501529255584295e-05,0.8476612824798752,-0.008049024,-0.012920876,0.09174508,-0.1880152,0.02967897,0.10755993,5.900961e-07,0.00032216887,-0.008702655,0.001959823,0.9769563358122032,-0.18695724591134297,-0.10297235608472291,0.15479736575769718,0.9527835158223487,-0.2612304490898443,0.1469492887729337,0.2392708928776119,0.9597683816164602,left_images/camera_left_23.png,right_images/camera_right_23.png
2025-06-27 14:58:02,1.2654485702514648,24,-0.026666412,-0.00023952426,0.11362935,-0.00014010949,0.00013909848,-0.016062519,1.047179,0.058971204,2.508701e-05,0.0018486222,0.8437702192266703,-6.684295916290837e-05,0.5367045860417027,0.00014154564278130906,0.9999999851818777,-9.798507640040482e-05,-0.536704571539136,0.0001586450850102608,0.8437702161849097,0.050760012,0.0005362879,0.11225049,0.0007793958,2.9445919e-06,-0.015323362,1.047179,-0.05759441,-6.1801315e-05,0.0043463847,0.8476609170185684,0.0009470382146550424,-0.530537532016218,-0.0007876464966019989,0.9999995511530406,0.000526599196332006,0.5305377925956227,-2.8501529255584295e-05,0.8476612824798752,-0.012119753,-0.015118969,0.09174556,-0.24547501,0.044141136,0.1333922,5.708876e-07,0.00025160314,-0.008642108,0.00201122,0.9615635255618231,-0.24311921488445534,-0.12762693157434898,0.20384660112515576,0.9434597737609446,-0.26140049446140906,0.18396235897280502,0.22533686482445242,0.9567555319057464,left_images/camera_left_24.png,right_images/camera_right_24.png
2025-06-27 14:58:02,1.3167669773101807,25,-0.026666412,-0.00023953113,0.11362935,-0.00014011386,0.00013914415,-0.016062519,1.047179,0.058971204,2.508701e-05,0.0018486222,0.8437702192266703,-6.684295916290837e-05,0.5367045860417027,0.00014154564278130906,0.9999999851818777,-9.798507640040482e-05,-0.536704571539136,0.0001586450850102608,0.8437702161849097,0.050760012,0.0005362842,0.11225049,0.0007793801,2.9705118e-06,-0.015323362,1.047179,-0.05759441,-6.1801315e-05,0.0043463847,0.8476609170185684,0.0009470382146550424,-0.530537532016218,-0.0007876464966019989,0.9999995511530406,0.000526599196332006,0.5305377925956227,-2.8501529255584295e-05,0.8476612824798752,-0.015847318,-0.017940976,0.09175331,-0.3110972,0.069150664,0.15291923,5.578214e-07,0.00023947796,-0.008671152,0.0020411052,0.9400462460369786,-0.3061580548853601,-0.15026743073799137,0.26229517456339435,0.9306283164519732,-0.2552100664521767,0.21797774361742234,0.20049484294260236,0.9551374357865356,left_images/camera_left_25.png,right_images/camera_right_25.png
2025-06-27 14:58:02,1.3657779693603516,26,-0.026666412,-0.000239538,0.11362935,-0.00014011822,0.00013918981,-0.016062519,1.047179,0.058971204,2.508701e-05,0.0018486222,0.8437702192266703,-6.684295916290837e-05,0.5367045860417027,0.00014154564278130906,0.9999999851818777,-9.798507640040482e-05,-0.536704571539136,0.0001586450850102608,0.8437702161849097,0.050760012,0.0005362807,0.11225049,0.0007793644,2.9964456e-06,-0.015323362,1.047179,-0.0575944,-6.181063e-05,0.004346383,0.8476608561463239,0.0009472976086831339,-0.5305376288111163,-0.0007876072524026421,0.9999995508933145,0.0005271508186770617,0.5305378899118303,-2.8989830153897437e-05,0.8476612215546331,-0.019557353,-0.021154437,0.09177312,-0.38696936,0.10148012,0.1653894,5.8994937e-07,0.00027097983,-0.008742941,0.0020599999,0.9103155576180555,-0.3769695828257763,-0.17093717905326694,0.3311341143987637,0.9110372274216727,-0.24568550737309997,0.24834609688874704,0.16704820823939198,0.9541588506554523,left_images/camera_left_26.png,right_images/camera_right_26.png
2025-06-27 14:58:02,1.4184987545013428,27,-0.026666412,-0.00023954487,0.11362935,-0.00014012259,0.00013923548,-0.016062519,1.047179,0.058971204,2.508701e-05,0.0018486222,0.8437702192266703,-6.684295916290837e-05,0.5367045860417027,0.00014154564278130906,0.9999999851818777,-9.798507640040482e-05,-0.536704571539136,0.0001586450850102608,0.8437702161849097,0.050760012,0.00053628284,0.11225049,0.0007793696,3.0494978e-06,-0.015323362,1.047179,-0.0575944,-6.181063e-05,0.004346383,0.8476608561463239,0.0009472976086831339,-0.5305376288111163,-0.0007876072524026421,0.9999995508933145,0.0005271508186770617,0.5305378899118303,-2.8989830153897437e-05,0.8476612215546331,-0.023793127,-0.025342854,0.09181698,-0.4869819,0.14737049,0.16621998,6.5773804e-07,0.00037121808,-0.008870213,0.0020677587,0.8641399265617198,-0.4657221511276331,-0.19069626443891255,0.42216520152178744,0.8771061146436956,-0.2290445508601086,0.2739319805097137,0.11742121445331077,0.954554099278996,left_images/camera_left_27.png,right_images/camera_right_27.png
2025-06-27 14:58:02,1.4766757488250732,28,-0.026666412,-0.00023955174,0.11362935,-0.00014012695,0.00013928114,-0.016062519,1.047179,0.058971204,2.508701e-05,0.0018486222,0.8437702192266703,-6.684295916290837e-05,0.5367045860417027,0.00014154564278130906,0.9999999851818777,-9.798507640040482e-05,-0.536704571539136,0.0001586450850102608,0.8437702161849097,0.050760012,0.0005362849,0.11225049,0.0007793766,3.037794e-06,-0.015323362,1.047179,-0.0575944,-6.181063e-05,0.004346383,0.8476608561463239,0.0009472976086831339,-0.5305376288111163,-0.0007876072524026421,0.9999995508933145,0.0005271508186770617,0.5305378899118303,-2.8989830153897437e-05,0.8476612215546331,-0.029230308,-0.029983344,0.09187628,-0.5852897,0.19414574,0.16028757,6.9913233e-07,0.00043032342,-0.008915388,0.0021076594,0.810587772381925,-0.5467494271768364,-0.20979162792330386,0.5079561309684751,0.8347010592674019,-0.21273154601378413,0.29142414497849367,0.06587264636917693,0.9543231958743723,left_images/camera_left_28.png,right_images/camera_right_28.png
2025-06-27 14:58:02,1.5406973361968994,29,-0.026666412,-0.0002395586,0.11362935,-0.00014013132,0.0001393268,-0.016062519,1.047179,0.058971204,2.5078096e-05,0.0018486204,0.8437701577682372,-6.718288293627617e-05,0.5367046826199903,0.00014166175815085726,0.9999999852095093,-9.753423768640802e-05,-0.5367046681292335,0.0001583270080682109,0.8437701548057077,0.050760012,0.00053628685,0.11225049,0.0007793836,3.0260765e-06,-0.015323362,1.047179,-0.0575944,-6.181063e-05,0.004346383,0.8476608561463239,0.0009472976086831339,-0.5305376288111163,-0.0007876072524026421,0.9999995508933145,0.0005271508186770617,0.5305378899118303,-2.8989830153897437e-05,0.8476612215546331,-0.03909698,-0.036677577,0.091878325,-0.68713814,0.24067467,0.15157244,1.0706798e-06,0.0001716509,-0.008695173,0.0023084218,0.747471652535499,-0.6238078463492731,-0.22836352486536007,0.5903344697610202,0.7814062181522284,-0.20226105914141504,0.30461671403228247,0.016373547755863888,0.9523342713911229,left_images/camera_left_29.png,right_images/camera_right_29.png
2025-06-27 14:58:02,1.6099653244018555,30,-0.026666412,-0.00023956544,0.11362935,-0.00014013362,0.00013937232,-0.016062407,1.047179,0.058971204,2.5078096e-05,0.0018486204,0.8437701577682372,-6.718288293627617e-05,0.5367046826199903,0.00014166175815085726,0.9999999852095093,-9.753423768640802e-05,-0.5367046681292335,0.0001583270080682109,0.8437701548057077,0.050760012,0.00053628883,0.11225049,0.00077939057,3.014359e-06,-0.015323362,1.047179,-0.0575944,-6.181063e-05,0.004346383,0.8476608561463239,0.0009472976086831339,-0.5305376288111163,-0.0007876072524026421,0.9999995508933145,0.0005271508186770617,0.5305378899118303,-2.8989830153897437e-05,0.8476612215546331,-0.0489421,-0.044923957,0.091666445,-0.7722926,0.2755921,0.1427959,1.4677994e-06,-0.00016591582,-0.008208748,0.002792012,0.6894552799856202,-0.6824288697676277,-0.24278025992165905,0.6522275063113403,0.7306974583402571,-0.20169408614527778,0.31504078610687974,-0.019288910875586415,0.9488821006881691,left_images/camera_left_30.png,right_images/camera_right_30.png
2025-06-27 14:58:02,1.6685869693756104,31,-0.026666412,-0.00023957228,0.11362935,-0.00014013592,0.00013941784,-0.016062295,1.047179,0.058971204,2.5078096e-05,0.0018486204,0.8437701577682372,-6.718288293627617e-05,0.5367046826199903,0.00014166175815085726,0.9999999852095093,-9.753423768640802e-05,-0.5367046681292335,0.0001583270080682109,0.8437701548057077,0.050760012,0.0005362908,0.11225049,0.00077939755,3.0026415e-06,-0.015323362,1.047179,-0.0575944,-6.181063e-05,0.004346383,0.8476608561463239,0.0009472976086831339,-0.5305376288111163,-0.0007876072524026421,0.9999995508933145,0.0005271508186770617,0.5305378899118303,-2.8989830153897437e-05,0.8476612215546331,-0.056448963,-0.05432283,0.09133598,-0.8366155,0.30007246,0.13420615,1.8379875e-06,-0.00041528675,-0.00755274,0.003424433,0.6431182120190884,-0.7227686085644331,-0.25299111415858944,0.6940318891743924,0.6897563895746501,-0.20629071682935116,0.32360269185900636,-0.0429145839403918,0.945219358829911,left_images/camera_left_31.png,right_images/camera_right_31.png
2025-06-27 14:58:02,1.7177777290344238,32,-0.026666412,-0.00023957912,0.11362935,-0.00014013822,0.00013946336,-0.016062183,1.047179,0.058971204,2.5078953e-05,0.0018486194,0.8437703599365147,-6.721960543384304e-05,0.5367043647802104,0.0001417317497571009,0.9999999851955212,-9.757596268056325e-05,-0.5367043502755643,0.00015839975387470334,0.8437703569720866,0.050760012,0.0005362928,0.11225049,0.00077940454,2.990924e-06,-0.015323362,1.047179,-0.05759441,-6.1801315e-05,0.0043463847,0.8476609170185684,0.0009470382146550424,-0.530537532016218,-0.0007876464966019989,0.9999995511530406,0.000526599196332006,0.5305377925956227,-2.8501529255584295e-05,0.8476612824798752,-0.061916698,-0.06373835,0.09100961,-0.88476646,0.31555098,0.12507783,1.7781617e-06,-0.00061719003,-0.0068377825,0.0040431106,0.6078638543514109,-0.7509437376950461,-0.2580407669141447,0.7223796862991372,0.6579031056647142,-0.21291099637896466,0.3296500013581166,-0.056982509363111875,0.9423820192635659,left_images/camera_left_32.png,right_images/camera_right_32.png
2025-06-27 14:58:02,1.792858600616455,33,-0.026666412,-0.00023958039,0.11362935,-0.00014012128,0.00013946937,-0.016062183,1.047179,0.058971204,2.5078953e-05,0.0018486194,0.8437703599365147,-6.721960543384304e-05,0.5367043647802104,0.0001417317497571009,0.9999999851955212,-9.757596268056325e-05,-0.5367043502755643,0.00015839975387470334,0.8437703569720866,0.050760012,0.00053628796,0.11225049,0.0007793906,2.9520884e-06,-0.015323362,1.047179,-0.05759441,-6.1801315e-05,0.0043463847,0.8476609170185684,0.0009470382146550424,-0.530537532016218,-0.0007876464966019989,0.9999995511530406,0.000526599196332006,0.5305377925956227,-2.8501529255584295e-05,0.8476612824798752,-0.06565086,-0.07112555,0.09075386,-0.91987467,0.32423776,0.1155773,1.5228896e-06,-0.00078177685,-0.006259381,0.004523485,0.582358175267925,-0.7706191262231753,-0.2588534681970524,0.7419591061688918,0.6339693959502546,-0.21812723298920825,0.3321981945641364,-0.06503051051236577,0.9409651386904986,left_images/camera_left_33.png,right_images/camera_right_33.png
2025-06-27 14:58:02,1.8606016635894775,34,-0.026666412,-0.00023958126,0.11362935,-0.00014010434,0.00013947536,-0.016062183,1.047179,0.058971204,2.5078953e-05,0.0018486194,0.8437703599365147,-6.721960543384304e-05,0.5367043647802104,0.0001417317497571009,0.9999999851955212,-9.757596268056325e-05,-0.5367043502755643,0.00015839975387470334,0.8437703569720866,0.050760012,0.00053628423,0.11225049,0.0007793749,2.9780083e-06,-0.015323362,1.047179,-0.05759441,-6.1801315e-05,0.0043463847,0.8476609170185684,0.0009470382146550424,-0.530537532016218,-0.0007876464966019989,0.9999995511530406,0.000526599196332006,0.5305377925956227,-2.8501529255584295e-05,0.8476612824798752,-0.06772404,-0.07684973,0.09057448,-0.9488037,0.32592866,0.10198944,7.3496113e-07,-0.0009304923,-0.005781958,0.0048599634,0.5626733754892735,-0.786903652607362,-0.25334031267980117,0.7582323399337915,0.6133523507249246,-0.22109412597067496,0.3293666516118997,-0.06768703992199367,0.9417728353656014,left_images/camera_left_34.png,right_images/camera_right_34.png
2025-06-27 14:58:02,1.9200632572174072,35,-0.026666412,-0.00023958214,0.11362935,-0.0001400874,0.00013948136,-0.016062183,1.047179,0.058971204,2.5078953e-05,0.0018486194,0.8437703599365147,-6.721960543384304e-05,0.5367043647802104,0.0001417317497571009,0.9999999851955212,-9.757596268056325e-05,-0.5367043502755643,0.00015839975387470334,0.8437703569720866,0.050760012,0.00053628074,0.11225049,0.0007793592,3.003942e-06,-0.015323362,1.047179,-0.0575944,-6.181063e-05,0.004346383,0.8476608561463239,0.0009472976086831339,-0.5305376288111163,-0.0007876072524026421,0.9999995508933145,0.0005271508186770617,0.5305378899118303,-2.8989830153897437e-05,0.8476612215546331,-0.06850959,-0.08193156,0.09047398,-0.97140294,0.32494166,0.087067045,5.1419516e-07,-0.0010256912,-0.0053499527,0.0050891666,0.5481371423190462,-0.7994202259747899,-0.24591253630656087,0.7710512456989641,0.5969058800520868,-0.22177318788645253,0.3240766108752458,-0.06804904600110048,0.9435802443999953,left_images/camera_left_35.png,right_images/camera_right_35.png
2025-06-27 14:58:02,1.9771530628204346,36,-0.026666412,-0.00023958301,0.11362935,-0.00014007046,0.00013948735,-0.016062183,1.047179,0.058971204,2.5078953e-05,0.0018486194,0.8437703599365147,-6.721960543384304e-05,0.5367043647802104,0.0001417317497571009,0.9999999851955212,-9.757596268056325e-05,-0.5367043502755643,0.00015839975387470334,0.8437703569720866,0.050760012,0.00053628226,0.11225049,0.0007793662,2.9922278e-06,-0.015323362,1.047179,-0.05759441,-6.1801315e-05,0.0043463847,0.8476609170185684,0.0009470382146550424,-0.530537532016218,-0.0007876464966019989,0.9999995511530406,0.000526599196332006,0.5305377925956227,-2.8501529255584295e-05,0.8476612824798752,-0.06738048,-0.086480446,0.090428956,-0.98742306,0.32150385,0.07286304,6.688845e-07,-0.0009968015,-0.004951226,0.005240443,0.5385260704330724,-0.808204971250775,-0.23831574834544123,0.7800800802707105,0.5851262616695874,-0.2215904471528855,0.31853530389700235,-0.06657313534833537,0.9455703452526083,left_images/camera_left_36.png,right_images/camera_right_36.png
2025-06-27 14:58:02,2.0282492637634277,37,-0.026666412,-0.00023960866,0.11362935,-0.00014012124,0.0001395405,-0.016062183,1.047179,0.058971204,2.5078953e-05,0.0018486194,0.8437703599365147,-6.721960543384304e-05,0.5367043647802104,0.0001417317497571009,0.9999999851955212,-9.757596268056325e-05,-0.5367043502755643,0.00015839975387470334,0.8437703569720866,0.050760012,0.0005362774,0.11225049,0.00077935227,2.9533921e-06,-0.015323362,1.047179,-0.05759441,-6.1801315e-05,0.0043463847,0.8476609170185684,0.0009470382146550424,-0.530537532016218,-0.0007876464966019989,0.9999995511530406,0.000526599196332006,0.5305377925956227,-2.8501529255584295e-05,0.8476612824798752,-0.06247181,-0.09240939,0.090502046,-0.9958487,0.31662884,0.056604117,9.878212e-07,-0.00067749806,-0.0044305585,0.0053013917,0.5353309320471029,-0.8123268461033368,-0.2313998450591222,0.7848003026200374,0.5796567382144802,-0.219286458428347,0.3122647565785765,-0.06421184425287361,0.9478225365840205,left_images/camera_left_37.png,right_images/camera_right_37.png
2025-06-27 14:58:02,2.08027720451355,38,-0.026666412,-0.00023961357,0.11362935,-0.00014010431,0.00013954651,-0.016062183,1.047179,0.058971204,2.5078953e-05,0.0018486194,0.8437703599365147,-6.721960543384304e-05,0.5367043647802104,0.0001417317497571009,0.9999999851955212,-9.757596268056325e-05,-0.5367043502755643,0.00015839975387470334,0.8437703569720866,0.050760012,0.00053626456,0.11225049,0.00077938556,2.9754954e-06,-0.015323334,1.047179,-0.05759441,-6.1801315e-05,0.0043463847,0.8476609170185684,0.0009470382146550424,-0.530537532016218,-0.0007876464966019989,0.9999995511530406,0.000526599196332006,0.5305377925956227,-2.8501529255584295e-05,0.8476612824798752,-0.05586308,-0.09998313,0.090700984,-0.99986875,0.31187984,0.0406854,7.190528e-07,-0.00021471223,-0.0037436967,0.005293904,0.5355119268234401,-0.8137409022960326,-0.22594849005976092,0.7865905012389384,0.577979113820195,-0.2172913420923584,0.3074123608291033,-0.06136683076435846,0.9495955731212189,left_images/camera_left_38.png,right_images/camera_right_38.png
2025-06-27 14:58:03,2.130600929260254,39,-0.026666412,-0.00023961444,0.11362935,-0.00014008737,0.0001395525,-0.016062183,1.047179,0.058971204,2.5078953e-05,0.0018486194,0.8437703599365147,-6.721960543384304e-05,0.5367043647802104,0.0001417317497571009,0.9999999851955212,-9.757596268056325e-05,-0.5367043502755643,0.00015839975387470334,0.8437703569720866,0.050760012,0.0005362595,0.11225049,0.00077936985,3.0014244e-06,-0.015323334,1.047179,-0.0575944,-6.181063e-05,0.004346383,0.8476608561463239,0.0009472976086831339,-0.5305376288111163,-0.0007876072524026421,0.9999995508933145,0.0005271508186770617,0.5305378899118303,-2.8989830153897437e-05,0.8476612215546331,-0.04777485,-0.10689745,0.09092464,-0.9989314,0.30445617,0.027601842,3.3551333e-07,0.00034661207,-0.0030790968,0.005250212,0.5389850129614981,-0.8129090220139795,-0.22062202458315291,0.7854076254480028,0.5796653342215004,-0.2170782397892665,0.3043517992242261,-0.056276302562908054,0.9508958723639642,left_images/camera_left_39.png,right_images/camera_right_39.png
2025-06-27 14:58:03,2.1816136837005615,40,-0.026666412,-0.00023961531,0.11362935,-0.00014007044,0.0001395585,-0.016062183,1.047179,0.058971204,2.5078953e-05,0.0018486194,0.8437703599365147,-6.721960543384304e-05,0.5367043647802104,0.0001417317497571009,0.9999999851955212,-9.757596268056325e-05,-0.5367043502755643,0.00015839975387470334,0.8437703569720866,0.050760012,0.00053626165,0.11225049,0.0007793751,3.0544766e-06,-0.015323334,1.047179,-0.0575944,-6.181063e-05,0.004346383,0.8476608561463239,0.0009472976086831339,-0.5305376288111163,-0.0007876072524026421,0.9999995508933145,0.0005271508186770617,0.5305378899118303,-2.8989830153897437e-05,0.8476612215546331,-0.04076758,-0.11217144,0.09110912,-0.9955068,0.29696763,0.01770045,0.02666676,0.00081966165,-0.0025581159,0.005205868,0.5437240308821737,-0.811119946095829,-0.2155193988640941,0.783078749069079,0.5826898703559914,-0.21739408396026833,0.3019136482467252,-0.05056627364179993,0.9519932777978715,left_images/camera_left_40.png,right_images/camera_right_40.png
2025-06-27 14:58:03,2.231844663619995,41,-0.026666412,-0.00023964097,0.11362935,-0.0001401212,0.00013961164,-0.016062183,1.047179,0.058971204,2.5078953e-05,0.0018486194,0.8437703599365147,-6.721960543384304e-05,0.5367043647802104,0.0001417317497571009,0.9999999851955212,-9.757596268056325e-05,-0.5367043502755643,0.00015839975387470334,0.8437703569720866,0.050760012,0.0005362637,0.11225049,0.00077938207,3.0427727e-06,-0.015323334,1.047179,-0.0575944,-6.181063e-05,0.004346383,0.8476608561463239,0.0009472976086831339,-0.5305376288111163,-0.0007876072524026421,0.9999995508933145,0.0005271508186770617,0.5305378899118303,-2.8989830153897437e-05,0.8476612215546331,-0.03462838,-0.11594947,0.0912655,-0.9903022,0.28967133,0.009975292,0.05333353,0.0012233567,-0.0021707362,0.005149889,0.5493844665155545,-0.8085912144096301,-0.21061091123438852,0.7800352417646637,0.5866689389179052,-0.21763404539290826,0.29953585687954404,-0.044719169139187484,0.9530364454494584,left_images/camera_left_41.png,right_images/camera_right_41.png
2025-06-27 14:58:03,2.2853903770446777,42,-0.026666412,-0.00023964587,0.11362935,-0.00014010428,0.00013961765,-0.016062183,1.047179,0.058971204,2.5078953e-05,0.0018486194,0.8437703599365147,-6.721960543384304e-05,0.5367043647802104,0.0001417317497571009,0.9999999851955212,-9.757596268056325e-05,-0.5367043502755643,0.00015839975387470334,0.8437703569720866,0.050760012,0.00053626567,0.11225049,0.00077938905,3.0310553e-06,-0.015323334,1.047179,-0.0575944,-6.181063e-05,0.004346383,0.8476608561463239,0.0009472976086831339,-0.5305376288111163,-0.0007876072524026421,0.9999995508933145,0.0005271508186770617,0.5305378899118303,-2.8989830153897437e-05,0.8476612215546331,-0.027675819,-0.118277065,0.091402836,-0.982449,0.28174514,0.0033798486,0.0800004,0.0016936198,-0.0019118176,0.0050703827,0.5567974315698166,-0.8046533779766373,-0.20617847004001702,0.7757493545618354,0.5924641528294659,-0.21725369158879448,0.2969672693987521,-0.03897651758238806,0.9540918572040109,left_images/camera_left_42.png,right_images/camera_right_42.png
2025-06-27 14:58:03,2.336467742919922,43,-0.026666412,-0.00023964675,0.11362935,-0.00014008734,0.00013962365,-0.016062183,1.047179,0.058971204,2.5078953e-05,0.0018486194,0.8437703599365147,-6.721960543384304e-05,0.5367043647802104,0.0001417317497571009,0.9999999851955212,-9.757596268056325e-05,-0.5367043502755643,0.00015839975387470334,0.8437703569720866,0.050760012,0.00053626765,0.11225049,0.00077939604,3.0193378e-06,-0.015323334,1.047179,-0.0575944,-6.181063e-05,0.004346383,0.8476608561463239,0.0009472976086831339,-0.5305376288111163,-0.0007876072524026421,0.9999995508933145,0.0005271508186770617,0.5305378899118303,-2.8989830153897437e-05,0.8476612215546331,-0.020416977,-0.12001726,0.091519274,-0.97409105,0.2745163,-0.0030131375,0.10666724,0.0022046962,-0.0017187691,0.004996975,0.5644381456437864,-0.8002248060633312,-0.2026075998157712,0.7712540614708359,0.598719418507564,-0.2161069887039852,0.2942392774714888,-0.034282906278031225,0.9551167101093918,left_images/camera_left_43.png,right_images/camera_right_43.png
2025-06-27 14:58:03,2.3932478427886963,44,-0.026666412,-0.00023964762,0.11362935,-0.0001400704,0.00013962964,-0.016062183,1.047179,0.058971204,2.5078953e-05,0.0018486194,0.8437703599365147,-6.721960543384304e-05,0.5367043647802104,0.0001417317497571009,0.9999999851955212,-9.757596268056325e-05,-0.5367043502755643,0.00015839975387470334,0.8437703569720866,0.050760012,0.0005362696,0.11225049,0.000779403,3.0076203e-06,-0.015323334,1.047179,-0.0575944,-6.181063e-05,0.004346383,0.8476608561463239,0.0009472976086831339,-0.5305376288111163,-0.0007876072524026421,0.9999995508933145,0.0005271508186770617,0.5305378899118303,-2.8989830153897437e-05,0.8476612215546331,-0.011509684,-0.12170856,0.0916388,-0.9614127,0.26779258,-0.0108138705,0.13333473,0.002859097,-0.0015595669,0.004918768,0.5756617317991626,-0.79297288972388,-0.1995183367636877,0.7644862903909501,0.6085155237632948,-0.21276646620970857,0.2901280447427877,-0.030047520730375074,0.9565160030818537,left_images/camera_left_44.png,right_images/camera_right_44.png
2025-06-27 14:58:03,2.465212821960449,45,-0.026666412,-0.00023967327,0.11362935,-0.00014012118,0.00013968279,-0.016062183,1.047179,0.058971204,2.5078953e-05,0.0018486194,0.8437703599365147,-6.721960543384304e-05,0.5367043647802104,0.0001417317497571009,0.9999999851955212,-9.757596268056325e-05,-0.5367043502755643,0.00015839975387470334,0.8437703569720866,0.050760012,0.0005362716,0.11225049,0.00077941,2.9959028e-06,-0.015323334,1.047179,-0.05759441,-6.1801315e-05,0.0043463847,0.8476609170185684,0.0009470382146550424,-0.530537532016218,-0.0007876464966019989,0.9999995511530406,0.000526599196332006,0.5305377925956227,-2.8501529255584295e-05,0.8476612824798752,-0.0010187796,-0.12344277,0.09177681,-0.9457298,0.2622297,-0.020745449,0.16000223,0.0036595077,-0.0014272351,0.004828357,0.5894670833281035,-0.7833929986634183,-0.19703798445425627,0.7560961155780028,0.6209359857860807,-0.20677805870963034,0.28433645858474377,-0.02709079550336889,0.958341727735196,left_images/camera_left_45.png,right_images/camera_right_45.png
2025-06-27 14:58:03,2.5246942043304443,46,-0.026666412,-0.00023967818,0.11362935,-0.00014010425,0.0001396888,-0.016062183,1.047179,0.058971204,2.5078953e-05,0.0018486194,0.8437703599365147,-6.721960543384304e-05,0.5367043647802104,0.0001417317497571009,0.9999999851955212,-9.757596268056325e-05,-0.5367043502755643,0.00015839975387470334,0.8437703569720866,0.050760012,0.0005362668,0.11225049,0.0007793961,2.9570672e-06,-0.015323334,1.047179,-0.05759441,-6.1801315e-05,0.0043463847,0.8476609170185684,0.0009470382146550424,-0.530537532016218,-0.0007876464966019989,0.9999995511530406,0.000526599196332006,0.5305377925956227,-2.8501529255584295e-05,0.8476612824798752,0.010436891,-0.12439416,0.09190248,-0.9293086,0.25585946,-0.03006531,0.18666886,0.0045410437,-0.0013554072,0.004738072,0.6034502711920033,-0.7732105059379561,-0.19491865920292856,0.746967849457858,0.633687976077885,-0.20119289463253098,0.27908207050006,-0.024188064856115646,0.9599625698140088,left_images/camera_left_46.png,right_images/camera_right_46.png
2025-06-27 14:58:03,2.583364963531494,47,-0.026666412,-0.00023967797,0.11362935,-0.00014008775,0.000139644,-0.016062183,1.047179,0.058971204,2.5078953e-05,0.0018486194,0.8437703599365147,-6.721960543384304e-05,0.5367043647802104,0.0001417317497571009,0.9999999851955212,-9.757596268056325e-05,-0.5367043502755643,0.00015839975387470334,0.8437703569720866,0.050760012,0.00053626305,0.11225049,0.0007793804,2.982987e-06,-0.015323334,1.047179,-0.05759441,-6.1801315e-05,0.0043463847,0.8476609170185684,0.0009470382146550424,-0.530537532016218,-0.0007876464966019989,0.9999995511530406,0.000526599196332006,0.5305377925956227,-2.8501529255584295e-05,0.8476612824798752,0.021876173,-0.12491404,0.092021294,-0.9129226,0.2502043,-0.039087813,0.21333556,0.0054345243,-0.0013275918,0.0046522133,0.6171604282141357,-0.7627115167935166,-0.19334980733654134,0.7376013485623742,0.6463626490532605,-0.1953447631952755,0.2739657942983233,-0.02205602093272295,0.9614864926222852,left_images/camera_left_47.png,right_images/camera_right_47.png
2025-06-27 14:58:03,2.6362967491149902,48,-0.026666412,-0.00023967873,0.11362935,-0.00014007081,0.00013965,-0.016062183,1.047179,0.058971204,2.5078953e-05,0.0018486194,0.8437703599365147,-6.721960543384304e-05,0.5367043647802104,0.0001417317497571009,0.9999999851955212,-9.757596268056325e-05,-0.5367043502755643,0.00015839975387470334,0.8437703569720866,0.050760012,0.00053625955,0.11225049,0.00077936467,3.0089209e-06,-0.015323334,1.047179,-0.0575944,-6.181063e-05,0.004346383,0.8476608561463239,0.0009472976086831339,-0.5305376288111163,-0.0007876072524026421,0.9999995508933145,0.0005271508186770617,0.5305378899118303,-2.8989830153897437e-05,0.8476612215546331,0.032432456,-0.12492734,0.09212776,-0.89565897,0.2448819,-0.04709304,0.24000233,0.006253906,-0.0013452247,0.0045687417,0.6312355255496134,-0.7515835986168666,-0.1914779506215386,0.7274813304270091,0.6593501231834626,-0.1898112982361735,0.268910068915711,-0.019480999668228693,0.9629682577778326,left_images/camera_left_48.png,right_images/camera_right_48.png
2025-06-27 14:58:03,2.686513900756836,49,-0.026666412,-0.00023970439,0.11362935,-0.00014012158,0.00013970314,-0.016062183,1.047179,0.058971286,2.5038664e-05,0.0018485002,0.8437703292302555,-6.713375637047519e-05,0.5367044130652598,0.00014164590739810674,0.999999985205246,-9.760094619494329e-05,-0.5367043985725319,0.00015837476609728877,0.8437703262561029,0.050760012,0.00053626107,0.11225049,0.00077937165,2.9972066e-06,-0.015323334,1.047179,-0.0575944,-6.181063e-05,0.004346383,0.8476608561463239,0.0009472976086831339,-0.5305376288111163,-0.0007876072524026421,0.9999995508933145,0.0005271508186770617,0.5305378899118303,-2.8989830153897437e-05,0.8476612215546331,0.041193087,-0.12470073,0.09222379,-0.8749423,0.2395827,-0.053254977,0.26666895,0.006905996,-0.001379489,0.0044846013,0.6475048234580117,-0.7384449624111556,-0.18824595902222227,0.714958055696926,0.6741560360290952,-0.18533380069379854,0.2637659610197655,-0.014583434956290886,0.9644764596568417,left_images/camera_left_49.png,right_images/camera_right_49.png
2025-06-27 14:58:03,2.734734535217285,50,-0.026666412,-0.00023970928,0.11362935,-0.00014009645,0.00013970889,-0.016062183,1.047179,0.058971286,2.5038664e-05,0.0018485002,0.8437703292302555,-6.713375637047519e-05,0.5367044130652598,0.00014164590739810674,0.999999985205246,-9.760094619494329e-05,-0.5367043985725319,0.00015837476609728877,0.8437703262561029,0.050760012,0.0005362638,0.11225049,0.0007793769,3.0502556e-06,-0.015323334,1.047179,-0.0575944,-6.181063e-05,0.004346383,0.8476608561463239,0.0009472976086831339,-0.5305376288111163,-0.0007876072524026421,0.9999995508933145,0.0005271508186770617,0.5305378899118303,-2.8989830153897437e-05,0.8476612215546331,0.048098855,-0.12441861,0.092308044,-0.85318834,0.23459078,-0.05766067,0.29333553,0.007395747,-0.0014108056,0.0044062976,0.6640518039150929,-0.7246243531414808,-0.18426814307253897,0.7013968802889411,0.6890945027820412,-0.1821844739721593,0.2589934710336381,-0.008265172101180399,0.9658437083152149,left_images/camera_left_50.png,right_images/camera_right_50.png
2025-06-27 14:58:03,2.7896296977996826,51,-0.026666412,-0.00023971015,0.11362935,-0.00014007131,0.00013971463,-0.016062183,1.047179,0.058971286,2.5038664e-05,0.0018485002,0.8437703292302555,-6.713375637047519e-05,0.5367044130652598,0.00014164590739810674,0.999999985205246,-9.760094619494329e-05,-0.5367043985725319,0.00015837476609728877,0.8437703262561029,0.050760012,0.00053626584,0.11225049,0.0007793839,3.0385518e-06,-0.015323334,1.047179,-0.0575944,-6.181063e-05,0.004346383,0.8476608561463239,0.0009472976086831339,-0.5305376288111163,-0.0007876072524026421,0.9999995508933145,0.0005271508186770617,0.5305378899118303,-2.8989830153897437e-05,0.8476612215546331,0.05416066,-0.124167055,0.092374586,-0.82525295,0.22915567,-0.06046596,0.32000232,0.0077904495,-0.001439141,0.0043400833,0.6845161525771146,-0.7066904341897637,-0.17895884187630326,0.6833365158112821,0.7075221117574031,-0.1801767674625183,0.25394653575097637,0.0010447961658492377,0.967217692859808,left_images/camera_left_51.png,right_images/camera_right_51.png
2025-06-27 14:58:03,2.841904401779175,52,-0.026666358,-0.00023968433,0.11362935,-0.00014009711,0.00013970734,-0.01606224,1.047179,0.05897125,2.4914973e-05,0.0018485589,0.8437702370705039,-6.732973410080082e-05,0.5367045579280024,0.00014165140944672383,0.9999999852392029,-9.724439536113323e-05,-0.536704543458376,0.00015807688361462358,0.8437702341531343,0.050760012,0.0005362678,0.11225049,0.00077939086,3.0268343e-06,-0.015323334,1.047179,-0.0575944,-6.181063e-05,0.004346383,0.8476608561463239,0.0009472976086831339,-0.5305376288111163,-0.0007876072524026421,0.9999995508933145,0.0005271508186770617,0.5305378899118303,-2.8989830153897437e-05,0.8476612215546331,0.059053246,-0.123953685,0.09242905,-0.7970597,0.22484936,-0.06257478,0.34666902,0.008093784,-0.0014706422,0.004283211,0.7046172250805026,-0.6879962641097296,-0.17371156176520774,0.6645590879706901,0.7256422824475242,-0.17833815217140792,0.2487484366089905,0.010218536852351218,0.9685142212632607,left_images/camera_left_52.png,right_images/camera_right_52.png
2025-06-27 14:58:03,2.9082629680633545,53,-0.026666349,-0.00023967576,0.11362935,-0.00014008801,0.00013972443,-0.016062295,1.047179,0.05897125,2.4914973e-05,0.0018485589,0.8437702370705039,-6.732973410080082e-05,0.5367045579280024,0.00014165140944672383,0.9999999852392029,-9.724439536113323e-05,-0.536704543458376,0.00015807688361462358,0.8437702341531343,0.050760012,0.0005362698,0.11225049,0.00077939784,3.0151168e-06,-0.015323334,1.047179,-0.0575944,-6.181063e-05,0.004346383,0.8476608561463239,0.0009472976086831339,-0.5305376288111163,-0.0007876072524026421,0.9999995508933145,0.0005271508186770617,0.5305378899118303,-2.8989830153897437e-05,0.8476612215546331,0.06285901,-0.12358228,0.0924753,-0.76951504,0.22005615,-0.064604536,0.37333566,0.008291795,-0.0015032041,0.004224634,0.7237496693651042,-0.6694872622734929,-0.16725197083277038,0.6459122813625617,0.7425471506995623,-0.17725984816921314,0.24286568485258148,0.020261654461197237,0.9698482997250558,left_images/camera_left_53.png,right_images/camera_right_53.png
2025-06-27 14:58:03,2.9792704582214355,54,-0.026666349,-0.00023967082,0.11362935,-0.00014007954,0.0001396918,-0.016062295,1.047179,0.05897125,2.4914973e-05,0.0018485589,0.8437702370705039,-6.732973410080082e-05,0.5367045579280024,0.00014165140944672383,0.9999999852392029,-9.724439536113323e-05,-0.536704543458376,0.00015807688361462358,0.8437702341531343,0.050760012,0.0005362718,0.11225049,0.0007794048,3.0033993e-06,-0.015323334,1.047179,-0.0575944,-6.181063e-05,0.004346383,0.8476608561463239,0.0009472976086831339,-0.5305376288111163,-0.0007876072524026421,0.9999995508933145,0.0005271508186770617,0.5305378899118303,-2.8989830153897437e-05,0.8476612215546331,0.06558084,-0.123279,0.09250756,-0.7444664,0.21593368,-0.06663962,0.4000023,0.008404183,-0.0015308822,0.004177414,0.740753297881979,-0.6522752083535672,-0.16069102104437166,0.6286727367549458,0.7574026385925604,-0.17638546741178518,0.23675967084370325,0.029636052711822486,0.9711161427149912,left_images/camera_left_54.png,right_images/camera_right_54.png
2025-06-27 14:58:03,3.0388143062591553,55,-0.026666349,-0.00023966604,0.11362935,-0.00014007045,0.00013970888,-0.016062351,1.047179,0.05897125,2.4914973e-05,0.0018485589,0.8437702370705039,-6.732973410080082e-05,0.5367045579280024,0.00014165140944672383,0.9999999852392029,-9.724439536113323e-05,-0.536704543458376,0.00015807688361462358,0.8437702341531343,0.050760012,0.00053627376,0.11225049,0.0007794118,2.9916819e-06,-0.015323334,1.047179,-0.05759441,-6.1801315e-05,0.0043463847,0.8476609170185684,0.0009470382146550424,-0.530537532016218,-0.0007876464966019989,0.9999995511530406,0.000526599196332006,0.5305377925956227,-2.8501529255584295e-05,0.8476612824798752,0.06654554,-0.12249967,0.09249227,-0.7249905,0.2122584,-0.06714466,0.4266688,0.008383345,-0.0015974782,0.0041552857,0.753557510624406,-0.6388526954996216,-0.1549784231253364,0.6151506410569114,0.7684077448673864,-0.17646310219161504,0.2318205491081818,0.03764001966903363,0.9720300725443095,left_images/camera_left_55.png,right_images/camera_right_55.png
2025-06-27 14:58:04,3.0943899154663086,56,-0.026666349,-0.0002396611,0.11362935,-0.00014006198,0.00013967624,-0.016062351,1.047179,0.058971234,2.4902318e-05,0.0018485915,0.8437702192180195,-6.701237771053315e-05,0.5367045860341759,0.00014144597246676355,0.9999999852421532,-9.751271711861194e-05,-0.5367045715790129,0.00015819302879869172,0.843770216244419,0.050760012,0.0005362689,0.11225049,0.0007793979,2.9528462e-06,-0.015323334,1.047179,-0.05759441,-6.1801315e-05,0.0043463847,0.8476609170185684,0.0009470382146550424,-0.530537532016218,-0.0007876464966019989,0.9999995511530406,0.000526599196332006,0.5305377925956227,-2.8501529255584295e-05,0.8476612824798752,0.066335835,-0.12166364,0.092450984,-0.7113333,0.20981827,-0.066758454,0.45333517,0.008290686,-0.0016755463,0.0041539613,0.7623310050604704,-0.6293777830873114,-0.150781447398525,0.6056175731335484,0.7758867896312708,-0.17671175622326651,0.2282077865352628,0.04339695648062507,0.9726448017302588,left_images/camera_left_56.png,right_images/camera_right_56.png
2025-06-27 14:58:04,3.155902624130249,57,-0.026666349,-0.00023966683,0.11362935,-0.00014005566,0.00013967165,-0.016062351,1.047179,0.058971234,2.4902318e-05,0.0018485915,0.8437702192180195,-6.701237771053315e-05,0.5367045860341759,0.00014144597246676355,0.9999999852421532,-9.751271711861194e-05,-0.5367045715790129,0.00015819302879869172,0.843770216244419,0.050760012,0.0005362652,0.11225049,0.0007793822,2.9787661e-06,-0.015323334,1.047179,-0.05759441,-6.1801315e-05,0.0043463847,0.8476609170185684,0.0009470382146550424,-0.530537532016218,-0.0007876464966019989,0.9999995511530406,0.000526599196332006,0.5305377925956227,-2.8501529255584295e-05,0.8476612824798752,0.064711265,-0.120626196,0.092380315,-0.70290846,0.20856203,-0.06497741,0.4800014,0.008104322,-0.0017781885,0.004169601,0.7675729009891605,-0.6236232907844393,-0.14807374128545098,0.5997845644528023,0.7802998754009016,-0.1771738713622844,0.22603167457514955,0.04718151799723787,0.972976662848719,left_images/camera_left_57.png,right_images/camera_right_57.png
2025-06-27 14:58:04,3.215263605117798,58,-0.026666349,-0.00023967336,0.11362935,-0.00014004936,0.00013966707,-0.016062351,1.047179,0.058971234,2.4902318e-05,0.0018485915,0.8437702192180195,-6.701237771053315e-05,0.5367045860341759,0.00014144597246676355,0.9999999852421532,-9.751271711861194e-05,-0.5367045715790129,0.00015819302879869172,0.843770216244419,0.050760012,0.0005362617,0.11225049,0.00077936647,3.0047e-06,-0.015323334,1.047179,-0.0575944,-6.181063e-05,0.004346383,0.8476608561463239,0.0009472976086831339,-0.5305376288111163,-0.0007876072524026421,0.9999995508933145,0.0005271508186770617,0.5305378899118303,-2.8989830153897437e-05,0.8476612215546331,0.062723935,-0.11937224,0.092281714,-0.6968075,0.2069703,-0.0630896,0.50666785,0.00788712,-0.0019002862,0.004204725,0.7712957104114699,-0.6196541721132736,-0.1453672386869871,0.5957135840153462,0.7832393169961983,-0.17793678127615992,0.22411660563299862,0.05064463736608675,0.9732455331444376,left_images/camera_left_58.png,right_images/camera_right_58.png
2025-06-27 14:58:04,3.280284881591797,59,-0.026666349,-0.00023968003,0.11362935,-0.00014002607,0.00013971182,-0.016062351,1.047179,0.058971234,2.4896228e-05,0.001848585,0.8437702856910939,-6.712969704826609e-05,0.5367044815150832,0.0001413727723139526,0.999999985284983,-9.717908126386409e-05,-0.5367044670938652,0.0001578722216263184,0.8437702827653109,0.050760012,0.0005362632,0.11225049,0.00077937345,2.9929856e-06,-0.015323334,1.047179,-0.05759441,-6.1801315e-05,0.0043463847,0.8476609170185684,0.0009470382146550424,-0.530537532016218,-0.0007876464966019989,0.9999995511530406,0.000526599196332006,0.5305377925956227,-2.8501529255584295e-05,0.8476612824798752,0.060925815,-0.11858066,0.09219332,-0.69181776,0.20628153,-0.06189723,0.53333455,0.0076976055,-0.0019920534,0.0042461976,0.7743991780408179,-0.6163004584265299,-0.14310715563155613,0.5923927131673179,0.7857154699777702,-0.17810691627187109,0.2222088801915198,0.05315021336608659,0.9735493148182942,left_images/camera_left_59.png,right_images/camera_right_59.png
2025-06-27 14:58:04,3.349853992462158,60,-0.026666349,-0.00023968129,0.11362935,-0.00014001632,0.00013971807,-0.016062351,1.047179,0.058971234,2.4896228e-05,0.001848585,0.8437702856910939,-6.712969704826609e-05,0.5367044815150832,0.0001413727723139526,0.999999985284983,-9.717908126386409e-05,-0.5367044670938652,0.0001578722216263184,0.8437702827653109,0.050760012,0.0005362584,0.11225049,0.00077935954,2.95415e-06,-0.015323334,1.047179,-0.05759441,-6.1801315e-05,0.0043463847,0.8476609170185684,0.0009470382146550424,-0.530537532016218,-0.0007876464966019989,0.9999995511530406,0.000526599196332006,0.5305377925956227,-2.8501529255584295e-05,0.8476612824798752,0.058766678,-0.11825364,0.09212768,-0.6887207,0.20769157,-0.062003966,0.5600015,0.007495913,-0.0020677396,0.004276381,0.7765616917410186,-0.6140266967899592,-0.1411494050626463,0.5905672563954742,0.7874577828822652,-0.17646686899151864,0.21950456622551087,0.05367919343059393,0.9741336097265053,left_images/camera_left_60.png,right_images/camera_right_60.png
2025-06-27 14:58:04,3.412052631378174,61,-0.026666349,-0.00023968217,0.11362935,-0.00014000657,0.00013972433,-0.016062351,1.047179,0.058971234,2.4896228e-05,0.001848585,0.8437702856910939,-6.712969704826609e-05,0.5367044815150832,0.0001413727723139526,0.999999985284983,-9.717908126386409e-05,-0.5367044670938652,0.0001578722216263184,0.8437702827653109,0.050760012,0.00053625467,0.11225049,0.0007793438,2.98007e-06,-0.015323334,1.047179,-0.057594396,-6.1810446e-05,0.004346353,0.8476609779863168,0.0009468805043976904,-0.5305374348871073,-0.0007873994320261015,0.9999995512962689,0.0005266966825276333,0.5305376955518011,-2.871535011482923e-05,0.8476613432108445,0.056193158,-0.11807049,0.09207056,-0.6864023,0.2104392,-0.065327935,0.5866692,0.007250246,-0.0021623932,0.004293667,0.7787380848832776,-0.6121531705681049,-0.1372424530374695,0.5898582007579778,0.788957198326428,-0.17208672873721204,0.21362185784906604,0.05305690315435159,0.9754745854591924,left_images/camera_left_61.png,right_images/camera_right_61.png
2025-06-27 14:58:04,3.46429443359375,62,-0.026666349,-0.00023968304,0.11362935,-0.00013999682,0.00013973059,-0.016062351,1.047179,0.058971234,2.4896228e-05,0.001848585,0.8437702856910939,-6.712969704826609e-05,0.5367044815150832,0.0001413727723139526,0.999999985284983,-9.717908126386409e-05,-0.5367044670938652,0.0001578722216263184,0.8437702827653109,0.050760012,0.0005362639,0.11225049,0.0007793441,2.9746188e-06,-0.015323334,1.047179,-0.057594396,-6.1810446e-05,0.004346353,0.8476609779863168,0.0009468805043976904,-0.5305374348871073,-0.0007873994320261015,0.9999995512962689,0.0005266966825276333,0.5305376955518011,-2.871535011482923e-05,0.8476613432108445,0.05362375,-0.11756892,0.09200381,-0.6844485,0.21365768,-0.07108469,0.6133356,0.006993339,-0.0023087133,0.0043058135,0.7810115921225805,-0.6104552352255014,-0.13177745921032838,0.5898242819298244,0.7903668806555242,-0.16561253095349796,0.20525157591628604,0.05161976122217291,0.977347016588912,left_images/camera_left_62.png,right_images/camera_right_62.png
2025-06-27 14:58:04,3.5210695266723633,63,-0.026666349,-0.00023968391,0.11362935,-0.00013998707,0.00013973685,-0.016062351,1.047179,0.058971234,2.4896228e-05,0.001848585,0.8437702856910939,-6.712969704826609e-05,0.5367044815150832,0.0001413727723139526,0.999999985284983,-9.717908126386409e-05,-0.5367044670938652,0.0001578722216263184,0.8437702827653109,0.050760012,0.00053627527,0.11225049,0.0007793444,2.9691705e-06,-0.015323334,1.047179,-0.057594396,-6.1810446e-05,0.004346353,0.8476609779863168,0.0009468805043976904,-0.5305374348871073,-0.0007873994320261015,0.9999995512962689,0.0005266966825276333,0.5305376955518011,-2.871535011482923e-05,0.8476613432108445,0.05157709,-0.117083244,0.09194338,-0.6829692,0.21812803,-0.07784439,0.6400015,0.0067939674,-0.002475464,0.004314908,0.7831083450091909,-0.6088058558093353,-0.12687296760629904,0.5900572849144793,0.7918325508781321,-0.15758683920043476,0.19640193608088316,0.04854525004666644,0.9793210087614722,left_images/camera_left_63.png,right_images/camera_right_63.png
2025-06-27 14:58:04,3.568528652191162,64,-0.026666349,-0.00023968478,0.11362935,-0.00013997732,0.0001397431,-0.016062351,1.047179,0.05897125,2.5095533e-05,0.0018484974,0.8437703164461303,-6.66714238288413e-05,0.5367044332212266,0.00014115026332626936,0.9999999852673025,-9.768314972173784e-05,-0.5367044188014479,0.00015817811422971776,0.8437703134258067,0.050760012,0.0005362866,0.11225049,0.0007793447,2.9637222e-06,-0.015323334,1.047179,-0.057594396,-6.1810446e-05,0.004346353,0.8476609779863168,0.0009468805043976904,-0.5305374348871073,-0.0007873994320261015,0.9999995512962689,0.0005266966825276333,0.5305376955518011,-2.871535011482923e-05,0.8476613432108445,0.050066065,-0.116913855,0.09191101,-0.6831622,0.22338566,-0.085798025,0.666668,0.0066522365,-0.0026197908,0.0043111946,0.7842959928170248,-0.6081965405238978,-0.12237958876348679,0.5914091165871269,0.7925552072081267,-0.14863209729031487,0.1873901077132715,0.04419515382987452,0.9812908518421857,left_images/camera_left_64.png,right_images/camera_right_64.png
2025-06-27 14:58:04,3.6207876205444336,65,-0.026666349,-0.00023968566,0.11362935,-0.00013995767,0.00013974901,-0.016062351,1.047179,0.05897125,2.5095533e-05,0.0018484974,0.8437703164461303,-6.66714238288413e-05,0.5367044332212266,0.00014115026332626936,0.9999999852673025,-9.768314972173784e-05,-0.5367044188014479,0.00015817811422971776,0.8437703134258067,0.050760012,0.000536298,0.11225049,0.000779345,2.9582739e-06,-0.015323334,1.047179,-0.05759438,-6.189682e-05,0.004346355,0.8476609780170772,0.0009469592696091926,-0.5305374346973774,-0.0007872689717717096,0.9999995512109405,0.0005270535871030949,0.530537695696261,-2.908709841061344e-05,0.8476613431077545,0.048972517,-0.11745702,0.09191848,-0.6845072,0.22842523,-0.09308962,0.69333375,0.006557845,-0.002677877,0.0042991703,0.7846285627324452,-0.6084488475357938,-0.11894544327876215,0.5932424638589661,0.7925812653797536,-0.14099048493984084,0.18005942802019587,0.040061673721808036,0.9828395925478617,left_images/camera_left_65.png,right_images/camera_right_65.png
2025-06-27 14:58:04,3.673656702041626,66,-0.026666349,-0.00023968653,0.11362935,-0.00013993803,0.00013975492,-0.016062351,1.047179,0.05897125,2.5095533e-05,0.0018484974,0.8437703164461303,-6.66714238288413e-05,0.5367044332212266,0.00014115026332626936,0.9999999852673025,-9.768314972173784e-05,-0.5367044188014479,0.00015817811422971776,0.8437703134258067,0.050760012,0.00053629855,0.11225049,0.0007792739,2.962353e-06,-0.015323334,1.047179,-0.05759438,-6.189682e-05,0.004346355,0.8476609780170772,0.0009469592696091926,-0.5305374346973774,-0.0007872689717717096,0.9999995512109405,0.0005270535871030949,0.530537695696261,-2.908709841061344e-05,0.8476613431077545,0.048300143,-0.11943447,0.09200226,-0.68707925,0.2339188,-0.100306936,0.7200001,0.0065167076,-0.0025850807,0.0042659836,0.784166431098218,-0.6095029874498252,-0.11657236648718236,0.5955691319665823,0.7919639681992878,-0.13450086290655983,0.1742997917016982,0.03604415852500619,0.9840327236677492,left_images/camera_left_66.png,right_images/camera_right_66.png
2025-06-27 14:58:04,3.737255096435547,67,-0.026666349,-0.0002396874,0.11362935,-0.00013991838,0.00013976083,-0.016062351,1.047179,0.05897125,2.5095533e-05,0.0018484974,0.8437703164461303,-6.66714238288413e-05,0.5367044332212266,0.00014115026332626936,0.9999999852673025,-9.768314972173784e-05,-0.5367044188014479,0.00015817811422971776,0.8437703134258067,0.050760012,0.0005362999,0.11225049,0.0007792844,2.9509038e-06,-0.015323334,1.047179,-0.05759438,-6.189682e-05,0.004346355,0.8476609780170772,0.0009469592696091926,-0.5305374346973774,-0.0007872689717717096,0.9999995512109405,0.0005270535871030949,0.530537695696261,-2.908709841061344e-05,0.8476613431077545,0.04779139,-0.121847026,0.092139706,-0.6909217,0.24010858,-0.106033266,0.7466664,0.006517366,-0.0024330479,0.0042022597,0.7827837406526814,-0.6113296825160884,-0.1162997620142648,0.5984148144710514,0.790758302503177,-0.12884493332634955,0.1707317345761273,0.03126221836455151,0.9848214805291131,left_images/camera_left_67.png,right_images/camera_right_67.png
2025-06-27 14:58:04,3.793445587158203,68,-0.026666349,-0.00023968828,0.11362935,-0.00013989874,0.00013976674,-0.016062351,1.047179,0.05897125,2.5095533e-05,0.0018484974,0.8437703164461303,-6.66714238288413e-05,0.5367044332212266,0.00014115026332626936,0.9999999852673025,-9.768314972173784e-05,-0.5367044188014479,0.00015817811422971776,0.8437703134258067,0.050760012,0.0005363015,0.11225049,0.0007792949,2.9394519e-06,-0.015323334,1.047179,-0.05759438,-6.189682e-05,0.004346355,0.8476609780170772,0.0009469592696091926,-0.5305374346973774,-0.0007872689717717096,0.9999995512109405,0.0005270535871030949,0.530537695696261,-2.908709841061344e-05,0.8476613431077545,0.047265686,-0.12452983,0.09232147,-0.700102,0.24642555,-0.11131299,0.77333266,0.006545281,-0.0022291432,0.0041127875,0.7780483223890218,-0.6170502591405966,-0.1178549350776262,0.6049945909732146,0.7865220425613024,-0.1239541102922748,0.1691814201405745,0.025140689324664935,0.9852642248754895,left_images/camera_left_68.png,right_images/camera_right_68.png
2025-06-27 14:58:04,3.848238468170166,69,-0.026666349,-0.00023968915,0.11362935,-0.00013987909,0.00013977264,-0.016062351,1.047179,0.05897125,2.5095533e-05,0.0018484974,0.8437703164461303,-6.66714238288413e-05,0.5367044332212266,0.00014115026332626936,0.9999999852673025,-9.768314972173784e-05,-0.5367044188014479,0.00015817811422971776,0.8437703134258067,0.050760012,0.00053630315,0.11225049,0.00077930535,2.928e-06,-0.015323334,1.047179,-0.05759438,-6.189682e-05,0.004346355,0.8476609780170772,0.0009469592696091926,-0.5305374346973774,-0.0007872689717717096,0.9999995512109405,0.0005270535871030949,0.530537695696261,-2.908709841061344e-05,0.8476613431077545,0.047139674,-0.12751357,0.0925233,-0.7113224,0.25154316,-0.11691831,0.79999906,0.0066057052,-0.0019703447,0.004020919,0.7719530651058206,-0.6243512764295381,-0.11947363263304255,0.6129791404263333,0.7808984258112199,-0.12022571258991296,0.16835984876425386,0.01957376270330083,0.9855312420911437,left_images/camera_left_69.png,right_images/camera_right_69.png
2025-06-27 14:58:04,3.8968312740325928,70,-0.026666349,-0.00023969002,0.11362935,-0.00013985945,0.00013977855,-0.016062351,1.047179,0.05897125,2.5095533e-05,0.0018484974,0.8437703164461303,-6.66714238288413e-05,0.5367044332212266,0.00014115026332626936,0.9999999852673025,-9.768314972173784e-05,-0.5367044188014479,0.00015817811422971776,0.8437703134258067,0.050760012,0.0005363048,0.11225049,0.00077931583,2.916548e-06,-0.015323334,1.047179,-0.05759438,-6.189682e-05,0.004346355,0.8476609780170772,0.0009469592696091926,-0.5305374346973774,-0.0007872689717717096,0.9999995512109405,0.0005270535871030949,0.530537695696261,-2.908709841061344e-05,0.8476613431077545,0.047511708,-0.13121764,0.09274716,-0.7248532,0.2556829,-0.122818306,0.82666534,0.006712034,-0.0016213565,0.003939295,0.7642752166092196,-0.6333395130984341,-0.12150907136987289,0.6224335423135947,0.7737383342935444,-0.1179214800093768,0.16870055921626628,0.01449314296106085,0.9855607896660811,left_images/camera_left_70.png,right_images/camera_right_70.png
2025-06-27 14:58:04,3.947350025177002,71,-0.026666349,-0.0002396909,0.11362935,-0.0001398398,0.00013978446,-0.016062351,1.047179,0.05897125,2.5095533e-05,0.0018484974,0.8437703164461303,-6.66714238288413e-05,0.5367044332212266,0.00014115026332626936,0.9999999852673025,-9.768314972173784e-05,-0.5367044188014479,0.00015817811422971776,0.8437703134258067,0.050760012,0.0005363064,0.11225049,0.0007793263,2.9050962e-06,-0.015323334,1.047179,-0.05759438,-6.189682e-05,0.004346355,0.8476609780170772,0.0009469592696091926,-0.5305374346973774,-0.0007872689717717096,0.9999995512109405,0.0005270535871030949,0.530537695696261,-2.908709841061344e-05,0.8476613431077545,0.047864515,-0.13453777,0.09295453,-0.73732495,0.2588474,-0.12721361,0.8533317,0.0068125417,-0.0012908132,0.0038642911,0.7569445131073763,-0.6416240946153101,-0.12390934301222274,0.6309770352990508,0.7669505107719646,-0.1168541610377781,0.1700087791905388,0.010268166131606415,0.9853890499505443,left_images/camera_left_71.png,right_images/camera_right_71.png
2025-06-27 14:58:04,3.998196601867676,72,-0.026666349,-0.00023969177,0.11362935,-0.00013982016,0.00013979037,-0.016062351,1.047179,0.05897125,2.5095533e-05,0.0018484974,0.8437703164461303,-6.66714238288413e-05,0.5367044332212266,0.00014115026332626936,0.9999999852673025,-9.768314972173784e-05,-0.5367044188014479,0.00015817811422971776,0.8437703134258067,0.050760012,0.00053630804,0.11225049,0.0007793368,2.8936443e-06,-0.015323334,1.047179,-0.05759438,-6.189682e-05,0.004346355,0.8476609780170772,0.0009469592696091926,-0.5305374346973774,-0.0007872689717717096,0.9999995512109405,0.0005270535871030949,0.530537695696261,-2.908709841061344e-05,0.8476613431077545,0.048188176,-0.13703091,0.093119726,-0.7515014,0.26135817,-0.12970988,0.8799976,0.006922462,-0.0010249355,0.0038076062,0.7481462257708396,-0.6510997048348676,-0.12785303762052863,0.6405606281397912,0.7589723657558114,-0.1168033804998089,0.1730875689990597,0.005488386190421121,0.9848911468152308,left_images/camera_left_72.png,right_images/camera_right_72.png
2025-06-27 14:58:04,4.046543836593628,73,-0.026666349,-0.00023969264,0.11362935,-0.00013980051,0.00013979628,-0.016062351,1.047179,0.05897125,2.5095533e-05,0.0018484974,0.8437703164461303,-6.66714238288413e-05,0.5367044332212266,0.00014115026332626936,0.9999999852673025,-9.768314972173784e-05,-0.5367044188014479,0.00015817811422971776,0.8437703134258067,0.050760012,0.0005363097,0.11225049,0.00077934726,2.8821923e-06,-0.015323334,1.047179,-0.05759438,-6.189682e-05,0.004346355,0.8476609780170772,0.0009469592696091926,-0.5305374346973774,-0.0007872689717717096,0.9999995512109405,0.0005270535871030949,0.530537695696261,-2.908709841061344e-05,0.8476613431077545,0.048788153,-0.13909055,0.093264416,-0.767716,0.2636102,-0.13299386,0.90666413,0.0070589753,-0.00080146873,0.0037596105,0.7379612159278963,-0.661816763157844,-0.13195383961634144,0.6515382431817531,0.7496656043827452,-0.11618691525764965,0.17581570310372086,-0.00023153558627132115,0.9844230721257079,left_images/camera_left_73.png,right_images/camera_right_73.png
2025-06-27 14:58:05,4.09532904624939,74,-0.026666349,-0.00023969352,0.11362935,-0.00013978087,0.00013980219,-0.016062351,1.047179,0.05897125,2.5095533e-05,0.0018484974,0.8437703164461303,-6.66714238288413e-05,0.5367044332212266,0.00014115026332626936,0.9999999852673025,-9.768314972173784e-05,-0.5367044188014479,0.00015817811422971776,0.8437703134258067,0.050760012,0.0005363089,0.11225049,0.0007792762,2.8862657e-06,-0.015323334,1.047179,-0.05759438,-6.189682e-05,0.004346355,0.8476609780170772,0.0009469592696091926,-0.5305374346973774,-0.0007872689717717096,0.9999995512109405,0.0005270535871030949,0.530537695696261,-2.908709841061344e-05,0.8476613431077545,0.049731515,-0.14103499,0.09340969,-0.78503895,0.26575023,-0.13703257,0.93333066,0.0072271815,-0.0005880507,0.003711014,0.726963419001251,-0.6730390413044702,-0.1361713490935993,0.6631486343094757,0.7395775613382432,-0.11514738198697444,0.17820795786801563,-0.006593909685205228,0.983970753685075,left_images/camera_left_74.png,right_images/camera_right_74.png
2025-06-27 14:58:05,4.163665056228638,75,-0.026666349,-0.00023969439,0.11362935,-0.00013976122,0.0001398081,-0.016062351,1.047179,0.05897125,2.5095533e-05,0.0018484974,0.8437703164461303,-6.66714238288413e-05,0.5367044332212266,0.00014115026332626936,0.9999999852673025,-9.768314972173784e-05,-0.5367044188014479,0.00015817811422971776,0.8437703134258067,0.050760012,0.00053631025,0.11225049,0.00077928667,2.8748166e-06,-0.015323334,1.047179,-0.05759438,-6.189682e-05,0.004346355,0.8476609780170772,0.0009469592696091926,-0.5305374346973774,-0.0007872689717717096,0.9999995512109405,0.0005270535871030949,0.530537695696261,-2.908709841061344e-05,0.8476613431077545,0.05114277,-0.14329945,0.09358296,-0.80413574,0.26902708,-0.14179973,0.95999694,0.0074594426,-0.0003500944,0.0036537852,0.7147703493397135,-0.6848510460348856,-0.14171235814037939,0.6755820459650095,0.7285331454425161,-0.1132623289596575,0.18080997448845568,-0.014781770413479708,0.9834069617350323,left_images/camera_left_75.png,right_images/camera_right_75.png
2025-06-27 14:58:05,4.214279890060425,76,-0.026666349,-0.00023969526,0.11362935,-0.00013974158,0.000139814,-0.016062351,1.047179,0.05897125,2.5095533e-05,0.0018484974,0.8437703164461303,-6.66714238288413e-05,0.5367044332212266,0.00014115026332626936,0.9999999852673025,-9.768314972173784e-05,-0.5367044188014479,0.00015817811422971776,0.8437703134258067,0.050760012,0.0005363119,0.11225049,0.00077929714,2.8633647e-06,-0.015323334,1.047179,-0.05759438,-6.189682e-05,0.004346355,0.8476609780170772,0.0009469592696091926,-0.5305374346973774,-0.0007872689717717096,0.9999995512109405,0.0005270535871030949,0.530537695696261,-2.908709841061344e-05,0.8476613431077545,0.053084873,-0.1450564,0.09374431,-0.8220081,0.2723008,-0.14561744,0.9866632,0.0077447547,-0.00015788502,0.0035965191,0.7031275238346512,-0.6954387088737843,-0.14824536224150747,0.6868502160997882,0.7182024887348188,-0.1114538730542209,0.18397952568105547,-0.02345607330897488,0.9826501649901137,left_images/camera_left_76.png,right_images/camera_right_76.png
2025-06-27 14:58:05,4.263925790786743,77,-0.026666349,-0.00023969614,0.11362935,-0.00013972193,0.00013981991,-0.016062351,1.047179,0.05897125,2.5095533e-05,0.0018484974,0.8437703164461303,-6.66714238288413e-05,0.5367044332212266,0.00014115026332626936,0.9999999852673025,-9.768314972173784e-05,-0.5367044188014479,0.00015817811422971776,0.8437703134258067,0.050760012,0.0005363135,0.11225049,0.0007793076,2.8519128e-06,-0.015323334,1.047179,-0.05759438,-6.189682e-05,0.004346355,0.8476609780170772,0.0009469592696091926,-0.5305374346973774,-0.0007872689717717096,0.9999995512109405,0.0005270535871030949,0.530537695696261,-2.908709841061344e-05,0.8476613431077545,0.05522562,-0.14615521,0.0938702,-0.8377757,0.27492163,-0.14914086,1.0133307,0.00803339,-3.2188953e-05,0.0035507092,0.6927310922403032,-0.7045102312058695,-0.15423672704582647,0.6966605182827494,0.7089909281189419,-0.1095261891560749,0.18651476110369253,-0.0315784415589746,0.9819445228316817,left_images/camera_left_77.png,right_images/camera_right_77.png
2025-06-27 14:58:05,4.314893007278442,78,-0.026666349,-0.00023969701,0.11362935,-0.00013970229,0.00013982582,-0.016062351,1.047179,0.05897125,2.5095533e-05,0.0018484974,0.8437703164461303,-6.66714238288413e-05,0.5367044332212266,0.00014115026332626936,0.9999999852673025,-9.768314972173784e-05,-0.5367044188014479,0.00015817811422971776,0.8437703134258067,0.050760012,0.00053631514,0.11225049,0.0007793181,2.8404609e-06,-0.015323334,1.047179,-0.05759438,-6.189682e-05,0.004346355,0.8476609780170772,0.0009469592696091926,-0.5305374346973774,-0.0007872689717717096,0.9999995512109405,0.0005270535871030949,0.530537695696261,-2.908709841061344e-05,0.8476613431077545,0.05802616,-0.14652447,0.09396514,-0.8532221,0.2769422,-0.15396507,1.0396717,0.008367395,1.3750512e-05,0.0035121823,0.6826173632285103,-0.7131445981003955,-0.15955662825210923,0.7063078399160821,0.6998694355830511,-0.10635792593756146,0.18751738770587226,-0.04009433048308919,0.9814426493540409,left_images/camera_left_78.png,right_images/camera_right_78.png
2025-06-27 14:58:05,4.3670244216918945,79,-0.026666349,-0.00023969788,0.11362935,-0.00013968264,0.00013983173,-0.016062351,1.047179,0.058971263,2.5081834e-05,0.0018484667,0.8437703164794647,-6.636080263367424e-05,0.5367044332073178,0.00014080632429056203,0.9999999853120742,-9.772118861877677e-05,-0.5367044188393862,0.0001580256167179866,0.8437703134302494,0.050760012,0.0005363168,0.11225049,0.0007793286,2.829009e-06,-0.015323334,1.047179,-0.05759438,-6.189682e-05,0.004346355,0.8476609780170772,0.0009469592696091926,-0.5305374346973774,-0.0007872689717717096,0.9999995512109405,0.0005270535871030949,0.530537695696261,-2.908709841061344e-05,0.8476613431077545,0.060882237,-0.14651644,0.09403786,-0.8679122,0.27862293,-0.15915497,1.0466831,0.008696724,1.7355022e-05,0.0034815595,0.6729946274103897,-0.7211629536545386,-0.16432353986271264,0.7154517692922854,0.6910700693053277,-0.10271769626928012,0.18763527731556545,-0.04843710960195138,0.9810437549468012,left_images/camera_left_79.png,right_images/camera_right_79.png
2025-06-27 14:58:05,4.420171737670898,80,-0.026666349,-0.00023969875,0.11362935,-0.0001396682,0.00013983781,-0.016062351,1.047179,0.058971263,2.5081834e-05,0.0018484667,0.8437703164794647,-6.636080263367424e-05,0.5367044332073178,0.00014080632429056203,0.9999999853120742,-9.772118861877677e-05,-0.5367044188393862,0.0001580256167179866,0.8437703134302494,0.050760012,0.0005363184,0.11225049,0.00077933905,2.817557e-06,-0.015323334,1.047179,-0.05759438,-6.189682e-05,0.004346355,0.8476609780170772,0.0009469592696091926,-0.5305374346973774,-0.0007872689717717096,0.9999995512109405,0.0005270535871030949,0.530537695696261,-2.908709841061344e-05,0.8476613431077545,0.06379591,-0.14616308,0.09410055,-0.88342303,0.28079623,-0.16560426,1.047147,0.009034629,-2.6246125e-05,0.0034500025,0.6629734066045425,-0.7293155412705499,-0.16901213979005378,0.7250744987258428,0.6817256982412065,-0.09755533637380939,0.18636854196091016,-0.057869798848658865,0.9807741090325439,left_images/camera_left_80.png,right_images/camera_right_80.png
2025-06-27 14:58:05,4.490535736083984,81,-0.026666349,-0.00023969963,0.11362935,-0.00013965377,0.00013984389,-0.016062351,1.047179,0.058971263,2.5081834e-05,0.0018484667,0.8437703164794647,-6.636080263367424e-05,0.5367044332073178,0.00014080632429056203,0.9999999853120742,-9.772118861877677e-05,-0.5367044188393862,0.0001580256167179866,0.8437703134302494,0.050760012,0.00053632003,0.11225049,0.00077934953,2.8061052e-06,-0.015323334,1.047179,-0.057594366,-6.189739e-05,0.004346353,0.8476609950171772,0.0009474476278705356,-0.5305374066637347,-0.0007878231489990932,0.999999550756017,0.0005270886545319396,0.5305376677118925,-2.8822842983173137e-05,0.8476613606317495,0.066428564,-0.14567548,0.094156116,-0.8977384,0.2834603,-0.17300689,1.0471778,0.009342472,-9.966979e-05,0.003416826,0.6540042880551585,-0.7364583547827751,-0.17293780059927105,0.7338950324100256,0.6731240694719777,-0.09111568746034565,0.18351150538686245,-0.06732814246756089,0.9807091559797508,left_images/camera_left_81.png,right_images/camera_right_81.png
2025-06-27 14:58:05,4.54958963394165,82,-0.026666349,-0.0002397005,0.11362935,-0.00013963933,0.00013984997,-0.016062351,1.047179,0.058971263,2.5081834e-05,0.0018484667,0.8437703164794647,-6.636080263367424e-05,0.5367044332073178,0.00014080632429056203,0.9999999853120742,-9.772118861877677e-05,-0.5367044188393862,0.0001580256167179866,0.8437703134302494,0.050760012,0.0005363195,0.11225049,0.000779424,2.8170355e-06,-0.015323362,1.047179,-0.057594366,-6.189739e-05,0.004346353,0.8476609950171772,0.0009474476278705356,-0.5305374066637347,-0.0007878231489990932,0.999999550756017,0.0005270886545319396,0.5305376677118925,-2.8822842983173137e-05,0.8476613606317495,0.068488285,-0.1451961,0.0942083,-0.91000515,0.28559592,-0.17999615,1.0471799,0.009583248,-0.00016822037,0.0033808174,0.6463847088566881,-0.7425048532004028,-0.17570814190043416,0.7414349683812731,0.6656013511177487,-0.08514123003391601,0.1801693531589526,-0.07524217144710756,0.9807535979124465,left_images/camera_left_82.png,right_images/camera_right_82.png
2025-06-27 14:58:05,4.598834991455078,83,-0.026666349,-0.00023970137,0.11362935,-0.0001396249,0.00013985606,-0.016062351,1.047179,0.058971263,2.5081834e-05,0.0018484667,0.8437703164794647,-6.636080263367424e-05,0.5367044332073178,0.00014080632429056203,0.9999999853120742,-9.772118861877677e-05,-0.5367044188393862,0.0001580256167179866,0.8437703134302494,0.050760012,0.0005363163,0.11225049,0.000779417,2.8434927e-06,-0.015323362,1.047179,-0.057594366,-6.189739e-05,0.004346353,0.8476609950171772,0.0009474476278705356,-0.5305374066637347,-0.0007878231489990932,0.999999550756017,0.0005270886545319396,0.5305376677118925,-2.8822842983173137e-05,0.8476613606317495,0.06997023,-0.14474332,0.094261006,-0.9199068,0.2872714,-0.18585938,1.0471802,0.009760081,-0.00022565405,0.0033384906,0.6402500866029058,-0.7473348671684753,-0.17768067683135622,0.747488325893542,0.6594271158408062,-0.08010668852690067,0.17703397769310134,-0.08152591740148177,0.9808223567670168,left_images/camera_left_83.png,right_images/camera_right_83.png
2025-06-27 14:58:05,4.651329278945923,84,-0.026666349,-0.00023970225,0.11362935,-0.00013961046,0.00013986214,-0.016062351,1.047179,0.058971263,2.5081834e-05,0.0018484667,0.8437703164794647,-6.636080263367424e-05,0.5367044332073178,0.00014080632429056203,0.9999999853120742,-9.772118861877677e-05,-0.5367044188393862,0.0001580256167179866,0.8437703134302494,0.050760012,0.0005363128,0.11225049,0.00077941,2.8699526e-06,-0.015323362,1.047179,-0.057594366,-6.189739e-05,0.004346353,0.8476609950171772,0.0009474476278705356,-0.5305374066637347,-0.0007878231489990932,0.999999550756017,0.0005270886545319396,0.5305376677118925,-2.8822842983173137e-05,0.8476613606317495,0.07108372,-0.14460407,0.09433055,-0.9277493,0.2886313,-0.19080986,1.04718,0.0098955035,-0.0002428345,0.0032867678,0.6354268481158782,-0.7511091078183907,-0.17907492522902732,0.7522212987335817,0.6545044732012804,-0.07607241478406064,0.17434402319862954,-0.08636551807159858,0.9808899830578046,left_images/camera_left_84.png,right_images/camera_right_84.png
2025-06-27 14:58:05,4.702163934707642,85,-0.026666349,-0.00023970312,0.11362935,-0.00013959603,0.00013986822,-0.016062351,1.047179,0.058971263,2.5081834e-05,0.0018484667,0.8437703164794647,-6.636080263367424e-05,0.5367044332073178,0.00014080632429056203,0.9999999853120742,-9.772118861877677e-05,-0.5367044188393862,0.0001580256167179866,0.8437703134302494,0.050760012,0.0005363093,0.11225049,0.000779403,2.8964125e-06,-0.015323362,1.047179,-0.057594366,-6.189739e-05,0.004346353,0.8476609950171772,0.0009474476278705356,-0.5305374066637347,-0.0007878231489990932,0.999999550756017,0.0005270886545319396,0.5305376677118925,-2.8822842983173137e-05,0.8476613606317495,0.071859375,-0.14452343,0.09443394,-0.93471223,0.2898353,-0.19510171,1.04718,0.009999449,-0.00023653673,0.0032023583,0.631110491260614,-0.7544677656086793,-0.18021636573361693,0.7563976880383361,0.6500692918677313,-0.07261166091507582,0.1719362828231608,-0.09048926139621646,0.980943223749938,left_images/camera_left_85.png,right_images/camera_right_85.png
2025-06-27 14:58:05,4.7616798877716064,86,-0.026666349,-0.000239704,0.11362935,-0.00013958159,0.0001398743,-0.016062351,1.047179,0.058971263,2.5081834e-05,0.0018484667,0.8437703164794647,-6.636080263367424e-05,0.5367044332073178,0.00014080632429056203,0.9999999853120742,-9.772118861877677e-05,-0.5367044188393862,0.0001580256167179866,0.8437703134302494,0.050760012,0.00053630583,0.11225049,0.00077939604,2.9228725e-06,-0.015323362,1.047179,-0.057594366,-6.189739e-05,0.004346353,0.8476609950171772,0.0009474476278705356,-0.5305374066637347,-0.0007878231489990932,0.999999550756017,0.0005270886545319396,0.5305376677118925,-2.8822842983173137e-05,0.8476613606317495,0.07233816,-0.14430699,0.09457805,-0.9399995,0.2909668,-0.19940232,1.04718,0.010069737,-0.00022946886,0.0030709468,0.6280537816471105,-0.7569441833354392,-0.18051025088179654,0.7596213557966739,0.6467057012783316,-0.0688994321582164,0.16889003279171635,-0.09384689258972168,0.981156928108275,left_images/camera_left_86.png,right_images/camera_right_86.png
2025-06-27 14:58:05,4.818114519119263,87,-0.026666349,-0.00023970487,0.11362935,-0.00013956716,0.00013988039,-0.016062351,1.047179,0.058971263,2.5081834e-05,0.0018484667,0.8437703164794647,-6.636080263367424e-05,0.5367044332073178,0.00014080632429056203,0.9999999853120742,-9.772118861877677e-05,-0.5367044188393862,0.0001580256167179866,0.8437703134302494,0.050760012,0.00053630234,0.11225049,0.00077938905,2.9493324e-06,-0.015323362,1.047179,-0.057594366,-6.189739e-05,0.004346353,0.8476609950171772,0.0009474476278705356,-0.5305374066637347,-0.0007878231489990932,0.999999550756017,0.0005270886545319396,0.5305376677118925,-2.8822842983173137e-05,0.8476613606317495,0.07250858,-0.14402616,0.094784684,-0.9448174,0.29207656,-0.20365788,1.0471799,0.010113438,-0.00020350848,0.0028766822,0.6253343063035144,-0.7592194176294782,-0.18039645576967012,0.7625944602170591,0.6435896996872831,-0.06513054354667351,0.16554967413484906,-0.09684097454481223,0.9814352403714961,left_images/camera_left_87.png,right_images/camera_right_87.png
2025-06-27 14:58:05,4.878866910934448,88,-0.026666349,-0.00023970574,0.11362935,-0.00013955272,0.00013988647,-0.016062351,1.047179,0.058971263,2.5081834e-05,0.0018484667,0.8437703164794647,-6.636080263367424e-05,0.5367044332073178,0.00014080632429056203,0.9999999853120742,-9.772118861877677e-05,-0.5367044188393862,0.0001580256167179866,0.8437703134302494,0.050760012,0.00053629884,0.11225049,0.00077938207,2.9757923e-06,-0.015323362,1.047179,-0.057594366,-6.189739e-05,0.004346353,0.8476609950171772,0.0009474476278705356,-0.5305374066637347,-0.0007878231489990932,0.999999550756017,0.0005270886545319396,0.5305376677118925,-2.8822842983173137e-05,0.8476613606317495,0.07258513,-0.1441484,0.09501257,-0.94921863,0.29301915,-0.20799558,1.0471799,0.010145104,-0.00013233355,0.0026745684,0.6228934911575581,-0.7613376015471155,-0.17991318779910265,0.7652873506560068,0.6407192587547911,-0.06175841956058746,0.16229285135045063,-0.09921636927038428,0.9817418919804449,left_images/camera_left_88.png,right_images/camera_right_88.png
2025-06-27 14:58:05,4.941431045532227,89,-0.026666349,-0.00023970661,0.11362935,-0.00013953829,0.00013989255,-0.016062351,1.047179,0.058971263,2.5081834e-05,0.0018484667,0.8437703164794647,-6.636080263367424e-05,0.5367044332073178,0.00014080632429056203,0.9999999853120742,-9.772118861877677e-05,-0.5367044188393862,0.0001580256167179866,0.8437703134302494,0.050760012,0.00053629535,0.11225049,0.0007793751,3.0022522e-06,-0.015323362,1.047179,-0.057594355,-6.190347e-05,0.004346356,0.847660868867296,0.000947616232059564,-0.5305376079173065,-0.0007878035722045273,0.9999995505873912,0.0005274377188371679,0.5305378692955598,-2.91288923167994e-05,0.8476612344532661,0.07249601,-0.14457314,0.09522514,-0.95332795,0.29339403,-0.21142776,1.0471799,0.01015569,-2.6867958e-05,0.0024955757,0.6203944848191976,-0.76350975733207,-0.17934194619398372,0.767798395437893,0.6379035175207955,-0.05970532888773542,0.1599884594866738,-0.1006576017661823,0.9819733906974064,left_images/camera_left_89.png,right_images/camera_right_89.png
2025-06-27 14:58:05,4.999058723449707,90,-0.026666349,-0.00023970749,0.11362935,-0.00013952385,0.00013989864,-0.016062351,1.047179,0.058971263,2.5081834e-05,0.0018484667,0.8437703164794647,-6.636080263367424e-05,0.5367044332073178,0.00014080632429056203,0.9999999853120742,-9.772118861877677e-05,-0.5367044188393862,0.0001580256167179866,0.8437703134302494,0.050760012,0.00053629524,0.11225049,0.00077939697,2.9914802e-06,-0.015323362,1.047179,-0.057594366,-6.189739e-05,0.004346353,0.8476609950171772,0.0009474476278705356,-0.5305374066637347,-0.0007878231489990932,0.999999550756017,0.0005270886545319396,0.5305376677118925,-2.8822842983173137e-05,0.8476613606317495,0.0719653,-0.14494267,0.09543855,-0.957248,0.2934856,-0.21491784,1.04718,0.0101187,7.746887e-05,0.002308539,0.6179810873233509,-0.765765412288768,-0.1780525457634966,0.7703009739857785,0.6350626452718467,-0.05772214529004995,0.15727614309618,-0.10148285531328732,0.9823265469741985,left_images/camera_left_90.png,right_images/camera_right_90.png
2025-06-27 14:58:05,5.065258264541626,91,-0.026666349,-0.00023970836,0.11362935,-0.00013950942,0.00013990472,-0.016062351,1.047179,0.058971263,2.5081834e-05,0.0018484667,0.8437703164794647,-6.636080263367424e-05,0.5367044332073178,0.00014080632429056203,0.9999999853120742,-9.772118861877677e-05,-0.5367044188393862,0.0001580256167179866,0.8437703134302494,0.050760012,0.00053639925,0.11225049,0.0007794231,2.878316e-06,-0.015323408,1.047179,-0.057594366,-6.189739e-05,0.004346353,0.8476609950171772,0.0009474476278705356,-0.5305374066637347,-0.0007878231489990932,0.999999550756017,0.0005270886545319396,0.5305376677118925,-2.8822842983173137e-05,0.8476613606317495,0.071145065,-0.14514321,0.09566042,-0.9619277,0.29309028,-0.21878223,1.04718,0.010048931,0.00017565081,0.0021053078,0.6149522728953722,-0.7686360956199689,-0.1761597416293111,0.7733760994569547,0.63149976852209,-0.05565474953041334,0.15402308544358537,-0.10201271914147124,0.9827870035179552,left_images/camera_left_91.png,right_images/camera_right_91.png
2025-06-27 14:58:06,5.130022764205933,92,-0.026666349,-0.00023970923,0.11362935,-0.00013949498,0.0001399108,-0.016062351,1.047179,0.058971263,2.5081834e-05,0.0018484667,0.8437703164794647,-6.636080263367424e-05,0.5367044332073178,0.00014080632429056203,0.9999999853120742,-9.772118861877677e-05,-0.5367044188393862,0.0001580256167179866,0.8437703134302494,0.050760012,0.00053641293,0.11225049,0.0007794161,2.9047924e-06,-0.015323408,1.047179,-0.057594366,-6.189739e-05,0.004346353,0.8476609950171772,0.0009474476278705356,-0.5305374066637347,-0.0007878231489990932,0.999999550756017,0.0005270886545319396,0.5305376677118925,-2.8822842983173137e-05,0.8476613606317495,0.07026213,-0.14542429,0.09585749,-0.9695727,0.29186082,-0.2234041,1.0471793,0.0099689225,0.0002835099,0.0019290661,0.609598397223335,-0.7733454539516402,-0.1741453500816845,0.7782760562445963,0.6256095669099726,-0.053842827443165396,0.15058610287506277,-0.10271065496358175,0.9832468392920737,left_images/camera_left_92.png,right_images/camera_right_92.png
2025-06-27 14:58:06,5.199969530105591,93,-0.026666349,-0.0002397101,0.11362935,-0.00013948054,0.00013991688,-0.016062351,1.047179,0.058971263,2.5081834e-05,0.0018484667,0.8437703164794647,-6.636080263367424e-05,0.5367044332073178,0.00014080632429056203,0.9999999853120742,-9.772118861877677e-05,-0.5367044188393862,0.0001580256167179866,0.8437703134302494,0.050760012,0.00053640944,0.11225049,0.00077940914,2.9312523e-06,-0.015323408,1.047179,-0.057594366,-6.189739e-05,0.004346353,0.8476609950171772,0.0009474476278705356,-0.5305374066637347,-0.0007878231489990932,0.999999550756017,0.0005270886545319396,0.5305376677118925,-2.8822842983173137e-05,0.8476613606317495,0.06935442,-0.1464242,0.095944725,-0.9782651,0.291342,-0.22817881,1.047178,0.009892118,0.00040759236,0.0018809987,0.6034994239489611,-0.778378970454026,-0.17295844485945908,0.7835538656424488,0.6191226612546575,-0.05225389897152151,0.14775582875151685,-0.10398706013673505,0.9835420206549751,left_images/camera_left_93.png,right_images/camera_right_93.png
2025-06-27 14:58:06,5.264659643173218,94,-0.026666349,-0.00023971098,0.11362935,-0.00013946611,0.00013992297,-0.016062351,1.047179,0.058971263,2.5081834e-05,0.0018484667,0.8437703164794647,-6.636080263367424e-05,0.5367044332073178,0.00014080632429056203,0.9999999853120742,-9.772118861877677e-05,-0.5367044188393862,0.0001580256167179866,0.8437703134302494,0.050760012,0.00053640595,0.11225049,0.00077940215,2.9577122e-06,-0.015323408,1.047179,-0.057594366,-6.189739e-05,0.004346353,0.8476609950171772,0.0009474476278705356,-0.5305374066637347,-0.0007878231489990932,0.999999550756017,0.0005270886545319396,0.5305376677118925,-2.8822842983173137e-05,0.8476613606317495,0.06803794,-0.14796282,0.09604402,-0.98639023,0.2914424,-0.23245011,1.0471785,0.009785375,0.0005817035,0.0018378375,0.5977702707781726,-0.7829959529324801,-0.17201174688127396,0.7883493058771016,0.6130968554361568,-0.05116265999132941,0.14552001682546067,-0.10502182413981145,0.983765389286218,left_images/camera_left_94.png,right_images/camera_right_94.png
2025-06-27 14:58:06,5.329300880432129,95,-0.026666349,-0.00023971185,0.11362935,-0.00013945167,0.00013992905,-0.016062351,1.047179,0.058971263,2.5081834e-05,0.0018484667,0.8437703164794647,-6.636080263367424e-05,0.5367044332073178,0.00014080632429056203,0.9999999853120742,-9.772118861877677e-05,-0.5367044188393862,0.0001580256167179866,0.8437703134302494,0.050760012,0.00053640245,0.11225049,0.00077939517,2.9841722e-06,-0.015323408,1.047179,-0.057594366,-6.189739e-05,0.004346353,0.8476609950171772,0.0009474476278705356,-0.5305374066637347,-0.0007878231489990932,0.999999550756017,0.0005270886545319396,0.5305376677118925,-2.8822842983173137e-05,0.8476613606317495,0.06629726,-0.14976168,0.09611368,-0.9935093,0.29190147,-0.2367583,1.0471784,0.009635493,0.0007620236,0.0018263599,0.5928255033622479,-0.7870519799407911,-0.1706080403573588,0.7925251809191305,0.6077861375845189,-0.04999848566898853,0.1430446090294815,-0.1055707906164058,0.9840696357454741,left_images/camera_left_95.png,right_images/camera_right_95.png
