jiaqis7/OS_Teleop_Extension/demo_04/teleop_log.csv
Epoch Time (Seconds),Time (Seconds),Frame Number,PSM1_joint_1,PSM1_joint_2,PSM1_joint_3,PSM1_joint_4,PSM1_joint_5,PSM1_joint_6,PSM1_jaw_angle,PSM1_ee_x,PSM1_ee_y,PSM1_ee_z,"PSM1_Orientation_Matrix_[1,1]","PSM1_Orientation_Matrix_[1,2]","PSM1_Orientation_Matrix_[1,3]","PSM1_Orientation_Matrix_[2,1]","PSM1_Orientation_Matrix_[2,2]","PSM1_Orientation_Matrix_[2,3]","PSM1_Orientation_Matrix_[3,1]","PSM1_Orientation_Matrix_[3,2]","PSM1_Orientation_Matrix_[3,3]",PSM2_joint_1,PSM2_joint_2,PSM2_joint_3,PSM2_joint_4,PSM2_joint_5,PSM2_joint_6,PSM2_jaw_angle,PSM2_ee_x,PSM2_ee_y,PSM2_ee_z,"PSM2_Orientation_Matrix_[1,1]","PSM2_Orientation_Matrix_[1,2]","PSM2_Orientation_Matrix_[1,3]","PSM2_Orientation_Matrix_[2,1]","PSM2_Orientation_Matrix_[2,2]","PSM2_Orientation_Matrix_[2,3]","PSM2_Orientation_Matrix_[3,1]","PSM2_Orientation_Matrix_[3,2]","PSM2_Orientation_Matrix_[3,3]",PSM3_joint_1,PSM3_joint_2,PSM3_joint_3,PSM3_joint_4,PSM3_joint_5,PSM3_joint_6,PSM3_jaw_angle,PSM3_ee_x,PSM3_ee_y,PSM3_ee_z,"PSM3_Orientation_Matrix_[1,1]","PSM3_Orientation_Matrix_[1,2]","PSM3_Orientation_Matrix_[1,3]","PSM3_Orientation_Matrix_[2,1]","PSM3_Orientation_Matrix_[2,2]","PSM3_Orientation_Matrix_[2,3]","PSM3_Orientation_Matrix_[3,1]","PSM3_Orientation_Matrix_[3,2]","PSM3_Orientation_Matrix_[3,3]",Camera Left,Camera Right
2025-05-27 16:18:09,0.0018167495727539062,1,-0.057436846,-1.37357865e-05,0.0967256,-0.00018482468,0.00021687856,-0.027670773,1.0190539,0.045141842,-2.9290213e-06,0.02196237,0.8202745581459958,-0.00026598662315292765,0.5719699104931197,0.00017893033529831827,0.9999999622708269,0.00020842811694228694,-0.571969944352259,-6.862551366495336e-05,0.8202745747907907,0.00054538104,-1.0773523e-06,0.09855139,-0.0010351302,-0.00016516967,0.021505177,1.0471785,-0.049086947,3.0900935e-06,0.017366834,0.854686638796223,-0.0009787025908846647,-0.5191433247230028,0.0010309927245014737,0.9999994508811306,-0.00018786015824265163,0.5191432235108309,-0.00037467142355078345,0.854687178506913,-4.4813303e-05,-0.016012708,0.10667065,-0.000631262,-0.005106765,-0.0062078503,0.523589,-6.2650375e-05,-0.019887472,0.0047527542,0.9999802344179791,-0.0006300629190100803,0.006255700926476064,0.002351336988491861,0.9602447701246964,-0.2791495166797451,-0.005831122338793366,0.27915870838805446,0.960227271818179,left_images/camera_left_1.png,right_images/camera_right_1.png
2025-05-27 16:18:09,0.05439591407775879,2,-0.057436846,-1.3738888e-05,0.0967256,-0.00018483998,0.00021689666,-0.027670773,1.0169977,0.045141842,-2.9290213e-06,0.02196237,0.8202745581459958,-0.00026598662315292765,0.5719699104931197,0.00017893033529831827,0.9999999622708269,0.00020842811694228694,-0.571969944352259,-6.862551366495336e-05,0.8202745747907907,0.00054538104,-1.0778055e-06,0.09855139,-0.0010351302,-0.00016516667,0.021505177,1.0471785,-0.049086947,3.0900935e-06,0.017366834,0.854686638796223,-0.0009787025908846647,-0.5191433247230028,0.0010309927245014737,0.9999994508811306,-0.00018786015824265163,0.5191432235108309,-0.00037467142355078345,0.854687178506913,-4.4812525e-05,-0.016012708,0.10667065,-0.00063126546,-0.005106765,-0.0062078503,0.523589,-6.2650375e-05,-0.019887472,0.0047527542,0.9999802344179791,-0.0006300629190100803,0.006255700926476064,0.002351336988491861,0.9602447701246964,-0.2791495166797451,-0.005831122338793366,0.27915870838805446,0.960227271818179,left_images/camera_left_2.png,right_images/camera_right_2.png
2025-05-27 16:18:09,0.1070549488067627,3,-0.057436846,-1.3741988e-05,0.0967256,-0.00018485557,0.00021691472,-0.027670773,1.0233895,0.045141842,-2.9290213e-06,0.02196237,0.8202745581459958,-0.00026598662315292765,0.5719699104931197,0.00017893033529831827,0.9999999622708269,0.00020842811694228694,-0.571969944352259,-6.862551366495336e-05,0.8202745747907907,0.00054538104,-1.0782586e-06,0.09855139,-0.0010351302,-0.00016516367,0.021505177,1.0471785,-0.049086947,3.0900935e-06,0.017366834,0.854686638796223,-0.0009787025908846647,-0.5191433247230028,0.0010309927245014737,0.9999994508811306,-0.00018786015824265163,0.5191432235108309,-0.00037467142355078345,0.854687178506913,-4.4811746e-05,-0.016012708,0.10667065,-0.0006312689,-0.005106765,-0.0062078503,0.523589,-6.2650375e-05,-0.019887472,0.0047527542,0.9999802344179791,-0.0006300629190100803,0.006255700926476064,0.002351336988491861,0.9602447701246964,-0.2791495166797451,-0.005831122338793366,0.27915870838805446,0.960227271818179,left_images/camera_left_3.png,right_images/camera_right_3.png
2025-05-27 16:18:09,0.17180347442626953,4,-0.057436846,-1.3745087e-05,0.096725546,-0.00018487049,0.0002169328,-0.027670773,1.0135694,0.045141872,-2.9290213e-06,0.0219624,0.8202745581459958,-0.00026598662315292765,0.5719699104931197,0.00017893033529831827,0.9999999622708269,0.00020842811694228694,-0.571969944352259,-6.862551366495336e-05,0.8202745747907907,0.00054538104,-1.0787118e-06,0.09855139,-0.0010351302,-0.00016516067,0.021505177,1.0471785,-0.049086947,3.0900935e-06,0.017366834,0.854686638796223,-0.0009787025908846647,-0.5191433247230028,0.0010309927245014737,0.9999994508811306,-0.00018786015824265163,0.5191432235108309,-0.00037467142355078345,0.854687178506913,-4.4810968e-05,-0.016012708,0.10667065,-0.0006312723,-0.005106765,-0.0062078503,0.523589,-6.2650375e-05,-0.019887472,0.0047527542,0.9999802344179791,-0.0006300629190100803,0.006255700926476064,0.002351336988491861,0.9602447701246964,-0.2791495166797451,-0.005831122338793366,0.27915870838805446,0.960227271818179,left_images/camera_left_4.png,right_images/camera_right_4.png
2025-05-27 16:18:09,0.23938703536987305,5,-0.057436846,-1.3748186e-05,0.096725546,-0.00018488617,0.00021695092,-0.027670773,1.0060701,0.045141872,-2.9290213e-06,0.0219624,0.8202745581459958,-0.00026598662315292765,0.5719699104931197,0.00017893033529831827,0.9999999622708269,0.00020842811694228694,-0.571969944352259,-6.862551366495336e-05,0.8202745747907907,0.00054538104,-1.0791649e-06,0.09855139,-0.0010351302,-0.00016515767,0.021505177,1.0471785,-0.049086947,3.0900935e-06,0.017366834,0.854686638796223,-0.0009787025908846647,-0.5191433247230028,0.0010309927245014737,0.9999994508811306,-0.00018786015824265163,0.5191432235108309,-0.00037467142355078345,0.854687178506913,-4.481019e-05,-0.016012708,0.10667065,-0.00063127576,-0.005106765,-0.0062078503,0.523589,-6.2650375e-05,-0.019887472,0.0047527542,0.9999802344179791,-0.0006300629190100803,0.006255700926476064,0.002351336988491861,0.9602447701246964,-0.2791495166797451,-0.005831122338793366,0.27915870838805446,0.960227271818179,left_images/camera_left_5.png,right_images/camera_right_5.png
2025-05-27 16:18:09,0.28873491287231445,6,-0.057436846,-1.3756615e-05,0.09672553,-0.00018490174,0.00021697512,-0.027670773,0.9969361,0.045141872,-2.9327466e-06,0.02196243,0.8202745581459958,-0.00026598662315292765,0.5719699104931197,0.00017893033529831827,0.9999999622708269,0.00020842811694228694,-0.571969944352259,-6.862551366495336e-05,0.8202745747907907,0.00054539036,-1.0809679e-06,0.09855139,-0.0010351163,-0.00016518639,0.021505177,1.0471785,-0.049086947,3.0900935e-06,0.017366834,0.854686638796223,-0.0009787025908846647,-0.5191433247230028,0.0010309927245014737,0.9999994508811306,-0.00018786015824265163,0.5191432235108309,-0.00037467142355078345,0.854687178506913,-4.480941e-05,-0.016012708,0.10667065,-0.0006312792,-0.005106765,-0.0062078503,0.523589,-6.2650375e-05,-0.019887472,0.0047527542,0.9999802344179791,-0.0006300629190100803,0.006255700926476064,0.002351336988491861,0.9602447701246964,-0.2791495166797451,-0.005831122338793366,0.27915870838805446,0.960227271818179,left_images/camera_left_6.png,right_images/camera_right_6.png
2025-05-27 16:18:09,0.33738017082214355,7,-0.057436846,-1.3760599e-05,0.09672553,-0.00018491743,0.00021699323,-0.027670773,0.9949765,0.045141872,-2.9327466e-06,0.02196243,0.8202745581459958,-0.00026598662315292765,0.5719699104931197,0.00017893033529831827,0.9999999622708269,0.00020842811694228694,-0.571969944352259,-6.862551366495336e-05,0.8202745747907907,0.0005453929,-1.0816594e-06,0.09855139,-0.0010351163,-0.0001651834,0.021505177,1.0471785,-0.049086947,3.0900935e-06,0.017366834,0.854686638796223,-0.0009787025908846647,-0.5191433247230028,0.0010309927245014737,0.9999994508811306,-0.00018786015824265163,0.5191432235108309,-0.00037467142355078345,0.854687178506913,-4.4808632e-05,-0.016012708,0.10667065,-0.00063128263,-0.005106765,-0.0062078503,0.523589,-6.2650375e-05,-0.019887472,0.0047527542,0.9999802344179791,-0.0006300629190100803,0.006255700926476064,0.002351336988491861,0.9602447701246964,-0.2791495166797451,-0.005831122338793366,0.27915870838805446,0.960227271818179,left_images/camera_left_7.png,right_images/camera_right_7.png
2025-05-27 16:18:10,0.3951878547668457,8,-0.057436846,-1.3758374e-05,0.096725486,-0.00018493267,0.00021700488,-0.027670773,0.9840152,0.0451419,-2.9290213e-06,0.02196246,0.8202745581459958,-0.00026598662315292765,0.5719699104931197,0.00017893033529831827,0.9999999622708269,0.00020842811694228694,-0.571969944352259,-6.862551366495336e-05,0.8202745747907907,0.0005453929,-1.0821127e-06,0.09855139,-0.0010351163,-0.0001651804,0.021505177,1.0471785,-0.049086947,3.0900935e-06,0.017366834,0.854686638796223,-0.0009787025908846647,-0.5191433247230028,0.0010309927245014737,0.9999994508811306,-0.00018786015824265163,0.5191432235108309,-0.00037467142355078345,0.854687178506913,-4.4807854e-05,-0.016012708,0.10667065,-0.00063128606,-0.005106765,-0.0062078503,0.523589,-6.2650375e-05,-0.019887472,0.0047527542,0.9999802344179791,-0.0006300629190100803,0.006255700926476064,0.002351336988491861,0.9602447701246964,-0.2791495166797451,-0.005831122338793366,0.27915870838805446,0.960227271818179,left_images/camera_left_8.png,right_images/camera_right_8.png
2025-05-27 16:18:10,0.45737743377685547,9,-0.057436846,-1.37605975e-05,0.096725486,-0.00018494832,0.00021702294,-0.027670773,0.97362137,0.0451419,-2.9290213e-06,0.02196246,0.8202745581459958,-0.00026598662315292765,0.5719699104931197,0.00017893033529831827,0.9999999622708269,0.00020842811694228694,-0.571969944352259,-6.862551366495336e-05,0.8202745747907907,0.0005453929,-1.0825659e-06,0.09855139,-0.0010351163,-0.00016517741,0.021505177,1.0471785,-0.049086947,3.0900935e-06,0.017366834,0.854686638796223,-0.0009787025908846647,-0.5191433247230028,0.0010309927245014737,0.9999994508811306,-0.00018786015824265163,0.5191432235108309,-0.00037467142355078345,0.854687178506913,-4.4807075e-05,-0.016012708,0.10667065,-0.0006312895,-0.005106765,-0.0062078503,0.523589,-6.2650375e-05,-0.019887472,0.0047527542,0.9999802344179791,-0.0006300629190100803,0.006255700926476064,0.002351336988491861,0.9602447701246964,-0.2791495166797451,-0.005831122338793366,0.27915870838805446,0.960227271818179,left_images/camera_left_9.png,right_images/camera_right_9.png
2025-05-27 16:18:10,0.5240788459777832,10,-0.057436846,-1.3763697e-05,0.09672548,-0.00018496305,0.00021704099,-0.027670773,0.95440364,0.0451419,-2.9290213e-06,0.02196246,0.8202745581459958,-0.00026598662315292765,0.5719699104931197,0.00017893033529831827,0.9999999622708269,0.00020842811694228694,-0.571969944352259,-6.862551366495336e-05,0.8202745747907907,0.0005453929,-1.083019e-06,0.09855139,-0.0010351163,-0.00016517441,0.021505177,1.0471785,-0.049086947,3.0900935e-06,0.017366834,0.854686638796223,-0.0009787025908846647,-0.5191433247230028,0.0010309927245014737,0.9999994508811306,-0.00018786015824265163,0.5191432235108309,-0.00037467142355078345,0.854687178506913,-4.4806297e-05,-0.016012708,0.10667065,-0.00063129293,-0.005106765,-0.0062078503,0.523589,-6.2650375e-05,-0.019887472,0.0047527542,0.9999802344179791,-0.0006300629190100803,0.006255700926476064,0.002351336988491861,0.9602447701246964,-0.2791495166797451,-0.005831122338793366,0.27915870838805446,0.960227271818179,left_images/camera_left_10.png,right_images/camera_right_10.png
2025-05-27 16:18:10,0.5937268733978271,11,-0.057436846,-1.3766796e-05,0.09672548,-0.00018497392,0.00021705915,-0.027670773,0.9277894,0.0451419,-2.9290213e-06,0.02196246,0.8202745581459958,-0.00026598662315292765,0.5719699104931197,0.00017893033529831827,0.9999999622708269,0.00020842811694228694,-0.571969944352259,-6.862551366495336e-05,0.8202745747907907,0.0005453929,-1.0834722e-06,0.09855139,-0.0010351163,-0.00016517141,0.021505177,1.0471785,-0.049086947,3.0900935e-06,0.017366834,0.854686638796223,-0.0009787025908846647,-0.5191433247230028,0.0010309927245014737,0.9999994508811306,-0.00018786015824265163,0.5191432235108309,-0.00037467142355078345,0.854687178506913,-4.4805518e-05,-0.016012708,0.10667065,-0.00063129637,-0.005106765,-0.0062078503,0.523589,-6.2650375e-05,-0.019887472,0.0047527542,0.9999802344179791,-0.0006300629190100803,0.006255700926476064,0.002351336988491861,0.9602447701246964,-0.2791495166797451,-0.005831122338793366,0.27915870838805446,0.960227271818179,left_images/camera_left_11.png,right_images/camera_right_11.png
2025-05-27 16:18:10,0.6632273197174072,12,-0.057436846,-1.3769897e-05,0.09672548,-0.00018498852,0.00021707726,-0.027670773,0.90112466,0.0451419,-2.9290213e-06,0.02196246,0.8202745581459958,-0.00026598662315292765,0.5719699104931197,0.00017893033529831827,0.9999999622708269,0.00020842811694228694,-0.571969944352259,-6.862551366495336e-05,0.8202745747907907,0.0005453929,-1.0839253e-06,0.09855139,-0.0010351163,-0.00016516841,0.021505177,1.0471785,-0.049086947,3.0900935e-06,0.017366834,0.854686638796223,-0.0009787025908846647,-0.5191433247230028,0.0010309927245014737,0.9999994508811306,-0.00018786015824265163,0.5191432235108309,-0.00037467142355078345,0.854687178506913,-4.480474e-05,-0.016012708,0.10667065,-0.0006312998,-0.005106765,-0.0062078503,0.523589,-6.2650375e-05,-0.019887472,0.0047527542,0.9999802344179791,-0.0006300629190100803,0.006255700926476064,0.002351336988491861,0.9602447701246964,-0.2791495166797451,-0.005831122338793366,0.27915870838805446,0.960227271818179,left_images/camera_left_12.png,right_images/camera_right_12.png
2025-05-27 16:18:10,0.7373583316802979,13,-0.057436846,-1.37729985e-05,0.09672548,-0.00018500368,0.00021709537,-0.027670773,0.8744599,0.0451419,-2.9290213e-06,0.02196246,0.8202745581459958,-0.00026598662315292765,0.5719699104931197,0.00017893033529831827,0.9999999622708269,0.00020842811694228694,-0.571969944352259,-6.862551366495336e-05,0.8202745747907907,0.0005453929,-1.0843785e-06,0.09855139,-0.0010351163,-0.00016516542,0.021505177,1.0471785,-0.049086947,3.0900935e-06,0.017366834,0.854686638796223,-0.0009787025908846647,-0.5191433247230028,0.0010309927245014737,0.9999994508811306,-0.00018786015824265163,0.5191432235108309,-0.00037467142355078345,0.854687178506913,-4.480396e-05,-0.016012708,0.10667065,-0.00063130324,-0.005106765,-0.0062078503,0.523589,-6.2650375e-05,-0.019887472,0.0047527542,0.9999802344179791,-0.0006300629190100803,0.006255700926476064,0.002351336988491861,0.9602447701246964,-0.2791495166797451,-0.005831122338793366,0.27915870838805446,0.960227271818179,left_images/camera_left_13.png,right_images/camera_right_13.png
2025-05-27 16:18:10,0.8045744895935059,14,-0.057436846,-1.3787767e-05,0.09672548,-0.00018495022,0.00021712303,-0.027670773,0.8477952,0.0451419,-2.9290213e-06,0.02196246,0.8202745581459958,-0.00026598662315292765,0.5719699104931197,0.00017893033529831827,0.9999999622708269,0.00020842811694228694,-0.571969944352259,-6.862551366495336e-05,0.8202745747907907,0.0005453929,-1.0848316e-06,0.09855139,-0.0010351163,-0.00016516242,0.021505177,1.0471785,-0.049086947,3.0900935e-06,0.017366834,0.854686638796223,-0.0009787025908846647,-0.5191433247230028,0.0010309927245014737,0.9999994508811306,-0.00018786015824265163,0.5191432235108309,-0.00037467142355078345,0.854687178506913,-4.4803182e-05,-0.016012708,0.10667065,-0.00063130667,-0.005106765,-0.0062078503,0.523589,-6.2650375e-05,-0.019887472,0.0047527542,0.9999802344179791,-0.0006300629190100803,0.006255700926476064,0.002351336988491861,0.9602447701246964,-0.2791495166797451,-0.005831122338793366,0.27915870838805446,0.960227271818179,left_images/camera_left_14.png,right_images/camera_right_14.png
2025-05-27 16:18:10,0.8690338134765625,15,-0.057436846,-1.3792801e-05,0.09672548,-0.00018496536,0.00021714113,-0.027670773,0.82113045,0.0451419,-2.9290213e-06,0.02196246,0.8202745581459958,-0.00026598662315292765,0.5719699104931197,0.00017893033529831827,0.9999999622708269,0.00020842811694228694,-0.571969944352259,-6.862551366495336e-05,0.8202745747907907,0.0005453929,-1.0852848e-06,0.09855139,-0.0010351163,-0.00016515942,0.021505177,1.0471785,-0.049086947,3.0900935e-06,0.017366834,0.854686638796223,-0.0009787025908846647,-0.5191433247230028,0.0010309927245014737,0.9999994508811306,-0.00018786015824265163,0.5191432235108309,-0.00037467142355078345,0.854687178506913,-4.4802404e-05,-0.016012708,0.10667065,-0.0006313101,-0.005106765,-0.0062078503,0.523589,-6.2650375e-05,-0.019887472,0.0047527542,0.9999802344179791,-0.0006300629190100803,0.006255700926476064,0.002351336988491861,0.9602447701246964,-0.2791495166797451,-0.005831122338793366,0.27915870838805446,0.960227271818179,left_images/camera_left_15.png,right_images/camera_right_15.png
2025-05-27 16:18:10,0.9351797103881836,16,-0.057436846,-1.3795903e-05,0.09672548,-0.00018498053,0.00021715924,-0.027670773,0.7944657,0.0451419,-2.9290213e-06,0.02196246,0.8202745581459958,-0.00026598662315292765,0.5719699104931197,0.00017893033529831827,0.9999999622708269,0.00020842811694228694,-0.571969944352259,-6.862551366495336e-05,0.8202745747907907,0.00054538704,-1.0857387e-06,0.09855133,-0.0010351093,-0.00016515647,0.021505177,1.0205138,-0.049086984,3.0850458e-06,0.017366894,0.8546867283824322,-0.000978458885637516,-0.5191431776929597,0.0010308569344736286,0.9999994510673045,-0.00018761415339534488,0.5191430762910313,-0.0003748110177457555,0.8546872678680698,-4.4801625e-05,-0.016012708,0.10667065,-0.00063131354,-0.005106765,-0.0062078503,0.523589,-6.2650375e-05,-0.019887472,0.0047527542,0.9999802344179791,-0.0006300629190100803,0.006255700926476064,0.002351336988491861,0.9602447701246964,-0.2791495166797451,-0.005831122338793366,0.27915870838805446,0.960227271818179,left_images/camera_left_16.png,right_images/camera_right_16.png
2025-05-27 16:18:10,0.9950132369995117,17,-0.057436846,-1.3799005e-05,0.09672548,-0.00018499569,0.00021717734,-0.027670773,0.767801,0.0451419,-2.9290213e-06,0.02196246,0.8202745581459958,-0.00026598662315292765,0.5719699104931197,0.00017893033529831827,0.9999999622708269,0.00020842811694228694,-0.571969944352259,-6.862551366495336e-05,0.8202745747907907,0.00054537685,-1.0788106e-06,0.09855133,-0.0010350379,-0.00016516182,0.021505177,0.993849,-0.049086977,3.0900935e-06,0.017366894,0.854686638796223,-0.0009787025908846647,-0.5191433247230028,0.0010309927245014737,0.9999994508811306,-0.00018786015824265163,0.5191432235108309,-0.00037467142355078345,0.854687178506913,-4.4800847e-05,-0.016012708,0.10667065,-0.000631317,-0.005106765,-0.0062078503,0.523589,-6.2650375e-05,-0.019887472,0.0047527542,0.9999802344179791,-0.0006300629190100803,0.006255700926476064,0.002351336988491861,0.9602447701246964,-0.2791495166797451,-0.005831122338793366,0.27915870838805446,0.960227271818179,left_images/camera_left_17.png,right_images/camera_right_17.png
2025-05-27 16:18:10,1.0437726974487305,18,-0.057436846,-1.3802106e-05,0.09672548,-0.00018501085,0.00021719544,-0.027670773,0.74113625,0.045141853,-2.9377966e-06,0.02196243,0.8202745784901311,-0.00026635745107719236,0.5719698811445809,0.00017939827666303888,0.9999999621917292,0.00020840537092007495,-0.5719699150297121,-6.833921680604292e-05,0.8202745952610354,0.0005453747,-1.0785843e-06,0.09855133,-0.0010350379,-0.0001651588,0.021505177,0.96718425,-0.049086977,3.0900935e-06,0.017366894,0.854686638796223,-0.0009787025908846647,-0.5191433247230028,0.0010309927245014737,0.9999994508811306,-0.00018786015824265163,0.5191432235108309,-0.00037467142355078345,0.854687178506913,-4.480007e-05,-0.016012708,0.10667065,-0.0006313204,-0.005106765,-0.0062078503,0.523589,-6.2650375e-05,-0.019887472,0.0047527542,0.9999802344179791,-0.0006300629190100803,0.006255700926476064,0.002351336988491861,0.9602447701246964,-0.2791495166797451,-0.005831122338793366,0.27915870838805446,0.960227271818179,left_images/camera_left_18.png,right_images/camera_right_18.png
2025-05-27 16:18:10,1.0927999019622803,19,-0.057436846,-1.37922925e-05,0.09672548,-0.0001850126,0.00021713224,-0.027670773,0.7144715,0.045141853,-2.9377966e-06,0.02196243,0.8202745784901311,-0.00026635745107719236,0.5719698811445809,0.00017939827666303888,0.9999999621917292,0.00020840537092007495,-0.5719699150297121,-6.833921680604292e-05,0.8202745952610354,0.00054538064,-1.0803877e-06,0.09855133,-0.001035024,-0.0001651875,0.021505177,0.9405195,-0.049086977,3.0900935e-06,0.017366894,0.854686638796223,-0.0009787025908846647,-0.5191433247230028,0.0010309927245014737,0.9999994508811306,-0.00018786015824265163,0.5191432235108309,-0.00037467142355078345,0.854687178506913,-4.479929e-05,-0.016012708,0.10667065,-0.00063132384,-0.005106765,-0.0062078503,0.523589,-6.2650375e-05,-0.019887472,0.0047527542,0.9999802344179791,-0.0006300629190100803,0.006255700926476064,0.002351336988491861,0.9602447701246964,-0.2791495166797451,-0.005831122338793366,0.27915870838805446,0.960227271818179,left_images/camera_left_19.png,right_images/camera_right_19.png
2025-05-27 16:18:10,1.1447772979736328,20,-0.057436846,-1.3781524e-05,0.09672548,-0.00018501435,0.00021706903,-0.027670773,0.6878068,0.045141853,-2.9377966e-06,0.02196243,0.8202745784901311,-0.00026635745107719236,0.5719698811445809,0.00017939827666303888,0.9999999621917292,0.00020840537092007495,-0.5719699150297121,-6.833921680604292e-05,0.8202745952610354,0.0005453813,-1.08108e-06,0.09855133,-0.001035024,-0.0001651845,0.021505177,0.9138548,-0.049086977,3.0900935e-06,0.017366894,0.854686638796223,-0.0009787025908846647,-0.5191433247230028,0.0010309927245014737,0.9999994508811306,-0.00018786015824265163,0.5191432235108309,-0.00037467142355078345,0.854687178506913,-4.479851e-05,-0.016012708,0.10667065,-0.0006313273,-0.005106765,-0.0062078503,0.523589,-6.2650375e-05,-0.019887472,0.0047527542,0.9999802344179791,-0.0006300629190100803,0.006255700926476064,0.002351336988491861,0.9602447701246964,-0.2791495166797451,-0.005831122338793366,0.27915870838805446,0.960227271818179,left_images/camera_left_20.png,right_images/camera_right_20.png
2025-05-27 16:18:10,1.2008087635040283,21,-0.057436846,-1.3770756e-05,0.09672548,-0.00018501609,0.00021700581,-0.027670773,0.66114205,0.045141853,-2.9377966e-06,0.02196243,0.8202745784901311,-0.00026635745107719236,0.5719698811445809,0.00017939827666303888,0.9999999621917292,0.00020840537092007495,-0.5719699150297121,-6.833921680604292e-05,0.8202745952610354,0.0005453813,-1.0815337e-06,0.09855133,-0.001035024,-0.00016518148,0.021505177,0.88719004,-0.049086977,3.0900935e-06,0.017366894,0.854686638796223,-0.0009787025908846647,-0.5191433247230028,0.0010309927245014737,0.9999994508811306,-0.00018786015824265163,0.5191432235108309,-0.00037467142355078345,0.854687178506913,-4.4797733e-05,-0.016012708,0.10667065,-0.0006313307,-0.005106765,-0.0062078503,0.523589,-6.2650375e-05,-0.019887472,0.0047527542,0.9999802344179791,-0.0006300629190100803,0.006255700926476064,0.002351336988491861,0.9602447701246964,-0.2791495166797451,-0.005831122338793366,0.27915870838805446,0.960227271818179,left_images/camera_left_21.png,right_images/camera_right_21.png
2025-05-27 16:18:10,1.2622618675231934,22,-0.057436846,-1.3759987e-05,0.09672548,-0.00018501784,0.0002169426,-0.027670773,0.6344773,0.045141853,-2.9377966e-06,0.02196243,0.8202745784901311,-0.00026635745107719236,0.5719698811445809,0.00017939827666303888,0.9999999621917292,0.00020840537092007495,-0.5719699150297121,-6.833921680604292e-05,0.8202745952610354,0.0005453813,-1.0819873e-06,0.09855133,-0.001035024,-0.00016517848,0.021505177,0.8605253,-0.049086977,3.0900935e-06,0.017366894,0.854686638796223,-0.0009787025908846647,-0.5191433247230028,0.0010309927245014737,0.9999994508811306,-0.00018786015824265163,0.5191432235108309,-0.00037467142355078345,0.854687178506913,-4.4796954e-05,-0.016012708,0.10667065,-0.00063133414,-0.005106765,-0.0062078503,0.523589,-6.2650375e-05,-0.019887472,0.0047527542,0.9999802344179791,-0.0006300629190100803,0.006255700926476064,0.002351336988491861,0.9602447701246964,-0.2791495166797451,-0.005831122338793366,0.27915870838805446,0.960227271818179,left_images/camera_left_22.png,right_images/camera_right_22.png
2025-05-27 16:18:10,1.3295629024505615,23,-0.057436846,-1.3749219e-05,0.09672548,-0.00018501958,0.00021687939,-0.027670773,0.6078126,0.045141853,-2.9377966e-06,0.02196243,0.8202745784901311,-0.00026635745107719236,0.5719698811445809,0.00017939827666303888,0.9999999621917292,0.00020840537092007495,-0.5719699150297121,-6.833921680604292e-05,0.8202745952610354,0.0005453813,-1.0824409e-06,0.09855133,-0.001035024,-0.00016517546,0.021505177,0.8338606,-0.049086977,3.0900935e-06,0.017366894,0.854686638796223,-0.0009787025908846647,-0.5191433247230028,0.0010309927245014737,0.9999994508811306,-0.00018786015824265163,0.5191432235108309,-0.00037467142355078345,0.854687178506913,-4.4796176e-05,-0.016012708,0.10667065,-0.0006313376,-0.005106765,-0.0062078503,0.523589,-6.2650375e-05,-0.019887472,0.0047527542,0.9999802344179791,-0.0006300629190100803,0.006255700926476064,0.002351336988491861,0.9602447701246964,-0.2791495166797451,-0.005831122338793366,0.27915870838805446,0.960227271818179,left_images/camera_left_23.png,right_images/camera_right_23.png
2025-05-27 16:18:11,1.396824598312378,24,-0.057436846,-1.373845e-05,0.09672548,-0.00018502133,0.00021681617,-0.027670773,0.58114785,0.045141857,-2.9333028e-06,0.02196243,0.8202745906093343,-0.00026613798989250786,0.5719698638663225,0.00017928602789714536,0.9999999622582498,0.0002081826582746658,-0.571969897684493,-6.822073981875046e-05,0.8202746073655587,0.0005453813,-1.0828945e-06,0.09855133,-0.001035024,-0.00016517245,0.021505177,0.80719584,-0.049086977,3.0900935e-06,0.017366894,0.854686638796223,-0.0009787025908846647,-0.5191433247230028,0.0010309927245014737,0.9999994508811306,-0.00018786015824265163,0.5191432235108309,-0.00037467142355078345,0.854687178506913,-4.4795397e-05,-0.016012708,0.10667065,-0.000631341,-0.005106765,-0.0062078503,0.523589,-6.2650375e-05,-0.019887472,0.0047527542,0.9999802344179791,-0.0006300629190100803,0.006255700926476064,0.002351336988491861,0.9602447701246964,-0.2791495166797451,-0.005831122338793366,0.27915870838805446,0.960227271818179,left_images/camera_left_24.png,right_images/camera_right_24.png
2025-05-27 16:18:11,1.4581191539764404,25,-0.057436846,-1.3744323e-05,0.09672548,-0.00018501542,0.00021682006,-0.027670773,0.5544831,0.045141857,-2.9333028e-06,0.02196243,0.8202745906093343,-0.00026613798989250786,0.5719698638663225,0.00017928602789714536,0.9999999622582498,0.0002081826582746658,-0.571969897684493,-6.822073981875046e-05,0.8202746073655587,0.0005453813,-1.0833481e-06,0.09855133,-0.001035024,-0.00016516942,0.021505177,0.7805311,-0.049086977,3.0900935e-06,0.017366894,0.854686638796223,-0.0009787025908846647,-0.5191433247230028,0.0010309927245014737,0.9999994508811306,-0.00018786015824265163,0.5191432235108309,-0.00037467142355078345,0.854687178506913,-4.479462e-05,-0.016012708,0.10667065,-0.00063134445,-0.005106765,-0.0062078503,0.523589,-6.2650375e-05,-0.019887472,0.0047527542,0.9999802344179791,-0.0006300629190100803,0.006255700926476064,0.002351336988491861,0.9602447701246964,-0.2791495166797451,-0.005831122338793366,0.27915870838805446,0.960227271818179,left_images/camera_left_25.png,right_images/camera_right_25.png
2025-05-27 16:18:11,1.50899076461792,26,-0.057436846,-1.3751181e-05,0.09672548,-0.00018500951,0.00021682394,-0.027670773,0.5278184,0.045141857,-2.9333028e-06,0.02196243,0.8202745906093343,-0.00026613798989250786,0.5719698638663225,0.00017928602789714536,0.9999999622582498,0.0002081826582746658,-0.571969897684493,-6.822073981875046e-05,0.8202746073655587,0.0005453813,-1.0838017e-06,0.09855133,-0.001035024,-0.00016516639,0.021505177,0.7538664,-0.049086977,3.0900935e-06,0.017366894,0.854686638796223,-0.0009787025908846647,-0.5191433247230028,0.0010309927245014737,0.9999994508811306,-0.00018786015824265163,0.5191432235108309,-0.00037467142355078345,0.854687178506913,-4.479384e-05,-0.016012708,0.10667065,-0.0006313479,-0.005106765,-0.0062078503,0.523589,-6.2650375e-05,-0.019887472,0.0047527542,0.9999802344179791,-0.0006300629190100803,0.006255700926476064,0.002351336988491861,0.9602447701246964,-0.2791495166797451,-0.005831122338793366,0.27915870838805446,0.960227271818179,left_images/camera_left_26.png,right_images/camera_right_26.png
2025-05-27 16:18:11,1.558393955230713,27,-0.057436846,-1.3758038e-05,0.09672548,-0.0001850036,0.00021682783,-0.027670773,0.50115365,0.0451419,-2.9226517e-06,0.02196246,0.820274590696719,-0.0002657452763535217,0.5719698639235969,0.00017889331435398976,0.9999999623542626,0.0002080592591415668,-0.5719698976821349,-6.834413896511851e-05,0.8202746073569305,0.0005453813,-1.0842554e-06,0.09855133,-0.001035024,-0.00016516338,0.021505177,0.72720164,-0.049086977,3.0900935e-06,0.017366894,0.854686638796223,-0.0009787025908846647,-0.5191433247230028,0.0010309927245014737,0.9999994508811306,-0.00018786015824265163,0.5191432235108309,-0.00037467142355078345,0.854687178506913,-4.479304e-05,-0.016012708,0.10667065,-0.0006313444,-0.0051067644,-0.0062078503,0.49692392,-6.2650375e-05,-0.019887472,0.0047527542,0.9999802344179791,-0.0006300629190100803,0.006255700926476064,0.002351336988491861,0.9602447701246964,-0.2791495166797451,-0.005831122338793366,0.27915870838805446,0.960227271818179,left_images/camera_left_27.png,right_images/camera_right_27.png
2025-05-27 16:18:11,1.6096367835998535,28,-0.057436846,-1.3776469e-05,0.09672548,-0.00018494113,0.00021682536,-0.027670773,0.4744855,0.0451419,-2.9226517e-06,0.02196246,0.820274590696719,-0.0002657452763535217,0.5719698639235969,0.00017889331435398976,0.9999999623542626,0.0002080592591415668,-0.5719698976821349,-6.834413896511851e-05,0.8202746073569305,0.0005453813,-1.084709e-06,0.09855133,-0.001035024,-0.00016516035,0.021505177,0.7005369,-0.049086977,3.0900935e-06,0.017366894,0.854686638796223,-0.0009787025908846647,-0.5191433247230028,0.0010309927245014737,0.9999994508811306,-0.00018786015824265163,0.5191432235108309,-0.00037467142355078345,0.854687178506913,-4.4792258e-05,-0.016012708,0.10667065,-0.00063134776,-0.0051067644,-0.0062078503,0.4702556,-6.2650375e-05,-0.019887472,0.0047527542,0.9999802344179791,-0.0006300629190100803,0.006255700926476064,0.002351336988491861,0.9602447701246964,-0.2791495166797451,-0.005831122338793366,0.27915870838805446,0.960227271818179,left_images/camera_left_28.png,right_images/camera_right_28.png
2025-05-27 16:18:11,1.6630406379699707,29,-0.057436846,-1.3785158e-05,0.09672548,-0.0001849473,0.00021681329,-0.027670773,0.44781718,0.0451419,-2.9226517e-06,0.02196246,0.820274590696719,-0.0002657452763535217,0.5719698639235969,0.00017889331435398976,0.9999999623542626,0.0002080592591415668,-0.5719698976821349,-6.834413896511851e-05,0.8202746073569305,0.0005453813,-1.0851626e-06,0.09855133,-0.001035024,-0.00016515735,0.021505177,0.6738722,-0.049086984,3.0850458e-06,0.017366894,0.8546867283824322,-0.000978458885637516,-0.5191431776929597,0.0010308569344736286,0.9999994510673045,-0.00018761415339534488,0.5191430762910313,-0.0003748110177457555,0.8546872678680698,-4.479148e-05,-0.016012708,0.10667065,-0.00063135114,-0.0051067644,-0.0062078503,0.4435873,-6.2650375e-05,-0.019887472,0.0047527542,0.9999802344179791,-0.0006300629190100803,0.006255700926476064,0.002351336988491861,0.9602447701246964,-0.2791495166797451,-0.005831122338793366,0.27915870838805446,0.960227271818179,left_images/camera_left_29.png,right_images/camera_right_29.png
2025-05-27 16:18:11,1.7145824432373047,30,-0.057436846,-1.3791923e-05,0.09672548,-0.00018495349,0.00021680123,-0.027670773,0.42114887,0.0451419,-2.9226517e-06,0.02196246,0.820274590696719,-0.0002657452763535217,0.5719698639235969,0.00017889331435398976,0.9999999623542626,0.0002080592591415668,-0.5719698976821349,-6.834413896511851e-05,0.8202746073569305,0.0005453724,-1.0782346e-06,0.09855133,-0.0010349526,-0.00016516271,0.021505177,0.64720744,-0.049086977,3.0900935e-06,0.017366894,0.854686638796223,-0.0009787025908846647,-0.5191433247230028,0.0010309927245014737,0.9999994508811306,-0.00018786015824265163,0.5191432235108309,-0.00037467142355078345,0.854687178506913,-4.47907e-05,-0.016012708,0.10667065,-0.0006313545,-0.0051067644,-0.0062078503,0.416919,-6.2650375e-05,-0.019887472,0.0047527542,0.9999802344179791,-0.0006300629190100803,0.006255700926476064,0.002351336988491861,0.9602447701246964,-0.2791495166797451,-0.005831122338793366,0.27915870838805446,0.960227271818179,left_images/camera_left_30.png,right_images/camera_right_30.png
2025-05-27 16:18:11,1.7684221267700195,31,-0.057436846,-1.3801528e-05,0.09672548,-0.00018497596,0.00021685977,-0.027670773,0.39448056,0.0451419,-2.9290213e-06,0.02196246,0.8202745581459958,-0.00026598662315292765,0.5719699104931197,0.00017893033529831827,0.9999999622708269,0.00020842811694228694,-0.571969944352259,-6.862551366495336e-05,0.8202745747907907,0.0005453702,-1.0780084e-06,0.09855133,-0.0010349526,-0.0001651597,0.021505177,0.6205427,-0.049086977,3.0900935e-06,0.017366894,0.854686638796223,-0.0009787025908846647,-0.5191433247230028,0.0010309927245014737,0.9999994508811306,-0.00018786015824265163,0.5191432235108309,-0.00037467142355078345,0.854687178506913,-0.0017641501,-0.0056065447,0.106684834,-0.046849422,-0.07480061,0.02196825,0.39025253,-5.3279742e-05,-0.019751497,0.004823437,0.9987761463546639,-0.04655969305480387,-0.01668545640878596,0.0382435904708882,0.9409400492668444,-0.3364063784674771,0.03136299189844677,0.33535655453315794,0.9415690861911445,left_images/camera_left_31.png,right_images/camera_right_31.png
2025-05-27 16:18:11,1.8172695636749268,32,-0.057436846,-1.3805108e-05,0.09672548,-0.00018499112,0.00021687787,-0.027670773,0.36781225,0.0451419,-2.9290213e-06,0.02196246,0.8202745581459958,-0.00026598662315292765,0.5719699104931197,0.00017893033529831827,0.9999999622708269,0.00020842811694228694,-0.571969944352259,-6.862551366495336e-05,0.8202745747907907,0.0005453702,-1.0784619e-06,0.09855133,-0.0010349526,-0.0001651567,0.021505177,0.593878,-0.049086984,3.0850458e-06,0.017366894,0.8546867283824322,-0.000978458885637516,-0.5191431776929597,0.0010308569344736286,0.9999994510673045,-0.00018761415339534488,0.5191430762910313,-0.0003748110177457555,0.8546872678680698,-0.0025855931,0.0026632657,0.10671701,-0.0869696,-0.12526177,0.046435446,0.36358604,-5.2070565e-05,-0.019727737,0.0048844116,0.9957656205039278,-0.08586262954976787,-0.032839577786976645,0.06714959593256925,0.9233423995587053,-0.3780605043419173,0.06278344358603022,0.37425448831506547,0.9251982583141347,left_images/camera_left_32.png,right_images/camera_right_32.png
2025-05-27 16:18:11,1.8712079524993896,33,-0.057436846,-1.380821e-05,0.09672548,-0.00018500628,0.00021689598,-0.027670773,0.34114394,0.0451419,-2.9290213e-06,0.02196246,0.8202745581459958,-0.00026598662315292765,0.5719699104931197,0.00017893033529831827,0.9999999622708269,0.00020842811694228694,-0.571969944352259,-6.862551366495336e-05,0.8202745747907907,0.0005453613,-1.0715339e-06,0.09855133,-0.0010348812,-0.00016516206,0.021505177,0.56721324,-0.049086977,3.0900935e-06,0.017366894,0.854686638796223,-0.0009787025908846647,-0.5191433247230028,0.0010309927245014737,0.9999994508811306,-0.00018786015824265163,0.5191432235108309,-0.00037467142355078345,0.854687178506913,-0.0027585146,0.008684347,0.10675942,-0.123201445,-0.16133702,0.06821033,0.33691964,-3.5155186e-05,-0.019717457,0.0049362574,0.9916371482371873,-0.12087350933218775,-0.04522566724482704,0.09203926575392392,0.9080078964440248,-0.40871803673776785,0.09046844640810889,0.40113745117729693,0.9115394700546349,left_images/camera_left_33.png,right_images/camera_right_33.png
2025-05-27 16:18:11,1.920058250427246,34,-0.057436846,-1.3822978e-05,0.09672548,-0.00018495282,0.00021692364,-0.027670773,0.31447563,0.0451419,-2.9290213e-06,0.02196246,0.8202745581459958,-0.00026598662315292765,0.5719699104931197,0.00017893033529831827,0.9999999622708269,0.00020842811694228694,-0.571969944352259,-6.862551366495336e-05,0.8202745747907907,0.00054535916,-1.0713077e-06,0.09855133,-0.0010348812,-0.00016515903,0.021505177,0.5405485,-0.049086977,3.0900935e-06,0.017366894,0.854686638796223,-0.0009787025908846647,-0.5191433247230028,0.0010309927245014737,0.9999994508811306,-0.00018786015824265163,0.5191432235108309,-0.00037467142355078345,0.854687178506913,-0.0025797067,0.012935289,0.10679633,-0.15672387,-0.18632802,0.0871966,0.3102532,-1.305074e-05,-0.019713815,0.004980919,0.9867221505554263,-0.15293558356074893,-0.054681851506764946,0.11483635800518106,0.8950142481025933,-0.4310012837259949,0.11485646905325184,0.4189990488942461,0.9006929490910521,left_images/camera_left_34.png,right_images/camera_right_34.png
2025-05-27 16:18:11,1.9686164855957031,35,-0.057436846,-1.3828012e-05,0.09672548,-0.00018496797,0.00021694174,-0.027670773,0.28780732,0.0451419,-2.9290213e-06,0.02196246,0.8202745581459958,-0.00026598662315292765,0.5719699104931197,0.00017893033529831827,0.9999999622708269,0.00020842811694228694,-0.571969944352259,-6.862551366495336e-05,0.8202745747907907,0.0005453651,-1.0731111e-06,0.09855133,-0.0010348673,-0.00016518772,0.021505177,0.51388377,-0.049086977,3.0900935e-06,0.017366894,0.854686638796223,-0.0009787025908846647,-0.5191433247230028,0.0010309927245014737,0.9999994508811306,-0.00018786015824265163,0.5191432235108309,-0.00037467142355078345,0.854687178506913,-0.002252699,0.015942594,0.10681545,-0.18579213,-0.2039062,0.10319069,0.28358674,9.1135735e-06,-0.019712053,0.005029103,0.9816344307794651,-0.18047553501125368,-0.06182576785351674,0.1343544019643056,0.8840988450882653,-0.44756913073446974,0.13543536827981456,0.43104270481704804,0.8921095491266271,left_images/camera_left_35.png,right_images/camera_right_35.png
2025-05-27 16:18:11,2.017876625061035,36,-0.057436846,-1.3831114e-05,0.09672548,-0.00018498313,0.00021695984,-0.027670773,0.261139,0.0451419,-2.9290213e-06,0.02196246,0.8202745581459958,-0.00026598662315292765,0.5719699104931197,0.00017893033529831827,0.9999999622708269,0.00020842811694228694,-0.571969944352259,-6.862551366495336e-05,0.8202745747907907,0.00054536574,-1.0738033e-06,0.09855133,-0.0010348673,-0.00016518471,0.021505177,0.4872173,-0.049086977,3.0900935e-06,0.017366894,0.854686638796223,-0.0009787025908846647,-0.5191433247230028,0.0010309927245014737,0.9999994508811306,-0.00018786015824265163,0.5191432235108309,-0.00037467142355078345,0.854687178506913,-0.0018945528,0.018016282,0.10681841,-0.2105721,-0.21608816,0.11611501,0.25692022,2.4995185e-05,-0.019709261,0.0050796503,0.9767249525886124,-0.2037842796338692,-0.06693529984154968,0.15106458693021735,0.8750731809095321,-0.4598112858863691,0.15227559740935498,0.43899760298545876,0.8854903991611912,left_images/camera_left_36.png,right_images/camera_right_36.png
2025-05-27 16:18:11,2.067692279815674,37,-0.057436846,-1.3834216e-05,0.09672548,-0.0001849983,0.00021697795,-0.027670773,0.23447174,0.0451419,-2.9290213e-06,0.02196246,0.8202745581459958,-0.00026598662315292765,0.5719699104931197,0.00017893033529831827,0.9999999622708269,0.00020842811694228694,-0.571969944352259,-6.862551366495336e-05,0.8202745747907907,0.00054536574,-1.074257e-06,0.09855133,-0.0010348673,-0.00016518169,0.021505177,0.460549,-0.049086977,3.0900935e-06,0.017366894,0.854686638796223,-0.0009787025908846647,-0.5191433247230028,0.0010309927245014737,0.9999994508811306,-0.00018786015824265163,0.5191432235108309,-0.00037467142355078345,0.854687178506913,-0.001516392,0.019240445,0.10678247,-0.2316382,-0.2249578,0.12662403,0.23025349,3.931875e-05,-0.019684793,0.005166049,0.9721462768775986,-0.2234762434165619,-0.07063982574614167,0.16526574913657002,0.8673297279528593,-0.4694958734339926,0.1661891949416447,0.4447443216474392,0.880104334637097,left_images/camera_left_37.png,right_images/camera_right_37.png
2025-05-27 16:18:11,2.118504047393799,38,-0.057436846,-1.3837317e-05,0.09672548,-0.00018501346,0.00021699605,-0.027670773,0.20780522,0.045141853,-2.9377966e-06,0.02196243,0.8202745784901311,-0.00026635745107719236,0.5719698811445809,0.00017939827666303888,0.9999999621917292,0.00020840537092007495,-0.5719699150297121,-6.833921680604292e-05,0.8202745952610354,0.00054536574,-1.0747107e-06,0.09855133,-0.0010348673,-0.00016517866,0.021505177,0.4338807,-0.049086977,3.0900935e-06,0.017366894,0.854686638796223,-0.0009787025908846647,-0.5191433247230028,0.0010309927245014737,0.9999994508811306,-0.00018786015824265163,0.5191432235108309,-0.00037467142355078345,0.854687178506913,-0.0012020271,0.02008334,0.10671499,-0.24771996,-0.23221856,0.13485971,0.20358613,4.777382e-05,-0.019658335,0.005279447,0.9684096421541409,-0.2383586941503898,-0.07326593960230973,0.17576062941428966,0.8608626930004706,-0.4775181933160977,0.17689252706313266,0.4495559550522028,0.8755618065826767,left_images/camera_left_38.png,right_images/camera_right_38.png
2025-05-27 16:18:11,2.1839582920074463,39,-0.057436846,-1.3827504e-05,0.09672548,-0.0001850152,0.00021693285,-0.027670773,0.1811387,0.045141853,-2.9377966e-06,0.02196243,0.8202745784901311,-0.00026635745107719236,0.5719698811445809,0.00017939827666303888,0.9999999621917292,0.00020840537092007495,-0.5719699150297121,-6.833921680604292e-05,0.8202745952610354,0.00054536574,-1.0751643e-06,0.09855133,-0.0010348673,-0.00016517563,0.021505177,0.40721238,-0.049086977,3.0900935e-06,0.017366894,0.854686638796223,-0.0009787025908846647,-0.5191433247230028,0.0010309927245014737,0.9999994508811306,-0.00018786015824265163,0.5191432235108309,-0.00037467142355078345,0.854687178506913,-0.00094191846,0.021118645,0.10661582,-0.25904697,-0.2394645,0.14067632,0.17691875,4.5674504e-05,-0.019664869,0.005414704,0.9657278266913176,-0.248645251022682,-0.0744667972853138,0.18286625938658127,0.8553882743530397,-0.4846347400644002,0.1842001518241072,0.45440778959344064,0.8715410861369528,left_images/camera_left_39.png,right_images/camera_right_39.png
2025-05-27 16:18:11,2.2325599193573,40,-0.057436846,-1.3816735e-05,0.09672548,-0.00018501695,0.00021686964,-0.027670773,0.15447217,0.045141853,-2.9377966e-06,0.02196243,0.8202745784901311,-0.00026635745107719236,0.5719698811445809,0.00017939827666303888,0.9999999621917292,0.00020840537092007495,-0.5719699150297121,-6.833921680604292e-05,0.8202745952610354,0.00054536574,-1.0756179e-06,0.09855133,-0.0010348673,-0.0001651726,0.021505177,0.38054407,-0.049086977,3.0900935e-06,0.017366894,0.854686638796223,-0.0009787025908846647,-0.5191433247230028,0.0010309927245014737,0.9999994508811306,-0.00018786015824265163,0.5191432235108309,-0.00037467142355078345,0.854687178506913,-0.0007679693,0.021850972,0.10650549,-0.2671744,-0.24422334,0.14455003,0.15025207,4.0333078e-05,-0.019685566,0.005546365,0.9637605357249165,-0.2560023087043414,-0.07502298126087442,0.1881099443862448,0.8515699979239388,-0.48932932413542024,0.18915675669197307,0.4574837227419904,0.868866137459565,left_images/camera_left_40.png,right_images/camera_right_40.png
2025-05-27 16:18:11,2.286149740219116,41,-0.057436846,-1.3808782e-05,0.09672548,-0.0001850524,0.00021686146,-0.027670773,0.12780565,0.045141853,-2.9377966e-06,0.02196243,0.8202745784901311,-0.00026635745107719236,0.5719698811445809,0.00017939827666303888,0.9999999621917292,0.00020840537092007495,-0.5719699150297121,-6.833921680604292e-05,0.8202745952610354,0.00054536574,-1.0760715e-06,0.09855133,-0.0010348673,-0.00016516958,0.021505177,0.35387576,-0.049086977,3.0900935e-06,0.017366894,0.854686638796223,-0.0009787025908846647,-0.5191433247230028,0.0010309927245014737,0.9999994508811306,-0.00018786015824265163,0.5191432235108309,-0.00037467142355078345,0.854687178506913,-0.0006883443,0.02228616,0.106401876,-0.27221686,-0.2469134,0.1467036,0.12358542,3.20783e-05,-0.019709447,0.005660384,0.962530939984828,-0.2605587713646859,-0.075122009004344,0.1915021724006127,0.8492759070222651,-0.4919932435688065,0.1919924673985139,0.45917269127903754,0.8673519078469801,left_images/camera_left_41.png,right_images/camera_right_41.png
2025-05-27 16:18:11,2.3363070487976074,42,-0.057436846,-1.3801268e-05,0.09672548,-0.00018508785,0.0002168533,-0.027670773,0.10113913,0.045141853,-2.9377966e-06,0.02196243,0.8202745784901311,-0.00026635745107719236,0.5719698811445809,0.00017939827666303888,0.9999999621917292,0.00020840537092007495,-0.5719699150297121,-6.833921680604292e-05,0.8202745952610354,0.00054536574,-1.0765251e-06,0.09855133,-0.0010348673,-0.00016516655,0.021505177,0.32720745,-0.049086977,3.0900935e-06,0.017366894,0.854686638796223,-0.0009787025908846647,-0.5191433247230028,0.0010309927245014737,0.9999994508811306,-0.00018786015824265163,0.5191432235108309,-0.00037467142355078345,0.854687178506913,-0.00067675754,0.022409689,0.10630186,-0.27529693,-0.2480498,0.14763351,0.096918784,2.1867978e-05,-0.019726412,0.0057651456,0.9617860269833071,-0.263360365112156,-0.07489296620949959,0.1938021795277249,0.8480273347030477,-0.4932447210125503,0.1934123923381561,0.45988146047045314,0.8666606537772407,left_images/camera_left_42.png,right_images/camera_right_42.png
2025-05-27 16:18:11,2.385321855545044,43,-0.057436846,-1.3793755e-05,0.09672548,-0.0001851233,0.00021684513,-0.027670773,0.074472606,0.045141853,-2.9377966e-06,0.02196243,0.8202745784901311,-0.00026635745107719236,0.5719698811445809,0.00017939827666303888,0.9999999621917292,0.00020840537092007495,-0.5719699150297121,-6.833921680604292e-05,0.8202745952610354,0.00054536574,-1.0769787e-06,0.09855133,-0.0010348673,-0.00016516352,0.021505177,0.30053914,-0.049086977,3.0900935e-06,0.017366894,0.854686638796223,-0.0009787025908846647,-0.5191433247230028,0.0010309927245014737,0.9999994508811306,-0.00018786015824265163,0.5191432235108309,-0.00037467142355078345,0.854687178506913,-0.0007005111,0.022309653,0.10620349,-0.27721325,-0.24831295,0.14797255,0.07025221,1.2189092e-05,-0.019734593,0.005866552,0.961323819464018,-0.2651245105735088,-0.07460233256587616,0.19537841713602422,0.8473660441514482,-0.49375911266177935,0.19412312651648145,0.46008671042780996,0.8663927692676011,left_images/camera_left_43.png,right_images/camera_right_43.png
2025-05-27 16:18:12,2.4354658126831055,44,-0.057436846,-1.3786242e-05,0.09672548,-0.00018515874,0.00021683697,-0.027670773,0.047806084,0.045141857,-2.9333028e-06,0.02196243,0.8202745906093343,-0.00026613798989250786,0.5719698638663225,0.00017928602789714536,0.9999999622582498,0.0002081826582746658,-0.571969897684493,-6.822073981875046e-05,0.8202746073655587,0.00054536574,-1.0774323e-06,0.09855133,-0.0010348673,-0.0001651605,0.021505177,0.27387083,-0.049086977,3.0900935e-06,0.017366894,0.854686638796223,-0.0009787025908846647,-0.5191433247230028,0.0010309927245014737,0.9999994508811306,-0.00018786015824265163,0.5191432235108309,-0.00037467142355078345,0.854687178506913,-0.0007402337,0.022067377,0.106106885,-0.2783157,-0.24827826,0.14792943,0.043585524,2.4017063e-06,-0.019732688,0.005967336,0.9610705120267443,-0.26614554525842665,-0.07422950661122883,0.1963960300647609,0.8469829707057587,-0.49401259772322587,0.19435038020918105,0.46020255982941144,0.8662802858422926,left_images/camera_left_44.png,right_images/camera_right_44.png
2025-05-27 16:18:12,2.5034899711608887,45,-0.057436846,-1.3792551e-05,0.09672548,-0.00018515285,0.00021684087,-0.027670773,0.021139476,0.045141853,-2.9377966e-06,0.02196243,0.8202745784901311,-0.00026635745107719236,0.5719698811445809,0.00017939827666303888,0.9999999621917292,0.00020840537092007495,-0.5719699150297121,-6.833921680604292e-05,0.8202745952610354,0.00054536574,-1.0778859e-06,0.09855133,-0.0010348673,-0.00016515747,0.021505177,0.24720271,-0.049086984,3.0850458e-06,0.017366894,0.8546867283824322,-0.000978458885637516,-0.5191431776929597,0.0010308569344736286,0.9999994510673045,-0.00018761415339534488,0.5191430762910313,-0.0003748110177457555,0.8546872678680698,-0.0007589313,0.021784805,0.106022775,-0.27991715,-0.24785425,0.14848877,0.016918976,1.6752165e-07,-0.019728743,0.0060550654,0.9606342656630131,-0.2676623684586723,-0.07442220196404707,0.19761641930256316,0.8466310781323777,-0.49412910090627266,0.19526791455873393,0.45997029692307495,0.8661973028660279,left_images/camera_left_45.png,right_images/camera_right_45.png
2025-05-27 16:18:12,2.5676519870758057,46,-0.057436846,-1.3785588e-05,0.09672548,-0.00018519498,0.00021683252,-0.027670773,0.0020217733,0.045141857,-2.9333028e-06,0.02196243,0.8202745906093343,-0.00026613798989250786,0.5719698638663225,0.00017928602789714536,0.9999999622582498,0.0002081826582746658,-0.571969897684493,-6.822073981875046e-05,0.8202746073655587,0.00054535683,-1.070958e-06,0.09855133,-0.0010347959,-0.00016516283,0.021505177,0.22053619,-0.049086977,3.0900935e-06,0.017366894,0.854686638796223,-0.0009787025908846647,-0.5191433247230028,0.0010309927245014737,0.9999994508811306,-0.00018786015824265163,0.5191432235108309,-0.00037467142355078345,0.854687178506913,-0.0007721015,0.021446653,0.10594404,-0.28140885,-0.24745017,0.14899455,0.0013091018,-1.8204446e-06,-0.019717513,0.00613935,0.9602258683687165,-0.26907638939064216,-0.07459342054122516,0.19874547263339987,0.8462710231907258,-0.4942930228269956,0.19612883220799293,0.4598078424518418,0.8660890423025287,left_images/camera_left_46.png,right_images/camera_right_46.png
2025-05-27 16:18:12,2.6178739070892334,47,-0.057436846,-1.3791899e-05,0.09672548,-0.00018519074,0.00021683637,-0.027670773,0.00012974694,0.045141857,-2.9333028e-06,0.02196243,0.8202745906093343,-0.00026613798989250786,0.5719698638663225,0.00017928602789714536,0.9999999622582498,0.0002081826582746658,-0.571969897684493,-6.822073981875046e-05,0.8202746073655587,0.0005453547,-1.0707317e-06,0.09855133,-0.0010347959,-0.0001651598,0.021505177,0.19386967,-0.049086977,3.0900935e-06,0.017366894,0.854686638796223,-0.0009787025908846647,-0.5191433247230028,0.0010309927245014737,0.9999994508811306,-0.00018786015824265163,0.5191432235108309,-0.00037467142355078345,0.854687178506913,-0.00078729854,0.021048944,0.1058635,-0.28248912,-0.24719438,0.14940584,8.4007064e-05,-3.4270925e-06,-0.019698521,0.006228389,0.9599276841953157,-0.27009601242136333,-0.07474613829153107,0.19950635242371922,0.8459213585390407,-0.4945849477188386,0.19681477703160574,0.45985345409330386,0.8659092009561146,left_images/camera_left_47.png,right_images/camera_right_47.png
2025-05-27 16:18:12,2.6682403087615967,48,-0.057436846,-1.3798756e-05,0.09672548,-0.00018518492,0.00021684024,-0.027670773,8.3264895e-06,0.045141853,-2.9377966e-06,0.02196243,0.8202745784901311,-0.00026635745107719236,0.5719698811445809,0.00017939827666303888,0.9999999621917292,0.00020840537092007495,-0.5719699150297121,-6.833921680604292e-05,0.8202745952610354,0.0005453547,-1.0711852e-06,0.09855133,-0.0010347959,-0.00016515677,0.021505177,0.16720314,-0.049086984,3.0850458e-06,0.017366894,0.8546867283824322,-0.000978458885637516,-0.5191431776929597,0.0010308569344736286,0.9999994510673045,-0.00018761415339534488,0.5191430762910313,-0.0003748110177457555,0.8546872678680698,-0.00078485487,0.020686097,0.10579186,-0.28397042,-0.24705376,0.14989828,5.386607e-06,-4.953763e-06,-0.019679204,0.006308575,0.9595273400795208,-0.2714852991799659,-0.07485329631408602,0.200588400292983,0.8454291669766005,-0.49498870420763497,0.19766531640078375,0.4599404917534614,0.8656692016802737,left_images/camera_left_48.png,right_images/camera_right_48.png
2025-05-27 16:18:12,2.7293860912323,49,-0.057436846,-1.3791793e-05,0.09672548,-0.00018522039,0.00021683206,-0.027670773,5.343502e-07,0.045141857,-2.9333028e-06,0.02196243,0.8202745906093343,-0.00026613798989250786,0.5719698638663225,0.00017928602789714536,0.9999999622582498,0.0002081826582746658,-0.571969897684493,-6.822073981875046e-05,0.8202746073655587,0.0005453072,-1.1000295e-06,0.09855133,-0.0010347901,-0.00016512052,0.021505177,0.14053662,-0.049086984,3.0850458e-06,0.017366894,0.8546867283824322,-0.000978458885637516,-0.5191431776929597,0.0010308569344736286,0.9999994510673045,-0.00018761415339534488,0.5191430762910313,-0.0003748110177457555,0.8546872678680698,-0.0007924833,0.020312482,0.10572894,-0.28531337,-0.24635097,0.15025012,3.4166558e-07,-5.4786215e-06,-0.019665493,0.0063759293,0.9591476358112552,-0.27278210000868525,-0.07500492405523643,0.20168175224932752,0.8452243613616343,-0.4948941803764303,0.19839426283872477,0.4595494585740141,0.8657101198420923,left_images/camera_left_49.png,right_images/camera_right_49.png
2025-05-27 16:18:12,2.7871851921081543,50,-0.057436846,-1.3798102e-05,0.09672548,-0.00018521449,0.00021683595,-0.027670773,3.4291915e-08,0.045141857,-2.9333028e-06,0.02196243,0.8202745906093343,-0.00026613798989250786,0.5719698638663225,0.00017928602789714536,0.9999999622582498,0.0002081826582746658,-0.571969897684493,-6.822073981875046e-05,0.8202746073655587,0.0005452527,-1.1310395e-06,0.09855133,-0.0010347676,-0.00016513726,0.021505177,0.1138701,-0.049086925,3.0708331e-06,0.017366797,0.8546868344292204,-0.0009785870640420871,-0.5191430028621367,0.0010307807640063628,0.9999994510759308,-0.0001879863123550159,0.5191429018530205,-0.0003744531948960593,0.8546873739797669,-0.00080192246,0.019949503,0.105672784,-0.28651044,-0.24555649,0.15075783,1.8616513e-08,-3.4531695e-06,-0.019652678,0.0064354837,0.9587864229300109,-0.2739486894290626,-0.0753704900154789,0.20257539028767885,0.8451035000242441,-0.4947355712868919,0.19922802627860614,0.4590775422593352,0.8657690244737677,left_images/camera_left_50.png,right_images/camera_right_50.png
2025-05-27 16:18:12,2.842233657836914,51,-0.057436846,-1.380496e-05,0.09672548,-0.0001852086,0.00021683982,-0.027670773,2.200758e-09,0.045141853,-2.9377966e-06,0.02196243,0.8202745784901311,-0.00026635745107719236,0.5719698811445809,0.00017939827666303888,0.9999999621917292,0.00020840537092007495,-0.5719699150297121,-6.833921680604292e-05,0.8202745952610354,0.000545223,-1.1495076e-06,0.09855133,-0.0010347607,-0.00016513451,0.021505177,0.08720358,-0.04908691,3.0536826e-06,0.017366797,0.8546868348087422,-0.0009782461533705813,-0.5191430028798203,0.0010303640599420875,0.9999994514998554,-0.0001880156703805801,0.5191429020554146,-0.00037421177392575676,0.854687373962568,-0.0008164879,0.019658571,0.1056262,-0.2871601,-0.24512152,0.15088421,9.940983e-09,-4.7489884e-06,-0.019640112,0.006486359,0.9586021977085439,-0.2745795496331519,-0.07541815081003189,0.20311779870022692,0.8449951687229993,-0.49469821576994166,0.1995619863589339,0.4589000280649862,0.8657862194805547,left_images/camera_left_51.png,right_images/camera_right_51.png
2025-05-27 16:18:12,2.8941879272460938,52,-0.057436846,-1.3797997e-05,0.09672548,-0.00018524406,0.00021683164,-0.027670773,1.4104679e-10,0.045141857,-2.9333028e-06,0.02196243,0.8202745906093343,-0.00026613798989250786,0.5719698638663225,0.00017928602789714536,0.9999999622582498,0.0002081826582746658,-0.571969897684493,-6.822073981875046e-05,0.8202746073655587,0.00054521917,-1.1471128e-06,0.09855133,-0.00103472,-0.00016517153,0.021505177,0.060537055,-0.049086906,3.0586398e-06,0.017366797,0.8546868345973042,-0.0009784935788214933,-0.5191430027616245,0.0010305356880611705,0.9999994512864986,-0.00018820971528179012,0.5191429020628476,-0.0003741350257584397,0.8546873739916523,-0.0008287716,0.019441215,0.10559141,-0.287642,-0.2447967,0.15097797,2.6918145e-09,-5.769427e-06,-0.019630805,0.006523965,0.9584651907134342,-0.27504773933791576,-0.07545342454628756,0.2035205321307037,0.8449147574390273,-0.4946700371590995,0.1998095873372836,0.4587676903911735,0.865799246396792,left_images/camera_left_52.png,right_images/camera_right_52.png
2025-05-27 16:18:12,2.9456348419189453,53,-0.057436846,-1.3804306e-05,0.09672548,-0.00018523817,0.00021683553,-0.027670773,9.182556e-12,0.045141857,-2.9333028e-06,0.02196243,0.8202745906093343,-0.00026613798989250786,0.5719698638663225,0.00017928602789714536,0.9999999622582498,0.0002081826582746658,-0.571969897684493,-6.822073981875046e-05,0.8202746073655587,0.00054521917,-1.1409478e-06,0.09855133,-0.0010346955,-0.00016520855,0.021505177,0.033870533,-0.049086906,3.0586398e-06,0.017366797,0.8546868345973042,-0.0009784935788214933,-0.5191430027616245,0.0010305356880611705,0.9999994512864986,-0.00018820971528179012,0.5191429020628476,-0.0003741350257584397,0.8546873739916523,-0.00083654554,0.019234467,0.1055589,-0.28800917,-0.24471273,0.15108752,3.6895789e-09,-6.824208e-06,-0.01961822,0.0065613436,0.9583643515180329,-0.2753932446290449,-0.07547403892801244,0.20377889806508756,0.8447597485516518,-0.49482838230070086,0.20002982388333682,0.4588458652310566,0.8657069605343163,left_images/camera_left_53.png,right_images/camera_right_53.png
2025-05-27 16:18:12,2.9993526935577393,54,-0.057436846,-1.3811164e-05,0.09672548,-0.00018523227,0.0002168394,-0.027670773,7.3195773e-13,0.045141857,-2.9333028e-06,0.02196243,0.8202745906093343,-0.00026613798989250786,0.5719698638663225,0.00017928602789714536,0.9999999622582498,0.0002081826582746658,-0.571969897684493,-6.822073981875046e-05,0.8202746073655587,0.00054521917,-1.1347789e-06,0.09855133,-0.0010346724,-0.00016524554,0.021505177,0.007501105,-0.049086906,3.0586398e-06,0.017366797,0.8546868345973042,-0.0009784935788214933,-0.5191430027616245,0.0010305356880611705,0.9999994512864986,-0.00018820971528179012,0.5191429020628476,-0.0003741350257584397,0.8546873739916523,-0.00084630895,0.019041035,0.10552601,-0.2880495,-0.24488765,0.15093848,6.685503e-09,-1.0317424e-05,-0.01960367,0.0066005597,0.9583742727970307,-0.2754164484626622,-0.07526309292725267,0.2038317815040782,0.8445791910189065,-0.4951147290747096,0.19992838240138958,0.4591642081152048,0.8655615933579196,left_images/camera_left_54.png,right_images/camera_right_54.png
2025-05-27 16:18:12,3.048814058303833,55,-0.057436846,-1.3818021e-05,0.09672548,-0.00018522638,0.00021684327,-0.027670773,4.760631e-13,0.045141853,-2.9377966e-06,0.02196243,0.8202745784901311,-0.00026635745107719236,0.5719698811445809,0.00017939827666303888,0.9999999621917292,0.00020840537092007495,-0.5719699150297121,-6.833921680604292e-05,0.8202745952610354,0.00054521917,-1.1286085e-06,0.09855133,-0.0010346593,-0.00016528241,0.021505177,0.00048138187,-0.049086906,3.0586398e-06,0.017366797,0.8546868345973042,-0.0009784935788214933,-0.5191430027616245,0.0010305356880611705,0.9999994512864986,-0.00018820971528179012,0.5191429020628476,-0.0003741350257584397,0.8546873739916523,-0.00086016883,0.01882587,0.105491914,-0.28803873,-0.24482563,0.15080304,4.714363e-09,-1.2565346e-05,-0.019590877,0.0066392254,0.9583865484763322,-0.2754074340172802,-0.07513966321218533,0.20385703830035778,0.8445108702800034,-0.4952208577133218,0.19984376806653154,0.45929525935603677,0.8655116019430598,left_images/camera_left_55.png,right_images/camera_right_55.png
2025-05-27 16:18:12,3.097011089324951,56,-0.057436846,-1.3811058e-05,0.09672548,-0.00018526184,0.00021683509,-0.027670773,3.6753662e-13,0.045141857,-2.9333028e-06,0.02196243,0.8202745906093343,-0.00026613798989250786,0.5719698638663225,0.00017928602789714536,0.9999999622582498,0.0002081826582746658,-0.571969897684493,-6.822073981875046e-05,0.8202746073655587,0.00054521917,-1.1224396e-06,0.09855133,-0.0010346359,-0.00016531942,0.021505177,3.0892574e-05,-0.049087025,3.1486356e-06,0.017366886,0.85468683464246,-0.0009783434987782377,-0.5191430029701357,0.0010306014640862969,0.9999994512934242,-0.00018781233355567948,0.5191429018579318,-0.0003745088100576611,0.8546873739524159,-0.00088567415,0.018644096,0.1054643,-0.2877392,-0.24450682,0.15036722,1.8500222e-08,-1.6092265e-05,-0.019584553,0.0066680107,0.9584833712170246,-0.2751448928738423,-0.0748659804309627,0.2038041785884333,0.8446520812870179,-0.4950017357216065,0.19943290573609318,0.45919293276677403,0.865660653262413,left_images/camera_left_56.png,right_images/camera_right_56.png
2025-05-27 16:18:12,3.1505842208862305,57,-0.057436846,-1.3817367e-05,0.09672548,-0.00018525595,0.00021683898,-0.027670773,4.296599e-13,0.045141857,-2.9333028e-06,0.02196243,0.8202745906093343,-0.00026613798989250786,0.5719698638663225,0.00017928602789714536,0.9999999622582498,0.0002081826582746658,-0.571969897684493,-6.822073981875046e-05,0.8202746073655587,0.0005452123,-1.1225292e-06,0.09855133,-0.001034597,-0.00016531594,0.021505177,1.9825238e-06,-0.049087025,3.1486356e-06,0.017366886,0.85468683464246,-0.0009783434987782377,-0.5191430029701357,0.0010306014640862969,0.9999994512934242,-0.00018781233355567948,0.5191429018579318,-0.0003745088100576611,0.8546873739524159,-0.00090488174,0.018507296,0.10544426,-0.28751752,-0.24426879,0.15004298,1.5696179e-08,-1.8846244e-05,-0.019579634,0.006689091,0.9585550487405742,-0.27495074818961024,-0.07466126575359583,0.2037661313375394,0.8447563562920702,-0.4948394307488819,0.19912705053228746,0.4591173973768783,0.865771120546414,left_images/camera_left_57.png,right_images/camera_right_57.png
2025-05-27 16:18:12,3.2163989543914795,58,-0.057436846,-1.3824225e-05,0.09672548,-0.00018525006,0.00021684285,-0.027670773,4.7231164e-13,0.045141853,-2.9377966e-06,0.02196243,0.8202745784901311,-0.00026635745107719236,0.5719698811445809,0.00017939827666303888,0.9999999621917292,0.00020840537092007495,-0.5719699150297121,-6.833921680604292e-05,0.8202745952610354,0.0005452053,-1.1230769e-06,0.09855133,-0.0010345582,-0.00016531245,0.021505177,1.2722808e-07,-0.049087025,3.1486356e-06,0.017366886,0.85468683464246,-0.0009783434987782377,-0.5191430029701357,0.0010306014640862969,0.9999994512934242,-0.00018781233355567948,0.5191429018579318,-0.0003745088100576611,0.8546873739524159,-0.00091247616,0.018397152,0.10542966,-0.2875945,-0.24401227,0.1500723,1.0052056e-08,-1.8466613e-05,-0.0195756,0.0067044143,0.9585244245369494,-0.27503846777821084,-0.07473131076278292,0.203835395020583,0.8448024978331962,-0.4947321208407588,0.19920356247545482,0.4589799351790952,0.8658264028083694,left_images/camera_left_58.png,right_images/camera_right_58.png
2025-05-27 16:18:12,3.2809834480285645,59,-0.057436846,-1.3817262e-05,0.09672548,-0.00018528552,0.00021683467,-0.027670773,3.668088e-13,0.045141857,-2.9333028e-06,0.02196243,0.8202745906093343,-0.00026613798989250786,0.5719698638663225,0.00017928602789714536,0.9999999622582498,0.0002081826582746658,-0.571969897684493,-6.822073981875046e-05,0.8202746073655587,0.00054519833,-1.1236249e-06,0.09855133,-0.0010345193,-0.00016530896,0.021505177,8.1648395e-09,-0.049086906,3.0586398e-06,0.017366797,0.8546868345973042,-0.0009784935788214933,-0.5191430027616245,0.0010305356880611705,0.9999994512864986,-0.00018820971528179012,0.5191429020628476,-0.0003741350257584397,0.8546873739916523,-0.0009418082,0.01827295,0.105417885,-0.2873098,-0.24319887,0.14969496,1.6856491e-08,-1.9614352e-05,-0.019579077,0.0067120893,0.958593379430078,-0.27482295616209046,-0.07463963879301899,0.20384212278161407,0.8451926866676214,-0.4940624569661751,0.19886458179552235,0.4583902978575114,0.8662166085555011,left_images/camera_left_59.png,right_images/camera_right_59.png
2025-05-27 16:18:12,3.335843324661255,60,-0.057436846,-1.3823571e-05,0.09672548,-0.00018527963,0.00021683855,-0.027670773,4.3322263e-13,0.045141857,-2.9333028e-06,0.02196243,0.8202745906093343,-0.00026613798989250786,0.5719698638663225,0.00017928602789714536,0.9999999622582498,0.0002081826582746658,-0.571969897684493,-6.822073981875046e-05,0.8202746073655587,0.00054526754,-9.832307e-07,0.09855133,-0.0010344791,-0.00016555245,0.021505065,5.278453e-10,-0.04908703,3.1595528e-06,0.017366888,0.8546868347132373,-0.0009784307270434534,-0.5191430026892204,0.0010303649102140393,0.9999994514323336,-0.00018836980579724436,0.5191429022109609,-0.0003739095402817313,0.854687374000363,-0.0009729689,0.0181279,0.10540497,-0.2870545,-0.24232171,0.14936998,1.51417e-08,-2.0293985e-05,-0.019581221,0.006721312,0.9586487403622173,-0.27463913717601923,-0.07460520714498652,0.2038547088954089,0.8455935802179135,-0.49337080857649,0.19858461738791033,0.4577606813887178,0.8666137018945838,left_images/camera_left_60.png,right_images/camera_right_60.png
2025-05-27 16:18:13,3.398341417312622,61,-0.057436846,-1.38304285e-05,0.09672548,-0.00018527373,0.00021684243,-0.027670773,4.7341325e-13,0.045141853,-2.9377966e-06,0.02196243,0.8202745784901311,-0.00026635745107719236,0.5719698811445809,0.00017939827666303888,0.9999999621917292,0.00020840537092007495,-0.5719699150297121,-6.833921680604292e-05,0.8202745952610354,0.00054527057,-9.68381e-07,0.09855133,-0.0010344087,-0.0001655914,0.021505065,3.2629677e-11,-0.04908703,3.1595528e-06,0.017366888,0.8546868347132373,-0.0009784307270434534,-0.5191430026892204,0.0010303649102140393,0.9999994514323336,-0.00018836980579724436,0.5191429022109609,-0.0003739095402817313,0.854687374000363,-0.0010168748,0.01798137,0.10539027,-0.28624487,-0.24152921,0.14874183,2.500063e-08,-2.302212e-05,-0.019583188,0.0067321192,0.9588682574186354,-0.27392940523789805,-0.07439318423727528,0.20349244150199347,0.8461017315503878,-0.49264864367923844,0.19789515195301657,0.45724669579281474,0.8670426564016591,left_images/camera_left_61.png,right_images/camera_right_61.png
2025-05-27 16:18:13,3.4478414058685303,62,-0.057436846,-1.3823465e-05,0.09672548,-0.0001853092,0.00021683425,-0.027670773,3.6631324e-13,0.045141857,-2.9333028e-06,0.02196243,0.8202745906093343,-0.00026613798989250786,0.5719698638663225,0.00017928602789714536,0.9999999622582498,0.0002081826582746658,-0.571969897684493,-6.822073981875046e-05,0.8202746073655587,0.0005452633,-9.758131e-07,0.09855133,-0.0010343689,-0.00016554868,0.021505065,2.1428868e-12,-0.04908703,3.1633185e-06,0.017366854,0.854686821839236,-0.0009782104491011104,-0.5191430242993381,0.0010301009744130253,0.9999994517023209,-0.00018838004206646789,0.5191429239297484,-0.0003737637957387421,0.8546873608719721,-0.0010357281,0.017831089,0.1053746,-0.2862255,-0.2408869,0.14863645,1.7112878e-08,-2.2537832e-05,-0.019581636,0.006746254,0.9588573612578459,-0.2739511710129977,-0.07445345299076372,0.20358171528884322,0.8463304270482327,-0.49221874553130174,0.19785612439773742,0.4568102058327542,0.8672816093319076,left_images/camera_left_62.png,right_images/camera_right_62.png
2025-05-27 16:18:13,3.498307943344116,63,-0.057436846,-1.3829775e-05,0.09672548,-0.0001853033,0.00021683813,-0.027670773,4.3575346e-13,0.045141857,-2.9333028e-06,0.02196243,0.8202745906093343,-0.00026613798989250786,0.5719698638663225,0.00017928602789714536,0.9999999622582498,0.0002081826582746658,-0.571969897684493,-6.822073981875046e-05,0.8202746073655587,0.0005452567,-9.781132e-07,0.09855133,-0.00103432,-0.00016561108,0.021505065,5.338437e-13,-0.04908703,3.1633185e-06,0.017366854,0.854686821839236,-0.0009782104491011104,-0.5191430242993381,0.0010301009744130253,0.9999994517023209,-0.00018838004206646789,0.5191429239297484,-0.0003737637957387421,0.8546873608719721,-0.0010646667,0.017696306,0.10536138,-0.28582603,-0.24011087,0.14842327,5.646963e-09,-2.1837943e-05,-0.019583326,0.00675641,0.9589438175890039,-0.2736253120059103,-0.07453820052493436,0.2033925391158799,0.846727353306501,-0.49161393816140225,0.19763155046657488,0.4562696327745646,0.8676173076120264,left_images/camera_left_63.png,right_images/camera_right_63.png
2025-05-27 16:18:13,3.547499656677246,64,-0.057436846,-1.3836632e-05,0.09672548,-0.00018529741,0.000216842,-0.027670773,4.7107576e-13,0.045141853,-2.9377966e-06,0.02196243,0.8202745784901311,-0.00026635745107719236,0.5719698811445809,0.00017939827666303888,0.9999999621917292,0.00020840537092007495,-0.5719699150297121,-6.833921680604292e-05,0.8202745952610354,0.0005452555,-9.845495e-07,0.09855133,-0.001034306,-0.00016556842,0.021505065,2.5085858e-13,-0.04908703,3.1633185e-06,0.017366854,0.854686821839236,-0.0009782104491011104,-0.5191430242993381,0.0010301009744130253,0.9999994517023209,-0.00018838004206646789,0.5191429239297484,-0.0003737637957387421,0.8546873608719721,-0.001081481,0.017585386,0.10535161,-0.28577012,-0.23945513,0.14853574,7.225187e-09,-1.9082217e-05,-0.019584367,0.0067638857,0.9589250101329835,-0.27361365625783485,-0.0748224034008332,0.20334924364711748,0.8469896385438764,-0.49117984212247445,0.19776731289473215,0.45578955594499204,0.8678386777747717,left_images/camera_left_64.png,right_images/camera_right_64.png
2025-05-27 16:18:13,3.599956750869751,65,-0.057436846,-1.3829669e-05,0.09672548,-0.00018533287,0.00021683383,-0.027670773,3.6557617e-13,0.045141857,-2.9333028e-06,0.02196243,0.8202745906093343,-0.00026613798989250786,0.5719698638663225,0.00017928602789714536,0.9999999622582498,0.0002081826582746658,-0.571969897684493,-6.822073981875046e-05,0.8202746073655587,0.0005452555,-9.917464e-07,0.09855133,-0.001034292,-0.00016552572,0.021505065,2.4033623e-13,-0.049087025,3.1545414e-06,0.017366854,0.8546868516149302,-0.000978090649653359,-0.519142975504089,0.0010302728234206976,0.9999994516219282,-0.00018786631455685644,0.5191428745677509,-0.0003742920302185201,0.8546873906236176,-0.0010964387,0.017492874,0.105337985,-0.28511798,-0.23958296,0.14858006,8.931216e-09,-1.8046354e-05,-0.01957594,0.0067811506,0.9590885424977997,-0.27299388869481434,-0.07499002856866721,0.20269023269382766,0.8470614732038694,-0.4913283323646342,0.1976507961531352,0.45602762783517153,0.867740148564683,left_images/camera_left_65.png,right_images/camera_right_65.png
2025-05-27 16:18:13,3.6499078273773193,66,-0.057436846,-1.3835978e-05,0.09672548,-0.00018532698,0.00021683771,-0.027670773,4.3021893e-13,0.045141857,-2.9333028e-06,0.02196243,0.8202745906093343,-0.00026613798989250786,0.5719698638663225,0.00017928602789714536,0.9999999622582498,0.0002081826582746658,-0.571969897684493,-6.822073981875046e-05,0.8202746073655587,0.0005452588,-9.852273e-07,0.09855133,-0.0010342711,-0.0001654974,0.021505065,5.8452874e-13,-0.049087025,3.1545414e-06,0.017366854,0.8546868516149302,-0.000978090649653359,-0.519142975504089,0.0010302728234206976,0.9999994516219282,-0.00018786631455685644,0.5191428745677509,-0.0003742920302185201,0.8546873906236176,-0.0011322767,0.0174517,0.105326444,-0.28348407,-0.23993912,0.14792842,0.026666772,-2.2002088e-05,-0.019570457,0.0067954296,0.9595548615808938,-0.2714384083688967,-0.07467032930577076,0.20144612383707833,0.8473099630866313,-0.4914115237203421,0.19665687582052316,0.45649426821844313,0.8677206095721247,left_images/camera_left_66.png,right_images/camera_right_66.png
2025-05-27 16:18:13,3.699185848236084,67,-0.057436846,-1.3842836e-05,0.09672548,-0.00018532109,0.00021684158,-0.027670773,4.7100334e-13,0.045141853,-2.9377966e-06,0.02196243,0.8202745784901311,-0.00026635745107719236,0.5719698811445809,0.00017939827666303888,0.9999999621917292,0.00020840537092007495,-0.5719699150297121,-6.833921680604292e-05,0.8202745952610354,0.00054526277,-9.781031e-07,0.09855133,-0.0010342501,-0.00016546906,0.021505065,4.8771344e-13,-0.049087025,3.1545414e-06,0.017366854,0.8546868516149302,-0.000978090649653359,-0.519142975504089,0.0010302728234206976,0.9999994516219282,-0.00018786631455685644,0.5191428745677509,-0.0003742920302185201,0.8546873906236176,-0.0011730315,0.017505178,0.1053151,-0.28166047,-0.24017958,0.14708616,0.05333376,-2.679287e-05,-0.019576602,0.0068051377,0.9600744447025105,-0.26971233090827557,-0.07424499434433852,0.20015277282744687,0.8477014040033456,-0.4912648951230293,0.19543778590295802,0.45679052990050195,0.8678401256190958,left_images/camera_left_67.png,right_images/camera_right_67.png
2025-05-27 16:18:13,3.7496824264526367,68,-0.057436846,-1.3835873e-05,0.09672548,-0.00018535655,0.0002168334,-0.027670773,3.686729e-13,0.045141857,-2.9333028e-06,0.02196243,0.8202745906093343,-0.00026613798989250786,0.5719698638663225,0.00017928602789714536,0.9999999622582498,0.0002081826582746658,-0.571969897684493,-6.822073981875046e-05,0.8202746073655587,0.0005452634,-9.660794e-07,0.09855133,-0.0010341943,-0.0001655458,0.021505065,7.244614e-14,-0.04908703,3.1633185e-06,0.017366854,0.854686821839236,-0.0009782104491011104,-0.5191430242993381,0.0010301009744130253,0.9999994517023209,-0.00018838004206646789,0.5191429239297484,-0.0003737637957387421,0.8546873608719721,-0.0012127281,0.017542148,0.10530241,-0.27973795,-0.24056569,0.14613478,0.08000083,-3.2631564e-05,-0.01957943,0.0068177767,0.9606280932615392,-0.26788344030468975,-0.07370297719375693,0.19879842904794304,0.8480415916027751,-0.4912276900989012,0.19409495368187626,0.4572350832147024,0.8679073842483855,left_images/camera_left_68.png,right_images/camera_right_68.png
2025-05-27 16:18:13,3.8015410900115967,69,-0.057436846,-1.3842182e-05,0.09672548,-0.00018535065,0.00021683729,-0.027670773,4.3601033e-13,0.045141857,-2.9333028e-06,0.02196243,0.8202745906093343,-0.00026613798989250786,0.5719698638663225,0.00017928602789714536,0.9999999622582498,0.0002081826582746658,-0.571969897684493,-6.822073981875046e-05,0.8202746073655587,0.0005452573,-9.670108e-07,0.09855133,-0.0010341454,-0.00016560822,0.021505065,5.473384e-13,-0.04908703,3.1633185e-06,0.017366854,0.854686821839236,-0.0009782104491011104,-0.5191430242993381,0.0010301009744130253,0.9999994517023209,-0.00018838004206646789,0.5191429239297484,-0.0003737637957387421,0.8546873608719721,-0.0012276864,0.017575892,0.105285235,-0.27866077,-0.24101888,0.14554976,0.106667936,-3.6779093e-05,-0.019581256,0.0068359077,0.9609486444520814,-0.266844013000973,-0.07329376133917394,0.1980361891001497,0.8481287211122179,-0.4913851241452507,0.19328572252599774,0.4576810517708705,0.8678529162925667,left_images/camera_left_69.png,right_images/camera_right_69.png
2025-05-27 16:18:13,3.8508076667785645,70,-0.057436846,-1.38490395e-05,0.09672548,-0.00018534476,0.00021684116,-0.027670773,4.7054147e-13,0.045141853,-2.9377966e-06,0.02196243,0.8202745784901311,-0.00026635745107719236,0.5719698811445809,0.00017939827666303888,0.9999999621917292,0.00020840537092007495,-0.5719699150297121,-6.833921680604292e-05,0.8202745952610354,0.0005452561,-9.734465e-07,0.09855133,-0.0010341314,-0.00016556555,0.021505065,2.516049e-13,-0.04908703,3.1633185e-06,0.017366854,0.854686821839236,-0.0009782104491011104,-0.5191430242993381,0.0010301009744130253,0.9999994517023209,-0.00018838004206646789,0.5191429239297484,-0.0003737637957387421,0.8546873608719721,-0.0012196978,0.017842289,0.10525516,-0.27757135,-0.242163,0.14522247,0.13333486,-3.936491e-05,-0.019598939,0.0068662018,0.9612751597629626,-0.2657526013635545,-0.07297685997077752,0.19709056603065092,0.8480095348148026,-0.491970667463925,0.1926275577491663,0.4585361313262957,0.8675478316864759,left_images/camera_left_70.png,right_images/camera_right_70.png
2025-05-27 16:18:13,3.8977952003479004,71,-0.057436846,-1.3842076e-05,0.09672548,-0.00018538022,0.00021683298,-0.027670773,3.6931672e-13,0.045141857,-2.9333028e-06,0.02196243,0.8202745906093343,-0.00026613798989250786,0.5719698638663225,0.00017928602789714536,0.9999999622582498,0.0002081826582746658,-0.571969897684493,-6.822073981875046e-05,0.8202746073655587,0.0005452561,-9.806434e-07,0.09855133,-0.0010341174,-0.00016552286,0.021505065,2.3964354e-13,-0.049087025,3.1545414e-06,0.017366854,0.8546868516149302,-0.000978090649653359,-0.519142975504089,0.0010302728234206976,0.9999994516219282,-0.00018786631455685644,0.5191428745677509,-0.0003742920302185201,0.8546873906236176,-0.0012081258,0.018089509,0.10521393,-0.27703145,-0.24275896,0.14504574,0.16000138,-3.9995066e-05,-0.019625453,0.006903409,0.9614375027077023,-0.2652116020639938,-0.07280614340718133,0.1966460339242248,0.8479899274026718,-0.49218230399465246,0.1922713336122936,0.4588854858832012,0.8674421278198845,left_images/camera_left_71.png,right_images/camera_right_71.png
2025-05-27 16:18:13,3.9474620819091797,72,-0.057436846,-1.3855915e-05,0.09672548,-0.00018535671,0.00021684464,-0.027670661,4.43818e-12,0.045141853,-2.9377966e-06,0.02196243,0.8202745784901311,-0.00026635745107719236,0.5719698811445809,0.00017939827666303888,0.9999999621917292,0.00020840537092007495,-0.5719699150297121,-6.833921680604292e-05,0.8202745952610354,0.0005452594,-9.741243e-07,0.09855133,-0.0010340965,-0.00016549454,0.021505065,5.8470383e-13,-0.049087025,3.1545414e-06,0.017366854,0.8546868516149302,-0.000978090649653359,-0.519142975504089,0.0010302728234206976,0.9999994516219282,-0.00018786631455685644,0.5191428745677509,-0.0003742920302185201,0.8546873906236176,-0.001211695,0.018237017,0.1051611,-0.2762303,-0.24307148,0.14484257,0.18666792,-4.0032202e-05,-0.019648965,0.0069523994,0.9616544745351989,-0.26444181251805154,-0.07274063100219938,0.1959894345168402,0.8481203228591113,-0.4922195236996659,0.1918562304544725,0.4590887122828489,0.8674265047197232,left_images/camera_left_72.png,right_images/camera_right_72.png
2025-05-27 16:18:13,3.9998230934143066,73,-0.057436846,-1.38501955e-05,0.09672548,-0.00018539216,0.00021683646,-0.027670661,1.7234572e-12,0.0451419,-2.9383734e-06,0.021962404,0.8202746230774486,-0.0002663607109144884,0.5719698171994059,0.0001795573164942221,0.9999999622095044,0.00020818299700415144,-0.5719698510361539,-6.806586390669787e-05,0.8202746399058783,0.00054526335,-9.670001e-07,0.09855133,-0.0010340755,-0.00016546619,0.021505065,4.900676e-13,-0.049087025,3.1545414e-06,0.017366854,0.8546868516149302,-0.000978090649653359,-0.519142975504089,0.0010302728234206976,0.9999994516219282,-0.00018786631455685644,0.5191428745677509,-0.0003742920302185201,0.8546873906236176,-0.0012434334,0.018035002,0.10508426,-0.27567095,-0.24211329,0.14481044,0.21333453,-3.6378624e-05,-0.01966173,0.0070250137,0.9617566730151705,-0.26397638742111074,-0.07307919536290966,0.19557008350157593,0.8486082444709028,-0.49154490115878474,0.19177185494742785,0.4584544844366914,0.8677805260259708,left_images/camera_left_73.png,right_images/camera_right_73.png
2025-05-27 16:18:13,4.054436445236206,74,-0.057436846,-1.3846987e-05,0.09672548,-0.00018544719,0.0002168173,-0.027670661,2.8719198e-13,0.0451419,-2.9383734e-06,0.021962404,0.8202746230774486,-0.0002663607109144884,0.5719698171994059,0.0001795573164942221,0.9999999622095044,0.00020818299700415144,-0.5719698510361539,-6.806586390669787e-05,0.8202746399058783,0.000545264,-9.549764e-07,0.09855133,-0.0010340196,-0.00016554294,0.021505065,7.286062e-14,-0.04908703,3.1633185e-06,0.017366854,0.854686821839236,-0.0009782104491011104,-0.5191430242993381,0.0010301009744130253,0.9999994517023209,-0.00018838004206646789,0.5191429239297484,-0.0003737637957387421,0.8546873608719721,-0.0012793143,0.017678576,0.104995355,-0.2752852,-0.24120213,0.14457572,0.24000105,-3.6094745e-05,-0.019661305,0.007113954,0.9618351782948309,-0.26366777634032246,-0.0731600540889655,0.19537692504293924,0.8489590182727509,-0.49101572526155685,0.19157491212399488,0.4579824112486381,0.8680732480796577,left_images/camera_left_74.png,right_images/camera_right_74.png
2025-05-27 16:18:13,4.109572649002075,75,-0.057436846,-1.3843858e-05,0.09672548,-0.00018550223,0.00021679811,-0.027670661,3.210077e-13,0.0451419,-2.9383734e-06,0.021962404,0.8202746230774486,-0.0002663607109144884,0.5719698171994059,0.0001795573164942221,0.9999999622095044,0.00020818299700415144,-0.5719698510361539,-6.806586390669787e-05,0.8202746399058783,0.0005452579,-9.559059e-07,0.09855133,-0.0010339775,-0.00016560519,0.021505065,0.02666662,-0.049087014,3.1571476e-06,0.017366828,0.8546868353645566,-0.0009778189693743873,-0.5191430027695476,0.001029677355237288,0.9999994521492784,-0.00018832335784106663,0.5191429025028307,-0.0003735922993432837,0.8546873739618074,-0.0013026258,0.01685519,0.10485319,-0.27458057,-0.23985079,0.14453882,0.26666868,-2.9069139e-05,-0.019632032,0.007265416,0.9619560897319882,-0.2630918660924219,-0.07364204928945464,0.19474977632400337,0.849379701445212,-0.490537100935896,0.19160638311208214,0.4575333788575975,0.8683030583741234,left_images/camera_left_75.png,right_images/camera_right_75.png
2025-05-27 16:18:13,4.1755757331848145,76,-0.057436846,-1.3840737e-05,0.09672548,-0.00018556509,0.00021677875,-0.027670661,0.026666634,0.0451419,-2.9383734e-06,0.021962404,0.8202746230774486,-0.0002663607109144884,0.5719698171994059,0.0001795573164942221,0.9999999622095044,0.00020818299700415144,-0.5719698510361539,-6.806586390669787e-05,0.8202746399058783,0.00054526236,-9.562118e-07,0.09855133,-0.0010339139,-0.00016560173,0.021505065,0.05333329,-0.049087014,3.1571476e-06,0.017366828,0.8546868353645566,-0.0009778189693743873,-0.5191430027695476,0.001029677355237288,0.9999994521492784,-0.00018832335784106663,0.5191429025028307,-0.0003735922993432837,0.8546873739618074,-0.0013264613,0.015526734,0.104635075,-0.2733505,-0.23850918,0.14373985,0.29333648,-2.643856e-05,-0.019571258,0.007504748,0.9622568296870985,-0.2620226911901609,-0.07352484629021738,0.1939084540214291,0.8496985496391891,-0.4903181479407813,0.190948435918061,0.4575548972992467,0.8684366475327502,left_images/camera_left_76.png,right_images/camera_right_76.png
2025-05-27 16:18:13,4.236832141876221,77,-0.057436846,-1.3837608e-05,0.09672548,-0.00018562013,0.00021675957,-0.027670661,0.053333357,0.0451419,-2.9383734e-06,0.021962404,0.8202746230774486,-0.0002663607109144884,0.5719698171994059,0.0001795573164942221,0.9999999622095044,0.00020818299700415144,-0.5719698510361539,-6.806586390669787e-05,0.8202746399058783,0.00054526934,-9.56828e-07,0.09855133,-0.0010338504,-0.00016559823,0.021505065,0.079999894,-0.049087014,3.1571476e-06,0.017366828,0.8546868353645566,-0.0009778189693743873,-0.5191430027695476,0.001029677355237288,0.9999994521492784,-0.00018832335784106663,0.5191429025028307,-0.0003735922993432837,0.8546873739618074,-0.0013646043,0.013896389,0.10437225,-0.27156904,-0.23639542,0.14241712,0.3200043,-2.387783e-05,-0.01950406,0.007788983,0.9626977860861444,-0.26048115473287564,-0.07322937043197719,0.19284789293046034,0.8503697811705336,-0.48957218616283793,0.1897963720862908,0.4571879299598869,0.8688823475257601,left_images/camera_left_77.png,right_images/camera_right_77.png
2025-05-27 16:18:13,4.302342653274536,78,-0.057436846,-1.3834479e-05,0.09672548,-0.00018567516,0.00021674039,-0.027670661,0.07999996,0.0451419,-2.9383734e-06,0.021962404,0.8202746230774486,-0.0002663607109144884,0.5719698171994059,0.0001795573164942221,0.9999999622095044,0.00020818299700415144,-0.5719698510361539,-6.806586390669787e-05,0.8202746399058783,0.0005452763,-9.574444e-07,0.09855133,-0.0010337868,-0.00016559474,0.021505065,0.106666416,-0.049087014,3.1571476e-06,0.017366828,0.8546868353645566,-0.0009778189693743873,-0.5191430027695476,0.001029677355237288,0.9999994521492784,-0.00018832335784106663,0.5191429025028307,-0.0003735922993432837,0.8546873739618074,-0.0013927884,0.012294877,0.10412112,-0.2701049,-0.23349328,0.14077465,0.34667194,-2.0726933e-05,-0.019450705,0.008054189,0.9630570344205349,-0.2592850926445864,-0.07274880882470092,0.19233466665929652,0.8513325706353254,-0.4880985865340177,0.18849011765655493,0.4560746593571462,0.8697513326451883,left_images/camera_left_78.png,right_images/camera_right_78.png
2025-05-27 16:18:13,4.359087705612183,79,-0.057436846,-1.3831351e-05,0.09672548,-0.0001857302,0.00021672121,-0.027670661,0.1066665,0.0451419,-2.9383734e-06,0.021962404,0.8202746230774486,-0.0002663607109144884,0.5719698171994059,0.0001795573164942221,0.9999999622095044,0.00020818299700415144,-0.5719698510361539,-6.806586390669787e-05,0.8202746399058783,0.0005452833,-9.580608e-07,0.09855133,-0.0010337232,-0.00016559125,0.021505065,0.13333294,-0.049086954,3.0973847e-06,0.017366862,0.8546867162402757,-0.0009777569429454591,-0.5191431990056069,0.001029603828187096,0.9999994522246578,-0.00018832509527224488,0.5191430987679327,-0.0003735528678095961,0.8546872547662586,-0.0013761959,0.010794368,0.10389525,-0.26835492,-0.23044118,0.13833281,0.37333858,-1.8387043e-05,-0.019406127,0.00828911,0.9635288052358658,-0.2578361410250721,-0.07164332391817477,0.19196615997118874,0.8524811404727077,-0.4862354353235353,0.18644365075448757,0.454748754280483,0.8708859486601491,left_images/camera_left_79.png,right_images/camera_right_79.png
2025-05-27 16:18:14,4.406558990478516,80,-0.057436846,-1.3847179e-05,0.09672548,-0.00018573369,0.00021675424,-0.027670661,0.13333303,0.0451419,-2.9383734e-06,0.021962404,0.8202746230774486,-0.0002663607109144884,0.5719698171994059,0.0001795573164942221,0.9999999622095044,0.00020818299700415144,-0.5719698510361539,-6.806586390669787e-05,0.8202746399058783,0.0005452833,-9.5241893e-07,0.09855133,-0.0010336727,-0.0001656282,0.021505065,0.15999946,-0.049086954,3.0973847e-06,0.017366862,0.8546867162402757,-0.0009777569429454591,-0.5191431990056069,0.001029603828187096,0.9999994522246578,-0.00018832509527224488,0.5191430987679327,-0.0003735528678095961,0.8546872547662586,-0.0013545859,0.009511529,0.10371222,-0.2665488,-0.22699933,0.13598672,0.40000546,-1.2848992e-05,-0.019379508,0.008472827,0.9639913718358799,-0.2563532545487145,-0.07073643974826971,0.19157530164364747,0.8539153569427771,-0.48386719973297987,0.1844438636174272,0.4528924508750084,0.8722779884384934,left_images/camera_left_80.png,right_images/camera_right_80.png
2025-05-27 16:18:14,4.461213111877441,81,-0.057436846,-1.3866118e-05,0.09672548,-0.00018573718,0.00021678727,-0.027670661,0.15999955,0.04514196,-2.679732e-06,0.021962281,0.8202746231096724,-0.000266072754417803,0.5719698172872186,0.0001795094229559355,0.9999999623085182,0.00020774823520039465,-0.5719698510049739,-6.773663348126281e-05,0.8202746399548729,0.0005452833,-9.463182e-07,0.09855133,-0.0010336222,-0.00016566516,0.021505065,0.18666598,-0.049086977,3.0898927e-06,0.017366894,0.8546866701009512,-0.0009774335867196295,-0.519143275575569,0.0010292483422893663,0.9999994525976752,-0.0001882875458294568,0.5191431754339043,-0.0003734005002303674,0.8546872082653798,-0.0013070657,0.008498284,0.10357305,-0.26483303,-0.2242432,0.13388126,0.4266727,-6.3324696e-06,-0.019358575,0.008612182,0.9644354395660147,-0.25491433930993157,-0.06987819776789556,0.19110866976181567,0.8551341257381231,-0.4818953240486625,0.1825972597028152,0.4514025992529033,0.8734379967328796,left_images/camera_left_81.png,right_images/camera_right_81.png
2025-05-27 16:18:14,4.5143516063690186,82,-0.057436846,-1.3871311e-05,0.09672548,-0.00018571047,0.00021680209,-0.027670661,0.18666607,0.04514196,-2.679732e-06,0.021962281,0.8202746231096724,-0.000266072754417803,0.5719698172872186,0.0001795094229559355,0.9999999623085182,0.00020774823520039465,-0.5719698510049739,-6.773663348126281e-05,0.8202746399548729,0.0005452833,-9.5257957e-07,0.09855133,-0.0010336082,-0.00016562252,0.021505065,0.2133325,-0.049086977,3.0898927e-06,0.017366894,0.8546866701009512,-0.0009774335867196295,-0.519143275575569,0.0010292483422893663,0.9999994525976752,-0.0001882875458294568,0.5191431754339043,-0.0003734005002303674,0.8546872082653798,-0.0012723344,0.007687296,0.10346703,-0.26352504,-0.22191314,0.13227424,0.45334017,-3.9604492e-07,-0.01934258,0.008717739,0.9647659739901516,-0.2538268557157988,-0.06927151469590909,0.1907680087265419,0.8561458660314746,-0.4802310099563822,0.18120204821509206,0.4500957491408332,0.8744024441457194,left_images/camera_left_82.png,right_images/camera_right_82.png
2025-05-27 16:18:14,4.56876277923584,83,-0.057436846,-1.3873768e-05,0.09672548,-0.00018568375,0.0002168169,-0.027670661,0.2133326,0.04514196,-2.679732e-06,0.021962281,0.8202746231096724,-0.000266072754417803,0.5719698172872186,0.0001795094229559355,0.9999999623085182,0.00020774823520039465,-0.5719698510049739,-6.773663348126281e-05,0.8202746399548729,0.0005452833,-9.597481e-07,0.09855133,-0.0010335942,-0.00016557988,0.021505065,0.23999903,-0.049086977,3.0898927e-06,0.017366894,0.8546866701009512,-0.0009774335867196295,-0.519143275575569,0.0010292483422893663,0.9999994525976752,-0.0001882875458294568,0.5191431754339043,-0.0003734005002303674,0.8546872082653798,-0.0012428365,0.0070536197,0.10338552,-0.2625614,-0.22025517,0.1310988,0.48000842,4.00329e-06,-0.019327166,0.008800369,0.9650101199810637,-0.2530209260419153,-0.06881772532585428,0.19049585836728478,0.8568467371853591,-0.4790876714336485,0.1801854496873831,0.44921495963480096,0.8750652111478663,left_images/camera_left_83.png,right_images/camera_right_83.png
2025-05-27 16:18:14,4.622135639190674,84,-0.057436846,-1.3876223e-05,0.09672548,-0.00018565703,0.00021683172,-0.027670661,0.23999912,0.04514196,-2.679732e-06,0.021962281,0.8202746231096724,-0.000266072754417803,0.5719698172872186,0.0001795094229559355,0.9999999623085182,0.00020774823520039465,-0.5719698510049739,-6.773663348126281e-05,0.8202746399548729,0.0005452833,-9.66917e-07,0.09855133,-0.0010335803,-0.00016553725,0.021505065,0.26666665,-0.049086977,3.0898927e-06,0.017366894,0.8546866701009512,-0.0009774335867196295,-0.519143275575569,0.0010292483422893663,0.9999994525976752,-0.0001882875458294568,0.5191431754339043,-0.0003734005002303674,0.8546872082653798,-0.0012289853,0.006495302,0.10331372,-0.26159197,-0.21898313,0.12994047,0.5066757,5.055801e-06,-0.019311063,0.008874617,0.9652685047571646,-0.25218304516918555,-0.06826730881662477,0.19018278297717178,0.8574069373371238,-0.4782090054204664,0.17912906738697063,0.44861682484651666,0.8755887857217588,left_images/camera_left_84.png,right_images/camera_right_84.png
2025-05-27 16:18:14,4.674685001373291,85,-0.057436846,-1.3878679e-05,0.09672548,-0.00018563031,0.00021684653,-0.027670661,0.26666677,0.045141958,-2.6885546e-06,0.021962285,0.8202745905508624,-0.000266371372376121,0.5719698638415376,0.00017956797087721987,0.9999999622068929,0.00020818635045210735,-0.5719698976799032,-6.806250552243606e-05,0.8202746073819037,0.0005452895,-9.718183e-07,0.09855133,-0.0010335366,-0.00016558009,0.021505065,0.29333496,-0.049086977,3.0898927e-06,0.017366894,0.8546866701009512,-0.0009774335867196295,-0.519143275575569,0.0010292483422893663,0.9999994525976752,-0.0001882875458294568,0.5191431754339043,-0.0003734005002303674,0.8546872082653798,-0.0012200454,0.005862159,0.10323464,-0.26096326,-0.21813627,0.12889968,0.53334045,3.1287782e-06,-0.019282132,0.008961673,0.9654548908325172,-0.2516395144583877,-0.06763437388428362,0.19007073326764987,0.8576579858986536,-0.4778031975399107,0.17824132551871943,0.44844211888203794,0.8758594041796424,left_images/camera_left_85.png,right_images/camera_right_85.png
2025-05-27 16:18:14,4.724499464035034,86,-0.057436846,-1.3874781e-05,0.09672548,-0.00018566736,0.00021689128,-0.027670661,0.29333508,0.045141958,-2.6885546e-06,0.021962285,0.8202745905508624,-0.000266371372376121,0.5719698638415376,0.00017956797087721987,0.9999999622068929,0.00020818635045210735,-0.5719698976799032,-6.806250552243606e-05,0.8202746073819037,0.0005452903,-9.786523e-07,0.09855133,-0.0010335227,-0.00016553747,0.021505065,0.32000327,-0.049086977,3.0898927e-06,0.017366894,0.8546866701009512,-0.0009774335867196295,-0.519143275575569,0.0010292483422893663,0.9999994525976752,-0.0001882875458294568,0.5191431754339043,-0.0003734005002303674,0.8546872082653798,-0.0012276162,0.0052249823,0.10315013,-0.26020923,-0.21727952,0.12781522,0.5600052,-1.7805723e-07,-0.019254478,0.00905438,0.9656738748314455,-0.2509746974679606,-0.06697513492996571,0.18986641645984859,0.857940695507221,-0.4773766928676777,0.1772701649142257,0.4482738718946838,0.8761425822363799,left_images/camera_left_86.png,right_images/camera_right_86.png
2025-05-27 16:18:14,4.7831056118011475,87,-0.057436846,-1.38711985e-05,0.09672548,-0.00018570572,0.00021687083,-0.027670661,0.32000333,0.045141958,-2.6885546e-06,0.021962285,0.8202745905508624,-0.000266371372376121,0.5719698638415376,0.00017956797087721987,0.9999999622068929,0.00020818635045210735,-0.5719698976799032,-6.806250552243606e-05,0.8202746073819037,0.00054529647,-9.835536e-07,0.09855133,-0.001033479,-0.0001655803,0.021505065,0.34667146,-0.049086977,3.0898927e-06,0.017366894,0.8546866701009512,-0.0009774335867196295,-0.519143275575569,0.0010292483422893663,0.9999994525976752,-0.0001882875458294568,0.5191431754339043,-0.0003734005002303674,0.8546872082653798,-0.0012640823,0.0044944887,0.10305414,-0.25917742,-0.21584487,0.12682718,0.5866699,-1.8352293e-06,-0.019229898,0.009156033,0.9659345268225532,-0.25007308165159386,-0.06658786470045314,0.1894097893945432,0.8585061776334807,-0.47654073765698735,0.17633610399916794,0.4476947585112273,0.8766270481955076,left_images/camera_left_87.png,right_images/camera_right_87.png
2025-05-27 16:18:14,4.833992958068848,88,-0.057436846,-1.3867793e-05,0.09672548,-0.00018574408,0.00021685037,-0.027670661,0.34667164,0.045141958,-2.6885546e-06,0.021962285,0.8202745905508624,-0.000266371372376121,0.5719698638415376,0.00017956797087721987,0.9999999622068929,0.00020818635045210735,-0.5719698976799032,-6.806250552243606e-05,0.8202746073819037,0.0005452973,-9.903877e-07,0.09855133,-0.001033465,-0.00016553768,0.021505065,0.3733397,-0.049086977,3.0898927e-06,0.017366894,0.8546866701009512,-0.0009774335867196295,-0.519143275575569,0.0010292483422893663,0.9999994525976752,-0.0001882875458294568,0.5191431754339043,-0.0003734005002303674,0.8546872082653798,-0.0013201141,0.0036686219,0.102943555,-0.2581691,-0.2141171,0.1254979,0.61333466,-7.593597e-06,-0.019204456,0.009272094,0.9662049244596979,-0.24920488934237836,-0.06591636426322818,0.18915564239349678,0.8591517880158881,-0.4754769690529775,0.17512334767395576,0.4469397367397035,0.8772551993704634,left_images/camera_left_88.png,right_images/camera_right_88.png
2025-05-27 16:18:14,4.885187864303589,89,-0.057436846,-1.3891054e-05,0.09672548,-0.00018574676,0.00021689205,-0.027670661,0.37333995,0.045141958,-2.6885546e-06,0.021962285,0.8202745905508624,-0.000266371372376121,0.5719698638415376,0.00017956797087721987,0.9999999622068929,0.00020818635045210735,-0.5719698976799032,-6.806250552243606e-05,0.8202746073819037,0.00054530345,-9.952889e-07,0.09855133,-0.0010334214,-0.00016558052,0.021505065,0.40000796,-0.049086977,3.0898927e-06,0.017366894,0.8546866701009512,-0.0009774335867196295,-0.519143275575569,0.0010292483422893663,0.9999994525976752,-0.0001882875458294568,0.5191431754339043,-0.0003734005002303674,0.8546872082653798,-0.0013777992,0.0028077683,0.102825366,-0.2573286,-0.2123409,0.124452606,0.6399994,-1.1409691e-05,-0.01917782,0.009396732,0.9664170148417018,-0.2484947836184361,-0.06548660885158425,0.18891974682079346,0.8597622714100125,-0.4744661904931302,0.17420528891403117,0.44616048589529156,0.8778344594170682,left_images/camera_left_89.png,right_images/camera_right_89.png
2025-05-27 16:18:14,4.936906099319458,90,-0.057436846,-1.3918703e-05,0.09672548,-0.00018574944,0.00021693372,-0.027670661,0.40000826,0.045141958,-2.6885546e-06,0.021962285,0.8202745905508624,-0.000266371372376121,0.5719698638415376,0.00017956797087721987,0.9999999622068929,0.00020818635045210735,-0.5719698976799032,-6.806250552243606e-05,0.8202746073819037,0.00054530427,-1.002123e-06,0.09855133,-0.0010334074,-0.0001655379,0.021505065,0.4266762,-0.049086977,3.0898927e-06,0.017366894,0.8546866701009512,-0.0009774335867196295,-0.519143275575569,0.0010292483422893663,0.9999994525976752,-0.0001882875458294568,0.5191431754339043,-0.0003734005002303674,0.8546872082653798,-0.0014339201,0.001957559,0.10270362,-0.25643232,-0.21095476,0.12339985,0.6666641,-1.6664271e-05,-0.019147575,0.009527412,0.9666534654316836,-0.24771074672525062,-0.06496509621123722,0.18859464369435275,0.8602149113137725,-0.47377459484784384,0.17324300314505262,0.4457237847706325,0.8782466450553773,left_images/camera_left_90.png,right_images/camera_right_90.png
2025-05-27 16:18:14,5.000244140625,91,-0.057436846,-1.3946355e-05,0.09672548,-0.00018575211,0.0002169754,-0.027670661,0.42667657,0.045141958,-2.6885546e-06,0.021962285,0.8202745905508624,-0.000266371372376121,0.5719698638415376,0.00017956797087721987,0.9999999622068929,0.00020818635045210735,-0.5719698976799032,-6.806250552243606e-05,0.8202746073819037,0.00054531044,-1.0070243e-06,0.09855133,-0.0010333637,-0.00016558074,0.021505065,0.45334452,-0.049086977,3.0898927e-06,0.017366894,0.8546866701009512,-0.0009774335867196295,-0.519143275575569,0.0010292483422893663,0.9999994525976752,-0.0001882875458294568,0.5191431754339043,-0.0003734005002303674,0.8546872082653798,-0.0014810709,0.001166299,0.102590516,-0.25592294,-0.20946784,0.12284736,0.6933289,-1.7703103e-05,-0.019121641,0.009648044,0.96676547318382,-0.24729866708934475,-0.06486824427636603,0.18841150232443435,0.8606458879587421,-0.47306422537701814,0.17281674007894757,0.4451202363356917,0.8786366425052757,left_images/camera_left_91.png,right_images/camera_right_91.png
2025-05-27 16:18:14,5.047860383987427,92,-0.057436846,-1.3974006e-05,0.09672548,-0.00018575479,0.00021701706,-0.027670661,0.45334488,0.045141958,-2.6885546e-06,0.021962285,0.8202745905508624,-0.000266371372376121,0.5719698638415376,0.00017956797087721987,0.9999999622068929,0.00020818635045210735,-0.5719698976799032,-6.806250552243606e-05,0.8202746073819037,0.00054531125,-1.0138583e-06,0.09855133,-0.0010333498,-0.00016553812,0.021505065,0.48001283,-0.049086977,3.0898927e-06,0.017366894,0.8546866701009512,-0.0009774335867196295,-0.519143275575569,0.0010292483422893663,0.9999994525976752,-0.0001882875458294568,0.5191431754339043,-0.0003734005002303674,0.8546872082653798,-0.0015213714,0.00042454342,0.10248041,-0.25542438,-0.20859793,0.12198415,0.7199936,-2.3628061e-05,-0.019090837,0.009768995,0.9669129572348201,-0.24686415326705408,-0.06432280282415734,0.18832657597833735,0.8608211419184292,-0.4727790841466307,0.17208263686871642,0.4450225291577853,0.878830196699179,left_images/camera_left_92.png,right_images/camera_right_92.png
2025-05-27 16:18:14,5.103113651275635,93,-0.057436846,-1.4001657e-05,0.09672548,-0.00018575747,0.00021705874,-0.027670661,0.4800132,0.04514191,-2.7034177e-06,0.021962311,0.8202745133260918,-0.00026671090095533635,0.5719699744330458,0.00018002751087743273,0.9999999621378903,0.00020812091072577749,-0.5719700082851713,-6.774594796476007e-05,0.8202745302840677,0.0005453174,-1.0187596e-06,0.09855133,-0.0010333061,-0.00016558096,0.021505065,0.50668025,-0.049086977,3.0898927e-06,0.017366894,0.8546866701009512,-0.0009774335867196295,-0.519143275575569,0.0010292483422893663,0.9999994525976752,-0.0001882875458294568,0.5191431754339043,-0.0003734005002303674,0.8546872082653798,-0.0015685792,-0.00036826034,0.10236924,-0.25466213,-0.20771548,0.12125267,0.7466583,-2.7880422e-05,-0.019055657,0.009892319,0.9671117010514163,-0.24617873331848372,-0.06396083919979975,0.18792692295466357,0.8610416908445593,-0.47253643061285144,0.17140136906754191,0.444975547518343,0.8789871061582889,left_images/camera_left_93.png,right_images/camera_right_93.png
2025-05-27 16:18:14,5.160480260848999,94,-0.057436846,-1.4009378e-05,0.09672548,-0.00018582346,0.00021708029,-0.027670661,0.5066806,0.04514191,-2.7034177e-06,0.021962311,0.8202745133260918,-0.00026671090095533635,0.5719699744330458,0.00018002751087743273,0.9999999621378903,0.00020812091072577749,-0.5719700082851713,-6.774594796476007e-05,0.8202745302840677,0.00054531824,-1.0255936e-06,0.09855133,-0.0010332922,-0.00016553834,0.021505065,0.533345,-0.049086977,3.0898927e-06,0.017366894,0.8546866701009512,-0.0009774335867196295,-0.519143275575569,0.0010292483422893663,0.9999994525976752,-0.0001882875458294568,0.5191431754339043,-0.0003734005002303674,0.8546872082653798,-0.001611444,-0.0010756394,0.102265626,-0.25397065,-0.20713124,0.12021888,0.77332306,-3.6094047e-05,-0.019022897,0.010007969,0.9673214895098955,-0.24554509461732085,-0.0632197946985609,0.18771907174997923,0.8611498181913199,-0.47242199433386145,0.1704426180087697,0.4451163860592281,0.8791022220583274,left_images/camera_left_94.png,right_images/camera_right_94.png
