jiaqis7/OS_Teleop_Extension/demo_02/teleop_log.csv
Epoch Time (Seconds),Time (Seconds),Frame Number,PSM1_joint_1,PSM1_joint_2,PSM1_joint_3,PSM1_joint_4,PSM1_joint_5,PSM1_joint_6,PSM1_jaw_angle,PSM1_ee_x,PSM1_ee_y,PSM1_ee_z,"PSM1_Orientation_Matrix_[1,1]","PSM1_Orientation_Matrix_[1,2]","PSM1_Orientation_Matrix_[1,3]","PSM1_Orientation_Matrix_[2,1]","PSM1_Orientation_Matrix_[2,2]","PSM1_Orientation_Matrix_[2,3]","PSM1_Orientation_Matrix_[3,1]","PSM1_Orientation_Matrix_[3,2]","PSM1_Orientation_Matrix_[3,3]",PSM2_joint_1,PSM2_joint_2,PSM2_joint_3,PSM2_joint_4,PSM2_joint_5,PSM2_joint_6,PSM2_jaw_angle,PSM2_ee_x,PSM2_ee_y,PSM2_ee_z,"PSM2_Orientation_Matrix_[1,1]","PSM2_Orientation_Matrix_[1,2]","PSM2_Orientation_Matrix_[1,3]","PSM2_Orientation_Matrix_[2,1]","PSM2_Orientation_Matrix_[2,2]","PSM2_Orientation_Matrix_[2,3]","PSM2_Orientation_Matrix_[3,1]","PSM2_Orientation_Matrix_[3,2]","PSM2_Orientation_Matrix_[3,3]",PSM3_joint_1,PSM3_joint_2,PSM3_joint_3,PSM3_joint_4,PSM3_joint_5,PSM3_joint_6,PSM3_jaw_angle,PSM3_ee_x,PSM3_ee_y,PSM3_ee_z,"PSM3_Orientation_Matrix_[1,1]","PSM3_Orientation_Matrix_[1,2]","PSM3_Orientation_Matrix_[1,3]","PSM3_Orientation_Matrix_[2,1]","PSM3_Orientation_Matrix_[2,2]","PSM3_Orientation_Matrix_[2,3]","PSM3_Orientation_Matrix_[3,1]","PSM3_Orientation_Matrix_[3,2]","PSM3_Orientation_Matrix_[3,3]",Camera Left,Camera Right
2025-05-27 15:35:02,0.0017244815826416016,1,-0.100539096,-2.3995226e-05,0.1130509,0.00078042,6.818714e-05,0.016079456,1.0174794,0.032400295,1.1608112e-06,0.005917873,0.8206445746072062,0.0006071625995452463,0.5714386349568388,-0.0007793810113044087,0.9999996946719697,5.6755673021311365e-05,-0.571438426020684,-0.0004919446563541916,0.8206447972524156,0.09339869,9.73897e-05,0.11704367,0.0017226924,0.000101507314,-0.040380303,1.0471779,-0.030950805,-1.31692805e-05,0.002055795,0.8382014868921679,0.0015199804575682188,-0.5453585582267573,-0.0017292325621737258,0.9999984965127281,0.00012933301666689923,0.5453579348707642,0.0008346446500713801,0.8382028550666021,0.00016113868,-0.013881751,0.10612648,-0.0002736529,-0.007237722,0.0031188955,0.523589,4.6640453e-05,-0.020222137,0.005223345,0.9999945890690347,-0.0002767142923216369,-0.0032779966217917926,-0.0006493701022855365,0.9602448668497787,-0.2791583314306069,0.0032249265297539945,0.27915894955714876,0.9602394913411063,left_images/camera_left_1.png,right_images/camera_right_1.png
2025-05-27 15:35:03,0.06944823265075684,2,-0.100539096,-2.3993915e-05,0.1130509,0.0007804361,6.817333e-05,0.016079456,1.0061369,0.032400295,1.1608112e-06,0.005917873,0.8206445746072062,0.0006071625995452463,0.5714386349568388,-0.0007793810113044087,0.9999996946719697,5.6755673021311365e-05,-0.571438426020684,-0.0004919446563541916,0.8206447972524156,0.09339869,9.73897e-05,0.11704367,0.0017226924,0.00010150574,-0.040380303,1.0471779,-0.030950805,-1.31692805e-05,0.002055795,0.8382014868921679,0.0015199804575682188,-0.5453585582267573,-0.0017292325621737258,0.9999984965127281,0.00012933301666689923,0.5453579348707642,0.0008346446500713801,0.8382028550666021,0.00016113868,-0.013881751,0.10612648,-0.0002736529,-0.007237722,0.0031188955,0.523589,4.6640453e-05,-0.020222137,0.005223345,0.9999945890690347,-0.0002767142923216369,-0.0032779966217917926,-0.0006493701022855365,0.9602448668497787,-0.2791583314306069,0.0032249265297539945,0.27915894955714876,0.9602394913411063,left_images/camera_left_2.png,right_images/camera_right_2.png
2025-05-27 15:35:03,0.13211607933044434,3,-0.100539096,-2.3991899e-05,0.1130509,0.00078045065,6.8159556e-05,0.016079456,1.0046315,0.032400295,1.1651855e-06,0.0059178746,0.8206445216168496,0.0006073554776070368,0.5714387108514576,-0.0007794412034160937,0.9999996946392791,5.650450476695976e-05,-0.5714385020382005,-0.00049177298874828,0.8206447444221312,0.09339869,9.73897e-05,0.11704367,0.0017226924,0.00010150417,-0.040380303,1.0471779,-0.030950805,-1.31692805e-05,0.002055795,0.8382014868921679,0.0015199804575682188,-0.5453585582267573,-0.0017292325621737258,0.9999984965127281,0.00012933301666689923,0.5453579348707642,0.0008346446500713801,0.8382028550666021,0.00016113868,-0.013881751,0.10612648,-0.0002736529,-0.007237722,0.0031188955,0.523589,4.6640453e-05,-0.020222137,0.005223345,0.9999945890690347,-0.0002767142923216369,-0.0032779966217917926,-0.0006493701022855365,0.9602448668497787,-0.2791583314306069,0.0032249265297539945,0.27915894955714876,0.9602394913411063,left_images/camera_left_3.png,right_images/camera_right_3.png
2025-05-27 15:35:03,0.19121122360229492,4,-0.100539096,-2.3998758e-05,0.113050856,0.0007804198,6.81439e-05,0.016079456,0.99070644,0.032400325,1.1651855e-06,0.0059179044,0.8206445216168496,0.0006073554776070368,0.5714387108514576,-0.0007794412034160937,0.9999996946392791,5.650450476695976e-05,-0.5714385020382005,-0.00049177298874828,0.8206447444221312,0.09339869,9.73897e-05,0.11704367,0.0017226924,0.0001015026,-0.040380303,1.0471779,-0.030950805,-1.31692805e-05,0.002055795,0.8382014868921679,0.0015199804575682188,-0.5453585582267573,-0.0017292325621737258,0.9999984965127281,0.00012933301666689923,0.5453579348707642,0.0008346446500713801,0.8382028550666021,0.00016113868,-0.013881751,0.10612648,-0.0002736529,-0.007237722,0.0031188955,0.523589,4.6640453e-05,-0.020222137,0.005223345,0.9999945890690347,-0.0002767142923216369,-0.0032779966217917926,-0.0006493701022855365,0.9602448668497787,-0.2791583314306069,0.0032249265297539945,0.27915894955714876,0.9602394913411063,left_images/camera_left_4.png,right_images/camera_right_4.png
2025-05-27 15:35:03,0.24293947219848633,5,-0.100539096,-2.4002817e-05,0.113050856,0.0007804597,6.8166584e-05,0.016079456,0.9749019,0.032400325,1.1608112e-06,0.0059179026,0.8206445746072062,0.0006071625995452463,0.5714386349568388,-0.0007793810113044087,0.9999996946719697,5.6755673021311365e-05,-0.571438426020684,-0.0004919446563541916,0.8206447972524156,0.09339869,9.73897e-05,0.11704367,0.0017226924,0.00010150103,-0.040380303,1.0471779,-0.030950805,-1.31692805e-05,0.002055795,0.8382014868921679,0.0015199804575682188,-0.5453585582267573,-0.0017292325621737258,0.9999984965127281,0.00012933301666689923,0.5453579348707642,0.0008346446500713801,0.8382028550666021,0.00016113868,-0.013881751,0.10612648,-0.0002736529,-0.007237722,0.0031188955,0.523589,4.6640453e-05,-0.020222137,0.005223345,0.9999945890690347,-0.0002767142923216369,-0.0032779966217917926,-0.0006493701022855365,0.9602448668497787,-0.2791583314306069,0.0032249265297539945,0.27915894955714876,0.9602394913411063,left_images/camera_left_5.png,right_images/camera_right_5.png
2025-05-27 15:35:03,0.2944526672363281,6,-0.100539096,-2.4000914e-05,0.113050856,0.0007804784,6.818558e-05,0.016079456,0.97193086,0.03240034,1.1565976e-06,0.0059179044,0.8206445539229548,0.0006075261555759944,0.5714386642751479,-0.0007798516829192642,0.9999996943027731,5.679536340016489e-05,-0.5714384550832641,-0.0004922462096825309,0.820644776834485,0.09339869,9.73897e-05,0.11704367,0.0017226924,0.000101499456,-0.040380303,1.0471779,-0.030950805,-1.31692805e-05,0.002055795,0.8382014868921679,0.0015199804575682188,-0.5453585582267573,-0.0017292325621737258,0.9999984965127281,0.00012933301666689923,0.5453579348707642,0.0008346446500713801,0.8382028550666021,0.00016113868,-0.013881751,0.10612648,-0.0002736529,-0.007237722,0.0031188955,0.523589,4.6640453e-05,-0.020222137,0.005223345,0.9999945890690347,-0.0002767142923216369,-0.0032779966217917926,-0.0006493701022855365,0.9602448668497787,-0.2791583314306069,0.0032249265297539945,0.27915894955714876,0.9602394913411063,left_images/camera_left_6.png,right_images/camera_right_6.png
2025-05-27 15:35:03,0.3495938777923584,7,-0.100539096,-2.3989234e-05,0.113050885,0.0007804742,6.812996e-05,0.016079456,0.9803932,0.03240031,1.1674401e-06,0.005917872,0.820644521336321,0.0006077174453219403,0.5714387108694925,-0.000779900174590415,0.9999996942799804,5.65302023154167e-05,-0.5714385018148485,-0.0004920563511950193,0.8206447444078034,0.09339869,9.73897e-05,0.11704367,0.0017226924,0.000101497884,-0.040380303,1.0471779,-0.030950805,-1.31692805e-05,0.002055795,0.8382014868921679,0.0015199804575682188,-0.5453585582267573,-0.0017292325621737258,0.9999984965127281,0.00012933301666689923,0.5453579348707642,0.0008346446500713801,0.8382028550666021,0.00016113868,-0.013881751,0.10612648,-0.0002736529,-0.007237722,0.0031188955,0.523589,4.6640453e-05,-0.020222137,0.005223345,0.9999945890690347,-0.0002767142923216369,-0.0032779966217917926,-0.0006493701022855365,0.9602448668497787,-0.2791583314306069,0.0032249265297539945,0.27915894955714876,0.9602394913411063,left_images/camera_left_7.png,right_images/camera_right_7.png
2025-05-27 15:35:03,0.40427517890930176,8,-0.100539096,-2.3988894e-05,0.113050885,0.00078055455,6.814561e-05,0.016079456,0.9808673,0.03240031,1.1674401e-06,0.005917872,0.820644521336321,0.0006077174453219403,0.5714387108694925,-0.000779900174590415,0.9999996942799804,5.65302023154167e-05,-0.5714385018148485,-0.0004920563511950193,0.8206447444078034,0.09339869,9.73897e-05,0.11704367,0.0017226924,0.00010149631,-0.040380303,1.0471779,-0.030950805,-1.31692805e-05,0.002055795,0.8382014868921679,0.0015199804575682188,-0.5453585582267573,-0.0017292325621737258,0.9999984965127281,0.00012933301666689923,0.5453579348707642,0.0008346446500713801,0.8382028550666021,0.00016113868,-0.013881751,0.10612648,-0.0002736529,-0.007237722,0.0031188955,0.523589,4.6640453e-05,-0.020222137,0.005223345,0.9999945890690347,-0.0002767142923216369,-0.0032779966217917926,-0.0006493701022855365,0.9602448668497787,-0.2791583314306069,0.0032249265297539945,0.27915894955714876,0.9602394913411063,left_images/camera_left_8.png,right_images/camera_right_8.png
2025-05-27 15:35:03,0.45743417739868164,9,-0.100539096,-2.3997049e-05,0.11305093,0.0007805508,6.817861e-05,0.016079456,0.99334514,0.03240031,1.1565976e-06,0.005917845,0.8206445539229548,0.0006075261555759944,0.5714386642751479,-0.0007798516829192642,0.9999996943027731,5.679536340016489e-05,-0.5714384550832641,-0.0004922462096825309,0.820644776834485,0.09339869,9.73897e-05,0.11704367,0.0017226924,0.00010149474,-0.040380303,1.0471779,-0.030950805,-1.31692805e-05,0.002055795,0.8382014868921679,0.0015199804575682188,-0.5453585582267573,-0.0017292325621737258,0.9999984965127281,0.00012933301666689923,0.5453579348707642,0.0008346446500713801,0.8382028550666021,0.00016113868,-0.013881751,0.10612648,-0.0002736529,-0.007237722,0.0031188955,0.523589,4.6640453e-05,-0.020222137,0.005223345,0.9999945890690347,-0.0002767142923216369,-0.0032779966217917926,-0.0006493701022855365,0.9602448668497787,-0.2791583314306069,0.0032249265297539945,0.27915894955714876,0.9602394913411063,left_images/camera_left_9.png,right_images/camera_right_9.png
2025-05-27 15:35:03,0.5154094696044922,10,-0.100539096,-2.3990184e-05,0.11305084,0.00078053295,6.817845e-05,0.016079456,0.9817929,0.03240037,1.1565976e-06,0.0059179044,0.8206445539229548,0.0006075261555759944,0.5714386642751479,-0.0007798516829192642,0.9999996943027731,5.679536340016489e-05,-0.5714384550832641,-0.0004922462096825309,0.820644776834485,0.09339869,9.73897e-05,0.11704367,0.0017226924,0.00010149317,-0.040380303,1.0471779,-0.030950805,-1.31692805e-05,0.002055795,0.8382014868921679,0.0015199804575682188,-0.5453585582267573,-0.0017292325621737258,0.9999984965127281,0.00012933301666689923,0.5453579348707642,0.0008346446500713801,0.8382028550666021,0.00016113868,-0.013881751,0.10612648,-0.0002736529,-0.007237722,0.0031188955,0.523589,4.6640453e-05,-0.020222137,0.005223345,0.9999945890690347,-0.0002767142923216369,-0.0032779966217917926,-0.0006493701022855365,0.9602448668497787,-0.2791583314306069,0.0032249265297539945,0.27915894955714876,0.9602394913411063,left_images/camera_left_10.png,right_images/camera_right_10.png
2025-05-27 15:35:03,0.5760419368743896,11,-0.100539096,-2.3981656e-05,0.11305084,0.0007805142,6.8178335e-05,0.016079456,0.9750513,0.03240037,1.1565976e-06,0.0059179044,0.8206445539229548,0.0006075261555759944,0.5714386642751479,-0.0007798516829192642,0.9999996943027731,5.679536340016489e-05,-0.5714384550832641,-0.0004922462096825309,0.820644776834485,0.09339869,9.73897e-05,0.11704367,0.0017226924,0.0001014916,-0.040380303,1.0471779,-0.030950805,-1.31692805e-05,0.002055795,0.8382014868921679,0.0015199804575682188,-0.5453585582267573,-0.0017292325621737258,0.9999984965127281,0.00012933301666689923,0.5453579348707642,0.0008346446500713801,0.8382028550666021,0.00016113868,-0.013881751,0.10612648,-0.0002736529,-0.007237722,0.0031188955,0.523589,4.6640453e-05,-0.020222137,0.005223345,0.9999945890690347,-0.0002767142923216369,-0.0032779966217917926,-0.0006493701022855365,0.9602448668497787,-0.2791583314306069,0.0032249265297539945,0.27915894955714876,0.9602394913411063,left_images/camera_left_11.png,right_images/camera_right_11.png
2025-05-27 15:35:03,0.6418437957763672,12,-0.100539096,-2.3968649e-05,0.113050885,0.0007804961,6.817304e-05,0.016079456,0.98430145,0.03240031,1.1603229e-06,0.0059178746,0.8206445539229548,0.0006075261555759944,0.5714386642751479,-0.0007798516829192642,0.9999996943027731,5.679536340016489e-05,-0.5714384550832641,-0.0004922462096825309,0.820644776834485,0.09339869,9.73897e-05,0.11704367,0.0017227064,0.00010152469,-0.040380303,1.0471779,-0.030950805,-1.31692805e-05,0.002055795,0.8382014868921679,0.0015199804575682188,-0.5453585582267573,-0.0017292325621737258,0.9999984965127281,0.00012933301666689923,0.5453579348707642,0.0008346446500713801,0.8382028550666021,0.00016113868,-0.013881751,0.10612648,-0.0002736529,-0.007237722,0.0031188955,0.523589,4.6640453e-05,-0.020222137,0.005223345,0.9999945890690347,-0.0002767142923216369,-0.0032779966217917926,-0.0006493701022855365,0.9602448668497787,-0.2791583314306069,0.0032249265297539945,0.27915894955714876,0.9602394913411063,left_images/camera_left_12.png,right_images/camera_right_12.png
2025-05-27 15:35:03,0.700059175491333,13,-0.100539096,-2.4001585e-05,0.113050885,0.00078049157,6.817048e-05,0.016079567,0.98922145,0.03240031,1.1610396e-06,0.005917873,0.8206447368463825,0.0006074667837604398,0.5714384016413653,-0.0007798050329113406,0.9999996943370396,5.6832543720170816e-05,-0.5714381924499291,-0.0004922498694842988,0.8206449597113381,0.09339869,9.738971e-05,0.11704367,0.0017227064,0.00010152312,-0.040380303,1.0471779,-0.030950805,-1.31692805e-05,0.002055795,0.8382014868921679,0.0015199804575682188,-0.5453585582267573,-0.0017292325621737258,0.9999984965127281,0.00012933301666689923,0.5453579348707642,0.0008346446500713801,0.8382028550666021,0.00016113868,-0.013881751,0.10612648,-0.0002736529,-0.007237722,0.0031188955,0.523589,4.6640453e-05,-0.020222137,0.005223345,0.9999945890690347,-0.0002767142923216369,-0.0032779966217917926,-0.0006493701022855365,0.9602448668497787,-0.2791583314306069,0.0032249265297539945,0.27915894955714876,0.9602394913411063,left_images/camera_left_13.png,right_images/camera_right_13.png
2025-05-27 15:35:03,0.7605485916137695,14,-0.100539096,-2.4008856e-05,0.113050885,0.0007805022,6.819356e-05,0.016079567,0.988919,0.03240031,1.1610396e-06,0.005917873,0.8206447368463825,0.0006074667837604398,0.5714384016413653,-0.0007798050329113406,0.9999996943370396,5.6832543720170816e-05,-0.5714381924499291,-0.0004922498694842988,0.8206449597113381,0.09339869,9.738971e-05,0.11704367,0.0017227064,0.000101521546,-0.040380303,1.0471779,-0.030950805,-1.31692805e-05,0.002055795,0.8382014868921679,0.0015199804575682188,-0.5453585582267573,-0.0017292325621737258,0.9999984965127281,0.00012933301666689923,0.5453579348707642,0.0008346446500713801,0.8382028550666021,0.00016113868,-0.013881751,0.10612648,-0.0002736529,-0.007237722,0.0031188955,0.523589,4.6640453e-05,-0.020222137,0.005223345,0.9999945890690347,-0.0002767142923216369,-0.0032779966217917926,-0.0006493701022855365,0.9602448668497787,-0.2791583314306069,0.0032249265297539945,0.27915894955714876,0.9602394913411063,left_images/camera_left_14.png,right_images/camera_right_14.png
2025-05-27 15:35:03,0.8119053840637207,15,-0.100539096,-2.4009747e-05,0.11305094,0.00078051054,6.8216716e-05,0.016079567,1.0125681,0.03240028,1.1610396e-06,0.005917843,0.8206447368463825,0.0006074667837604398,0.5714384016413653,-0.0007798050329113406,0.9999996943370396,5.6832543720170816e-05,-0.5714381924499291,-0.0004922498694842988,0.8206449597113381,0.09339869,9.738971e-05,0.11704367,0.0017227064,0.000101519974,-0.040380303,1.0471779,-0.030950805,-1.31692805e-05,0.002055795,0.8382014868921679,0.0015199804575682188,-0.5453585582267573,-0.0017292325621737258,0.9999984965127281,0.00012933301666689923,0.5453579348707642,0.0008346446500713801,0.8382028550666021,0.00016113868,-0.013881751,0.10612648,-0.0002736529,-0.007237722,0.0031188955,0.523589,4.6640453e-05,-0.020222137,0.005223345,0.9999945890690347,-0.0002767142923216369,-0.0032779966217917926,-0.0006493701022855365,0.9602448668497787,-0.2791583314306069,0.0032249265297539945,0.27915894955714876,0.9602394913411063,left_images/camera_left_15.png,right_images/camera_right_15.png
2025-05-27 15:35:03,0.8668158054351807,16,-0.100539096,-2.4014198e-05,0.113050826,0.000780455,6.825077e-05,0.016079567,1.0042896,0.032400355,1.1631901e-06,0.00591793,0.8206447575335534,0.0006070833235109268,0.5714383723399521,-0.0007793501557841591,0.9999996946906385,5.6850367488441885e-05,-0.5714381633615575,-0.0004920045405474337,0.8206449801135093,0.09339869,9.738971e-05,0.11704367,0.0017227064,0.0001015184,-0.040380303,1.0471779,-0.030950805,-1.31692805e-05,0.002055795,0.8382014868921679,0.0015199804575682188,-0.5453585582267573,-0.0017292325621737258,0.9999984965127281,0.00012933301666689923,0.5453579348707642,0.0008346446500713801,0.8382028550666021,0.00016113868,-0.013881751,0.10612648,-0.0002736529,-0.007237722,0.0031188955,0.523589,4.6640453e-05,-0.020222137,0.005223345,0.9999945890690347,-0.0002767142923216369,-0.0032779966217917926,-0.0006493701022855365,0.9602448668497787,-0.2791583314306069,0.0032249265297539945,0.27915894955714876,0.9602394913411063,left_images/camera_left_16.png,right_images/camera_right_16.png
2025-05-27 15:35:03,0.9182724952697754,17,-0.100539096,-2.4013001e-05,0.113050826,0.00078044564,6.823989e-05,0.016079567,0.99970603,0.032400355,1.1631901e-06,0.00591793,0.8206447575335534,0.0006070833235109268,0.5714383723399521,-0.0007793501557841591,0.9999996946906385,5.6850367488441885e-05,-0.5714381633615575,-0.0004920045405474337,0.8206449801135093,0.09339869,9.738971e-05,0.11704367,0.0017227064,0.00010151683,-0.040380303,1.0471779,-0.030950805,-1.31692805e-05,0.002055795,0.8382014868921679,0.0015199804575682188,-0.5453585582267573,-0.0017292325621737258,0.9999984965127281,0.00012933301666689923,0.5453579348707642,0.0008346446500713801,0.8382028550666021,0.00016113868,-0.013881751,0.10612648,-0.0002736529,-0.007237722,0.0031188955,0.523589,4.6640453e-05,-0.020222137,0.005223345,0.9999945890690347,-0.0002767142923216369,-0.0032779966217917926,-0.0006493701022855365,0.9602448668497787,-0.2791583314306069,0.0032249265297539945,0.27915894955714876,0.9602394913411063,left_images/camera_left_17.png,right_images/camera_right_17.png
2025-05-27 15:35:03,0.9704699516296387,18,-0.100539096,-2.4020357e-05,0.11305089,0.00078043545,6.823955e-05,0.016079567,1.0180376,0.032400295,1.1557395e-06,0.0059178704,0.8206447575335534,0.0006070833235109268,0.5714383723399521,-0.0007793501557841591,0.9999996946906385,5.6850367488441885e-05,-0.5714381633615575,-0.0004920045405474337,0.8206449801135093,0.09339869,9.738971e-05,0.11704367,0.0017227064,0.00010151526,-0.040380303,1.0471779,-0.030950805,-1.31692805e-05,0.002055795,0.8382014868921679,0.0015199804575682188,-0.5453585582267573,-0.0017292325621737258,0.9999984965127281,0.00012933301666689923,0.5453579348707642,0.0008346446500713801,0.8382028550666021,0.00016113868,-0.013881751,0.10612648,-0.0002736529,-0.007237722,0.0031188955,0.523589,4.6640453e-05,-0.020222137,0.005223345,0.9999945890690347,-0.0002767142923216369,-0.0032779966217917926,-0.0006493701022855365,0.9602448668497787,-0.2791583314306069,0.0032249265297539945,0.27915894955714876,0.9602394913411063,left_images/camera_left_18.png,right_images/camera_right_18.png
2025-05-27 15:35:04,1.026473045349121,19,-0.100539096,-2.4006706e-05,0.11305077,0.00078042725,6.821302e-05,0.016079567,0.9991527,0.032400385,1.1669154e-06,0.00591796,0.8206447575335534,0.0006070833235109268,0.5714383723399521,-0.0007793501557841591,0.9999996946906385,5.6850367488441885e-05,-0.5714381633615575,-0.0004920045405474337,0.8206449801135093,0.09339869,9.738971e-05,0.11704367,0.0017227064,0.00010151369,-0.040380303,1.0471779,-0.030950805,-1.31692805e-05,0.002055795,0.8382014868921679,0.0015199804575682188,-0.5453585582267573,-0.0017292325621737258,0.9999984965127281,0.00012933301666689923,0.5453579348707642,0.0008346446500713801,0.8382028550666021,0.00016113868,-0.013881751,0.10612648,-0.0002736529,-0.007237722,0.0031188955,0.523589,4.6640453e-05,-0.020222137,0.005223345,0.9999945890690347,-0.0002767142923216369,-0.0032779966217917926,-0.0006493701022855365,0.9602448668497787,-0.2791583314306069,0.0032249265297539945,0.27915894955714876,0.9602394913411063,left_images/camera_left_19.png,right_images/camera_right_19.png
2025-05-27 15:35:04,1.0818681716918945,20,-0.100539096,-2.4011899e-05,0.1130509,0.00078041543,6.821268e-05,0.016079567,1.0200745,0.032400295,1.1594648e-06,0.0059178704,0.8206447575335534,0.0006070833235109268,0.5714383723399521,-0.0007793501557841591,0.9999996946906385,5.6850367488441885e-05,-0.5714381633615575,-0.0004920045405474337,0.8206449801135093,0.09339869,9.738971e-05,0.11704367,0.0017227064,0.000101512116,-0.040380303,1.0471779,-0.030950805,-1.31692805e-05,0.002055795,0.8382014868921679,0.0015199804575682188,-0.5453585582267573,-0.0017292325621737258,0.9999984965127281,0.00012933301666689923,0.5453579348707642,0.0008346446500713801,0.8382028550666021,0.00016113868,-0.013881751,0.10612648,-0.0002736529,-0.007237722,0.0031188955,0.523589,4.6640453e-05,-0.020222137,0.005223345,0.9999945890690347,-0.0002767142923216369,-0.0032779966217917926,-0.0006493701022855365,0.9602448668497787,-0.2791583314306069,0.0032249265297539945,0.27915894955714876,0.9602394913411063,left_images/camera_left_20.png,right_images/camera_right_20.png
2025-05-27 15:35:04,1.1430234909057617,21,-0.100539096,-2.401173e-05,0.1130509,0.0007804082,6.8201785e-05,0.016079567,1.0228313,0.032400295,1.1594648e-06,0.0059178704,0.8206447575335534,0.0006070833235109268,0.5714383723399521,-0.0007793501557841591,0.9999996946906385,5.6850367488441885e-05,-0.5714381633615575,-0.0004920045405474337,0.8206449801135093,0.09339869,9.738971e-05,0.11704367,0.0017227064,0.000101510544,-0.040380303,1.0471779,-0.030950805,-1.31692805e-05,0.002055795,0.8382014868921679,0.0015199804575682188,-0.5453585582267573,-0.0017292325621737258,0.9999984965127281,0.00012933301666689923,0.5453579348707642,0.0008346446500713801,0.8382028550666021,0.00016113868,-0.013881751,0.10612648,-0.0002736529,-0.007237722,0.0031188955,0.523589,4.6640453e-05,-0.020222137,0.005223345,0.9999945890690347,-0.0002767142923216369,-0.0032779966217917926,-0.0006493701022855365,0.9602448668497787,-0.2791583314306069,0.0032249265297539945,0.27915894955714876,0.9602394913411063,left_images/camera_left_21.png,right_images/camera_right_21.png
2025-05-27 15:35:04,1.1993420124053955,22,-0.100539096,-2.40101e-05,0.113050945,0.0007803981,6.8190966e-05,0.016079567,1.0443661,0.032400265,1.1594648e-06,0.005917811,0.8206447575335534,0.0006070833235109268,0.5714383723399521,-0.0007793501557841591,0.9999996946906385,5.6850367488441885e-05,-0.5714381633615575,-0.0004920045405474337,0.8206449801135093,0.09339869,9.738971e-05,0.11704367,0.0017227064,0.00010150897,-0.040380303,1.0471779,-0.030950805,-1.31692805e-05,0.002055795,0.8382014868921679,0.0015199804575682188,-0.5453585582267573,-0.0017292325621737258,0.9999984965127281,0.00012933301666689923,0.5453579348707642,0.0008346446500713801,0.8382028550666021,0.00016113868,-0.013881751,0.10612648,-0.0002736529,-0.007237722,0.0031188955,0.523589,4.6640453e-05,-0.020222137,0.005223345,0.9999945890690347,-0.0002767142923216369,-0.0032779966217917926,-0.0006493701022855365,0.9602448668497787,-0.2791583314306069,0.0032249265297539945,0.27915894955714876,0.9602394913411063,left_images/camera_left_22.png,right_images/camera_right_22.png
2025-05-27 15:35:04,1.2545456886291504,23,-0.100539096,-2.4008476e-05,0.113050945,0.0007803911,6.818008e-05,0.016079567,1.0469996,0.032400265,1.1594648e-06,0.005917811,0.8206447575335534,0.0006070833235109268,0.5714383723399521,-0.0007793501557841591,0.9999996946906385,5.6850367488441885e-05,-0.5714381633615575,-0.0004920045405474337,0.8206449801135093,0.09339869,9.738971e-05,0.11704367,0.0017227064,0.0001015074,-0.040380303,1.0471779,-0.030950805,-1.31692805e-05,0.002055795,0.8382014868921679,0.0015199804575682188,-0.5453585582267573,-0.0017292325621737258,0.9999984965127281,0.00012933301666689923,0.5453579348707642,0.0008346446500713801,0.8382028550666021,0.00016113868,-0.013881751,0.10612648,-0.0002736529,-0.007237722,0.0031188955,0.523589,4.6640453e-05,-0.020222137,0.005223345,0.9999945890690347,-0.0002767142923216369,-0.0032779966217917926,-0.0006493701022855365,0.9602448668497787,-0.2791583314306069,0.0032249265297539945,0.27915894955714876,0.9602394913411063,left_images/camera_left_23.png,right_images/camera_right_23.png
2025-05-27 15:35:04,1.3134288787841797,24,-0.100539096,-2.400685e-05,0.113050945,0.0007803841,6.816921e-05,0.016079567,1.0471683,0.032400265,1.1594648e-06,0.005917811,0.8206447575335534,0.0006070833235109268,0.5714383723399521,-0.0007793501557841591,0.9999996946906385,5.6850367488441885e-05,-0.5714381633615575,-0.0004920045405474337,0.8206449801135093,0.09339869,9.738971e-05,0.11704367,0.0017227064,0.00010150583,-0.040380303,1.0471779,-0.030950805,-1.31692805e-05,0.002055795,0.8382014868921679,0.0015199804575682188,-0.5453585582267573,-0.0017292325621737258,0.9999984965127281,0.00012933301666689923,0.5453579348707642,0.0008346446500713801,0.8382028550666021,0.00016113868,-0.013881751,0.10612648,-0.0002736529,-0.007237722,0.0031188955,0.523589,4.6640453e-05,-0.020222137,0.005223345,0.9999945890690347,-0.0002767142923216369,-0.0032779966217917926,-0.0006493701022855365,0.9602448668497787,-0.2791583314306069,0.0032249265297539945,0.27915894955714876,0.9602394913411063,left_images/camera_left_24.png,right_images/camera_right_24.png
2025-05-27 15:35:04,1.3699254989624023,25,-0.100539096,-2.4005223e-05,0.113050945,0.00078037713,6.815834e-05,0.016079567,1.0471776,0.032400265,1.1651991e-06,0.005917813,0.8206447045387394,0.0006073139550536028,0.5714384482009286,-0.0007793767041377243,0.9999996946906627,5.6484815745454025e-05,-0.5714382394314178,-0.0004917197793047686,0.8206449273145972,0.09339869,9.738971e-05,0.11704367,0.0017227064,0.00010150426,-0.040380303,1.0471779,-0.030950805,-1.31692805e-05,0.002055795,0.8382014868921679,0.0015199804575682188,-0.5453585582267573,-0.0017292325621737258,0.9999984965127281,0.00012933301666689923,0.5453579348707642,0.0008346446500713801,0.8382028550666021,0.00016113868,-0.013881751,0.10612648,-0.0002736529,-0.007237722,0.0031188955,0.523589,4.6640453e-05,-0.020222137,0.005223345,0.9999945890690347,-0.0002767142923216369,-0.0032779966217917926,-0.0006493701022855365,0.9602448668497787,-0.2791583314306069,0.0032249265297539945,0.27915894955714876,0.9602394913411063,left_images/camera_left_25.png,right_images/camera_right_25.png
2025-05-27 15:35:04,1.4217543601989746,26,-0.100539096,-2.3999351e-05,0.113050885,0.0007803585,6.814397e-05,0.016079567,1.0205128,0.032400295,1.1689244e-06,0.005917873,0.8206447045387394,0.0006073139550536028,0.5714384482009286,-0.0007793767041377243,0.9999996946906627,5.6484815745454025e-05,-0.5714382394314178,-0.0004917197793047686,0.8206449273145972,0.09339869,9.738552e-05,0.11704361,0.0017227135,0.000101507925,-0.040380303,1.020513,-0.030950835,-1.3173006e-05,0.0020558545,0.8382014868921679,0.0015199804575682188,-0.5453585582267573,-0.0017292325621737258,0.9999984965127281,0.00012933301666689923,0.5453579348707642,0.0008346446500713801,0.8382028550666021,0.00016113868,-0.013881751,0.10612648,-0.0002736529,-0.007237722,0.0031188955,0.523589,4.6640453e-05,-0.020222137,0.005223345,0.9999945890690347,-0.0002767142923216369,-0.0032779966217917926,-0.0006493701022855365,0.9602448668497787,-0.2791583314306069,0.0032249265297539945,0.27915894955714876,0.9602394913411063,left_images/camera_left_26.png,right_images/camera_right_26.png
2025-05-27 15:35:04,1.4808857440948486,27,-0.100539096,-2.3997276e-05,0.113050885,0.00078033464,6.8134905e-05,0.016079567,0.993848,0.032400295,1.1689244e-06,0.005917873,0.8206447045387394,0.0006073139550536028,0.5714384482009286,-0.0007793767041377243,0.9999996946906627,5.6484815745454025e-05,-0.5714382394314178,-0.0004917197793047686,0.8206449273145972,0.09339869,9.738486e-05,0.11704361,0.0017227135,0.00010150631,-0.040380303,0.9938484,-0.030950835,-1.3173006e-05,0.0020558545,0.8382014868921679,0.0015199804575682188,-0.5453585582267573,-0.0017292325621737258,0.9999984965127281,0.00012933301666689923,0.5453579348707642,0.0008346446500713801,0.8382028550666021,0.00016113868,-0.013881751,0.10612648,-0.0002736529,-0.007237722,0.0031188955,0.523589,4.6640453e-05,-0.020222137,0.005223345,0.9999945890690347,-0.0002767142923216369,-0.0032779966217917926,-0.0006493701022855365,0.9602448668497787,-0.2791583314306069,0.0032249265297539945,0.27915894955714876,0.9602394913411063,left_images/camera_left_27.png,right_images/camera_right_27.png
2025-05-27 15:35:04,1.5408589839935303,28,-0.100539096,-2.3995966e-05,0.113050885,0.0007803108,6.812584e-05,0.016079567,0.9671833,0.032400295,1.1689244e-06,0.005917873,0.8206447045387394,0.0006073139550536028,0.5714384482009286,-0.0007793767041377243,0.9999996946906627,5.6484815745454025e-05,-0.5714382394314178,-0.0004917197793047686,0.8206449273145972,0.09339869,9.738486e-05,0.11704361,0.0017227135,0.0001015047,-0.040380303,0.96718365,-0.030950835,-1.3173006e-05,0.0020558545,0.8382014868921679,0.0015199804575682188,-0.5453585582267573,-0.0017292325621737258,0.9999984965127281,0.00012933301666689923,0.5453579348707642,0.0008346446500713801,0.8382028550666021,0.00016113868,-0.013881751,0.10612648,-0.0002736529,-0.007237722,0.0031188955,0.523589,4.6640453e-05,-0.020222137,0.005223345,0.9999945890690347,-0.0002767142923216369,-0.0032779966217917926,-0.0006493701022855365,0.9602448668497787,-0.2791583314306069,0.0032249265297539945,0.27915894955714876,0.9602394913411063,left_images/camera_left_28.png,right_images/camera_right_28.png
2025-05-27 15:35:04,1.5975329875946045,29,-0.100539096,-2.3994657e-05,0.113050885,0.0007802869,6.8116766e-05,0.016079567,0.94051856,0.032400295,1.1689244e-06,0.005917873,0.8206447045387394,0.0006073139550536028,0.5714384482009286,-0.0007793767041377243,0.9999996946906627,5.6484815745454025e-05,-0.5714382394314178,-0.0004917197793047686,0.8206449273145972,0.09339869,9.738486e-05,0.11704361,0.0017227135,0.000101503094,-0.040380303,0.9405189,-0.030950835,-1.3173006e-05,0.0020558545,0.8382014868921679,0.0015199804575682188,-0.5453585582267573,-0.0017292325621737258,0.9999984965127281,0.00012933301666689923,0.5453579348707642,0.0008346446500713801,0.8382028550666021,0.00016113868,-0.013881751,0.10612648,-0.0002736529,-0.007237722,0.0031188955,0.523589,4.6640453e-05,-0.020222137,0.005223345,0.9999945890690347,-0.0002767142923216369,-0.0032779966217917926,-0.0006493701022855365,0.9602448668497787,-0.2791583314306069,0.0032249265297539945,0.27915894955714876,0.9602394913411063,left_images/camera_left_29.png,right_images/camera_right_29.png
2025-05-27 15:35:04,1.6671383380889893,30,-0.100539096,-2.3993347e-05,0.113050885,0.00078026304,6.810769e-05,0.016079567,0.9138538,0.032400295,1.1689244e-06,0.005917873,0.8206447045387394,0.0006073139550536028,0.5714384482009286,-0.0007793767041377243,0.9999996946906627,5.6484815745454025e-05,-0.5714382394314178,-0.0004917197793047686,0.8206449273145972,0.09339869,9.738486e-05,0.11704361,0.0017227135,0.00010150147,-0.040380303,0.9138542,-0.030950835,-1.3173006e-05,0.0020558545,0.8382014868921679,0.0015199804575682188,-0.5453585582267573,-0.0017292325621737258,0.9999984965127281,0.00012933301666689923,0.5453579348707642,0.0008346446500713801,0.8382028550666021,0.00016113868,-0.013881751,0.10612648,-0.0002736529,-0.007237722,0.0031188955,0.523589,4.6640453e-05,-0.020222137,0.005223345,0.9999945890690347,-0.0002767142923216369,-0.0032779966217917926,-0.0006493701022855365,0.9602448668497787,-0.2791583314306069,0.0032249265297539945,0.27915894955714876,0.9602394913411063,left_images/camera_left_30.png,right_images/camera_right_30.png
2025-05-27 15:35:04,1.7344937324523926,31,-0.100539096,-2.3992037e-05,0.113050885,0.0007802392,6.809863e-05,0.016079567,0.8871891,0.032400295,1.1689244e-06,0.005917873,0.8206447045387394,0.0006073139550536028,0.5714384482009286,-0.0007793767041377243,0.9999996946906627,5.6484815745454025e-05,-0.5714382394314178,-0.0004917197793047686,0.8206449273145972,0.09339869,9.738486e-05,0.11704361,0.0017227135,0.00010149986,-0.040380303,0.88718945,-0.030950835,-1.3173006e-05,0.0020558545,0.8382014868921679,0.0015199804575682188,-0.5453585582267573,-0.0017292325621737258,0.9999984965127281,0.00012933301666689923,0.5453579348707642,0.0008346446500713801,0.8382028550666021,0.00016113868,-0.013881751,0.10612648,-0.0002736529,-0.007237722,0.0031188955,0.523589,4.6640453e-05,-0.020222137,0.005223345,0.9999945890690347,-0.0002767142923216369,-0.0032779966217917926,-0.0006493701022855365,0.9602448668497787,-0.2791583314306069,0.0032249265297539945,0.27915894955714876,0.9602394913411063,left_images/camera_left_31.png,right_images/camera_right_31.png
2025-05-27 15:35:04,1.796217441558838,32,-0.100539096,-2.3990728e-05,0.113050885,0.0007802153,6.808955e-05,0.016079567,0.86052436,0.032400295,1.1689244e-06,0.005917873,0.8206447045387394,0.0006073139550536028,0.5714384482009286,-0.0007793767041377243,0.9999996946906627,5.6484815745454025e-05,-0.5714382394314178,-0.0004917197793047686,0.8206449273145972,0.09339869,9.738486e-05,0.11704361,0.0017227135,0.00010149825,-0.040380303,0.8605247,-0.030950835,-1.3173006e-05,0.0020558545,0.8382014868921679,0.0015199804575682188,-0.5453585582267573,-0.0017292325621737258,0.9999984965127281,0.00012933301666689923,0.5453579348707642,0.0008346446500713801,0.8382028550666021,0.00016113868,-0.013881751,0.10612648,-0.0002736529,-0.007237722,0.0031188955,0.523589,4.6640453e-05,-0.020222137,0.005223345,0.9999945890690347,-0.0002767142923216369,-0.0032779966217917926,-0.0006493701022855365,0.9602448668497787,-0.2791583314306069,0.0032249265297539945,0.27915894955714876,0.9602394913411063,left_images/camera_left_32.png,right_images/camera_right_32.png
2025-05-27 15:35:04,1.8600828647613525,33,-0.100539096,-2.3989418e-05,0.113050885,0.00078019145,6.808047e-05,0.016079567,0.8338596,0.032400295,1.1689244e-06,0.005917873,0.8206447045387394,0.0006073139550536028,0.5714384482009286,-0.0007793767041377243,0.9999996946906627,5.6484815745454025e-05,-0.5714382394314178,-0.0004917197793047686,0.8206449273145972,0.09339869,9.738486e-05,0.11704361,0.0017227135,0.000101496626,-0.040380303,0.83386,-0.030950835,-1.3173006e-05,0.0020558545,0.8382014868921679,0.0015199804575682188,-0.5453585582267573,-0.0017292325621737258,0.9999984965127281,0.00012933301666689923,0.5453579348707642,0.0008346446500713801,0.8382028550666021,0.00016113868,-0.013881751,0.10612648,-0.0002736529,-0.007237722,0.0031188955,0.523589,4.6640453e-05,-0.020222137,0.005223345,0.9999945890690347,-0.0002767142923216369,-0.0032779966217917926,-0.0006493701022855365,0.9602448668497787,-0.2791583314306069,0.0032249265297539945,0.27915894955714876,0.9602394913411063,left_images/camera_left_33.png,right_images/camera_right_33.png
2025-05-27 15:35:04,1.927259922027588,34,-0.100539096,-2.3988108e-05,0.113050885,0.0007801676,6.807139e-05,0.016079567,0.8071949,0.032400295,1.1689244e-06,0.005917873,0.8206447045387394,0.0006073139550536028,0.5714384482009286,-0.0007793767041377243,0.9999996946906627,5.6484815745454025e-05,-0.5714382394314178,-0.0004917197793047686,0.8206449273145972,0.09339869,9.738486e-05,0.11704361,0.0017227135,0.000101495025,-0.040380303,0.80719525,-0.030950835,-1.3173006e-05,0.0020558545,0.8382014868921679,0.0015199804575682188,-0.5453585582267573,-0.0017292325621737258,0.9999984965127281,0.00012933301666689923,0.5453579348707642,0.0008346446500713801,0.8382028550666021,0.00016113868,-0.013881751,0.10612648,-0.0002736529,-0.007237722,0.0031188955,0.523589,4.6640453e-05,-0.020222137,0.005223345,0.9999945890690347,-0.0002767142923216369,-0.0032779966217917926,-0.0006493701022855365,0.9602448668497787,-0.2791583314306069,0.0032249265297539945,0.27915894955714876,0.9602394913411063,left_images/camera_left_34.png,right_images/camera_right_34.png
2025-05-27 15:35:04,1.99452543258667,35,-0.100539096,-2.3986799e-05,0.113050885,0.0007801437,6.806233e-05,0.016079567,0.78053015,0.032400295,1.1689244e-06,0.005917873,0.8206447045387394,0.0006073139550536028,0.5714384482009286,-0.0007793767041377243,0.9999996946906627,5.6484815745454025e-05,-0.5714382394314178,-0.0004917197793047686,0.8206449273145972,0.09339869,9.738486e-05,0.11704361,0.0017227135,0.00010149342,-0.040380303,0.7805305,-0.030950835,-1.3173006e-05,0.0020558545,0.8382014868921679,0.0015199804575682188,-0.5453585582267573,-0.0017292325621737258,0.9999984965127281,0.00012933301666689923,0.5453579348707642,0.0008346446500713801,0.8382028550666021,0.00016113868,-0.013881751,0.10612648,-0.0002736529,-0.007237722,0.0031188955,0.523589,4.6640453e-05,-0.020222137,0.005223345,0.9999945890690347,-0.0002767142923216369,-0.0032779966217917926,-0.0006493701022855365,0.9602448668497787,-0.2791583314306069,0.0032249265297539945,0.27915894955714876,0.9602394913411063,left_images/camera_left_35.png,right_images/camera_right_35.png
2025-05-27 15:35:05,2.0476529598236084,36,-0.100539096,-2.3985489e-05,0.113050885,0.00078011985,6.805326e-05,0.016079567,0.7538654,0.032400295,1.1689244e-06,0.005917873,0.8206447045387394,0.0006073139550536028,0.5714384482009286,-0.0007793767041377243,0.9999996946906627,5.6484815745454025e-05,-0.5714382394314178,-0.0004917197793047686,0.8206449273145972,0.09339869,9.738486e-05,0.11704361,0.0017227135,0.0001014918,-0.040380303,0.7538658,-0.030950835,-1.3173006e-05,0.0020558545,0.8382014868921679,0.0015199804575682188,-0.5453585582267573,-0.0017292325621737258,0.9999984965127281,0.00012933301666689923,0.5453579348707642,0.0008346446500713801,0.8382028550666021,0.00016113868,-0.013881751,0.10612648,-0.0002736529,-0.007237722,0.0031188955,0.523589,4.6640453e-05,-0.020222137,0.005223345,0.9999945890690347,-0.0002767142923216369,-0.0032779966217917926,-0.0006493701022855365,0.9602448668497787,-0.2791583314306069,0.0032249265297539945,0.27915894955714876,0.9602394913411063,left_images/camera_left_36.png,right_images/camera_right_36.png
2025-05-27 15:35:05,2.1114492416381836,37,-0.100539096,-2.398418e-05,0.113050885,0.000780096,6.8044195e-05,0.016079567,0.7272007,0.03240031,1.1751667e-06,0.0059179026,0.8206447047444707,0.0006070171685626681,0.5714384482208187,-0.0007790799176662326,0.9999996949166612,5.657796694354559e-05,-0.5714382395406717,-0.0004916266281686237,0.82064492729433,0.09339869,9.738486e-05,0.11704361,0.0017227274,0.000101524856,-0.040380303,0.72720104,-0.030950835,-1.3173006e-05,0.0020558545,0.8382014868921679,0.0015199804575682188,-0.5453585582267573,-0.0017292325621737258,0.9999984965127281,0.00012933301666689923,0.5453579348707642,0.0008346446500713801,0.8382028550666021,0.00016113868,-0.013881751,0.10612648,-0.0002736529,-0.007237722,0.0031188955,0.523589,4.6640453e-05,-0.020222137,0.005223345,0.9999945890690347,-0.0002767142923216369,-0.0032779966217917926,-0.0006493701022855365,0.9602448668497787,-0.2791583314306069,0.0032249265297539945,0.27915894955714876,0.9602394913411063,left_images/camera_left_37.png,right_images/camera_right_37.png
2025-05-27 15:35:05,2.1839358806610107,38,-0.10143401,-0.0017256512,0.11305287,0.053365514,0.011442176,0.029860003,0.7005355,0.03241179,-2.5336907e-05,0.005911612,0.8267461071502372,0.037558239487306536,0.561320098480842,-0.05302662344288821,0.9985292901761054,0.011288660976783528,-0.5600705772651997,-0.03909776601056311,0.8275217901510562,0.09775297,-0.0038355167,0.11707258,-0.11494358,0.022324737,-0.11013716,0.7005329,-0.031020788,-6.46228e-05,0.0020311652,0.8666844999932024,-0.08243692852113398,-0.49199809988203624,0.11197854620500909,0.9932320824038653,0.030835623449088523,0.48612630319840267,-0.08181798885136923,0.8700500181248041,0.00016113868,-0.013881751,0.10612648,-0.0002736529,-0.007237722,0.0031188955,0.523589,4.6640453e-05,-0.020222137,0.005223345,0.9999945890690347,-0.0002767142923216369,-0.0032779966217917926,-0.0006493701022855365,0.9602448668497787,-0.2791583314306069,0.0032249265297539945,0.27915894955714876,0.9602394913411063,left_images/camera_left_38.png,right_images/camera_right_38.png
2025-05-27 15:35:05,2.238658905029297,39,-0.096684486,-0.005335912,0.11327661,0.14780588,0.024912095,0.020860279,0.6738704,0.032615036,0.00013741698,0.0054934993,0.8162828523774426,0.10836471591319849,0.567397033178354,-0.14683133820854352,0.9889085431095422,0.022370773005216643,-0.5586795709836136,-0.10157254407572161,0.8231404225620018,0.10374827,-0.0035603112,0.11762242,-0.23161893,-0.0019650615,-0.20810004,0.6738671,-0.030930612,2.157886e-05,0.0015806844,0.8916180635970511,-0.18900439235805136,-0.4114542117135379,0.22572970664895717,0.9732811171597068,0.042070969997481895,0.39250901671633076,-0.13038867531237927,0.9104589310598596,0.00016113868,-0.013881751,0.10612648,-0.0002736529,-0.007237722,0.0031188955,0.523589,4.6640453e-05,-0.020222137,0.005223345,0.9999945890690347,-0.0002767142923216369,-0.0032779966217917926,-0.0006493701022855365,0.9602448668497787,-0.2791583314306069,0.0032249265297539945,0.27915894955714876,0.9602394913411063,left_images/camera_left_39.png,right_images/camera_right_39.png
2025-05-27 15:35:05,2.2967541217803955,40,-0.08909471,-0.010600688,0.11367486,0.20873675,0.043863293,-0.00062698295,0.64720494,0.03286729,0.00044616408,0.0048373267,0.7986029057975881,0.15008141149862247,0.5828455788407677,-0.2072328443988301,0.9777624186075373,0.03217453901936897,-0.5650557026117148,-0.1464794275020208,0.811945706475908,0.10893077,-0.0038567516,0.118501395,-0.34828904,-0.03225381,-0.28684306,0.6472002,-0.030653045,0.00011434464,0.0009143343,0.8909694201943568,-0.2962910538783935,-0.34407136421120915,0.3370094824845439,0.9393378837853213,0.06378831241860869,0.304299360817652,-0.1727887481213549,0.9367742244151593,0.00016113868,-0.013881751,0.10612648,-0.0002736529,-0.007237722,0.0031188955,0.523589,4.6640453e-05,-0.020222137,0.005223345,0.9999945890690347,-0.0002767142923216369,-0.0032779966217917926,-0.0006493701022855365,0.9602448668497787,-0.2791583314306069,0.0032249265297539945,0.27915894955714876,0.9602394913411063,left_images/camera_left_40.png,right_images/camera_right_40.png
2025-05-27 15:35:05,2.3541476726531982,41,-0.08052985,-0.017208261,0.11413538,0.19932832,0.06795022,-0.039524596,0.6205375,0.033083215,0.00085984473,0.004159606,0.7811667516278125,0.13355091562275356,0.6098710184027238,-0.19977778276959024,0.9789613743444929,0.0415146366141838,-0.5914958526168361,-0.15426853366083915,0.7914125825757489,0.11441725,-0.0021606958,0.118787736,-0.46491688,-0.08380798,-0.33503962,0.6203613,-0.03064254,0.00022832502,0.0007833475,0.862708707207611,-0.4098492345749187,-0.2962385718074633,0.4487286935279761,0.8905387013374686,0.07472202503178293,0.2331871482583207,-0.19739408891486077,0.9521866033234367,0.00016113868,-0.013881751,0.10612648,-0.0002736529,-0.007237722,0.0031188955,0.523589,4.6640453e-05,-0.020222137,0.005223345,0.9999945890690347,-0.0002767142923216369,-0.0032779966217917926,-0.0006493701022855365,0.9602448668497787,-0.2791583314306069,0.0032249265297539945,0.27915894955714876,0.9602394913411063,left_images/camera_left_41.png,right_images/camera_right_41.png
2025-05-27 15:35:05,2.410799741744995,42,-0.07255202,-0.024839496,0.11459959,0.19762853,0.09804672,-0.08544267,0.59387016,0.033195876,0.0013059515,0.003597892,0.7564426343104296,0.12032432558872827,0.6428970350445828,-0.2016469717033144,0.9779559884701685,0.0542271465063251,-0.6222001605595908,-0.17065796578816186,0.764030640035245,0.119284034,0.001148819,0.11902876,-0.58154315,-0.13433489,-0.3219403,0.59352815,-0.030349612,0.00024992367,0.0007524742,0.8041315096622865,-0.5153713627703208,-0.2962513689496035,0.5561414964375203,0.8282414696938313,0.06872193114019476,0.20995035391369882,-0.22001914988396898,0.952634464301942,0.00016113868,-0.013881751,0.10612648,-0.0002736529,-0.007237722,0.0031188955,0.523589,4.6640453e-05,-0.020222137,0.005223345,0.9999945890690347,-0.0002767142923216369,-0.0032779966217917926,-0.0006493701022855365,0.9602448668497787,-0.2791583314306069,0.0032249265297539945,0.27915894955714876,0.9602394913411063,left_images/camera_left_42.png,right_images/camera_right_42.png
2025-05-27 15:35:05,2.47479510307312,43,-0.06549883,-0.0337133,0.11501134,0.19520824,0.13741104,-0.13226433,0.5672027,0.033254944,0.001739719,0.0032031233,0.7290094378212192,0.10185218552217087,0.6768835733506521,-0.2054755262862414,0.975825227783027,0.07446430634603302,-0.6529357148027534,-0.19336819057580545,0.7323139321414396,0.12387196,0.004705557,0.11922288,-0.6982199,-0.1763317,-0.27268085,0.56687015,-0.029908443,0.00024465122,0.00079704076,0.7259032835426182,-0.6084155234341102,-0.320772464196108,0.6540355345566637,0.7549275313347178,0.04818653307769927,0.21284252977077847,-0.24477535267519662,0.9459297459343949,0.00016113868,-0.013881751,0.10612648,-0.0002736529,-0.007237722,0.0031188955,0.523589,4.6640453e-05,-0.020222137,0.005223345,0.9999945890690347,-0.0002767142923216369,-0.0032779966217917926,-0.0006493701022855365,0.9602448668497787,-0.2791583314306069,0.0032249265297539945,0.27915894955714876,0.9602394913411063,left_images/camera_left_43.png,right_images/camera_right_43.png
2025-05-27 15:35:05,2.535443067550659,44,-0.059649445,-0.043107837,0.1153963,0.2268577,0.19152309,-0.17249936,0.54053557,0.033183023,0.0020477073,0.003020972,0.6962223984082073,0.10221629230792821,0.7105112254859479,-0.2459176104213115,0.9638765691904619,0.10230585638318394,-0.6743877970718298,-0.2459548514513279,0.6962092431217498,0.12733698,0.0053674323,0.11942374,-0.81484765,-0.19424866,-0.23415695,0.5401962,-0.029484969,0.0001795596,0.00081288815,0.6451972799278707,-0.6826645276740442,-0.3430591969751737,0.7372550187530478,0.6741045100052767,0.04514584049487917,0.20043828800186875,-0.2820500881866907,0.9382282453948825,0.0001611386,-0.013881751,0.10612648,-0.0002736463,-0.007237722,0.0031188952,0.49692392,4.6640453e-05,-0.020222137,0.005223345,0.9999945890690347,-0.0002767142923216369,-0.0032779966217917926,-0.0006493701022855365,0.9602448668497787,-0.2791583314306069,0.0032249265297539945,0.27915894955714876,0.9602394913411063,left_images/camera_left_44.png,right_images/camera_right_44.png
2025-05-27 15:35:05,2.6056556701660156,45,-0.05665642,-0.05090367,0.11573079,0.29320183,0.2486983,-0.19300352,0.5138685,0.032865487,0.0022189992,0.0031105923,0.6632572964789728,0.12532594061435343,0.7378232629000875,-0.3189644601408693,0.9391922580167996,0.12719896087763083,-0.6770165668832985,-0.31970503763693314,0.6629006389159082,0.1288269,0.0051969993,0.119577155,-0.9315069,-0.19565053,-0.21883336,0.51356083,-0.029238548,-0.00014515061,0.00076956954,0.5676698958547017,-0.7416396303195897,-0.357381516141692,0.8074426128073166,0.5862455473864372,0.065974125173969,0.16058429675160035,-0.3260165899291,0.9316253896968432,0.0001611386,-0.013881751,0.10612648,-0.0002736463,-0.007237722,0.0031188952,0.4702556,4.6640453e-05,-0.020222137,0.005223345,0.9999945890690347,-0.0002767142923216369,-0.0032779966217917926,-0.0006493701022855365,0.9602448668497787,-0.2791583314306069,0.0032249265297539945,0.27915894955714876,0.9602394913411063,left_images/camera_left_45.png,right_images/camera_right_45.png
2025-05-27 15:35:05,2.6898279190063477,46,-0.057289507,-0.05599248,0.115841284,0.33408403,0.2917982,-0.21433982,0.4872015,0.032385923,0.0022969681,0.0035730824,0.6315444800001687,0.13262590660690077,0.7639122584943995,-0.36621355277987205,0.9194576557872077,0.14312670252135512,-0.6834026657408211,-0.3701459011133181,0.6292478115554708,0.12890966,0.0038243777,0.11970246,-1.031172,-0.18934108,-0.21958944,0.48689935,-0.029091574,-0.00044683515,0.00070030615,0.5023758486083796,-0.7825083988426434,-0.3678302767251944,0.8575416422744805,0.5053475326653041,0.09615717858941397,0.1106383229274446,-0.3637368237748441,0.9249079330019775,-0.002189864,-0.013072788,0.106128655,-0.007520927,-0.012564675,0.03589893,0.4435892,9.361343e-05,-0.020211596,0.0052304994,0.9994072351773633,-0.007464323754931951,-0.033607471580293674,-0.0023743243141660887,0.9589424156906339,-0.2835909130657447,0.03434444437154062,0.28350260538537064,0.958356265634298,left_images/camera_left_46.png,right_images/camera_right_46.png
2025-05-27 15:35:05,2.760986566543579,47,-0.06208515,-0.057204325,0.11556624,0.37689605,0.32845667,-0.23395726,0.46053496,0.031721182,0.0020554513,0.004631623,0.5960506975064608,0.14001014635543338,0.7906457644986102,-0.4142990142243279,0.8971086151003209,0.1534681058902289,-0.6878080348577005,-0.41903853239328065,0.5927282813860613,0.12568884,0.0007811068,0.11963281,-1.127411,-0.17174314,-0.20993516,0.4603061,-0.029140102,-0.0005122636,0.00066952314,0.43313505003857133,-0.8119600197305342,-0.39129906054995156,0.8985900119938665,0.42282233673376324,0.11729135477034444,0.07021409240990689,-0.40242042433031466,0.9127583378468052,-0.00420692,-0.014026159,0.106015325,-0.013284372,-0.014869496,0.061562,0.4169227,0.000110882305,-0.020100027,0.0053917645,0.9982804086756629,-0.013160725087706215,-0.05712285855519917,-0.0037891936533581173,0.9579457527094076,-0.2869243399878509,0.05849673209512495,0.28664739695516567,0.956248608967887,left_images/camera_left_47.png,right_images/camera_right_47.png
2025-05-27 15:35:05,2.8218114376068115,48,-0.07093615,-0.053253498,0.11483045,0.42458165,0.34797475,-0.24798338,0.4338679,0.030982755,0.0015062585,0.0062229936,0.5598265646909384,0.1555201150688522,0.8138843353175642,-0.4626475006008649,0.8735342363136674,0.1513116921314088,-0.687423819527746,-0.4612498583163669,0.5609786631851663,0.12206032,-0.0023572857,0.119519316,-1.2104543,-0.157157,-0.19946542,0.43374527,-0.029272564,-0.00043190375,0.00064657535,0.36929183198688464,-0.8327812387358386,-0.412430541106467,0.9286155916554477,0.3478794478156997,0.1290463975547048,0.036008690092443396,-0.43064521151064294,0.9018026813226829,-0.005717483,-0.018466864,0.10562596,-0.02196409,-0.029863449,0.08115766,0.39025614,0.0001222046,-0.019475535,0.005995878,0.9969702770803699,-0.021675960285752152,-0.07470220454565725,-0.0022291349350357873,0.9520302902141312,-0.30599568211371647,0.07775151172634602,0.30523512127618563,0.9490975835833638,left_images/camera_left_48.png,right_images/camera_right_48.png
2025-05-27 15:35:05,2.8856236934661865,49,-0.0820719,-0.045755975,0.113663055,0.4703505,0.34457836,-0.25801218,0.40720087,0.030397048,0.0008960975,0.008110364,0.5263429689176415,0.18032054375082024,0.8309317544614426,-0.5035059527299504,0.8535837649078709,0.13370307345461233,-0.6851604444482092,-0.488752757319192,0.5400702802195464,0.119811974,-0.0056920527,0.119465075,-1.3139702,-0.15565164,-0.19182374,0.46041614,-0.029409487,-0.00030343467,0.0005953517,0.2863526099224262,-0.858227536742742,-0.42596675688027563,0.9580245731939466,0.25005548067812394,0.14021830743304678,-0.013823890449901372,-0.44823849874739385,0.8938071091088453,-0.006870633,-0.02351595,0.105078645,-0.03854825,-0.05394204,0.098131165,0.36358964,0.0001320726,-0.018673446,0.0068358798,0.9953071111007699,-0.037949711259077534,-0.08901445954221347,0.005971115003148644,0.9422226150558026,-0.3349341569070315,0.09658209139306774,0.33283083254523976,0.9380274710952679,left_images/camera_left_49.png,right_images/camera_right_49.png
2025-05-27 15:35:05,2.9492132663726807,50,-0.0940546,-0.03677139,0.11222806,0.5102826,0.32787043,-0.26704335,0.38053367,0.030014183,0.00030445284,0.010124496,0.4960069879192226,0.20809184474205983,0.8430153332455743,-0.535710114994864,0.8374034203906733,0.10849047981362703,-0.6833679394202583,-0.5054238772256886,0.5268348542974945,0.11918314,-0.009218141,0.11949241,-1.4121317,-0.15673558,-0.18676428,0.4870635,-0.029370727,-0.00013182964,0.0005820347,0.20591944916270566,-0.8750228376336368,-0.43810068942665037,0.9764963509554584,0.15461782932834878,0.15016059211545515,-0.06365576978721088,-0.4587247109905548,0.8862954261979636,-0.007726117,-0.029565746,0.10448191,-0.06348672,-0.07026675,0.11831599,0.33692342,0.00018659723,-0.017915605,0.0077298395,0.9924263905926576,-0.06251602677942886,-0.10574311160044368,0.020582389601969002,0.9332703192215948,-0.3585845458163187,0.1211041885877731,0.3536923206061118,0.9274888235718858,left_images/camera_left_50.png,right_images/camera_right_50.png
2025-05-27 15:35:06,3.021127462387085,51,-0.10617524,-0.029666534,0.110718235,0.54495215,0.32023066,-0.26234877,0.353865,0.02976805,-0.00028532563,0.012178743,0.4782339117657965,0.22639485975475934,0.8485503480134855,-0.5629014874312773,0.8206586408308586,0.09829196649423322,-0.6741173793078177,-0.5246568046888087,0.5199047953316928,0.11565346,-0.011925637,0.1194577,-1.4550166,-0.14243819,-0.18615498,0.5137356,-0.029466568,4.3141423e-05,0.000514647,0.17250814984105672,-0.8745005096771322,-0.45330982430656813,0.9812941276767916,0.11265074168744954,0.15611420622195873,-0.08545626498660147,-0.4717612414894887,0.8775753858232557,-0.008367458,-0.036297865,0.10393242,-0.08627069,-0.07479471,0.13865395,0.3102572,0.0002719402,-0.0172835,0.008535998,0.9887502870657647,-0.08499243928385823,-0.1230819039987087,0.033398122942482,0.9275479614505434,-0.372208737931903,0.1457992977050525,0.3639107919168115,0.9199519010878735,left_images/camera_left_51.png,right_images/camera_right_51.png
2025-05-27 15:35:06,3.088249921798706,52,-0.1185783,-0.025746875,0.109281704,0.58522284,0.31830692,-0.2257352,0.32719517,0.029603133,-0.00073197205,0.014054812,0.48300235597475505,0.24484264195098737,0.8406906712967004,-0.5910911516901673,0.7995095499604032,0.10675078414562195,-0.6460030762437805,-0.5484856973564345,0.5308893154688632,0.11294659,-0.013975007,0.11940754,-1.4909105,-0.12606822,-0.18545417,0.5073813,-0.029461041,0.00017707516,0.00053713843,0.14508118388246155,-0.8705205840421165,-0.47026095185783356,0.9840287336734038,0.07740318261777518,0.16030033881984312,-0.10314505023693832,-0.48600685188545606,0.8678470133220529,-0.0088786855,-0.04255682,0.103508584,-0.10572569,-0.067352146,0.15856741,0.2835909,0.00038944808,-0.016872006,0.009133959,0.9844563787148869,-0.1043135476464826,-0.14129515980732063,0.04438102454043357,0.9261526007860962,-0.37452861668755244,0.1699292884358453,0.36243626175447063,0.9163863776252528,left_images/camera_left_52.png,right_images/camera_right_52.png
2025-05-27 15:35:06,3.1455957889556885,53,-0.13010953,-0.026584521,0.10792938,0.611259,0.31859225,-0.16457312,0.3005252,0.029644374,-0.0008963209,0.015649736,0.5133921063890681,0.2546956835065245,0.8194868235063574,-0.6038186777747507,0.7857669155059197,0.1340647562436313,-0.6097799188787273,-0.5636492378238942,0.557196542732271,0.111545466,-0.014245312,0.11938684,-1.517063,-0.11172925,-0.18379384,0.48069578,-0.029350245,0.00014859473,0.0006055115,0.12558686824887527,-0.8653076400251118,-0.4852531572670197,0.9853202065103339,0.05177921233140431,0.16267453338728902,-0.115637490312928,-0.49855952632008815,0.8591078916816075,-0.009675513,-0.05001279,0.103235245,-0.13288218,-0.042446308,0.17900416,0.25692466,0.00051601115,-0.016579129,0.0095281685,0.978080368658698,-0.13147631485389616,-0.16147065082207598,0.0648334898033401,0.9291908741682784,-0.3638693968477025,0.19787726257553143,0.34542480801880715,0.9173474210792684,left_images/camera_left_53.png,right_images/camera_right_53.png
2025-05-27 15:35:06,3.2057032585144043,54,-0.1395177,-0.029584372,0.10683925,0.626339,0.31990674,-0.11131294,0.2738592,0.029731596,-0.00085223466,0.01692779,0.5422742894612269,0.2589092657933068,0.7993150737198018,-0.6074701089326537,0.7780403359217806,0.1601040362766432,-0.5804469499813667,-0.5723803174158713,0.5791909102292914,0.10960207,-0.012991298,0.11928168,-1.5380882,-0.09941325,-0.18036976,0.4540202,-0.029380683,-2.5554793e-05,0.0006817328,0.10967079502596944,-0.8606009041925531,-0.49733127834606566,0.9860694361013365,0.03124881329497098,0.16337251560298796,-0.125057522385358,-0.508320366865834,0.8520393305031286,-0.010517284,-0.056854427,0.10307067,-0.16450973,-0.013258976,0.1945383,0.23025753,0.00062447495,-0.016378501,0.009782022,0.9703808548862184,-0.16301670966714804,-0.1782878258311233,0.09227096561393283,0.9321557816019252,-0.3501023675023871,0.22326456363463643,0.3232818448280089,0.919587833450201,left_images/camera_left_54.png,right_images/camera_right_54.png
2025-05-27 15:35:06,3.2681174278259277,55,-0.14730193,-0.031447638,0.105942674,0.65707654,0.31819928,-0.06464238,0.24719429,0.029792594,-0.00079488277,0.017995873,0.5587472571064095,0.27458261686415614,0.7825636646255028,-0.6232921144579731,0.7614992844822732,0.17783638488086573,-0.5470908907398966,-0.587131353488313,0.5966308163516268,0.10809969,-0.010520374,0.119114086,-1.5624759,-0.0897052,-0.17671144,0.42734295,-0.029441582,-0.0003410537,0.00082038064,0.0911985342219152,-0.8565999035563087,-0.5078576893019311,0.9863115572905125,0.0073446124801052615,0.1647287729046787,-0.13737663306013254,-0.5159289310504304,0.8455442027441392,-0.0117262555,-0.06269957,0.10299467,-0.21397154,0.024067901,0.20526531,0.20359075,0.00070946536,-0.016353443,0.0098934155,0.9581148791154753,-0.21182963695568746,-0.1927280034783721,0.13951428653903314,0.9329574081341989,-0.3318527361029621,0.25010326321150295,0.29106473423405194,0.9234336349820804,left_images/camera_left_55.png,right_images/camera_right_55.png
2025-05-27 15:35:06,3.32668137550354,56,-0.15440303,-0.031107822,0.10517072,0.68997395,0.30623397,-0.02976482,0.2205298,0.029837051,-0.0007678708,0.018882273,0.5655269955875586,0.2978986237407939,0.769048520728732,-0.6419610449213532,0.7444008573091934,0.1837209308729487,-0.5177501656834059,-0.5975983380253658,0.612218092124144,0.1066093,-0.007730184,0.11803155,-1.5937834,-0.082142934,-0.17378314,0.40067583,-0.030066673,-0.00070977357,0.0016881805,0.06734878254649562,-0.8531120220302197,-0.5173625608381559,0.9856540382158845,-0.023541349268186462,0.16712845904678408,-0.15475871037917113,-0.5211963955575124,0.8392878283518906,-0.014155633,-0.06817764,0.10297729,-0.29359868,0.07033452,0.20727104,0.17692423,0.00071076385,-0.01643429,0.009923051,0.9356275773702104,-0.28872579272768434,-0.203072531569687,0.21792894009549518,0.9250415304777203,-0.3111352502695433,0.27768329718080875,0.246851338876676,0.9284160721150768,left_images/camera_left_56.png,right_images/camera_right_56.png
2025-05-27 15:35:06,3.385549783706665,57,-0.16178894,-0.029188633,0.10447366,0.7191456,0.28275326,-0.0033132446,0.19386436,0.029867126,-0.00073117693,0.019634772,0.5676968383867785,0.3264318844897819,0.7557529520115059,-0.6590599660569688,0.7303277974807527,0.17961422373492528,-0.4933155793471792,-0.6000529418437697,0.6297429683275508,0.10601246,-0.0047821174,0.11684608,-1.6300906,-0.07375554,-0.17352004,0.37400883,-0.030645637,-0.0011115256,0.002721883,0.041210924765316403,-0.8477606856086553,-0.5287754529252755,0.9833103009632456,-0.05945004905719781,0.17194924741524262,-0.17720753849528803,-0.5270365372566114,0.8311618234116636,-0.0175384,-0.07332426,0.10299645,-0.39750934,0.1230091,0.19844277,0.150258,0.0007088346,-0.016579308,0.009919326,0.8983695947411158,-0.3851093172796881,-0.21124129565275798,0.319197116371586,0.9027639588883525,-0.2883234909477428,0.3017370910987703,0.19159344528610944,0.9339414754569212,left_images/camera_left_57.png,right_images/camera_right_57.png
2025-05-27 15:35:06,3.44061017036438,58,-0.16917902,-0.027380018,0.10386743,0.7441611,0.25658515,0.025152022,0.16719693,0.0299064,-0.00068844564,0.020266403,0.572896507429296,0.35444464697804673,0.7390254285232156,-0.6728594255159934,0.7182534044187048,0.17712210628611014,-0.46802754755420345,-0.5987328613576747,0.6499762883835452,0.106586345,-0.001951589,0.11568384,-1.6664487,-0.06493429,-0.17401515,0.34734207,-0.03109112,-0.0014854674,0.003825958,0.015696516595472054,-0.8405531691957299,-0.541501605834907,0.9796576170188088,-0.09543172977787684,0.17653254195368992,-0.20006142252767542,-0.5332571187585002,0.8219563689817032,-0.021857584,-0.077392325,0.10302933,-0.51099795,0.17532691,0.1795704,0.12359159,0.000705014,-0.016773101,0.009912541,0.8474855619824899,-0.48378492898131925,-0.21844991353114235,0.42566051027628776,0.8652557030720146,-0.26485033187195456,0.31714563251376165,0.13147133068427536,0.9392198555107065,left_images/camera_left_58.png,right_images/camera_right_58.png
2025-05-27 15:35:06,3.494143486022949,59,-0.17577474,-0.026132246,0.10339352,0.7635846,0.23220782,0.055305343,0.14052957,0.029961435,-0.00064927444,0.020742241,0.5817407907728305,0.3785914223835257,0.7198931776650066,-0.6824418302815441,0.7087472956443669,0.17874680192599943,-0.44255033683523265,-0.5952695236734493,0.6706738354465654,0.108892426,0.0006011975,0.11449414,-1.6965276,-0.05354898,-0.17429268,0.32067537,-0.031360205,-0.00179325,0.005091256,-0.004280242226323783,-0.830620539128025,-0.556822412897643,0.9758070063140247,-0.12518834026322817,0.1792444305706572,-0.218591779248317,-0.5425840021976389,0.8110611780896975,-0.026662806,-0.07972621,0.10306441,-0.62577593,0.22144036,0.1527777,0.09692515,0.00069537666,-0.01700211,0.009905608,0.7864451166334778,-0.5753786220541575,-0.22459634860436717,0.5266802007674702,0.8146541884803602,-0.2427890428148334,0.32266398101258953,0.07264980711925326,0.9437213364561822,left_images/camera_left_59.png,right_images/camera_right_59.png
2025-05-27 15:35:06,3.5438361167907715,60,-0.18098758,-0.025224462,0.103053465,0.7781395,0.21000989,0.08406627,0.11386263,0.030047912,-0.00061548373,0.021041963,0.5919407020141267,0.39933061821559845,0.7001008946248897,-0.6888617893184887,0.7016091938124406,0.18224701472119503,-0.41842041120857515,-0.5901521808088193,0.6903946429185569,0.112536326,0.0028023773,0.11330409,-1.7222022,-0.03837004,-0.17753883,0.2940085,-0.03146045,-0.002054257,0.006488429,-0.01829695512026558,-0.8175401582208437,-0.5755808467362034,0.9715009209748062,-0.15060879784282127,0.1830381123084579,-0.236328546685394,-0.5558282825734744,0.7969966990602857,-0.031383447,-0.08085234,0.103101626,-0.7297668,0.2562415,0.12712936,0.070258185,0.00067538256,-0.017146047,0.009919562,0.7231108173288419,-0.6507096703713687,-0.23170600067153915,0.610074594018147,0.7589730439355166,-0.22752781876695827,0.3239131605779668,0.02316988270236607,0.9458030561062652,left_images/camera_left_60.png,right_images/camera_right_60.png
2025-05-27 15:35:06,3.59635329246521,61,-0.18451805,-0.024850687,0.10282486,0.78882223,0.19292839,0.112295285,0.087195754,0.030176757,-0.000602111,0.021194674,0.6037572648653424,0.4153416691268218,0.6804178591198693,-0.6924340059730464,0.6961583283396674,0.18946959981864855,-0.3949839395398751,-0.5855381112876133,0.7079073440326035,0.11749186,0.0048098923,0.11218686,-1.7479829,-0.020445896,-0.17983559,0.26734182,-0.03136858,-0.00225564,0.007944836,-0.03208370729680127,-0.8013515088502865,-0.597332733900849,0.9669531258621138,-0.17612381396100335,0.1843422212660923,-0.25292743645476706,-0.5716783723556447,0.780520051292227,-0.035912685,-0.08114433,0.10313633,-0.8163048,0.2813726,0.10761965,0.0435906,0.0006218103,-0.017215956,0.009946996,0.6646598538910509,-0.7075378279111172,-0.24003645702339751,0.6729155172682547,0.7064980149397391,-0.21919229344528876,0.3246721195993342,-0.01583593890574872,0.9456940508398312,left_images/camera_left_61.png,right_images/camera_right_61.png
2025-05-27 15:35:06,3.6461679935455322,62,-0.18648279,-0.024961911,0.102678515,0.79326814,0.18020575,0.1381054,0.060529202,0.030350965,-0.0005909249,0.0212238,0.6172233029523863,0.42596741301073465,0.6615037092454501,-0.6917208459653148,0.6944185705262892,0.19825518950396834,-0.37491020998310515,-0.579943628261547,0.7232618630131529,0.12358545,0.006961192,0.111192025,-1.7688102,-0.00039540493,-0.17757928,0.24067509,-0.031095725,-0.0024047783,0.009391085,-0.043920013113386724,-0.7831420184626678,-0.6202899413712417,0.9637739350367949,-0.1967146272527857,0.18011984223979782,-0.26307952142234864,-0.5899084118259513,0.7634115738349609,-0.03926659,-0.08097729,0.1031595,-0.8801794,0.2965703,0.095624335,0.016923124,0.00057592615,-0.017217785,0.009980574,0.6181876298259905,-0.746133046349921,-0.2472438704492201,0.7149978281225329,0.6644485192091708,-0.21745406664581107,0.3265304887911461,-0.042351416332004385,0.9442373628619491,left_images/camera_left_62.png,right_images/camera_right_62.png
2025-05-27 15:35:06,3.6986937522888184,63,-0.1867279,-0.025514226,0.10257476,0.79569113,0.17346923,0.1601535,0.033862874,0.030574022,-0.00058839633,0.021178108,0.6295746353001827,0.43229244936470923,0.6455687545172106,-0.6897281022277787,0.6934677892357711,0.20827282657543014,-0.35764636665833627,-0.576390200744871,0.7347539812082534,0.13021368,0.0082991915,0.11040685,-1.782516,0.020080008,-0.17274185,0.21400863,-0.030673034,-0.002424343,0.010701511,-0.05220671030082752,-0.7646179672653449,-0.6423658019653421,0.9623862624231564,-0.21025845905545798,0.17205831074031758,-0.26662171948052704,-0.6092214248782095,0.7468347301582934,-0.041497197,-0.08071744,0.10313059,-0.92386985,0.30225277,0.09335671,0.0013096405,0.0005264329,-0.017137812,0.010062137,0.5838662238984001,-0.7714960194032188,-0.2527728716369927,0.7404210622428369,0.633730289234425,-0.223970022757603,0.3329818060762666,-0.05638982666971401,0.9412456131479962,left_images/camera_left_63.png,right_images/camera_right_63.png
2025-05-27 15:35:06,3.7510786056518555,64,-0.18541962,-0.026113356,0.10248027,0.796639,0.1701517,0.17607494,0.007495883,0.030856425,-0.0005868862,0.021074021,0.6392013107291001,0.4362435615960095,0.6333350135025135,-0.6874938183659899,0.6932040602631135,0.21638017594799422,-0.344635944252412,-0.57372439881947,0.7430116958221358,0.13642287,0.00799449,0.10991268,-1.7923918,0.035346027,-0.17134401,0.18734215,-0.030201336,-0.0023052306,0.011701287,-0.05719338268223445,-0.7494672417225283,-0.6595663503865163,0.9611939203029187,-0.21992425720119058,0.16655199988955638,-0.2698799076442514,-0.6244454937617293,0.732961568413106,-0.042903066,-0.08050152,0.10307674,-0.9545872,0.30364475,0.093086086,8.4221465e-05,0.00047785148,-0.017051473,0.010153581,0.5589040089905719,-0.7889060488879557,-0.25544775348838195,0.7569338644751163,0.6111667491647437,-0.23135757935750756,0.3386405668921441,-0.06405037660618246,0.9387332505624658,left_images/camera_left_64.png,right_images/camera_right_64.png
2025-05-27 15:35:06,3.8078694343566895,65,-0.18309322,-0.026432045,0.10238257,0.7960802,0.16744027,0.18745911,0.0004812116,0.031194713,-0.00059498777,0.020922061,0.6470824993324911,0.43942265025953403,0.6230505384770195,-0.6849928552306124,0.6938938515590608,0.222027275467555,-0.3347671240439092,-0.5704551316338731,0.7500079435925666,0.14188278,0.006430172,0.10968921,-1.7999055,0.047106124,-0.17128985,0.16067566,-0.02968873,-0.0020709243,0.012398936,-0.0608888361516457,-0.7369150275843035,-0.6732375448179664,0.9603253905340987,-0.22715603231917836,0.16178776615226237,-0.2721538056460516,-0.6366760393649455,0.7215094780880829,-0.0435355,-0.080082335,0.10297246,-0.9730641,0.29992604,0.09352191,5.549702e-06,0.00040834362,-0.016996639,0.010263607,0.5437838235725732,-0.7999096431267602,-0.2538576688887137,0.7661817426248011,0.596625724399279,-0.23875360155075914,0.34243932380673753,-0.06467076478482998,0.93731158196884,left_images/camera_left_65.png,right_images/camera_right_65.png
2025-05-27 15:35:06,3.857762336730957,66,-0.17957559,-0.026323665,0.10227098,0.7958144,0.1638079,0.19606318,3.100939e-05,0.031627566,-0.0006182983,0.020701092,0.6534456963540771,0.4438911745903233,0.6131633934255688,-0.6833411242781843,0.694389296580371,0.22554026838869676,-0.32565876279713846,-0.566378080362792,0.7570747917464934,0.14681208,0.00410751,0.109600045,-1.8043705,0.055270523,-0.1685881,0.13400908,-0.029198453,-0.0017457551,0.012905706,-0.06512716184895145,-0.7272639901098705,-0.683260961477363,0.9605021048336959,-0.2313273059216675,0.15467185957718033,-0.27054419121382034,-0.6462002524175408,0.7136042841631252,-0.043593455,-0.07966878,0.10286837,-0.9808659,0.29306814,0.092068434,4.6247604e-07,0.00031634886,-0.016971834,0.010347736,0.5381158324387091,-0.8054949710932463,-0.2482120110354961,0.7701709748761557,0.5895419143433711,-0.2434686852362434,0.3424441857253629,-0.060151332286520004,0.9376106851391197,left_images/camera_left_66.png,right_images/camera_right_66.png
2025-05-27 15:35:06,3.9112977981567383,67,-0.17550313,-0.025647324,0.10216348,0.7939145,0.15891534,0.20291354,2.097187e-06,0.03210708,-0.00067469315,0.02043128,0.6597918316046988,0.44845454689318565,0.6029620703813334,-0.6809962685500063,0.6960556129419568,0.2274877269501901,-0.3176772279668222,-0.5607094640389299,0.7646476808102484,0.15120819,0.0009216051,0.10946897,-1.8072302,0.06047506,-0.16676494,0.10734223,-0.028824698,-0.0013457362,0.013375791,-0.06862492234132223,-0.7199629204088315,-0.6906113330014458,0.9608891891069306,-0.2338644483073135,0.14832190018787306,-0.26829570680700976,-0.6534223848739056,0.7078535163821853,-0.043263413,-0.07937632,0.1027829,-0.97958523,0.28453055,0.08922648,1.7725203e-07,0.00021110312,-0.016963314,0.010398766,0.5404534051915866,-0.8064062651788727,-0.2400396890038818,0.7698394064966049,0.5890687635495404,-0.24565276309288844,0.3394958100209395,-0.05202813941010434,0.9391675397327939,left_images/camera_left_67.png,right_images/camera_right_67.png
2025-05-27 15:35:06,3.9631199836730957,68,-0.17103651,-0.024420751,0.10207549,0.7923293,0.15278375,0.2086751,3.807922e-07,0.032610238,-0.0007651099,0.020114735,0.6654457597287271,0.45398978053400596,0.5925160082476608,-0.6792048367217361,0.6975183684498578,0.22836137030778203,-0.30961707096485613,-0.5544018441940226,0.7725126953787942,0.15490161,-0.0021671054,0.10923041,-1.8083519,0.062457178,-0.16551204,0.080675334,-0.02862674,-0.0009785626,0.01384375,-0.07097074234243134,-0.7155513477000442,-0.6949456255967186,0.9614080826697001,-0.2347327227653127,0.14350974684861595,-0.26581507163578066,-0.6579413481974158,0.7045960048307338,-0.042106796,-0.07913645,0.10270731,-0.9703563,0.27255988,0.08616685,2.9152443e-07,0.00012286683,-0.01694489,0.0104290135,0.549570117061123,-0.8034096345399562,-0.22914110404246088,0.7652930688969604,0.5941313245731796,-0.24765800584514044,0.3351107356258466,-0.03925465945965448,0.9413606463938307,left_images/camera_left_68.png,right_images/camera_right_68.png
2025-05-27 15:35:07,4.0217812061309814,69,-0.16664001,-0.023002151,0.101992704,0.79003596,0.14386553,0.2151896,3.5797427e-07,0.033136215,-0.00084415823,0.019771684,0.6715763993591061,0.4609390403560253,0.5801037328784611,-0.6771301435998637,0.699662012774252,0.22796455099227694,-0.3007987839940287,-0.545901336283718,0.7819922138943358,0.15727213,-0.0046039848,0.10887328,-1.8088359,0.05991374,-0.16804755,0.05400891,-0.028677221,-0.0007406414,0.0142651815,-0.07071336219521396,-0.715255369683226,-0.6952764748978351,0.961232635049373,-0.23509607188688586,0.14408906377444103,-0.26651724470113974,-0.6581334158988339,0.7041512374158303,-0.04115687,-0.08006568,0.102587394,-0.9618698,0.26246986,0.08458136,2.0205451e-07,5.2737538e-05,-0.016829176,0.010549638,0.5575725862765354,-0.8003229816744075,-0.22044485940180492,0.7604031839875227,0.5989333282917062,-0.25112918198221584,0.3330162290557821,-0.02760422549547943,0.9425169483464271,left_images/camera_left_69.png,right_images/camera_right_69.png
2025-05-27 15:35:07,4.071281671524048,70,-0.1629843,-0.021920139,0.10186234,0.7875542,0.13399868,0.22146578,3.0654243e-07,0.033642206,-0.0008746914,0.019509988,0.677047885443731,0.4680941732561203,0.5678855569389325,-0.6752267923338108,0.7020157280082542,0.22636849724207087,-0.2927028181121002,-0.5367138554133942,0.7913679913141071,0.15664135,-0.005522973,0.10834594,-1.8087503,0.05428985,-0.17161654,0.027342184,-0.029134147,-0.00069704,0.014570979,-0.06958181758466919,-0.7193248411203786,-0.6911802540645644,0.9606577247738998,-0.2350636785281448,0.14792499068464127,-0.2688774934683973,-0.6536947605602779,0.7073811232441767,-0.040621072,-0.08476457,0.10224154,-0.9620577,0.252216,0.08400231,3.3123595e-07,-2.9465416e-05,-0.016370783,0.0110262185,0.5583235266763671,-0.8019534536390153,-0.21247469909643307,0.7583790409963188,0.5971904861763816,-0.2611986856741835,0.33635705691596224,-0.015302987187892317,0.9416101894340138,left_images/camera_left_70.png,right_images/camera_right_70.png
2025-05-27 15:35:07,4.126052379608154,71,-0.15939206,-0.021469746,0.101536706,0.7852757,0.12216482,0.22707677,2.4215322e-07,0.03428014,-0.00081306766,0.019391282,0.6813900076837931,0.47685502210073205,0.5552629515157577,-0.674111148505044,0.7043773439341066,0.22232120189838736,-0.2850996613289652,-0.5257963914384003,0.8014089704142734,0.15265778,-0.0050292662,0.10767242,-1.8076196,0.046105444,-0.17466131,0.0038300208,-0.030004323,-0.000818933,0.014724651,-0.0684456832274602,-0.7276347201935225,-0.6825415023399095,0.9600383629738845,-0.23413119129319043,0.15332621068185207,-0.27136972945770943,-0.6447715093213455,0.7145825149704712,-0.04040731,-0.09112115,0.10170543,-0.96628135,0.24260885,0.08592641,5.630909e-07,-0.000107369386,-0.015792862,0.011754993,0.5552624035706586,-0.805666646014873,-0.20636113655453708,0.7571977031100624,0.5923593119175858,-0.2752491307695084,0.3439989848615556,-0.0034206846784655964,0.9389637891476698,left_images/camera_left_71.png,right_images/camera_right_71.png
2025-05-27 15:35:07,4.193359136581421,72,-0.15486816,-0.021946276,0.10099395,0.78398705,0.11207894,0.23408537,2.519685e-07,0.035121888,-0.0006902303,0.019401085,0.6858748691777417,0.4856925265524001,0.5419210583485032,-0.6733772789267201,0.7059461973070396,0.21955183154092908,-0.2759324266114114,-0.5155024113996718,0.811245067649389,0.14454998,-0.0032322314,0.10685937,-1.80478,0.038354915,-0.17707895,0.00024579116,-0.031308588,-0.0010775821,0.014713078,-0.06680733458369648,-0.7386725550042295,-0.6707455825641684,0.9596691808248159,-0.23155813252643542,0.1594236326141658,-0.2730784565300763,-0.6330431957966165,0.7243510673939522,-0.039372545,-0.09747055,0.100980975,-0.98514533,0.23750697,0.08551983,6.4107195e-07,-1.3709767e-05,-0.015300652,0.012675977,0.5400359803181252,-0.8164898774801872,-0.20421904890149317,0.7639788959552234,0.5773595788172792,-0.288083604675747,0.3531251711459828,-0.00044353164814228685,0.9355759812985782,left_images/camera_left_72.png,right_images/camera_right_72.png
2025-05-27 15:35:07,4.261271953582764,73,-0.14678684,-0.024055332,0.10017343,0.7794729,0.10549882,0.2477552,4.1324571e-07,0.036441363,-0.00049176917,0.019418627,0.6960600604966188,0.49278601101880676,0.5221707953587752,-0.6687474577005988,0.7096579256322173,0.22172610673162538,-0.2612991197850255,-0.5035350791469755,0.8235139307067125,0.13007265,9.709053e-05,0.105813876,-1.7966391,0.033376507,-0.18112926,1.5776846e-05,-0.033264063,-0.0015072948,0.014507309,-0.0606128100721946,-0.752864224989975,-0.6553789331260171,0.959990669167805,-0.22380604188891168,0.16831152879339212,-0.27339349364222665,-0.6189558258424128,0.7363081442506492,-0.037704997,-0.104072906,0.10018121,-1.0209829,0.23948424,0.077347994,5.2581674e-07,0.00024159439,-0.014887979,0.013676128,0.5111607740067979,-0.8346048354154741,-0.20530326791817102,0.7808563106869894,0.5507652999890289,-0.2948236869525558,0.35913519066930055,-0.009610048340359306,0.9332360697025275,left_images/camera_left_73.png,right_images/camera_right_73.png
2025-05-27 15:35:07,4.326753616333008,74,-0.13425393,-0.027476292,0.09921928,0.7650157,0.106496796,0.26396617,5.406355e-07,0.038171086,-0.000274515,0.01932668,0.7138727289383505,0.49189790098450686,0.4984196844880313,-0.6554364690826013,0.7199340967329207,0.22824971272246103,-0.24655377075730286,-0.4896236834226772,0.8363491416609247,0.11065241,0.004952007,0.10457151,-1.7870647,0.035409965,-0.18497287,1.020351e-06,-0.035659716,-0.0020629086,0.014258945,-0.052989026327858735,-0.7657885730619656,-0.6409056283545528,0.9605188761145043,-0.21462439684984247,0.17703066656534705,-0.27312204546055097,-0.6062212711911056,0.7469271173540862,-0.03600138,-0.112074696,0.09937084,-1.0569816,0.2458555,0.0661575,4.04541e-07,0.00055461214,-0.0144204395,0.014730482,0.4819300782333729,-0.8509272093111756,-0.208964791646513,0.7973505745509905,0.5247808827689009,-0.2980555088293108,0.36328427017582426,-0.02297628199227758,0.9313949911335313,left_images/camera_left_74.png,right_images/camera_right_74.png
2025-05-27 15:35:07,4.380341053009033,75,-0.11609696,-0.031576544,0.098210596,0.74419343,0.11470167,0.28157786,6.97675e-07,0.04034663,-9.37765e-05,0.019019421,0.7370589947035426,0.48526600093693595,0.47038382908139686,-0.6357097742763956,0.7340495028984327,0.2388397165130162,-0.22938422181147788,-0.4750665591569643,0.8495261285885828,0.08949924,0.010683479,0.1032512,-1.7758973,0.042853042,-0.18683693,1.0316026e-07,-0.038162913,-0.0026633327,0.014083333,-0.04454550310308758,-0.7764756374534885,-0.6285708254401342,0.9615849706423867,-0.20392481064026363,0.18376347798192383,-0.2708690502585579,-0.5962384221488343,0.7557312363304136,-0.032532707,-0.12029595,0.09860717,-1.0816004,0.24985869,0.055711497,3.8681566e-07,0.0009917862,-0.013943222,0.015740264,0.4620001072649477,-0.8610551003851565,-0.21246179653736497,0.8075395831596006,0.507459766563868,-0.3006067313773312,0.366654772937153,-0.03269096847223127,0.9297825434276298,left_images/camera_left_75.png,right_images/camera_right_75.png
2025-05-27 15:35:07,4.428959608078003,76,-0.09694496,-0.034742482,0.09726531,0.7248275,0.118063904,0.29859993,7.6735546e-07,0.042599887,5.8828387e-05,0.018617436,0.7582352668355251,0.48211487846210554,0.4389128889567142,-0.6175075178850719,0.7470454147516213,0.2461861361937254,-0.2091978620404076,-0.45769901929548307,0.8641457413270491,0.06879705,0.01615452,0.10197413,-1.764414,0.05177356,-0.18827376,7.302308e-08,-0.04056287,-0.0032161577,0.013983179,-0.03580463721089716,-0.78573820892286,-0.6175220603289344,0.9626917574985485,-0.1929633529759321,0.18970957923268347,-0.26822119229947505,-0.5876909148923283,0.7633326801300113,-0.029837213,-0.12707932,0.097998604,-1.1014031,0.25460047,0.047462888,3.6462438e-07,0.0013569052,-0.013563629,0.016558567,0.4457298577401159,-0.8685071707473158,-0.2168413896825715,0.8153417870932989,0.4938837009845053,-0.30215337185170277,0.3695167981817358,-0.04212106672842639,0.9282689004804469,left_images/camera_left_76.png,right_images/camera_right_76.png
2025-05-27 15:35:07,4.48000693321228,77,-0.07816537,-0.036717508,0.09640271,0.7057325,0.11656229,0.31374195,7.5936777e-07,0.044802155,0.00017250562,0.018188946,0.7771125067729137,0.4808614997624989,0.40603986240673273,-0.6004668873509162,0.7597315812245956,0.2494943720509096,-0.18850906877978102,-0.43769868920998145,0.8791383215692761,0.048903156,0.020803045,0.100753866,-1.7538297,0.061076075,-0.18992399,7.0975325e-08,-0.042833664,-0.003673546,0.013949959,-0.027699374478832528,-0.7938391021725284,-0.6074966868349125,0.9635833866487769,-0.1829040418866209,0.19507221338779018,-0.2659695501894074,-0.5799703365892532,0.7699964980755387,-0.028138397,-0.13276054,0.09753199,-1.1193473,0.26171538,0.04145444,3.727233e-07,0.001661645,-0.013250518,0.01721463,0.43056018604022234,-0.8744767866394254,-0.2234016021110737,0.8220165380464508,0.48214465085226915,-0.30302697377077137,0.3727019417378147,-0.053168461359426544,0.926426671324576,left_images/camera_left_77.png,right_images/camera_right_77.png
2025-05-27 15:35:07,4.530953407287598,78,-0.059771396,-0.038002748,0.095595725,0.6861037,0.11228661,0.3247588,6.5590683e-07,0.046935193,0.00028492324,0.017774187,0.7934133482908453,0.47974902403890207,0.3746146455861419,-0.5843814184442023,0.7725499020111288,0.2483243980758582,-0.17027512011756687,-0.41594173009727714,0.8933078196414895,0.02984091,0.024453022,0.099555515,-1.7429048,0.06948899,-0.19358924,8.731825e-08,-0.0450122,-0.0040430506,0.013994681,-0.018424721631954744,-0.8017279360908977,-0.597405093821784,0.9641273431453771,-0.17249309231991727,0.20175380864149436,-0.26479991660161306,-0.5722573281255051,0.7761459621581733,-0.027174726,-0.1376868,0.09715852,-1.1353486,0.26994452,0.037681423,4.2997516e-07,0.0019147643,-0.012974164,0.01776521,0.41662782315546615,-0.8791851608753484,-0.23120274624088155,0.8273953505114123,0.4720877386139873,-0.3042204809055905,0.37661411408075873,-0.0645493605461701,0.9241186012240236,left_images/camera_left_78.png,right_images/camera_right_78.png
2025-05-27 15:35:07,4.589685678482056,79,-0.040931873,-0.03977893,0.09481403,0.6642516,0.112035535,0.33149663,5.589027e-07,0.049028534,0.00041874382,0.01739839,0.8090172388889025,0.47435341628243866,0.34710220921474433,-0.5666802609889324,0.7862691793981618,0.24628085458284615,-0.1560916044702345,-0.3959414274734598,0.9049120382800678,0.011028529,0.0273883,0.09833096,-1.732938,0.07688588,-0.19934188,1.0091899e-07,-0.04717323,-0.0043539903,0.014121462,-0.009092705330615902,-0.809675805550208,-0.5868069636740794,0.9640255304091387,-0.16299844481781245,0.20996733961822087,-0.26565409733175455,-0.5637877232554787,0.7820302447330629,-0.0268456,-0.14191405,0.09685976,-1.1511118,0.27996358,0.036120374,5.459088e-07,0.0021409895,-0.012732446,0.01823331,0.40235337074035593,-0.883201378762794,-0.24097113853192814,0.8321413929442477,0.4625567664636058,-0.30591165382760577,0.38164442509053015,-0.07743747381102585,0.9210596997193428,left_images/camera_left_79.png,right_images/camera_right_79.png
2025-05-27 15:35:07,4.640065431594849,80,-0.023570454,-0.04205268,0.094129376,0.6452482,0.114965856,0.33555037,4.9287416e-07,0.050889406,0.0005704495,0.0170924,0.8219013305620956,0.46785729647671054,0.3249426917992779,-0.550953529511536,0.7977974899814613,0.24488644980492824,-0.1446665515557701,-0.3803008218670897,0.9134784473364317,-0.006236517,0.03002439,0.09721599,-1.723888,0.08372068,-0.20483832,1.0187517e-07,-0.04913192,-0.004631689,0.014276639,-0.0004904417872775291,-0.8167584014476474,-0.5769796124054443,0.9637144643864437,-0.15440201544697785,0.21774859071475267,-0.2669348058968761,-0.5559368051232034,0.7871976105846626,-0.026831247,-0.14511096,0.09664336,-1.1649833,0.28946745,0.035383243,5.310054e-07,0.002326074,-0.012548915,0.018589195,0.38958050440757136,-0.8863494374813534,-0.2502233107886448,0.8361665668769582,0.4542846925607709,-0.3073286360594586,0.38607318350637043,-0.08949912167979249,0.91811622586457,left_images/camera_left_80.png,right_images/camera_right_80.png
2025-05-27 15:35:07,4.6892571449279785,81,-0.009177181,-0.04441355,0.09360059,0.62773454,0.11946004,0.3366425,4.1203813e-07,0.05238122,0.00072578806,0.016848579,0.8325735194435989,0.45988130710331954,0.30875640576066016,-0.5365306525954401,0.8080910710795001,0.24315361331285498,-0.13768149311657774,-0.36810053547710114,0.9195356448961949,-0.020765075,0.032288045,0.096353464,-1.7150323,0.0898037,-0.2098969,1.02857506e-07,-0.050725587,-0.004874192,0.014377939,0.008129255664251378,-0.8225488041782199,-0.568636421580016,0.963377194537604,-0.1459775503915265,0.22493318080386646,-0.2680266707758777,-0.549639899867786,0.7912380705111005,-0.026727665,-0.14751436,0.096493565,-1.176418,0.29817364,0.03517329,4.809057e-07,0.0025027613,-0.012410164,0.01885385,0.37885345647209595,-0.8885054499946563,-0.25889790236488763,0.8393171922079086,0.44773067001653716,-0.30835677062580463,0.38989320253548676,-0.10047543210325544,0.9153622114552719,left_images/camera_left_81.png,right_images/camera_right_81.png
2025-05-27 15:35:07,4.739417314529419,82,0.00089837227,-0.04642624,0.09326741,0.6112857,0.12358646,0.33691046,3.1552756e-07,0.053407654,0.0008623577,0.016660728,0.8417294839162335,0.4507775300272763,0.29713817379902513,-0.5229611015204203,0.8175104696116956,0.24122254946794264,-0.134175862965961,-0.3584358387463137,0.9238617793260887,-0.031173553,0.03385429,0.095836066,-1.7068006,0.09376047,-0.21437654,9.635731e-08,-0.05182103,-0.0050571105,0.014376292,0.016311548420546995,-0.8270320328451274,-0.5619180990466317,0.9630614720341598,-0.13808123984724158,0.23118428209038308,-0.26878715458801483,-0.5449326452418726,0.7942303681414946,-0.026629977,-0.14930966,0.09639029,-1.1858851,0.30580077,0.035073597,4.2095078e-07,0.0026570158,-0.012306182,0.019050062,0.3698971033943754,-0.8900278503754805,-0.2665080832853889,0.8418891052365264,0.4424199409503645,-0.3090102430883429,0.39293621286983915,-0.11006825793786786,0.9129546052296529,left_images/camera_left_82.png,right_images/camera_right_82.png
2025-05-27 15:35:07,4.793838977813721,83,0.0055928775,-0.047698565,0.093154125,0.59537655,0.124338455,0.3361766,2.1934895e-07,0.053894088,0.0009911777,0.016520694,0.8491550948177379,0.44147243097840616,0.28989259671660395,-0.5105992708201191,0.8265246098209406,0.23695031968390562,-0.13499633173920605,-0.3492265196779289,0.9272630847664538,-0.036044717,0.034630913,0.09567814,-1.6989003,0.09373421,-0.21846168,8.3327315e-08,-0.05232807,-0.005179989,0.01428945,0.02441333380678945,-0.8305298300620637,-0.5564388470528616,0.9627711352774432,-0.13035721008147239,0.23680949908388002,-0.2692131687139795,-0.5415045698393085,0.7964276932867942,-0.026632942,-0.1506456,0.096320495,-1.1944712,0.31287563,0.035518583,4.1191203e-07,0.0027918527,-0.012224504,0.0191987,0.3616018356591012,-0.8912635520877729,-0.2736665729822596,0.8441098339699115,0.43760040763766883,-0.3098136075620868,0.3958821802547534,-0.11897547627655088,0.9105614396631955,left_images/camera_left_83.png,right_images/camera_right_83.png
2025-05-27 15:35:07,4.842444658279419,84,0.00483391,-0.048374474,0.09326156,0.5833151,0.12054431,0.33619305,1.11538014e-07,0.05384498,0.0011330848,0.016419172,0.8537153984293477,0.4351010394298871,0.28610680518235143,-0.5021150848724537,0.8334303271704738,0.2308123291681915,-0.1380234039145128,-0.3407065823249513,0.9299830991648732,-0.0351548,0.03452668,0.09579954,-1.6910655,0.089147076,-0.2233553,7.8947586e-08,-0.05227809,-0.0052433396,0.014185183,0.033211178450922696,-0.8332799624147337,-0.5518528081508703,0.9622874340124973,-0.12250474473192313,0.24288985540736446,-0.269999836976886,-0.5391076810399447,0.7977863099077274,-0.026771419,-0.15163994,0.096274465,-1.2020273,0.31941622,0.035977956,3.6842334e-07,0.0029023401,-0.012164014,0.0193108,0.3542627471736336,-0.8921991854458216,-0.28014017822297904,0.8460753318259595,0.43339772984247205,-0.31035937337703157,0.39831449740196784,-0.12707093002415576,0.9084043922737348,left_images/camera_left_84.png,right_images/camera_right_84.png
2025-05-27 15:35:07,4.892923593521118,85,-0.0006670722,-0.0490263,0.09356306,0.5745246,0.11486694,0.33942422,9.5088495e-08,0.053331602,0.0012925391,0.01636111,0.8567512186417705,0.4304333733678995,0.2840853048768478,-0.4960284884819422,0.8385339371501098,0.2254253199218208,-0.1411845882883852,-0.3340478219337255,0.9319221881097011,-0.029862484,0.033625342,0.09612115,-1.6822077,0.08402954,-0.22605947,5.334175e-08,-0.051763352,-0.0052167485,0.014100879,0.04235764593085073,-0.8339249177503637,-0.5502499989879565,0.9625493389678453,-0.11354787539999611,0.24618214810321085,-0.26777714593251034,-0.540070469056767,0.7978842576270339,-0.027056564,-0.15243366,0.09624912,-1.2089133,0.32608345,0.03547226,2.956364e-07,0.0029956715,-0.012123834,0.019392405,0.3478173743797382,-0.8928127196436976,-0.2861966486910865,0.848176213286253,0.42971768467152566,-0.3097415417665765,0.3995249495275328,-0.13501169994843915,0.9067257885281829,left_images/camera_left_85.png,right_images/camera_right_85.png
2025-05-27 15:35:07,4.9446282386779785,86,-0.010226696,-0.049266882,0.09400477,0.5700429,0.104295105,0.3440854,1.14454295e-07,0.05244073,0.0014813943,0.01635506,0.857067230884513,0.4300657681742358,0.2836885559705528,-0.49441129166651543,0.8414142168621441,0.21812746350451268,-0.1448904290027494,-0.3272087265140849,0.9337779248174751,-0.020903643,0.031760253,0.09659101,-1.6771417,0.07591897,-0.228794,2.7084976e-08,-0.050897054,-0.005097282,0.014038555,0.04819801452772099,-0.8338150281254267,-0.5499358601398705,0.9625938233331167,-0.10819427777133733,0.2484091977734946,-0.26662723543651357,-0.5413376923231306,0.7974104465040256,-0.027441949,-0.15305589,0.096235156,-1.2137693,0.33200836,0.03418831,1.7706652e-07,0.0030607397,-0.01210414,0.019448899,0.3435301904311364,-0.8928962623173898,-0.29107262496150677,0.8499249902464653,0.4274348709974153,-0.308102161644427,0.3995178584455179,-0.1415475036694669,0.9057316296718633,left_images/camera_left_86.png,right_images/camera_right_86.png
2025-05-27 15:35:07,5.015579700469971,87,-0.023753464,-0.049672518,0.09462493,0.5691442,0.09335139,0.34974775,1.7775065e-07,0.051122848,0.0016912774,0.016404066,0.8553677072037633,0.43133082743915824,0.2868794220114585,-0.49572706438619524,0.8422888206329221,0.21167007410554425,-0.1503355018218333,-0.32326963967785877,0.9342890221738267,-0.007639991,0.028358677,0.09724556,-1.6748178,0.06284124,-0.2332299,2.3211165e-08,-0.049633276,-0.0048473827,0.0139927175,0.052053718077076705,-0.8337814229784508,-0.5496352873773499,0.9622429548185503,-0.10536792151163882,0.2509703110297762,-0.2671683108761549,-0.5419466208145844,0.7968155080388655,-0.02779343,-0.15352915,0.0962272,-1.2176125,0.33685654,0.0330409,7.19046e-08,0.0031099492,-0.012091195,0.019490302,0.34018163681576125,-0.8928912749931419,-0.2949942796300819,0.8513449794029098,0.4256596375488249,-0.30663593887093915,0.3993597125635094,-0.1468299833239945,0.9049600963458371,left_images/camera_left_87.png,right_images/camera_right_87.png
2025-05-27 15:35:08,5.067878246307373,88,-0.040653292,-0.05011543,0.095449306,0.5764342,0.080744125,0.36031088,1.8707377e-07,0.049438637,0.0019013562,0.016469445,0.8506941740066492,0.4382935593568831,0.2902036838798212,-0.5031911009378591,0.8386712570847695,0.2083968293347997,-0.15204650028228248,-0.3233098797842818,0.9339981709756091,0.010652246,0.023693731,0.09810189,-1.6744817,0.044284724,-0.23714393,2.410131e-09,-0.047903053,-0.0044733826,0.013997331,0.0535214210747153,-0.8337921540158532,-0.5494780263010949,0.9620371520890872,-0.10441829738394492,0.2521534000797063,-0.2676190865511303,-0.542113883859325,0.7965504136214461,-0.028131368,-0.15387778,0.09622365,-1.2212846,0.34112698,0.03198005,4.7367074e-08,0.0031508622,-0.01208291,0.01952201,0.3369844466102013,-0.8929592746787812,-0.2984379609030351,0.8527123351721145,0.423846340850327,-0.30534562841656654,0.39915304857677825,-0.15158500292883037,0.9042670129441472,left_images/camera_left_88.png,right_images/camera_right_88.png
2025-05-27 15:35:08,5.120728015899658,89,-0.059098322,-0.05021151,0.09640456,0.5855835,0.06747492,0.37331372,1.8305246e-07,0.04756469,0.0020759813,0.016537081,0.8455858614966235,0.4462769924732241,0.2929528918206251,-0.5117662560018144,0.8338294032038385,0.20693918326555735,-0.1519205386210122,-0.3249082521909598,0.933463859827105,0.029816011,0.018929748,0.099029385,-1.6774099,0.030263502,-0.24003485,1.3512328e-08,-0.045972936,-0.004062207,0.014075136,0.05269547231118599,-0.8305656358805126,-0.55442214213747,0.9619090593800864,-0.10691666214237056,0.25159449286272473,-0.26824270480372536,-0.5465615718752409,0.7932945855537195,-0.028422864,-0.1541292,0.0962223,-1.2245997,0.34452733,0.031151801,5.008256e-08,0.0031820994,-0.012075534,0.019546032,0.33407049253386484,-0.8931257072638934,-0.3012032155249203,0.8539131238032474,0.42207509426686,-0.3044420992507469,0.3990354408003897,-0.15549625662372663,0.903654597266703,left_images/camera_left_89.png,right_images/camera_right_89.png
2025-05-27 15:35:08,5.177103757858276,90,-0.079614766,-0.04974507,0.097485974,0.59576964,0.05352736,0.38831204,1.8798227e-07,0.045453623,0.0021940125,0.016651256,0.8402627701707415,0.45438729955504625,0.29578819967683695,-0.5207794853443524,0.8281692435822652,0.2071821218851913,-0.15082176470742953,-0.32812785006373874,0.9325153667919287,0.049163204,0.013916051,0.0999652,-1.682772,0.018159602,-0.24350946,9.667652e-09,-0.0439755,-0.003617575,0.014226664,0.05048584869309447,-0.8258989720012,-0.5615532629493835,0.9614608908261235,-0.11196529814814571,0.2511109862639108,-0.2702667839257631,-0.552589051699324,0.7884168982514688,-0.028633805,-0.15432253,0.09622127,-1.2268308,0.34684885,0.0304433,3.5549963e-08,0.0032018963,-0.012069765,0.01956319,0.33215786073940007,-0.8932198022394843,-0.30303389321374996,0.8547525830795807,0.42089369510411095,-0.303721120668933,0.3988347743963786,-0.15813564528234864,0.9032850825865141,left_images/camera_left_90.png,right_images/camera_right_90.png
2025-05-27 15:35:08,5.2287914752960205,91,-0.101032205,-0.04917697,0.0986706,0.60473156,0.04093296,0.40370235,1.9925254e-07,0.043188836,0.0022821925,0.016793909,0.8356639362082912,0.46046337139001736,0.29939817856661055,-0.5282916992392449,0.8229834176655088,0.20882091552933582,-0.1502453534581894,-0.3326736807379534,0.9309965391495749,0.06938443,0.008360337,0.10094327,-1.6889755,0.00429787,-0.24683441,1.2962115e-08,-0.041891202,-0.0031123646,0.0144251175,0.047144948864554725,-0.8215235584659202,-0.5682221367405978,0.9609746231806708,-0.11793440383769149,0.25023838633234563,-0.27258966854839983,-0.5578445296647987,0.7839032805925317,-0.028688757,-0.15448147,0.096217014,-1.2270794,0.34731576,0.029426018,6.339325e-08,0.0032017194,-0.012067612,0.019570911,0.33223254122000306,-0.8931754907432321,-0.3030826311257138,0.8550797975164912,0.42083771470105547,-0.30287647278114815,0.39807044405940956,-0.15853441462590878,0.9035523011677659,left_images/camera_left_91.png,right_images/camera_right_91.png
2025-05-27 15:35:08,5.2874596118927,92,-0.12102524,-0.048956048,0.09988318,0.6170571,0.030460559,0.41737148,2.0457736e-07,0.04097213,0.0023697845,0.016913133,0.829552294322397,0.4679303829353279,0.30476900713564176,-0.5381027774879389,0.8157204068112024,0.2122395315946875,-0.14929297319101514,-0.34006083961221417,0.9284773737243267,0.08863064,0.0026940268,0.10196052,-1.6949064,-0.010412817,-0.24875009,2.7485871e-08,-0.03986788,-0.0025770771,0.014574885,0.04274953685887156,-0.8180942323813369,-0.5734930723581089,0.9607818760149756,-0.1237561162164148,0.24815843814017963,-0.27399026227130063,-0.5616104082399296,0.7807195946926679,-0.028646134,-0.15462364,0.096211344,-1.225975,0.3468142,0.028448999,1.0098545e-07,0.0031927533,-0.012066759,0.019574076,0.3335785764824547,-0.8929551366321421,-0.30225230730998814,0.854984040365583,0.4216308431535629,-0.3020425844508663,0.3971493724432688,-0.15766596355551193,0.9041094070432127,left_images/camera_left_92.png,right_images/camera_right_92.png
2025-05-27 15:35:08,5.339723587036133,93,-0.13883255,-0.049201332,0.101081245,0.63045096,0.02133296,0.42970738,1.890964e-07,0.038907465,0.002483753,0.016980622,0.8229824483241177,0.47597620676044106,0.3100750559919042,-0.5485814656230549,0.8076499686370688,0.21624038414552113,-0.14750683145299306,-0.34806346943981836,0.9257934736841769,0.106896706,-0.003456294,0.10307083,-1.7016618,-0.025352456,-0.25040182,3.3353846e-08,-0.03786198,-0.0019799566,0.014638665,0.03699143571759961,-0.8151379299050573,-0.5780845862965459,0.960559525768581,-0.13053661764172148,0.24553123815494013,-0.2756030318026085,-0.5643672090800076,0.7781597664852979,-0.028539682,-0.15486452,0.096196,-1.2245139,0.34554473,0.02746037,1.064735e-07,0.0031769904,-0.012057481,0.019586772,0.33527396660206255,-0.8928243573620347,-0.30075909665376477,0.854729901348396,0.42253300165312846,-0.30150067703897176,0.39626779210513696,-0.1559824650884416,0.9047879903740174,left_images/camera_left_93.png,right_images/camera_right_93.png
2025-05-27 15:35:08,5.388211488723755,94,-0.15377463,-0.049768645,0.10219546,0.6404895,0.01406049,0.4405303,1.7111212e-07,0.037099242,0.0026147405,0.016991274,0.8180910866881609,0.48173298231190004,0.31410238399965457,-0.5562746746451553,0.8014306865774331,0.21969829530620083,-0.14589537425775506,-0.35446041861526184,0.9236191592887637,0.12293067,-0.009176958,0.10418955,-1.7105298,-0.037662756,-0.25095907,3.9296054e-08,-0.03598543,-0.0014030212,0.014631854,0.029170582656330823,-0.8116393803494845,-0.5834300244017231,0.9601677791123436,-0.13951942646992976,0.24209949523278984,-0.27789730668352997,-0.5672528941340069,0.7752401183082782,-0.028515287,-0.15532918,0.0961609,-1.2241292,0.34524074,0.02792382,1.2984287e-07,0.00317621,-0.012025721,0.019636463,0.3355123949510581,-0.8927774679472058,-0.30063237610074695,0.854282271552891,0.42284974103019524,-0.30232415884465663,0.3970305194120945,-0.15539140657215433,0.9045552926266529,left_images/camera_left_94.png,right_images/camera_right_94.png
2025-05-27 15:35:08,5.442399263381958,95,-0.16504638,-0.050528374,0.10314152,0.6503537,0.007861623,0.44900855,1.513202e-07,0.035664268,0.0027536463,0.0169417,0.813222658984537,0.4879542612681807,0.31712701843952634,-0.5639668068845982,0.7952264396650274,0.2226125566765612,-0.1435630441531176,-0.3598826872300318,0.9218861663923488,0.13631186,-0.014044908,0.10523138,-1.7199831,-0.046231136,-0.249457,5.0724843e-08,-0.03431342,-0.0008817535,0.014589639,0.020283904141624176,-0.8073739168569956,-0.5896913782749131,0.9599560947030215,-0.14910918087855357,0.23717240231580627,-0.2794152098138132,-0.5708886148424402,0.7720189958595467,-0.028623901,-0.15574943,0.096127674,-1.2240618,0.34568807,0.028360192,9.067077e-08,0.003175299,-0.012001552,0.019685194,0.33546222067988807,-0.8926491228811655,-0.3010691646715159,0.8539742064487781,0.42307959872296896,-0.30287242836645256,0.3977350289032868,-0.15550304358403375,0.9042265480616041,left_images/camera_left_95.png,right_images/camera_right_95.png
2025-05-27 15:35:08,5.492347478866577,96,-0.17207235,-0.051293653,0.10380271,0.6583893,0.003568238,0.4541784,1.273239e-07,0.034719504,0.0028747965,0.016868614,0.8091079895666596,0.4932971696329314,0.3193777757633381,-0.5703497111259739,0.7901165585222989,0.22453737098175172,-0.14158201947251753,-0.3638320029643043,0.9206415183887082,0.14714137,-0.018015187,0.10613231,-1.7288691,-0.053851042,-0.24687478,5.582677e-08,-0.032924347,-0.00044088718,0.01452525,0.01125735612196932,-0.8040500808233353,-0.5944549936379804,0.959761540124052,-0.158131234077933,0.2320609810108058,-0.28059055228544455,-0.5731474333336737,0.769916204291851,-0.028697567,-0.15610611,0.0960994,-1.2239989,0.3457718,0.028990554,1.0387893e-07,0.0031721494,-0.011976772,0.019726757,0.33535133059744093,-0.8926196604988911,-0.30127998067805734,0.8536266204785338,0.42320136023141364,-0.3036810852007066,0.39857380480523735,-0.15534075572471623,0.9038850434286159,left_images/camera_left_96.png,right_images/camera_right_96.png
2025-05-27 15:35:08,5.541845083236694,97,-0.17492335,-0.05198367,0.10411227,0.6658635,0.00050184526,0.45589092,9.425418e-08,0.034309477,0.002972862,0.016809246,0.8049972825163151,0.4989411552540743,0.32099392320584097,-0.5766011268176883,0.7853475522377396,0.2253006052960415,-0.13968004758704705,-0.3664518328347128,0.9198926777174388,0.15522778,-0.021102862,0.10684741,-1.737132,-0.05985443,-0.24363893,5.716235e-08,-0.031857032,-8.467538e-05,0.014454441,0.0024349712254250755,-0.8014398838045357,-0.598070383452068,0.9595515918730478,-0.166498596975371,0.22702193669144113,-0.28152231430036073,-0.57443218037694,0.7686174970024839,-0.028746935,-0.15643063,0.09607499,-1.2235897,0.34580308,0.029617809,8.886919e-08,0.003169966,-0.011954864,0.01976261,0.3355635286244549,-0.892487446055457,-0.30143536104862,0.8531873217339849,0.4235889082345375,-0.3043744911339681,0.3993350877264532,-0.15504385010080174,0.9035999625146217,left_images/camera_left_97.png,right_images/camera_right_97.png
